(G-CODE GENERATED BY FLATCAM v8.994 - www.flatcam.org - Version Date: 2020/11/7)

(Name: MicAmp-F_Cu.gbr_iso_combined_cnc)
(Type: G-code from Geometry)
(Units: MM)

(Created on Tuesday, 17 October 2023 at 16:55)

(This preprocessor is used with a motion controller loaded with GRBL firmware.)
(It is configured to be compatible with almost any version of GRBL firmware.)

(TOOL DIAMETER: 0.1839 mm)
(Feedrate_XY: 30.0 mm/min)
(Feedrate_Z: 10.0 mm/min)
(Feedrate rapids 1500.0 mm/min)

(Z_Cut: -0.05 mm)
(DepthPerCut: 0.05 mm <=>1 passes)
(Z_Move: 2.0 mm)
(Z Start: None mm)
(Z End: 15.0 mm)
(X,Y End: None mm)
(Steps per circle: 64)
(Steps per circle: 64)
(Preprocessor Geometry: GRBL_11_no_M6)

(X range:   -0.2570 ...  100.2570  mm)
(Y range:  -55.2570 ...    0.2570  mm)

(Spindle Speed: 12000.0 RPM)
G21
G90
G17
G94


G01 F30.00

M5             
G00 Z15.0000
G00 X0.0000 Y0.0000                
T2
(MSG, Change to Tool Dia = 0.1839)
M0
G00 Z15.0000
        
G00 Z2.0000
M03 S12000.0
G4 P1.0
G01 F30.00
G00 X-0.0914 Y-0.1245
G01 F10.00
G01 Z-0.0500
G01 F30.00
G01 X-0.0914 Y-54.8755 F30.00
G01 X-0.0910 Y-54.8842 F30.00
G01 X-0.0898 Y-54.8929 F30.00
G01 X-0.0776 Y-54.9488 F30.00
G01 X-0.0742 Y-54.9598 F30.00
G01 X-0.0715 Y-54.9661 F30.00
G01 X-0.0684 Y-54.9722 F30.00
G01 X-0.0634 Y-54.9800 F30.00
G01 X-0.0593 Y-54.9855 F30.00
G01 X-0.0105 Y-55.0417 F30.00
G01 X-0.0057 Y-55.0466 F30.00
G01 X0.0012 Y-55.0526 F30.00
G01 X0.0068 Y-55.0565 F30.00
G01 X0.0126 Y-55.0601 F30.00
G01 X0.0208 Y-55.0642 F30.00
G01 X0.0294 Y-55.0674 F30.00
G01 X0.1007 Y-55.0883 F30.00
G01 X0.1114 Y-55.0905 F30.00
G01 X0.1245 Y-55.0914 F30.00
G01 X99.8755 Y-55.0914 F30.00
G01 X99.8842 Y-55.0910 F30.00
G01 X99.8929 Y-55.0898 F30.00
G01 X99.9488 Y-55.0776 F30.00
G01 X99.9598 Y-55.0742 F30.00
G01 X99.9661 Y-55.0715 F30.00
G01 X99.9722 Y-55.0684 F30.00
G01 X99.9781 Y-55.0647 F30.00
G01 X99.9855 Y-55.0593 F30.00
G01 X100.0417 Y-55.0105 F30.00
G01 X100.0482 Y-55.0040 F30.00
G01 X100.0526 Y-54.9988 F30.00
G01 X100.0565 Y-54.9932 F30.00
G01 X100.0601 Y-54.9874 F30.00
G01 X100.0642 Y-54.9792 F30.00
G01 X100.0674 Y-54.9706 F30.00
G01 X100.0883 Y-54.8993 F30.00
G01 X100.0908 Y-54.8864 F30.00
G01 X100.0914 Y-54.8755 F30.00
G01 X100.0914 Y-0.1245 F30.00
G01 X100.0910 Y-0.1158 F30.00
G01 X100.0898 Y-0.1071 F30.00
G01 X100.0776 Y-0.0512 F30.00
G01 X100.0757 Y-0.0446 F30.00
G01 X100.0734 Y-0.0381 F30.00
G01 X100.0684 Y-0.0278 F30.00
G01 X100.0634 Y-0.0200 F30.00
G01 X100.0593 Y-0.0145 F30.00
G01 X100.0105 Y0.0417 F30.00
G01 X100.0057 Y0.0466 F30.00
G01 X99.9988 Y0.0526 F30.00
G01 X99.9932 Y0.0565 F30.00
G01 X99.9874 Y0.0601 F30.00
G01 X99.9792 Y0.0642 F30.00
G01 X99.9706 Y0.0674 F30.00
G01 X99.8993 Y0.0883 F30.00
G01 X99.8886 Y0.0905 F30.00
G01 X99.8755 Y0.0914 F30.00
G01 X0.1245 Y0.0914 F30.00
G01 X0.1158 Y0.0910 F30.00
G01 X0.1071 Y0.0898 F30.00
G01 X0.0534 Y0.0781 F30.00
G01 X0.0424 Y0.0750 F30.00
G01 X0.0318 Y0.0705 F30.00
G01 X0.0238 Y0.0660 F30.00
G01 X0.0145 Y0.0593 F30.00
G01 X-0.0450 Y0.0074 F30.00
G01 X-0.0511 Y0.0006 F30.00
G01 X-0.0578 Y-0.0087 F30.00
G01 X-0.0632 Y-0.0187 F30.00
G01 X-0.0666 Y-0.0272 F30.00
G01 X-0.0889 Y-0.1028 F30.00
G01 X-0.0908 Y-0.1136 F30.00
G01 X-0.0914 Y-0.1245 F30.00
G00 Z2.0000
G00 X-0.2570 Y-0.1245
G01 F10.00
G01 Z-0.0500
G01 F30.00
G01 X-0.2570 Y-54.8755 F30.00
G01 X-0.2563 Y-54.8939 F30.00
G01 X-0.2551 Y-54.9061 F30.00
G01 X-0.2534 Y-54.9182 F30.00
G01 X-0.2511 Y-54.9302 F30.00
G01 X-0.2384 Y-54.9880 F30.00
G01 X-0.2332 Y-55.0066 F30.00
G01 X-0.2265 Y-55.0247 F30.00
G01 X-0.2213 Y-55.0365 F30.00
G01 X-0.2125 Y-55.0536 F30.00
G01 X-0.2024 Y-55.0700 F30.00
G01 X-0.1950 Y-55.0806 F30.00
G01 X-0.1870 Y-55.0907 F30.00
G01 X-0.1371 Y-55.1484 F30.00
G01 X-0.1285 Y-55.1579 F30.00
G01 X-0.1147 Y-55.1712 F30.00
G01 X-0.1000 Y-55.1835 F30.00
G01 X-0.0844 Y-55.1947 F30.00
G01 X-0.0680 Y-55.2046 F30.00
G01 X-0.0567 Y-55.2106 F30.00
G01 X-0.0451 Y-55.2160 F30.00
G01 X-0.0273 Y-55.2229 F30.00
G01 X-0.0151 Y-55.2268 F30.00
G01 X0.0579 Y-55.2482 F30.00
G01 X0.0758 Y-55.2523 F30.00
G01 X0.0939 Y-55.2551 F30.00
G01 X0.1122 Y-55.2567 F30.00
G01 X0.1245 Y-55.2570 F30.00
G01 X99.8755 Y-55.2570 F30.00
G01 X99.8939 Y-55.2563 F30.00
G01 X99.9061 Y-55.2551 F30.00
G01 X99.9182 Y-55.2534 F30.00
G01 X99.9302 Y-55.2511 F30.00
G01 X99.9880 Y-55.2384 F30.00
G01 X100.0066 Y-55.2332 F30.00
G01 X100.0247 Y-55.2265 F30.00
G01 X100.0365 Y-55.2213 F30.00
G01 X100.0536 Y-55.2125 F30.00
G01 X100.0700 Y-55.2024 F30.00
G01 X100.0806 Y-55.1950 F30.00
G01 X100.0907 Y-55.1870 F30.00
G01 X100.1484 Y-55.1371 F30.00
G01 X100.1579 Y-55.1285 F30.00
G01 X100.1712 Y-55.1147 F30.00
G01 X100.1835 Y-55.1000 F30.00
G01 X100.1947 Y-55.0844 F30.00
G01 X100.2046 Y-55.0680 F30.00
G01 X100.2133 Y-55.0509 F30.00
G01 X100.2184 Y-55.0392 F30.00
G01 X100.2229 Y-55.0273 F30.00
G01 X100.2268 Y-55.0151 F30.00
G01 X100.2482 Y-54.9421 F30.00
G01 X100.2523 Y-54.9242 F30.00
G01 X100.2551 Y-54.9061 F30.00
G01 X100.2563 Y-54.8939 F30.00
G01 X100.2570 Y-54.8755 F30.00
G01 X100.2570 Y-0.1245 F30.00
G01 X100.2567 Y-0.1122 F30.00
G01 X100.2558 Y-0.1000 F30.00
G01 X100.2534 Y-0.0818 F30.00
G01 X100.2511 Y-0.0698 F30.00
G01 X100.2384 Y-0.0120 F30.00
G01 X100.2332 Y0.0066 F30.00
G01 X100.2265 Y0.0247 F30.00
G01 X100.2213 Y0.0365 F30.00
G01 X100.2125 Y0.0536 F30.00
G01 X100.2024 Y0.0700 F30.00
G01 X100.1950 Y0.0806 F30.00
G01 X100.1870 Y0.0907 F30.00
G01 X100.1371 Y0.1484 F30.00
G01 X100.1285 Y0.1579 F30.00
G01 X100.1147 Y0.1712 F30.00
G01 X100.1000 Y0.1835 F30.00
G01 X100.0844 Y0.1947 F30.00
G01 X100.0680 Y0.2046 F30.00
G01 X100.0509 Y0.2133 F30.00
G01 X100.0392 Y0.2184 F30.00
G01 X100.0273 Y0.2229 F30.00
G01 X100.0151 Y0.2268 F30.00
G01 X99.9421 Y0.2482 F30.00
G01 X99.9242 Y0.2523 F30.00
G01 X99.9121 Y0.2543 F30.00
G01 X99.8939 Y0.2563 F30.00
G01 X99.8755 Y0.2570 F30.00
G01 X0.1245 Y0.2570 F30.00
G01 X0.1061 Y0.2563 F30.00
G01 X0.0939 Y0.2551 F30.00
G01 X0.0818 Y0.2534 F30.00
G01 X0.0183 Y0.2399 F30.00
G01 X0.0058 Y0.2368 F30.00
G01 X-0.0066 Y0.2332 F30.00
G01 X-0.0187 Y0.2289 F30.00
G01 X-0.0365 Y0.2213 F30.00
G01 X-0.0480 Y0.2156 F30.00
G01 X-0.0647 Y0.2059 F30.00
G01 X-0.0754 Y0.1987 F30.00
G01 X-0.0857 Y0.1910 F30.00
G01 X-0.0956 Y0.1829 F30.00
G01 X-0.1484 Y0.1371 F30.00
G01 X-0.1624 Y0.1240 F30.00
G01 X-0.1754 Y0.1099 F30.00
G01 X-0.1835 Y0.1000 F30.00
G01 X-0.1911 Y0.0897 F30.00
G01 X-0.1981 Y0.0790 F30.00
G01 X-0.2046 Y0.0680 F30.00
G01 X-0.2106 Y0.0567 F30.00
G01 X-0.2160 Y0.0451 F30.00
G01 X-0.2208 Y0.0333 F30.00
G01 X-0.2268 Y0.0151 F30.00
G01 X-0.2465 Y-0.0520 F30.00
G01 X-0.2511 Y-0.0698 F30.00
G01 X-0.2534 Y-0.0818 F30.00
G01 X-0.2558 Y-0.1000 F30.00
G01 X-0.2567 Y-0.1122 F30.00
G01 X-0.2570 Y-0.1245 F30.00
G00 Z2.0000
G00 X15.3769 Y-11.2902
G01 F10.00
G01 Z-0.0500
G01 F30.00
G01 X15.3769 Y-12.2425 F30.00
G01 X15.3785 Y-12.2737 F30.00
G01 X15.3839 Y-12.3091 F30.00
G01 X15.3923 Y-12.3416 F30.00
G01 X15.4020 Y-12.3690 F30.00
G01 X15.4078 Y-12.3817 F30.00
G01 X15.4078 Y-13.1682 F30.00
G01 X15.3961 Y-13.1727 F30.00
G01 X15.3698 Y-13.1851 F30.00
G01 X15.3372 Y-13.2047 F30.00
G01 X15.3121 Y-13.2234 F30.00
G01 X15.2905 Y-13.2428 F30.00
G01 X15.2841 Y-13.2492 F30.00
G01 X15.2661 Y-13.2690 F30.00
G01 X15.2447 Y-13.2977 F30.00
G01 X15.2297 Y-13.3226 F30.00
G01 X15.2254 Y-13.3305 F30.00
G01 X15.2131 Y-13.3568 F30.00
G01 X15.2032 Y-13.3842 F30.00
G01 X15.2006 Y-13.3928 F30.00
G01 X15.1936 Y-13.4210 F30.00
G01 X15.1887 Y-13.4542 F30.00
G01 X15.1871 Y-13.4877 F30.00
G01 X15.1871 Y-14.0150 F30.00
G01 X15.1887 Y-14.0462 F30.00
G01 X15.1936 Y-14.0794 F30.00
G01 X15.2018 Y-14.1120 F30.00
G01 X15.2122 Y-14.1415 F30.00
G01 X15.2254 Y-14.1699 F30.00
G01 X15.2297 Y-14.1778 F30.00
G01 X15.2447 Y-14.2027 F30.00
G01 X15.2619 Y-14.2261 F30.00
G01 X15.2676 Y-14.2330 F30.00
G01 X15.2872 Y-14.2545 F30.00
G01 X15.3087 Y-14.2741 F30.00
G01 X15.3156 Y-14.2798 F30.00
G01 X15.3390 Y-14.2970 F30.00
G01 X15.3639 Y-14.3120 F30.00
G01 X15.3718 Y-14.3163 F30.00
G01 X15.3981 Y-14.3286 F30.00
G01 X15.4255 Y-14.3385 F30.00
G01 X15.4341 Y-14.3411 F30.00
G01 X15.4623 Y-14.3481 F30.00
G01 X15.4910 Y-14.3525 F30.00
G01 X15.5000 Y-14.3533 F30.00
G01 X15.5290 Y-14.3546 F30.00
G01 X16.4313 Y-14.3546 F30.00
G01 X16.4625 Y-14.3530 F30.00
G01 X16.4957 Y-14.3481 F30.00
G01 X16.5283 Y-14.3399 F30.00
G01 X16.5578 Y-14.3295 F30.00
G01 X16.5862 Y-14.3163 F30.00
G01 X16.5941 Y-14.3120 F30.00
G01 X16.6190 Y-14.2970 F30.00
G01 X16.6459 Y-14.2770 F30.00
G01 X16.6675 Y-14.2576 F30.00
G01 X16.6739 Y-14.2512 F30.00
G01 X16.6933 Y-14.2296 F30.00
G01 X16.7133 Y-14.2027 F30.00
G01 X16.7283 Y-14.1778 F30.00
G01 X16.7326 Y-14.1699 F30.00
G01 X16.7449 Y-14.1436 F30.00
G01 X16.7562 Y-14.1120 F30.00
G01 X16.7644 Y-14.0794 F30.00
G01 X16.7688 Y-14.0507 F30.00
G01 X16.7696 Y-14.0417 F30.00
G01 X16.7709 Y-14.0127 F30.00
G01 X16.7709 Y-13.4877 F30.00
G01 X16.7693 Y-13.4542 F30.00
G01 X16.7639 Y-13.4188 F30.00
G01 X16.7562 Y-13.3884 F30.00
G01 X16.7449 Y-13.3568 F30.00
G01 X16.7306 Y-13.3265 F30.00
G01 X16.7157 Y-13.3015 F30.00
G01 X16.7107 Y-13.2940 F30.00
G01 X16.6933 Y-13.2708 F30.00
G01 X16.6739 Y-13.2492 F30.00
G01 X16.6692 Y-13.2443 F30.00
G01 X16.6493 Y-13.2263 F30.00
G01 X16.6424 Y-13.2206 F30.00
G01 X16.6190 Y-13.2034 F30.00
G01 X16.5922 Y-13.1872 F30.00
G01 X16.5922 Y-8.1953 F30.00
G01 X18.6953 Y-6.0922 F30.00
G01 X32.9127 Y-6.0922 F30.00
G01 X43.9922 Y-17.1717 F30.00
G01 X43.9932 Y-17.1840 F30.00
G01 X43.9972 Y-17.2105 F30.00
G01 X43.9986 Y-17.2171 F30.00
G01 X44.0065 Y-17.2474 F30.00
G01 X44.0155 Y-17.2726 F30.00
G01 X44.0189 Y-17.2810 F30.00
G01 X44.0314 Y-17.3072 F30.00
G01 X44.0487 Y-17.3360 F30.00
G01 X44.0687 Y-17.3629 F30.00
G01 X44.0912 Y-17.3878 F30.00
G01 X44.1161 Y-17.4103 F30.00
G01 X44.1393 Y-17.4277 F30.00
G01 X44.1468 Y-17.4327 F30.00
G01 X44.1718 Y-17.4476 F30.00
G01 X44.1980 Y-17.4601 F30.00
G01 X44.2064 Y-17.4635 F30.00
G01 X44.2337 Y-17.4732 F30.00
G01 X44.2663 Y-17.4814 F30.00
G01 X44.3017 Y-17.4865 F30.00
G01 X44.3307 Y-17.4879 F30.00
G01 X44.4159 Y-17.4879 F30.00
G01 X44.4159 Y-18.0153 F30.00
G01 X44.3968 Y-18.0244 F30.00
G01 X44.3699 Y-18.0404 F30.00
G01 X44.3393 Y-18.0631 F30.00
G01 X44.3195 Y-18.0811 F30.00
G01 X44.3131 Y-18.0875 F30.00
G01 X44.2937 Y-18.1091 F30.00
G01 X44.2750 Y-18.1342 F30.00
G01 X44.2564 Y-18.1648 F30.00
G01 X44.2439 Y-18.1910 F30.00
G01 X44.2405 Y-18.1994 F30.00
G01 X44.2308 Y-18.2267 F30.00
G01 X44.2236 Y-18.2549 F30.00
G01 X44.2218 Y-18.2637 F30.00
G01 X44.2177 Y-18.2925 F30.00
G01 X44.2161 Y-18.3260 F30.00
G01 X44.2161 Y-19.2783 F30.00
G01 X44.2177 Y-19.3095 F30.00
G01 X44.2218 Y-19.3383 F30.00
G01 X44.2236 Y-19.3471 F30.00
G01 X44.2301 Y-19.3731 F30.00
G01 X44.2322 Y-19.3795 F30.00
G01 X44.2421 Y-19.4069 F30.00
G01 X44.2544 Y-19.4332 F30.00
G01 X44.2587 Y-19.4411 F30.00
G01 X44.2724 Y-19.4641 F30.00
G01 X44.2937 Y-19.4929 F30.00
G01 X44.3131 Y-19.5145 F30.00
G01 X44.3195 Y-19.5209 F30.00
G01 X44.3411 Y-19.5403 F30.00
G01 X44.3643 Y-19.5577 F30.00
G01 X44.3718 Y-19.5627 F30.00
G01 X44.3968 Y-19.5776 F30.00
G01 X44.4230 Y-19.5901 F30.00
G01 X44.4314 Y-19.5935 F30.00
G01 X44.4587 Y-19.6032 F30.00
G01 X44.4869 Y-19.6104 F30.00
G01 X44.4957 Y-19.6122 F30.00
G01 X44.5245 Y-19.6163 F30.00
G01 X44.5557 Y-19.6179 F30.00
G01 X45.0580 Y-19.6179 F30.00
G01 X45.0870 Y-19.6166 F30.00
G01 X45.0960 Y-19.6158 F30.00
G01 X45.1247 Y-19.6114 F30.00
G01 X45.1529 Y-19.6044 F30.00
G01 X45.1615 Y-19.6018 F30.00
G01 X45.1868 Y-19.5928 F30.00
G01 X45.1930 Y-19.5901 F30.00
G01 X45.2192 Y-19.5776 F30.00
G01 X45.2480 Y-19.5603 F30.00
G01 X45.2749 Y-19.5403 F30.00
G01 X45.2965 Y-19.5209 F30.00
G01 X45.3029 Y-19.5145 F30.00
G01 X45.3209 Y-19.4947 F30.00
G01 X45.3251 Y-19.4894 F30.00
G01 X45.3423 Y-19.4660 F30.00
G01 X45.3596 Y-19.4372 F30.00
G01 X45.3739 Y-19.4069 F30.00
G01 X45.3838 Y-19.3795 F30.00
G01 X45.3859 Y-19.3731 F30.00
G01 X45.3924 Y-19.3471 F30.00
G01 X45.3942 Y-19.3383 F30.00
G01 X45.3983 Y-19.3095 F30.00
G01 X45.3999 Y-19.2783 F30.00
G01 X45.3999 Y-18.3260 F30.00
G01 X45.3981 Y-18.2902 F30.00
G01 X45.3942 Y-18.2637 F30.00
G01 X45.3924 Y-18.2549 F30.00
G01 X45.3852 Y-18.2267 F30.00
G01 X45.3755 Y-18.1994 F30.00
G01 X45.3721 Y-18.1910 F30.00
G01 X45.3596 Y-18.1648 F30.00
G01 X45.3410 Y-18.1342 F30.00
G01 X45.3223 Y-18.1091 F30.00
G01 X45.3029 Y-18.0875 F30.00
G01 X45.2965 Y-18.0811 F30.00
G01 X45.2767 Y-18.0631 F30.00
G01 X45.2461 Y-18.0404 F30.00
G01 X45.2192 Y-18.0244 F30.00
G01 X45.2001 Y-18.0153 F30.00
G01 X45.2001 Y-17.4879 F30.00
G01 X45.2875 Y-17.4878 F30.00
G01 X45.3165 Y-17.4863 F30.00
G01 X45.3475 Y-17.4818 F30.00
G01 X45.3779 Y-17.4744 F30.00
G01 X45.3865 Y-17.4718 F30.00
G01 X45.4139 Y-17.4619 F30.00
G01 X45.4422 Y-17.4486 F30.00
G01 X45.4692 Y-17.4327 F30.00
G01 X45.4767 Y-17.4277 F30.00
G01 X45.4999 Y-17.4103 F30.00
G01 X45.5264 Y-17.3862 F30.00
G01 X45.5473 Y-17.3629 F30.00
G01 X45.5660 Y-17.3378 F30.00
G01 X45.5835 Y-17.3092 F30.00
G01 X45.5937 Y-17.2881 F30.00
G01 X48.1650 Y-17.2879 F30.00
G01 X48.1842 Y-17.2871 F30.00
G01 X48.1932 Y-17.2862 F30.00
G01 X48.2122 Y-17.2833 F30.00
G01 X48.2309 Y-17.2787 F30.00
G01 X48.2395 Y-17.2761 F30.00
G01 X48.2576 Y-17.2695 F30.00
G01 X48.2750 Y-17.2614 F30.00
G01 X48.2830 Y-17.2572 F30.00
G01 X48.2994 Y-17.2472 F30.00
G01 X48.3149 Y-17.2358 F30.00
G01 X48.3219 Y-17.2301 F30.00
G01 X48.3361 Y-17.2171 F30.00
G01 X48.3491 Y-17.2029 F30.00
G01 X48.3548 Y-17.1959 F30.00
G01 X48.3662 Y-17.1804 F30.00
G01 X48.3762 Y-17.1640 F30.00
G01 X48.3804 Y-17.1560 F30.00
G01 X48.3885 Y-17.1386 F30.00
G01 X48.3972 Y-17.1141 F30.00
G01 X48.4018 Y-17.0954 F30.00
G01 X48.4031 Y-17.0888 F30.00
G01 X48.4058 Y-17.0697 F30.00
G01 X48.4069 Y-17.0483 F30.00
G01 X48.4069 Y-16.7460 F30.00
G01 X48.4058 Y-16.7223 F30.00
G01 X48.4031 Y-16.7032 F30.00
G01 X48.4013 Y-16.6944 F30.00
G01 X48.3959 Y-16.6736 F30.00
G01 X48.3885 Y-16.6534 F30.00
G01 X48.3804 Y-16.6360 F30.00
G01 X48.3762 Y-16.6280 F30.00
G01 X48.3662 Y-16.6116 F30.00
G01 X48.3520 Y-16.5925 F30.00
G01 X48.3392 Y-16.5782 F30.00
G01 X48.3328 Y-16.5718 F30.00
G01 X48.3185 Y-16.5590 F30.00
G01 X48.2994 Y-16.5448 F30.00
G01 X48.2830 Y-16.5348 F30.00
G01 X48.2750 Y-16.5306 F30.00
G01 X48.2576 Y-16.5225 F30.00
G01 X48.2352 Y-16.5145 F30.00
G01 X48.2166 Y-16.5097 F30.00
G01 X48.2078 Y-16.5079 F30.00
G01 X48.1887 Y-16.5052 F30.00
G01 X48.1650 Y-16.5041 F30.00
G01 X45.5937 Y-16.5039 F30.00
G01 X45.5846 Y-16.4848 F30.00
G01 X45.5697 Y-16.4598 F30.00
G01 X45.5647 Y-16.4523 F30.00
G01 X45.5487 Y-16.4308 F30.00
G01 X45.5248 Y-16.4042 F30.00
G01 X45.5017 Y-16.3831 F30.00
G01 X45.4730 Y-16.3617 F30.00
G01 X45.4442 Y-16.3444 F30.00
G01 X45.4139 Y-16.3301 F30.00
G01 X45.3865 Y-16.3202 F30.00
G01 X45.3779 Y-16.3176 F30.00
G01 X45.3497 Y-16.3106 F30.00
G01 X45.3210 Y-16.3062 F30.00
G01 X45.3120 Y-16.3054 F30.00
G01 X45.2853 Y-16.3041 F30.00
G01 X44.7993 Y-16.3038 F30.00
G01 X41.9743 Y-13.4788 F30.00
G01 X41.9743 Y-9.8880 F30.00
G01 X47.6664 Y-4.1959 F30.00
G01 X48.6561 Y-4.1959 F30.00
G01 X48.6651 Y-4.1953 F30.00
G01 X48.6739 Y-4.1937 F30.00
G01 X48.6826 Y-4.1913 F30.00
G01 X48.6911 Y-4.1881 F30.00
G01 X48.6991 Y-4.1840 F30.00
G01 X48.7067 Y-4.1792 F30.00
G01 X48.7139 Y-4.1736 F30.00
G01 X48.7204 Y-4.1674 F30.00
G01 X48.7263 Y-4.1606 F30.00
G01 X48.7303 Y-4.1551 F30.00
G01 X48.7349 Y-4.1473 F30.00
G01 X48.7388 Y-4.1392 F30.00
G01 X48.7418 Y-4.1307 F30.00
G01 X48.7440 Y-4.1219 F30.00
G01 X48.7453 Y-4.1130 F30.00
G01 X48.7457 Y-4.1063 F30.00
G01 X48.7457 Y-2.8040 F30.00
G01 X48.7451 Y-2.7927 F30.00
G01 X48.7430 Y-2.7817 F30.00
G01 X48.7388 Y-2.7688 F30.00
G01 X48.7349 Y-2.7607 F30.00
G01 X48.7315 Y-2.7548 F30.00
G01 X48.7263 Y-2.7474 F30.00
G01 X48.7219 Y-2.7423 F30.00
G01 X48.7172 Y-2.7374 F30.00
G01 X48.7104 Y-2.7315 F30.00
G01 X48.7030 Y-2.7263 F30.00
G01 X48.6971 Y-2.7229 F30.00
G01 X48.6848 Y-2.7174 F30.00
G01 X48.6717 Y-2.7138 F30.00
G01 X48.6651 Y-2.7127 F30.00
G01 X48.6561 Y-2.7121 F30.00
G01 X47.0515 Y-2.7121 F30.00
G01 X47.0448 Y-2.7125 F30.00
G01 X47.0359 Y-2.7138 F30.00
G01 X47.0293 Y-2.7154 F30.00
G01 X47.0207 Y-2.7182 F30.00
G01 X47.0145 Y-2.7209 F30.00
G01 X47.0065 Y-2.7251 F30.00
G01 X46.9990 Y-2.7301 F30.00
G01 X46.9921 Y-2.7359 F30.00
G01 X46.9857 Y-2.7423 F30.00
G01 X46.9799 Y-2.7492 F30.00
G01 X46.9749 Y-2.7567 F30.00
G01 X46.9707 Y-2.7647 F30.00
G01 X46.9672 Y-2.7730 F30.00
G01 X46.9641 Y-2.7839 F30.00
G01 X46.9625 Y-2.7927 F30.00
G01 X46.9619 Y-2.8017 F30.00
G01 X46.9619 Y-3.7914 F30.00
G01 X41.3049 Y-9.4483 F30.00
G01 X41.2777 Y-9.4786 F30.00
G01 X41.2562 Y-9.5078 F30.00
G01 X41.2364 Y-9.5408 F30.00
G01 X41.2199 Y-9.5755 F30.00
G01 X41.2084 Y-9.6075 F30.00
G01 X41.2058 Y-9.6161 F30.00
G01 X41.1986 Y-9.6447 F30.00
G01 X41.1969 Y-9.6536 F30.00
G01 X41.1920 Y-9.6872 F30.00
G01 X41.1901 Y-9.7233 F30.00
G01 X41.1901 Y-12.6946 F30.00
G01 X33.5751 Y-5.0797 F30.00
G01 X33.5337 Y-5.0422 F30.00
G01 X33.4870 Y-5.0076 F30.00
G01 X33.4372 Y-4.9777 F30.00
G01 X33.3888 Y-4.9547 F30.00
G01 X33.3804 Y-4.9513 F30.00
G01 X33.3299 Y-4.9333 F30.00
G01 X33.2779 Y-4.9202 F30.00
G01 X33.2691 Y-4.9184 F30.00
G01 X33.2205 Y-4.9112 F30.00
G01 X33.2115 Y-4.9103 F30.00
G01 X33.1580 Y-4.9078 F30.00
G01 X18.4500 Y-4.9078 F30.00
G01 X18.3920 Y-4.9107 F30.00
G01 X18.3389 Y-4.9184 F30.00
G01 X18.3301 Y-4.9202 F30.00
G01 X18.2824 Y-4.9321 F30.00
G01 X18.2738 Y-4.9347 F30.00
G01 X18.2234 Y-4.9529 F30.00
G01 X18.1749 Y-4.9757 F30.00
G01 X18.1669 Y-4.9800 F30.00
G01 X18.1248 Y-5.0052 F30.00
G01 X18.1173 Y-5.0102 F30.00
G01 X18.0743 Y-5.0422 F30.00
G01 X18.0329 Y-5.0797 F30.00
G01 X16.5919 Y-6.5206 F30.00
G01 X16.5919 Y-6.4477 F30.00
G01 X16.5906 Y-6.4210 F30.00
G01 X16.5898 Y-6.4120 F30.00
G01 X16.5849 Y-6.3811 F30.00
G01 X16.5772 Y-6.3507 F30.00
G01 X16.5659 Y-6.3191 F30.00
G01 X16.5516 Y-6.2888 F30.00
G01 X16.5343 Y-6.2600 F30.00
G01 X16.5143 Y-6.2331 F30.00
G01 X16.4918 Y-6.2082 F30.00
G01 X16.4669 Y-6.1857 F30.00
G01 X16.4400 Y-6.1657 F30.00
G01 X16.4112 Y-6.1484 F30.00
G01 X16.3809 Y-6.1341 F30.00
G01 X16.3493 Y-6.1228 F30.00
G01 X16.3145 Y-6.1142 F30.00
G01 X16.2835 Y-6.1097 F30.00
G01 X16.2500 Y-6.1081 F30.00
G01 X15.7500 Y-6.1081 F30.00
G01 X15.7165 Y-6.1097 F30.00
G01 X15.6811 Y-6.1151 F30.00
G01 X15.6551 Y-6.1216 F30.00
G01 X15.6465 Y-6.1242 F30.00
G01 X15.6191 Y-6.1341 F30.00
G01 X15.5928 Y-6.1464 F30.00
G01 X15.5849 Y-6.1507 F30.00
G01 X15.5600 Y-6.1657 F30.00
G01 X15.5331 Y-6.1857 F30.00
G01 X15.5082 Y-6.2082 F30.00
G01 X15.4886 Y-6.2297 F30.00
G01 X15.4829 Y-6.2366 F30.00
G01 X15.4657 Y-6.2600 F30.00
G01 X15.4507 Y-6.2849 F30.00
G01 X15.4464 Y-6.2928 F30.00
G01 X15.4350 Y-6.3171 F30.00
G01 X15.4228 Y-6.3507 F30.00
G01 X15.4146 Y-6.3833 F30.00
G01 X15.4097 Y-6.4165 F30.00
G01 X15.4081 Y-6.4500 F30.00
G01 X15.4078 Y-11.1487 F30.00
G01 X15.4020 Y-11.1614 F30.00
G01 X15.3923 Y-11.1888 F30.00
G01 X15.3839 Y-11.2213 F30.00
G01 X15.3785 Y-11.2567 F30.00
G01 X15.3769 Y-11.2902 F30.00
G00 Z2.0000
G00 X15.1204 Y-14.0556
G01 F10.00
G01 Z-0.0500
G01 F30.00
G01 X15.1251 Y-14.0989 F30.00
G01 X15.1667 Y-14.2105 F30.00
G01 X15.2371 Y-14.3046 F30.00
G01 X15.3312 Y-14.3750 F30.00
G01 X15.4428 Y-14.4166 F30.00
G01 X15.4861 Y-14.4213 F30.00
G01 X16.4719 Y-14.4212 F30.00
G01 X16.5152 Y-14.4166 F30.00
G01 X16.6268 Y-14.3750 F30.00
G01 X16.7209 Y-14.3046 F30.00
G01 X16.7913 Y-14.2105 F30.00
G01 X16.8329 Y-14.0989 F30.00
G01 X16.8376 Y-14.0556 F30.00
G01 X16.8375 Y-13.4448 F30.00
G01 X16.8329 Y-13.4015 F30.00
G01 X16.7913 Y-13.2899 F30.00
G01 X16.7050 Y-13.1745 F30.00
G01 X16.6993 Y-13.1648 F30.00
G01 X16.6942 Y-13.1526 F30.00
G01 X16.6706 Y-13.1092 F30.00
G01 X16.6663 Y-13.0987 F30.00
G01 X16.6629 Y-13.0856 F30.00
G01 X16.6591 Y-13.0526 F30.00
G01 X16.6586 Y-13.0452 F30.00
G01 X16.6585 Y-8.3122 F30.00
G01 X16.6592 Y-8.3013 F30.00
G01 X16.6611 Y-8.2905 F30.00
G01 X16.6820 Y-8.2193 F30.00
G01 X16.6867 Y-8.2066 F30.00
G01 X16.6909 Y-8.1986 F30.00
G01 X16.6958 Y-8.1911 F30.00
G01 X16.7152 Y-8.1669 F30.00
G01 X16.7201 Y-8.1613 F30.00
G01 X18.6595 Y-6.2218 F30.00
G01 X18.6694 Y-6.2132 F30.00
G01 X18.6805 Y-6.2061 F30.00
G01 X18.7418 Y-6.1726 F30.00
G01 X18.7520 Y-6.1678 F30.00
G01 X18.7606 Y-6.1649 F30.00
G01 X18.7716 Y-6.1625 F30.00
G01 X18.8024 Y-6.1591 F30.00
G01 X18.8098 Y-6.1586 F30.00
G01 X23.5717 Y-6.1586 F30.00
G01 X23.5888 Y-6.1484 F30.00
G01 X23.6171 Y-6.1350 F30.00
G01 X23.6486 Y-6.1235 F30.00
G01 X23.6833 Y-6.1146 F30.00
G01 X23.7187 Y-6.1095 F30.00
G01 X23.7500 Y-6.1081 F30.00
G01 X24.2500 Y-6.1081 F30.00
G01 X24.2790 Y-6.1094 F30.00
G01 X24.2880 Y-6.1102 F30.00
G01 X24.3167 Y-6.1146 F30.00
G01 X24.3471 Y-6.1221 F30.00
G01 X24.3829 Y-6.1350 F30.00
G01 X24.4112 Y-6.1484 F30.00
G01 X24.4283 Y-6.1586 F30.00
G01 X25.1278 Y-6.1586 F30.00
G01 X25.1408 Y-6.1595 F30.00
G01 X25.1537 Y-6.1623 F30.00
G01 X25.2229 Y-6.1826 F30.00
G01 X25.2335 Y-6.1868 F30.00
G01 X25.2435 Y-6.1922 F30.00
G01 X25.2492 Y-6.1961 F30.00
G01 X25.2546 Y-6.2003 F30.00
G01 X25.2628 Y-6.2083 F30.00
G01 X25.3142 Y-6.2679 F30.00
G01 X25.3192 Y-6.2753 F30.00
G01 X25.3234 Y-6.2830 F30.00
G01 X25.3268 Y-6.2912 F30.00
G01 X25.3300 Y-6.3018 F30.00
G01 X25.3418 Y-6.3730 F30.00
G01 X25.3430 Y-6.3864 F30.00
G01 X25.3427 Y-6.3954 F30.00
G01 X25.3414 Y-6.4071 F30.00
G01 X25.3414 Y-9.4929 F30.00
G01 X25.3461 Y-9.5362 F30.00
G01 X25.3877 Y-9.6478 F30.00
G01 X25.4584 Y-9.7422 F30.00
G01 X25.4664 Y-9.7496 F30.00
G01 X25.4734 Y-9.7579 F30.00
G01 X25.5153 Y-9.8139 F30.00
G01 X25.5215 Y-9.8233 F30.00
G01 X25.5273 Y-9.8354 F30.00
G01 X25.5313 Y-9.8483 F30.00
G01 X25.5404 Y-9.8983 F30.00
G01 X25.5414 Y-9.9100 F30.00
G01 X25.5412 Y-11.3106 F30.00
G01 X25.5398 Y-11.3214 F30.00
G01 X25.5377 Y-11.3300 F30.00
G01 X25.5174 Y-11.3991 F30.00
G01 X25.5123 Y-11.4117 F30.00
G01 X25.5091 Y-11.4177 F30.00
G01 X25.5042 Y-11.4252 F30.00
G01 X25.4939 Y-11.4381 F30.00
G01 X25.4107 Y-11.5492 F30.00
G01 X25.3691 Y-11.6608 F30.00
G01 X25.3645 Y-11.7040 F30.00
G01 X25.3644 Y-12.6899 F30.00
G01 X25.3691 Y-12.7332 F30.00
G01 X25.4107 Y-12.8448 F30.00
G01 X25.4811 Y-12.9389 F30.00
G01 X25.4955 Y-12.9499 F30.00
G01 X25.5019 Y-12.9560 F30.00
G01 X25.5062 Y-12.9609 F30.00
G01 X25.5508 Y-13.0202 F30.00
G01 X25.5558 Y-13.0277 F30.00
G01 X25.5619 Y-13.0397 F30.00
G01 X25.5650 Y-13.0481 F30.00
G01 X25.5668 Y-13.0546 F30.00
G01 X25.5759 Y-13.1047 F30.00
G01 X25.5769 Y-13.1163 F30.00
G01 X25.5769 Y-21.0635 F30.00
G01 X25.5763 Y-21.0744 F30.00
G01 X25.5738 Y-21.0873 F30.00
G01 X25.5529 Y-21.1586 F30.00
G01 X25.5497 Y-21.1671 F30.00
G01 X25.5457 Y-21.1752 F30.00
G01 X25.5383 Y-21.1865 F30.00
G01 X25.5203 Y-21.2089 F30.00
G01 X25.5137 Y-21.2162 F30.00
G01 X22.7357 Y-23.9942 F30.00
G01 X22.7258 Y-24.0028 F30.00
G01 X22.7167 Y-24.0088 F30.00
G01 X22.6514 Y-24.0444 F30.00
G01 X22.6432 Y-24.0482 F30.00
G01 X22.6347 Y-24.0511 F30.00
G01 X22.6214 Y-24.0538 F30.00
G01 X22.5928 Y-24.0569 F30.00
G01 X22.5830 Y-24.0574 F30.00
G01 X17.0444 Y-24.0572 F30.00
G01 X17.0357 Y-24.0562 F30.00
G01 X17.0272 Y-24.0543 F30.00
G01 X16.9516 Y-24.0319 F30.00
G01 X16.9432 Y-24.0282 F30.00
G01 X16.9352 Y-24.0238 F30.00
G01 X16.9277 Y-24.0186 F30.00
G01 X16.9191 Y-24.0110 F30.00
G01 X16.8687 Y-23.9532 F30.00
G01 X16.8618 Y-23.9442 F30.00
G01 X16.8561 Y-23.9344 F30.00
G01 X16.8499 Y-23.9200 F30.00
G01 X16.8305 Y-23.8682 F30.00
G01 X16.7601 Y-23.7741 F30.00
G01 X16.6660 Y-23.7037 F30.00
G01 X16.5544 Y-23.6621 F30.00
G01 X16.5111 Y-23.6574 F30.00
G01 X15.9003 Y-23.6574 F30.00
G01 X15.8570 Y-23.6621 F30.00
G01 X15.7454 Y-23.7037 F30.00
G01 X15.6513 Y-23.7741 F30.00
G01 X15.5809 Y-23.8682 F30.00
G01 X15.5393 Y-23.9798 F30.00
G01 X15.5347 Y-24.0231 F30.00
G01 X15.5346 Y-25.0089 F30.00
G01 X15.5393 Y-25.0522 F30.00
G01 X15.5809 Y-25.1638 F30.00
G01 X15.6513 Y-25.2579 F30.00
G01 X15.7454 Y-25.3283 F30.00
G01 X15.8570 Y-25.3699 F30.00
G01 X15.9003 Y-25.3746 F30.00
G01 X16.5111 Y-25.3745 F30.00
G01 X16.5544 Y-25.3699 F30.00
G01 X16.6660 Y-25.3283 F30.00
G01 X16.7601 Y-25.2579 F30.00
G01 X16.8305 Y-25.1638 F30.00
G01 X16.8494 Y-25.1130 F30.00
G01 X16.8552 Y-25.1012 F30.00
G01 X16.8612 Y-25.0921 F30.00
G01 X16.9031 Y-25.0361 F30.00
G01 X16.9105 Y-25.0274 F30.00
G01 X16.9171 Y-25.0212 F30.00
G01 X16.9244 Y-25.0156 F30.00
G01 X16.9321 Y-25.0108 F30.00
G01 X16.9424 Y-25.0059 F30.00
G01 X17.0143 Y-24.9792 F30.00
G01 X17.0253 Y-24.9764 F30.00
G01 X17.0366 Y-24.9750 F30.00
G01 X17.0510 Y-24.9746 F30.00
G01 X22.8530 Y-24.9746 F30.00
G01 X22.9097 Y-24.9764 F30.00
G01 X22.9405 Y-24.9689 F30.00
G01 X22.9513 Y-24.9668 F30.00
G01 X22.9873 Y-24.9617 F30.00
G01 X22.9970 Y-24.9576 F30.00
G01 X23.0195 Y-24.9500 F30.00
G01 X23.0322 Y-24.9466 F30.00
G01 X23.0598 Y-24.9311 F30.00
G01 X23.0696 Y-24.9261 F30.00
G01 X23.1029 Y-24.9115 F30.00
G01 X23.1133 Y-24.9034 F30.00
G01 X23.1330 Y-24.8901 F30.00
G01 X23.1421 Y-24.8848 F30.00
G01 X23.1644 Y-24.8624 F30.00
G01 X23.1726 Y-24.8550 F30.00
G01 X23.2007 Y-24.8319 F30.00
G01 X23.2085 Y-24.8214 F30.00
G01 X23.2275 Y-24.7994 F30.00
G01 X26.3723 Y-21.6546 F30.00
G01 X26.3799 Y-21.6475 F30.00
G01 X26.4117 Y-21.6198 F30.00
G01 X26.4389 Y-21.5786 F30.00
G01 X26.4669 Y-21.5416 F30.00
G01 X26.4805 Y-21.5155 F30.00
G01 X26.4959 Y-21.4673 F30.00
G01 X26.5129 Y-21.4242 F30.00
G01 X26.5189 Y-21.3954 F30.00
G01 X26.5208 Y-21.3448 F30.00
G01 X26.5255 Y-21.2987 F30.00
G01 X26.5235 Y-21.2693 F30.00
G01 X26.5133 Y-21.2273 F30.00
G01 X26.5111 Y-21.2171 F30.00
G01 X26.5009 Y-21.1596 F30.00
G01 X26.4948 Y-21.1198 F30.00
G01 X26.4940 Y-21.1080 F30.00
G01 X26.4941 Y-13.1165 F30.00
G01 X26.4953 Y-13.1034 F30.00
G01 X26.4978 Y-13.0928 F30.00
G01 X26.5181 Y-13.0236 F30.00
G01 X26.5213 Y-13.0152 F30.00
G01 X26.5252 Y-13.0071 F30.00
G01 X26.5300 Y-12.9995 F30.00
G01 X26.5354 Y-12.9923 F30.00
G01 X26.5684 Y-12.9568 F30.00
G01 X26.5769 Y-12.9487 F30.00
G01 X26.5899 Y-12.9389 F30.00
G01 X26.6603 Y-12.8448 F30.00
G01 X26.7019 Y-12.7332 F30.00
G01 X26.7066 Y-12.6899 F30.00
G01 X26.7065 Y-11.7041 F30.00
G01 X26.7019 Y-11.6608 F30.00
G01 X26.6603 Y-11.5492 F30.00
G01 X26.5899 Y-11.4551 F30.00
G01 X26.5433 Y-11.4203 F30.00
G01 X26.5336 Y-11.4115 F30.00
G01 X26.5266 Y-11.4031 F30.00
G01 X26.4834 Y-11.3454 F30.00
G01 X26.4797 Y-11.3397 F30.00
G01 X26.4754 Y-11.3318 F30.00
G01 X26.4727 Y-11.3257 F30.00
G01 X26.4699 Y-11.3172 F30.00
G01 X26.4678 Y-11.3084 F30.00
G01 X26.4593 Y-11.2604 F30.00
G01 X26.4586 Y-11.2487 F30.00
G01 X26.4586 Y-9.9123 F30.00
G01 X26.4595 Y-9.8992 F30.00
G01 X26.4623 Y-9.8864 F30.00
G01 X26.4826 Y-9.8172 F30.00
G01 X26.4858 Y-9.8088 F30.00
G01 X26.4908 Y-9.7988 F30.00
G01 X26.4958 Y-9.7913 F30.00
G01 X26.5014 Y-9.7843 F30.00
G01 X26.5345 Y-9.7487 F30.00
G01 X26.5416 Y-9.7422 F30.00
G01 X26.6123 Y-9.6478 F30.00
G01 X26.6539 Y-9.5362 F30.00
G01 X26.6586 Y-9.4929 F30.00
G01 X26.6585 Y-6.4071 F30.00
G01 X26.6573 Y-6.3954 F30.00
G01 X26.6570 Y-6.3867 F30.00
G01 X26.6581 Y-6.3736 F30.00
G01 X26.6713 Y-6.3004 F30.00
G01 X26.6743 Y-6.2894 F30.00
G01 X26.6767 Y-6.2830 F30.00
G01 X26.6797 Y-6.2768 F30.00
G01 X26.6830 Y-6.2708 F30.00
G01 X26.6868 Y-6.2652 F30.00
G01 X26.6941 Y-6.2563 F30.00
G01 X26.7432 Y-6.2036 F30.00
G01 X26.7514 Y-6.1962 F30.00
G01 X26.7604 Y-6.1898 F30.00
G01 X26.7721 Y-6.1836 F30.00
G01 X26.7846 Y-6.1792 F30.00
G01 X26.8501 Y-6.1613 F30.00
G01 X26.8589 Y-6.1595 F30.00
G01 X26.8700 Y-6.1586 F30.00
G01 X32.7958 Y-6.1586 F30.00
G01 X32.8089 Y-6.1595 F30.00
G01 X32.8196 Y-6.1617 F30.00
G01 X32.8909 Y-6.1826 F30.00
G01 X32.9034 Y-6.1877 F30.00
G01 X32.9113 Y-6.1921 F30.00
G01 X32.9187 Y-6.1972 F30.00
G01 X32.9411 Y-6.2152 F30.00
G01 X32.9485 Y-6.2218 F30.00
G01 X43.8782 Y-17.1515 F30.00
G01 X43.8841 Y-17.1580 F30.00
G01 X43.8893 Y-17.1650 F30.00
G01 X43.9190 Y-17.2112 F30.00
G01 X43.9244 Y-17.2207 F30.00
G01 X43.9278 Y-17.2288 F30.00
G01 X43.9707 Y-17.3438 F30.00
G01 X44.0411 Y-17.4379 F30.00
G01 X44.1352 Y-17.5083 F30.00
G01 X44.2110 Y-17.5366 F30.00
G01 X44.2190 Y-17.5402 F30.00
G01 X44.2265 Y-17.5446 F30.00
G01 X44.2897 Y-17.5916 F30.00
G01 X44.2966 Y-17.5976 F30.00
G01 X44.3028 Y-17.6042 F30.00
G01 X44.3071 Y-17.6096 F30.00
G01 X44.3109 Y-17.6153 F30.00
G01 X44.3143 Y-17.6212 F30.00
G01 X44.3181 Y-17.6295 F30.00
G01 X44.3441 Y-17.6993 F30.00
G01 X44.3461 Y-17.7058 F30.00
G01 X44.3480 Y-17.7147 F30.00
G01 X44.3490 Y-17.7237 F30.00
G01 X44.3494 Y-17.7381 F30.00
G01 X44.3494 Y-17.8637 F30.00
G01 X44.3490 Y-17.8724 F30.00
G01 X44.3473 Y-17.8832 F30.00
G01 X44.3254 Y-17.9588 F30.00
G01 X44.3213 Y-17.9692 F30.00
G01 X44.3160 Y-17.9791 F30.00
G01 X44.3122 Y-17.9847 F30.00
G01 X44.3066 Y-17.9917 F30.00
G01 X44.2735 Y-18.0273 F30.00
G01 X44.2664 Y-18.0338 F30.00
G01 X44.1957 Y-18.1282 F30.00
G01 X44.1541 Y-18.2398 F30.00
G01 X44.1495 Y-18.2830 F30.00
G01 X44.1494 Y-19.3189 F30.00
G01 X44.1541 Y-19.3622 F30.00
G01 X44.1957 Y-19.4738 F30.00
G01 X44.2661 Y-19.5679 F30.00
G01 X44.3602 Y-19.6383 F30.00
G01 X44.4718 Y-19.6799 F30.00
G01 X44.5151 Y-19.6846 F30.00
G01 X45.1009 Y-19.6845 F30.00
G01 X45.1442 Y-19.6799 F30.00
G01 X45.2558 Y-19.6383 F30.00
G01 X45.3499 Y-19.5679 F30.00
G01 X45.4203 Y-19.4738 F30.00
G01 X45.4619 Y-19.3622 F30.00
G01 X45.4666 Y-19.3189 F30.00
G01 X45.4665 Y-18.2831 F30.00
G01 X45.4619 Y-18.2398 F30.00
G01 X45.4203 Y-18.1282 F30.00
G01 X45.3496 Y-18.0338 F30.00
G01 X45.3432 Y-18.0280 F30.00
G01 X45.3359 Y-18.0198 F30.00
G01 X45.2927 Y-17.9621 F30.00
G01 X45.2854 Y-17.9508 F30.00
G01 X45.2799 Y-17.9385 F30.00
G01 X45.2779 Y-17.9321 F30.00
G01 X45.2758 Y-17.9233 F30.00
G01 X45.2676 Y-17.8777 F30.00
G01 X45.2667 Y-17.8684 F30.00
G01 X45.2666 Y-17.7381 F30.00
G01 X45.2672 Y-17.7272 F30.00
G01 X45.2687 Y-17.7186 F30.00
G01 X45.2703 Y-17.7122 F30.00
G01 X45.2900 Y-17.6452 F30.00
G01 X45.2930 Y-17.6365 F30.00
G01 X45.2979 Y-17.6263 F30.00
G01 X45.3027 Y-17.6185 F30.00
G01 X45.3098 Y-17.6096 F30.00
G01 X45.3163 Y-17.6031 F30.00
G01 X45.3725 Y-17.5544 F30.00
G01 X45.3779 Y-17.5502 F30.00
G01 X45.3856 Y-17.5454 F30.00
G01 X45.3937 Y-17.5413 F30.00
G01 X45.4070 Y-17.5358 F30.00
G01 X45.4808 Y-17.5083 F30.00
G01 X45.5752 Y-17.4376 F30.00
G01 X45.5826 Y-17.4296 F30.00
G01 X45.5909 Y-17.4226 F30.00
G01 X45.6469 Y-17.3807 F30.00
G01 X45.6582 Y-17.3735 F30.00
G01 X45.6705 Y-17.3679 F30.00
G01 X45.6835 Y-17.3643 F30.00
G01 X45.7313 Y-17.3556 F30.00
G01 X45.7383 Y-17.3548 F30.00
G01 X45.7453 Y-17.3546 F30.00
G01 X48.1893 Y-17.3545 F30.00
G01 X48.2615 Y-17.3431 F30.00
G01 X48.3486 Y-17.2987 F30.00
G01 X48.4229 Y-17.2244 F30.00
G01 X48.4316 Y-17.2137 F30.00
G01 X48.4364 Y-17.2089 F30.00
G01 X48.4420 Y-17.2041 F30.00
G01 X48.4778 Y-17.1665 F30.00
G01 X48.4847 Y-17.1605 F30.00
G01 X48.4921 Y-17.1552 F30.00
G01 X48.5001 Y-17.1507 F30.00
G01 X48.5084 Y-17.1470 F30.00
G01 X48.5193 Y-17.1436 F30.00
G01 X48.5893 Y-17.1263 F30.00
G01 X48.6006 Y-17.1245 F30.00
G01 X48.6120 Y-17.1241 F30.00
G01 X48.6234 Y-17.1252 F30.00
G01 X48.6345 Y-17.1276 F30.00
G01 X48.7093 Y-17.1531 F30.00
G01 X48.7176 Y-17.1569 F30.00
G01 X48.7274 Y-17.1628 F30.00
G01 X48.7346 Y-17.1683 F30.00
G01 X48.7413 Y-17.1745 F30.00
G01 X48.7473 Y-17.1814 F30.00
G01 X48.7908 Y-17.2361 F30.00
G01 X48.7974 Y-17.2456 F30.00
G01 X48.8008 Y-17.2517 F30.00
G01 X48.8037 Y-17.2580 F30.00
G01 X48.8061 Y-17.2645 F30.00
G01 X48.8080 Y-17.2711 F30.00
G01 X48.8185 Y-17.3245 F30.00
G01 X48.8198 Y-17.3377 F30.00
G01 X48.8198 Y-20.6597 F30.00
G01 X48.8195 Y-20.6702 F30.00
G01 X48.8166 Y-20.7122 F30.00
G01 X48.8265 Y-20.7607 F30.00
G01 X48.8329 Y-20.8066 F30.00
G01 X48.8418 Y-20.8346 F30.00
G01 X48.8630 Y-20.8758 F30.00
G01 X48.8834 Y-20.9221 F30.00
G01 X48.8995 Y-20.9467 F30.00
G01 X48.9311 Y-20.9806 F30.00
G01 X48.9632 Y-21.0197 F30.00
G01 X48.9853 Y-21.0391 F30.00
G01 X49.0284 Y-21.0655 F30.00
G01 X49.0664 Y-21.0922 F30.00
G01 X49.0929 Y-21.1048 F30.00
G01 X49.1376 Y-21.1174 F30.00
G01 X49.1853 Y-21.1342 F30.00
G01 X49.2143 Y-21.1392 F30.00
G01 X49.2606 Y-21.1392 F30.00
G01 X49.3111 Y-21.1425 F30.00
G01 X49.3383 Y-21.1396 F30.00
G01 X49.3477 Y-21.1392 F30.00
G01 X52.5296 Y-21.1392 F30.00
G01 X52.5427 Y-21.1401 F30.00
G01 X52.5534 Y-21.1423 F30.00
G01 X52.6226 Y-21.1626 F30.00
G01 X52.6352 Y-21.1673 F30.00
G01 X52.6432 Y-21.1715 F30.00
G01 X52.6508 Y-21.1764 F30.00
G01 X52.6750 Y-21.1958 F30.00
G01 X52.6823 Y-21.2024 F30.00
G01 X55.4921 Y-24.0125 F30.00
G01 X55.4975 Y-24.0194 F30.00
G01 X55.5022 Y-24.0267 F30.00
G01 X55.5368 Y-24.0900 F30.00
G01 X55.5416 Y-24.1002 F30.00
G01 X55.5445 Y-24.1087 F30.00
G01 X55.5469 Y-24.1197 F30.00
G01 X55.5503 Y-24.1506 F30.00
G01 X55.5508 Y-24.1604 F30.00
G01 X55.5507 Y-32.8781 F30.00
G01 X55.5499 Y-32.8868 F30.00
G01 X55.5477 Y-32.8975 F30.00
G01 X55.5260 Y-32.9710 F30.00
G01 X55.5226 Y-32.9794 F30.00
G01 X55.5184 Y-32.9875 F30.00
G01 X55.5147 Y-32.9933 F30.00
G01 X55.5091 Y-33.0005 F30.00
G01 X55.5044 Y-33.0055 F30.00
G01 X55.4994 Y-33.0102 F30.00
G01 X55.4466 Y-33.0560 F30.00
G01 X55.4413 Y-33.0602 F30.00
G01 X55.4357 Y-33.0641 F30.00
G01 X55.4258 Y-33.0696 F30.00
G01 X55.4134 Y-33.0748 F30.00
G01 X55.3366 Y-33.1035 F30.00
G01 X55.2425 Y-33.1739 F30.00
G01 X55.1721 Y-33.2680 F30.00
G01 X55.1305 Y-33.3796 F30.00
G01 X55.1258 Y-33.4229 F30.00
G01 X55.1258 Y-34.0087 F30.00
G01 X55.1305 Y-34.0520 F30.00
G01 X55.1721 Y-34.1636 F30.00
G01 X55.2425 Y-34.2577 F30.00
G01 X55.3366 Y-34.3281 F30.00
G01 X55.4482 Y-34.3697 F30.00
G01 X55.4915 Y-34.3744 F30.00
G01 X56.5273 Y-34.3743 F30.00
G01 X56.5706 Y-34.3697 F30.00
G01 X56.6822 Y-34.3281 F30.00
G01 X56.7763 Y-34.2577 F30.00
G01 X56.8467 Y-34.1636 F30.00
G01 X56.8883 Y-34.0520 F30.00
G01 X56.8930 Y-34.0087 F30.00
G01 X56.8929 Y-33.4229 F30.00
G01 X56.8883 Y-33.3796 F30.00
G01 X56.8467 Y-33.2680 F30.00
G01 X56.7763 Y-33.1739 F30.00
G01 X56.6822 Y-33.1035 F30.00
G01 X56.6084 Y-33.0760 F30.00
G01 X56.5965 Y-33.0706 F30.00
G01 X56.5855 Y-33.0635 F30.00
G01 X56.5295 Y-33.0216 F30.00
G01 X56.5225 Y-33.0158 F30.00
G01 X56.5161 Y-33.0093 F30.00
G01 X56.5103 Y-33.0022 F30.00
G01 X56.5042 Y-32.9926 F30.00
G01 X56.5002 Y-32.9844 F30.00
G01 X56.4726 Y-32.9104 F30.00
G01 X56.4698 Y-32.8994 F30.00
G01 X56.4688 Y-32.8926 F30.00
G01 X56.4683 Y-32.8858 F30.00
G01 X56.4680 Y-32.8737 F30.00
G01 X56.4680 Y-23.8904 F30.00
G01 X56.4698 Y-23.8337 F30.00
G01 X56.4623 Y-23.8029 F30.00
G01 X56.4602 Y-23.7921 F30.00
G01 X56.4551 Y-23.7561 F30.00
G01 X56.4510 Y-23.7464 F30.00
G01 X56.4434 Y-23.7239 F30.00
G01 X56.4400 Y-23.7112 F30.00
G01 X56.4223 Y-23.6795 F30.00
G01 X56.4175 Y-23.6695 F30.00
G01 X56.4049 Y-23.6405 F30.00
G01 X56.3968 Y-23.6301 F30.00
G01 X56.3835 Y-23.6104 F30.00
G01 X56.3782 Y-23.6013 F30.00
G01 X56.3559 Y-23.5790 F30.00
G01 X56.3484 Y-23.5708 F30.00
G01 X56.3253 Y-23.5427 F30.00
G01 X56.3148 Y-23.5349 F30.00
G01 X56.2928 Y-23.5159 F30.00
G01 X53.1399 Y-20.3630 F30.00
G01 X53.1011 Y-20.3216 F30.00
G01 X53.0701 Y-20.3026 F30.00
G01 X53.0611 Y-20.2962 F30.00
G01 X53.0359 Y-20.2771 F30.00
G01 X53.0261 Y-20.2731 F30.00
G01 X53.0048 Y-20.2626 F30.00
G01 X52.9934 Y-20.2561 F30.00
G01 X52.9584 Y-20.2461 F30.00
G01 X52.9480 Y-20.2425 F30.00
G01 X52.9186 Y-20.2309 F30.00
G01 X52.9081 Y-20.2297 F30.00
G01 X52.8848 Y-20.2253 F30.00
G01 X52.8720 Y-20.2220 F30.00
G01 X52.8404 Y-20.2220 F30.00
G01 X52.8294 Y-20.2216 F30.00
G01 X52.7932 Y-20.2180 F30.00
G01 X52.7802 Y-20.2199 F30.00
G01 X52.7513 Y-20.2220 F30.00
G01 X49.9507 Y-20.2220 F30.00
G01 X49.9398 Y-20.2211 F30.00
G01 X49.9291 Y-20.2189 F30.00
G01 X49.8535 Y-20.1965 F30.00
G01 X49.8451 Y-20.1928 F30.00
G01 X49.8352 Y-20.1871 F30.00
G01 X49.8278 Y-20.1817 F30.00
G01 X49.8194 Y-20.1740 F30.00
G01 X49.7691 Y-20.1161 F30.00
G01 X49.7637 Y-20.1087 F30.00
G01 X49.7579 Y-20.0988 F30.00
G01 X49.7542 Y-20.0904 F30.00
G01 X49.7508 Y-20.0794 F30.00
G01 X49.7386 Y-20.0235 F30.00
G01 X49.7376 Y-20.0170 F30.00
G01 X49.7370 Y-20.0083 F30.00
G01 X49.7369 Y-16.2450 F30.00
G01 X49.7388 Y-16.1883 F30.00
G01 X49.7313 Y-16.1575 F30.00
G01 X49.7292 Y-16.1467 F30.00
G01 X49.7241 Y-16.1107 F30.00
G01 X49.7192 Y-16.0985 F30.00
G01 X49.7116 Y-16.0760 F30.00
G01 X49.7090 Y-16.0658 F30.00
G01 X49.6913 Y-16.0341 F30.00
G01 X49.6865 Y-16.0241 F30.00
G01 X49.6739 Y-15.9951 F30.00
G01 X49.6658 Y-15.9847 F30.00
G01 X49.6525 Y-15.9650 F30.00
G01 X49.6472 Y-15.9559 F30.00
G01 X49.6216 Y-15.9301 F30.00
G01 X49.6143 Y-15.9219 F30.00
G01 X49.5943 Y-15.8973 F30.00
G01 X49.5838 Y-15.8895 F30.00
G01 X49.5618 Y-15.8705 F30.00
G01 X48.9997 Y-15.3084 F30.00
G01 X48.9609 Y-15.2670 F30.00
G01 X48.9299 Y-15.2480 F30.00
G01 X48.9209 Y-15.2416 F30.00
G01 X48.8957 Y-15.2225 F30.00
G01 X48.8859 Y-15.2185 F30.00
G01 X48.8646 Y-15.2080 F30.00
G01 X48.8532 Y-15.2015 F30.00
G01 X48.8182 Y-15.1915 F30.00
G01 X48.8078 Y-15.1879 F30.00
G01 X48.7784 Y-15.1763 F30.00
G01 X48.7679 Y-15.1751 F30.00
G01 X48.7446 Y-15.1707 F30.00
G01 X48.7318 Y-15.1674 F30.00
G01 X48.7002 Y-15.1674 F30.00
G01 X48.6892 Y-15.1670 F30.00
G01 X48.6530 Y-15.1634 F30.00
G01 X48.6426 Y-15.1651 F30.00
G01 X48.6137 Y-15.1674 F30.00
G01 X48.4394 Y-15.1672 F30.00
G01 X48.4307 Y-15.1662 F30.00
G01 X48.4222 Y-15.1643 F30.00
G01 X48.3487 Y-15.1426 F30.00
G01 X48.3402 Y-15.1392 F30.00
G01 X48.3302 Y-15.1338 F30.00
G01 X48.3227 Y-15.1286 F30.00
G01 X48.3158 Y-15.1226 F30.00
G01 X48.3094 Y-15.1160 F30.00
G01 X48.2637 Y-15.0632 F30.00
G01 X48.2568 Y-15.0542 F30.00
G01 X48.2532 Y-15.0483 F30.00
G01 X48.2500 Y-15.0422 F30.00
G01 X48.2458 Y-15.0316 F30.00
G01 X48.2439 Y-15.0251 F30.00
G01 X48.2425 Y-15.0184 F30.00
G01 X48.2317 Y-14.9424 F30.00
G01 X48.2313 Y-14.9310 F30.00
G01 X48.2324 Y-14.9196 F30.00
G01 X48.2348 Y-14.9085 F30.00
G01 X48.2387 Y-14.8977 F30.00
G01 X48.2706 Y-14.8279 F30.00
G01 X48.2741 Y-14.8219 F30.00
G01 X48.2793 Y-14.8143 F30.00
G01 X48.2838 Y-14.8089 F30.00
G01 X48.2886 Y-14.8039 F30.00
G01 X48.2956 Y-14.7979 F30.00
G01 X48.3348 Y-14.7673 F30.00
G01 X48.3421 Y-14.7623 F30.00
G01 X48.3486 Y-14.7587 F30.00
G01 X48.4177 Y-14.6896 F30.00
G01 X48.4621 Y-14.6025 F30.00
G01 X48.4735 Y-14.5303 F30.00
G01 X48.4735 Y-14.1817 F30.00
G01 X48.4621 Y-14.1095 F30.00
G01 X48.4177 Y-14.0224 F30.00
G01 X48.3486 Y-13.9533 F30.00
G01 X48.2685 Y-13.9124 F30.00
G01 X48.2574 Y-13.9054 F30.00
G01 X48.2490 Y-13.8983 F30.00
G01 X48.1966 Y-13.8488 F30.00
G01 X48.1904 Y-13.8420 F30.00
G01 X48.1850 Y-13.8347 F30.00
G01 X48.1814 Y-13.8289 F30.00
G01 X48.1773 Y-13.8207 F30.00
G01 X48.1740 Y-13.8122 F30.00
G01 X48.1721 Y-13.8056 F30.00
G01 X48.1543 Y-13.7333 F30.00
G01 X48.1533 Y-13.7266 F30.00
G01 X48.1527 Y-13.7197 F30.00
G01 X48.1526 Y-13.7129 F30.00
G01 X48.1531 Y-13.7061 F30.00
G01 X48.1545 Y-13.6970 F30.00
G01 X48.1568 Y-13.6882 F30.00
G01 X48.1808 Y-13.6178 F30.00
G01 X48.1842 Y-13.6097 F30.00
G01 X48.1873 Y-13.6038 F30.00
G01 X48.1921 Y-13.5964 F30.00
G01 X48.1961 Y-13.5911 F30.00
G01 X48.2005 Y-13.5862 F30.00
G01 X48.2069 Y-13.5801 F30.00
G01 X48.2519 Y-13.5410 F30.00
G01 X48.2608 Y-13.5342 F30.00
G01 X48.2704 Y-13.5286 F30.00
G01 X48.3486 Y-13.4887 F30.00
G01 X48.4177 Y-13.4196 F30.00
G01 X48.4621 Y-13.3325 F30.00
G01 X48.4735 Y-13.2603 F30.00
G01 X48.4735 Y-12.9117 F30.00
G01 X48.4621 Y-12.8395 F30.00
G01 X48.4177 Y-12.7524 F30.00
G01 X48.3486 Y-12.6833 F30.00
G01 X48.2615 Y-12.6389 F30.00
G01 X48.1893 Y-12.6274 F30.00
G01 X48.1145 Y-12.6274 F30.00
G01 X48.1014 Y-12.6265 F30.00
G01 X48.0886 Y-12.6237 F30.00
G01 X48.0216 Y-12.6040 F30.00
G01 X48.0108 Y-12.6002 F30.00
G01 X48.0026 Y-12.5961 F30.00
G01 X47.9930 Y-12.5899 F30.00
G01 X47.9860 Y-12.5842 F30.00
G01 X47.9780 Y-12.5760 F30.00
G01 X47.9279 Y-12.5179 F30.00
G01 X47.9228 Y-12.5102 F30.00
G01 X47.9195 Y-12.5042 F30.00
G01 X47.9166 Y-12.4979 F30.00
G01 X47.9136 Y-12.4892 F30.00
G01 X47.9002 Y-12.4289 F30.00
G01 X47.8992 Y-12.4224 F30.00
G01 X47.8986 Y-12.4137 F30.00
G01 X47.8986 Y-11.2913 F30.00
G01 X47.8995 Y-11.2804 F30.00
G01 X47.9017 Y-11.2697 F30.00
G01 X47.9234 Y-11.1962 F30.00
G01 X47.9268 Y-11.1877 F30.00
G01 X47.9310 Y-11.1797 F30.00
G01 X47.9361 Y-11.1720 F30.00
G01 X47.9418 Y-11.1650 F30.00
G01 X47.9500 Y-11.1570 F30.00
G01 X48.0028 Y-11.1112 F30.00
G01 X48.0100 Y-11.1056 F30.00
G01 X48.0178 Y-11.1006 F30.00
G01 X48.0281 Y-11.0956 F30.00
G01 X48.0390 Y-11.0919 F30.00
G01 X48.0971 Y-11.0792 F30.00
G01 X48.1058 Y-11.0780 F30.00
G01 X48.1145 Y-11.0775 F30.00
G01 X48.3739 Y-11.0775 F30.00
G01 X48.4172 Y-11.0729 F30.00
G01 X48.5288 Y-11.0313 F30.00
G01 X48.6232 Y-10.9606 F30.00
G01 X48.6306 Y-10.9526 F30.00
G01 X48.6389 Y-10.9456 F30.00
G01 X48.6949 Y-10.9037 F30.00
G01 X48.7062 Y-10.8965 F30.00
G01 X48.7185 Y-10.8909 F30.00
G01 X48.7293 Y-10.8877 F30.00
G01 X48.7770 Y-10.8790 F30.00
G01 X48.7863 Y-10.8778 F30.00
G01 X48.7933 Y-10.8776 F30.00
G01 X49.3317 Y-10.8776 F30.00
G01 X49.3426 Y-10.8782 F30.00
G01 X49.3512 Y-10.8797 F30.00
G01 X49.4268 Y-10.9016 F30.00
G01 X49.4372 Y-10.9057 F30.00
G01 X49.4471 Y-10.9110 F30.00
G01 X49.4545 Y-10.9161 F30.00
G01 X49.4597 Y-10.9204 F30.00
G01 X49.4953 Y-10.9535 F30.00
G01 X49.5018 Y-10.9606 F30.00
G01 X49.5962 Y-11.0313 F30.00
G01 X49.7078 Y-11.0729 F30.00
G01 X49.7511 Y-11.0776 F30.00
G01 X50.7869 Y-11.0775 F30.00
G01 X50.8302 Y-11.0729 F30.00
G01 X50.9418 Y-11.0313 F30.00
G01 X51.0362 Y-10.9606 F30.00
G01 X51.0436 Y-10.9526 F30.00
G01 X51.0502 Y-10.9469 F30.00
G01 X51.1097 Y-10.9024 F30.00
G01 X51.1173 Y-10.8975 F30.00
G01 X51.1253 Y-10.8935 F30.00
G01 X51.1336 Y-10.8902 F30.00
G01 X51.1423 Y-10.8877 F30.00
G01 X51.1923 Y-10.8786 F30.00
G01 X51.2040 Y-10.8776 F30.00
G01 X51.6793 Y-10.8776 F30.00
G01 X51.6903 Y-10.8782 F30.00
G01 X51.7010 Y-10.8801 F30.00
G01 X51.7723 Y-10.9010 F30.00
G01 X51.7849 Y-10.9057 F30.00
G01 X51.7967 Y-10.9122 F30.00
G01 X51.8074 Y-10.9204 F30.00
G01 X51.8413 Y-10.9519 F30.00
G01 X51.8478 Y-10.9586 F30.00
G01 X51.8522 Y-10.9641 F30.00
G01 X51.9300 Y-11.0680 F30.00
G01 X52.0183 Y-11.1341 F30.00
G01 X52.1232 Y-11.1732 F30.00
G01 X52.1634 Y-11.1776 F30.00
G01 X52.6946 Y-11.1775 F30.00
G01 X52.7348 Y-11.1732 F30.00
G01 X52.8397 Y-11.1341 F30.00
G01 X52.9280 Y-11.0680 F30.00
G01 X52.9941 Y-10.9797 F30.00
G01 X53.0332 Y-10.8748 F30.00
G01 X53.0375 Y-10.8346 F30.00
G01 X53.0375 Y-10.0034 F30.00
G01 X53.0332 Y-9.9632 F30.00
G01 X52.9941 Y-9.8583 F30.00
G01 X52.9280 Y-9.7700 F30.00
G01 X52.8397 Y-9.7039 F30.00
G01 X52.7348 Y-9.6648 F30.00
G01 X52.6946 Y-9.6604 F30.00
G01 X52.1634 Y-9.6604 F30.00
G01 X52.1232 Y-9.6648 F30.00
G01 X52.0183 Y-9.7039 F30.00
G01 X51.9300 Y-9.7700 F30.00
G01 X51.8522 Y-9.8739 F30.00
G01 X51.8451 Y-9.8823 F30.00
G01 X51.8354 Y-9.8911 F30.00
G01 X51.7741 Y-9.9369 F30.00
G01 X51.7664 Y-9.9415 F30.00
G01 X51.7604 Y-9.9445 F30.00
G01 X51.7520 Y-9.9478 F30.00
G01 X51.7456 Y-9.9497 F30.00
G01 X51.6933 Y-9.9594 F30.00
G01 X51.6817 Y-9.9604 F30.00
G01 X51.2063 Y-9.9604 F30.00
G01 X51.1954 Y-9.9598 F30.00
G01 X51.1868 Y-9.9583 F30.00
G01 X51.1112 Y-9.9364 F30.00
G01 X51.1008 Y-9.9323 F30.00
G01 X51.0909 Y-9.9270 F30.00
G01 X51.0835 Y-9.9219 F30.00
G01 X51.0783 Y-9.9176 F30.00
G01 X51.0427 Y-9.8845 F30.00
G01 X51.0362 Y-9.8774 F30.00
G01 X50.9418 Y-9.8067 F30.00
G01 X50.8302 Y-9.7651 F30.00
G01 X50.7870 Y-9.7605 F30.00
G01 X49.7511 Y-9.7604 F30.00
G01 X49.7078 Y-9.7651 F30.00
G01 X49.5962 Y-9.8067 F30.00
G01 X49.5018 Y-9.8774 F30.00
G01 X49.4944 Y-9.8854 F30.00
G01 X49.4861 Y-9.8924 F30.00
G01 X49.4283 Y-9.9356 F30.00
G01 X49.4168 Y-9.9426 F30.00
G01 X49.4044 Y-9.9478 F30.00
G01 X49.3935 Y-9.9507 F30.00
G01 X49.3457 Y-9.9594 F30.00
G01 X49.3340 Y-9.9604 F30.00
G01 X48.7933 Y-9.9604 F30.00
G01 X48.7824 Y-9.9598 F30.00
G01 X48.7738 Y-9.9583 F30.00
G01 X48.6982 Y-9.9364 F30.00
G01 X48.6878 Y-9.9323 F30.00
G01 X48.6779 Y-9.9270 F30.00
G01 X48.6723 Y-9.9232 F30.00
G01 X48.6653 Y-9.9176 F30.00
G01 X48.6297 Y-9.8845 F30.00
G01 X48.6232 Y-9.8774 F30.00
G01 X48.5288 Y-9.8067 F30.00
G01 X48.4172 Y-9.7651 F30.00
G01 X48.3740 Y-9.7605 F30.00
G01 X47.3381 Y-9.7604 F30.00
G01 X47.2948 Y-9.7651 F30.00
G01 X47.1832 Y-9.8067 F30.00
G01 X47.0891 Y-9.8771 F30.00
G01 X47.0187 Y-9.9712 F30.00
G01 X46.9771 Y-10.0828 F30.00
G01 X46.9724 Y-10.1261 F30.00
G01 X46.9724 Y-10.7119 F30.00
G01 X46.9795 Y-10.7789 F30.00
G01 X46.9794 Y-10.7913 F30.00
G01 X46.9806 Y-10.8104 F30.00
G01 X46.9806 Y-10.8170 F30.00
G01 X46.9774 Y-10.8508 F30.00
G01 X46.9793 Y-10.8638 F30.00
G01 X46.9814 Y-10.8927 F30.00
G01 X46.9814 Y-12.4115 F30.00
G01 X46.9808 Y-12.4224 F30.00
G01 X46.9789 Y-12.4332 F30.00
G01 X46.9580 Y-12.5044 F30.00
G01 X46.9559 Y-12.5109 F30.00
G01 X46.9532 Y-12.5173 F30.00
G01 X46.9501 Y-12.5234 F30.00
G01 X46.9465 Y-12.5292 F30.00
G01 X46.9397 Y-12.5383 F30.00
G01 X46.9317 Y-12.5465 F30.00
G01 X46.8755 Y-12.5953 F30.00
G01 X46.8700 Y-12.5994 F30.00
G01 X46.8642 Y-12.6032 F30.00
G01 X46.8561 Y-12.6075 F30.00
G01 X46.8498 Y-12.6102 F30.00
G01 X46.8432 Y-12.6124 F30.00
G01 X46.8366 Y-12.6141 F30.00
G01 X46.7850 Y-12.6253 F30.00
G01 X46.7764 Y-12.6268 F30.00
G01 X46.7677 Y-12.6274 F30.00
G01 X46.7274 Y-12.6274 F30.00
G01 X46.6707 Y-12.6256 F30.00
G01 X46.6353 Y-12.6341 F30.00
G01 X46.6245 Y-12.6360 F30.00
G01 X46.5931 Y-12.6403 F30.00
G01 X46.5809 Y-12.6452 F30.00
G01 X46.5584 Y-12.6528 F30.00
G01 X46.5482 Y-12.6554 F30.00
G01 X46.5206 Y-12.6709 F30.00
G01 X46.5108 Y-12.6759 F30.00
G01 X46.4775 Y-12.6905 F30.00
G01 X46.4692 Y-12.6971 F30.00
G01 X46.4496 Y-12.7105 F30.00
G01 X46.4383 Y-12.7172 F30.00
G01 X46.4125 Y-12.7428 F30.00
G01 X46.4042 Y-12.7501 F30.00
G01 X46.3797 Y-12.7701 F30.00
G01 X46.3719 Y-12.7806 F30.00
G01 X46.3529 Y-12.8026 F30.00
G01 X44.8813 Y-14.2742 F30.00
G01 X44.8748 Y-14.2801 F30.00
G01 X44.8678 Y-14.2853 F30.00
G01 X44.8604 Y-14.2899 F30.00
G01 X44.7990 Y-14.3234 F30.00
G01 X44.7888 Y-14.3282 F30.00
G01 X44.7803 Y-14.3311 F30.00
G01 X44.7715 Y-14.3331 F30.00
G01 X44.7360 Y-14.3372 F30.00
G01 X44.7286 Y-14.3374 F30.00
G01 X44.2901 Y-14.3374 F30.00
G01 X44.2468 Y-14.3421 F30.00
G01 X44.1352 Y-14.3837 F30.00
G01 X44.0411 Y-14.4541 F30.00
G01 X43.9707 Y-14.5482 F30.00
G01 X43.9291 Y-14.6598 F30.00
G01 X43.9245 Y-14.7031 F30.00
G01 X43.9244 Y-14.8138 F30.00
G01 X43.9238 Y-14.8247 F30.00
G01 X43.9223 Y-14.8333 F30.00
G01 X43.9207 Y-14.8397 F30.00
G01 X43.9010 Y-14.9067 F30.00
G01 X43.8989 Y-14.9132 F30.00
G01 X43.8962 Y-14.9195 F30.00
G01 X43.8908 Y-14.9296 F30.00
G01 X43.8856 Y-14.9370 F30.00
G01 X43.8796 Y-14.9440 F30.00
G01 X43.8730 Y-14.9503 F30.00
G01 X43.8149 Y-15.0003 F30.00
G01 X43.8092 Y-15.0042 F30.00
G01 X43.8033 Y-15.0077 F30.00
G01 X43.7951 Y-15.0116 F30.00
G01 X43.7886 Y-15.0139 F30.00
G01 X43.7821 Y-15.0158 F30.00
G01 X43.7754 Y-15.0172 F30.00
G01 X43.7017 Y-15.0278 F30.00
G01 X43.6948 Y-15.0284 F30.00
G01 X43.6880 Y-15.0284 F30.00
G01 X43.6812 Y-15.0279 F30.00
G01 X43.6744 Y-15.0270 F30.00
G01 X43.6655 Y-15.0249 F30.00
G01 X43.6547 Y-15.0211 F30.00
G01 X43.5870 Y-14.9902 F30.00
G01 X43.5810 Y-14.9869 F30.00
G01 X43.5753 Y-14.9833 F30.00
G01 X43.5698 Y-14.9792 F30.00
G01 X43.5646 Y-14.9748 F30.00
G01 X43.5558 Y-14.9665 F30.00
G01 X42.1025 Y-13.5131 F30.00
G01 X42.0954 Y-13.5048 F30.00
G01 X42.0883 Y-13.4937 F30.00
G01 X42.0538 Y-13.4304 F30.00
G01 X42.0500 Y-13.4222 F30.00
G01 X42.0465 Y-13.4115 F30.00
G01 X42.0441 Y-13.3982 F30.00
G01 X42.0410 Y-13.3694 F30.00
G01 X42.0407 Y-13.3620 F30.00
G01 X42.0407 Y-10.0050 F30.00
G01 X42.0417 Y-9.9919 F30.00
G01 X42.0445 Y-9.9791 F30.00
G01 X42.0648 Y-9.9099 F30.00
G01 X42.0689 Y-9.8994 F30.00
G01 X42.0743 Y-9.8895 F30.00
G01 X42.0808 Y-9.8803 F30.00
G01 X42.0990 Y-9.8577 F30.00
G01 X42.1040 Y-9.8523 F30.00
G01 X47.6353 Y-4.3213 F30.00
G01 X47.6422 Y-4.3159 F30.00
G01 X47.6495 Y-4.3112 F30.00
G01 X47.7128 Y-4.2766 F30.00
G01 X47.7209 Y-4.2727 F30.00
G01 X47.7315 Y-4.2689 F30.00
G01 X47.7403 Y-4.2669 F30.00
G01 X47.7758 Y-4.2628 F30.00
G01 X47.7832 Y-4.2626 F30.00
G01 X48.6694 Y-4.2626 F30.00
G01 X48.7157 Y-4.2534 F30.00
G01 X48.7681 Y-4.2183 F30.00
G01 X48.8032 Y-4.1659 F30.00
G01 X48.8124 Y-4.1196 F30.00
G01 X48.8124 Y-2.7884 F30.00
G01 X48.8032 Y-2.7421 F30.00
G01 X48.7681 Y-2.6897 F30.00
G01 X48.7157 Y-2.6546 F30.00
G01 X48.6694 Y-2.6454 F30.00
G01 X47.0382 Y-2.6454 F30.00
G01 X46.9919 Y-2.6546 F30.00
G01 X46.9395 Y-2.6897 F30.00
G01 X46.9044 Y-2.7421 F30.00
G01 X46.8952 Y-2.7884 F30.00
G01 X46.8952 Y-3.6746 F30.00
G01 X46.8948 Y-3.6834 F30.00
G01 X46.8936 Y-3.6920 F30.00
G01 X46.8921 Y-3.6984 F30.00
G01 X46.8718 Y-3.7676 F30.00
G01 X46.8689 Y-3.7761 F30.00
G01 X46.8640 Y-3.7863 F30.00
G01 X46.8593 Y-3.7939 F30.00
G01 X46.8370 Y-3.8219 F30.00
G01 X46.8320 Y-3.8273 F30.00
G01 X41.2646 Y-9.3947 F30.00
G01 X41.2232 Y-9.4335 F30.00
G01 X41.2067 Y-9.4605 F30.00
G01 X41.2006 Y-9.4697 F30.00
G01 X41.1787 Y-9.4987 F30.00
G01 X41.1747 Y-9.5085 F30.00
G01 X41.1642 Y-9.5298 F30.00
G01 X41.1577 Y-9.5412 F30.00
G01 X41.1491 Y-9.5716 F30.00
G01 X41.1457 Y-9.5822 F30.00
G01 X41.1325 Y-9.6160 F30.00
G01 X41.1313 Y-9.6265 F30.00
G01 X41.1269 Y-9.6498 F30.00
G01 X41.1237 Y-9.6626 F30.00
G01 X41.1236 Y-9.6942 F30.00
G01 X41.1232 Y-9.7052 F30.00
G01 X41.1196 Y-9.7414 F30.00
G01 X41.1215 Y-9.7544 F30.00
G01 X41.1236 Y-9.7833 F30.00
G01 X41.1236 Y-12.0130 F30.00
G01 X41.1230 Y-12.0239 F30.00
G01 X41.1220 Y-12.0304 F30.00
G01 X41.1199 Y-12.0389 F30.00
G01 X41.1002 Y-12.1059 F30.00
G01 X41.0972 Y-12.1145 F30.00
G01 X41.0923 Y-12.1248 F30.00
G01 X41.0875 Y-12.1326 F30.00
G01 X41.0819 Y-12.1398 F30.00
G01 X41.0739 Y-12.1480 F30.00
G01 X41.0159 Y-12.1982 F30.00
G01 X41.0065 Y-12.2046 F30.00
G01 X40.9964 Y-12.2099 F30.00
G01 X40.9857 Y-12.2138 F30.00
G01 X40.9746 Y-12.2164 F30.00
G01 X40.8963 Y-12.2274 F30.00
G01 X40.8849 Y-12.2275 F30.00
G01 X40.8758 Y-12.2266 F30.00
G01 X40.8647 Y-12.2241 F30.00
G01 X40.8539 Y-12.2203 F30.00
G01 X40.7822 Y-12.1873 F30.00
G01 X40.7764 Y-12.1838 F30.00
G01 X40.7690 Y-12.1784 F30.00
G01 X40.7550 Y-12.1657 F30.00
G01 X33.6687 Y-5.0794 F30.00
G01 X33.6509 Y-5.0591 F30.00
G01 X33.6403 Y-5.0450 F30.00
G01 X33.6070 Y-5.0170 F30.00
G01 X33.5965 Y-5.0072 F30.00
G01 X33.5729 Y-4.9885 F30.00
G01 X33.5182 Y-4.9426 F30.00
G01 X33.5135 Y-4.9395 F30.00
G01 X33.5110 Y-4.9380 F30.00
G01 X33.4438 Y-4.9066 F30.00
G01 X33.3799 Y-4.8745 F30.00
G01 X33.3718 Y-4.8717 F30.00
G01 X33.3018 Y-4.8573 F30.00
G01 X33.2297 Y-4.8402 F30.00
G01 X33.2212 Y-4.8393 F30.00
G01 X33.1471 Y-4.8414 F30.00
G01 X18.5137 Y-4.8414 F30.00
G01 X18.4868 Y-4.8397 F30.00
G01 X18.4693 Y-4.8372 F30.00
G01 X18.4260 Y-4.8410 F30.00
G01 X18.4116 Y-4.8414 F30.00
G01 X18.3817 Y-4.8449 F30.00
G01 X18.3106 Y-4.8511 F30.00
G01 X18.3022 Y-4.8530 F30.00
G01 X18.2350 Y-4.8774 F30.00
G01 X18.1647 Y-4.9008 F30.00
G01 X18.1595 Y-4.9032 F30.00
G01 X18.1569 Y-4.9045 F30.00
G01 X18.0950 Y-4.9452 F30.00
G01 X18.0342 Y-4.9827 F30.00
G01 X18.0275 Y-4.9882 F30.00
G01 X17.9766 Y-5.0420 F30.00
G01 X16.8529 Y-6.1657 F30.00
G01 X16.8446 Y-6.1727 F30.00
G01 X16.8355 Y-6.1788 F30.00
G01 X16.7702 Y-6.2144 F30.00
G01 X16.7598 Y-6.2190 F30.00
G01 X16.7510 Y-6.2217 F30.00
G01 X16.7398 Y-6.2238 F30.00
G01 X16.7285 Y-6.2246 F30.00
G01 X16.6496 Y-6.2192 F30.00
G01 X16.6384 Y-6.2174 F30.00
G01 X16.6317 Y-6.2156 F30.00
G01 X16.6253 Y-6.2134 F30.00
G01 X16.6169 Y-6.2097 F30.00
G01 X16.6109 Y-6.2064 F30.00
G01 X16.6034 Y-6.2013 F30.00
G01 X16.5813 Y-6.1847 F30.00
G01 X16.5705 Y-6.1798 F30.00
G01 X16.5609 Y-6.1739 F30.00
G01 X16.5538 Y-6.1684 F30.00
G01 X16.5472 Y-6.1621 F30.00
G01 X16.4478 Y-6.0877 F30.00
G01 X16.3362 Y-6.0461 F30.00
G01 X16.2929 Y-6.0414 F30.00
G01 X15.7071 Y-6.0414 F30.00
G01 X15.6638 Y-6.0461 F30.00
G01 X15.5522 Y-6.0877 F30.00
G01 X15.4581 Y-6.1581 F30.00
G01 X15.3877 Y-6.2522 F30.00
G01 X15.3461 Y-6.3638 F30.00
G01 X15.3415 Y-6.4070 F30.00
G01 X15.3414 Y-7.8607 F30.00
G01 X15.3412 Y-7.8677 F30.00
G01 X15.3393 Y-7.8868 F30.00
G01 X15.3414 Y-7.9609 F30.00
G01 X15.3414 Y-11.0939 F30.00
G01 X15.3412 Y-11.1009 F30.00
G01 X15.3404 Y-11.1079 F30.00
G01 X15.3312 Y-11.1581 F30.00
G01 X15.3286 Y-11.1671 F30.00
G01 X15.3149 Y-11.2040 F30.00
G01 X15.3103 Y-11.2472 F30.00
G01 X15.3102 Y-12.2831 F30.00
G01 X15.3149 Y-12.3264 F30.00
G01 X15.3278 Y-12.3611 F30.00
G01 X15.3307 Y-12.3700 F30.00
G01 X15.3400 Y-12.4202 F30.00
G01 X15.3413 Y-12.4318 F30.00
G01 X15.3414 Y-13.0118 F30.00
G01 X15.3405 Y-13.0227 F30.00
G01 X15.3377 Y-13.0356 F30.00
G01 X15.3174 Y-13.1047 F30.00
G01 X15.3142 Y-13.1132 F30.00
G01 X15.3103 Y-13.1212 F30.00
G01 X15.3055 Y-13.1289 F30.00
G01 X15.3001 Y-13.1360 F30.00
G01 X15.2655 Y-13.1733 F30.00
G01 X15.2568 Y-13.1811 F30.00
G01 X15.2371 Y-13.1958 F30.00
G01 X15.1667 Y-13.2899 F30.00
G01 X15.1251 Y-13.4015 F30.00
G01 X15.1204 Y-13.4448 F30.00
G01 X15.1204 Y-14.0556 F30.00
G00 Z2.0000
G00 X15.6013 Y-24.0660
G01 F10.00
G01 Z-0.0500
G01 F30.00
G01 X15.6013 Y-24.9660 F30.00
G01 X15.6029 Y-24.9995 F30.00
G01 X15.6070 Y-25.0283 F30.00
G01 X15.6088 Y-25.0371 F30.00
G01 X15.6160 Y-25.0653 F30.00
G01 X15.6273 Y-25.0969 F30.00
G01 X15.6416 Y-25.1272 F30.00
G01 X15.6565 Y-25.1522 F30.00
G01 X15.6615 Y-25.1597 F30.00
G01 X15.6803 Y-25.1847 F30.00
G01 X15.7014 Y-25.2078 F30.00
G01 X15.7229 Y-25.2274 F30.00
G01 X15.7280 Y-25.2317 F30.00
G01 X15.7495 Y-25.2477 F30.00
G01 X15.7570 Y-25.2527 F30.00
G01 X15.7820 Y-25.2676 F30.00
G01 X15.8123 Y-25.2819 F30.00
G01 X15.8397 Y-25.2918 F30.00
G01 X15.8483 Y-25.2944 F30.00
G01 X15.8765 Y-25.3014 F30.00
G01 X15.9074 Y-25.3061 F30.00
G01 X15.9432 Y-25.3079 F30.00
G01 X16.4705 Y-25.3079 F30.00
G01 X16.5017 Y-25.3063 F30.00
G01 X16.5349 Y-25.3014 F30.00
G01 X16.5675 Y-25.2932 F30.00
G01 X16.6011 Y-25.2810 F30.00
G01 X16.6294 Y-25.2676 F30.00
G01 X16.6582 Y-25.2503 F30.00
G01 X16.6851 Y-25.2303 F30.00
G01 X16.7067 Y-25.2109 F30.00
G01 X16.7131 Y-25.2045 F30.00
G01 X16.7311 Y-25.1847 F30.00
G01 X16.7353 Y-25.1794 F30.00
G01 X16.7525 Y-25.1560 F30.00
G01 X16.7687 Y-25.1292 F30.00
G01 X16.7823 Y-25.1010 F30.00
G01 X16.7857 Y-25.0926 F30.00
G01 X16.7954 Y-25.0653 F30.00
G01 X16.8036 Y-25.0327 F30.00
G01 X16.8080 Y-25.0040 F30.00
G01 X16.8088 Y-24.9950 F30.00
G01 X16.8101 Y-24.9683 F30.00
G01 X16.8101 Y-24.9081 F30.00
G01 X22.8624 Y-24.9081 F30.00
G01 X22.9008 Y-24.9062 F30.00
G01 X22.9411 Y-24.9001 F30.00
G01 X22.9762 Y-24.8912 F30.00
G01 X23.0082 Y-24.8799 F30.00
G01 X23.0166 Y-24.8764 F30.00
G01 X23.0472 Y-24.8618 F30.00
G01 X23.0802 Y-24.8420 F30.00
G01 X23.1076 Y-24.8219 F30.00
G01 X23.1146 Y-24.8161 F30.00
G01 X23.1397 Y-24.7933 F30.00
G01 X26.3401 Y-21.5929 F30.00
G01 X26.3659 Y-21.5643 F30.00
G01 X26.3862 Y-21.5371 F30.00
G01 X26.3912 Y-21.5296 F30.00
G01 X26.4086 Y-21.5004 F30.00
G01 X26.4232 Y-21.4698 F30.00
G01 X26.4267 Y-21.4614 F30.00
G01 X26.4380 Y-21.4294 F30.00
G01 X26.4474 Y-21.3921 F30.00
G01 X26.4525 Y-21.3585 F30.00
G01 X26.4533 Y-21.3495 F30.00
G01 X26.4549 Y-21.3156 F30.00
G01 X26.4530 Y-21.2772 F30.00
G01 X26.4474 Y-21.2391 F30.00
G01 X26.4380 Y-21.2018 F30.00
G01 X26.4276 Y-21.1723 F30.00
G01 X26.4276 Y-12.9634 F30.00
G01 X26.4552 Y-12.9506 F30.00
G01 X26.4631 Y-12.9463 F30.00
G01 X26.4880 Y-12.9313 F30.00
G01 X26.5149 Y-12.9113 F30.00
G01 X26.5365 Y-12.8919 F30.00
G01 X26.5429 Y-12.8855 F30.00
G01 X26.5623 Y-12.8639 F30.00
G01 X26.5823 Y-12.8370 F30.00
G01 X26.5973 Y-12.8121 F30.00
G01 X26.6016 Y-12.8042 F30.00
G01 X26.6139 Y-12.7779 F30.00
G01 X26.6252 Y-12.7463 F30.00
G01 X26.6334 Y-12.7137 F30.00
G01 X26.6378 Y-12.6850 F30.00
G01 X26.6386 Y-12.6760 F30.00
G01 X26.6399 Y-12.6470 F30.00
G01 X26.6399 Y-11.7470 F30.00
G01 X26.6383 Y-11.7135 F30.00
G01 X26.6334 Y-11.6803 F30.00
G01 X26.6264 Y-11.6521 F30.00
G01 X26.6238 Y-11.6435 F30.00
G01 X26.6139 Y-11.6161 F30.00
G01 X26.5996 Y-11.5858 F30.00
G01 X26.5847 Y-11.5608 F30.00
G01 X26.5797 Y-11.5533 F30.00
G01 X26.5623 Y-11.5301 F30.00
G01 X26.5429 Y-11.5085 F30.00
G01 X26.5365 Y-11.5021 F30.00
G01 X26.5132 Y-11.4813 F30.00
G01 X26.4880 Y-11.4627 F30.00
G01 X26.4631 Y-11.4477 F30.00
G01 X26.4552 Y-11.4434 F30.00
G01 X26.4289 Y-11.4311 F30.00
G01 X26.4015 Y-11.4212 F30.00
G01 X26.3921 Y-11.4184 F30.00
G01 X26.3921 Y-9.7607 F30.00
G01 X26.4112 Y-9.7516 F30.00
G01 X26.4381 Y-9.7356 F30.00
G01 X26.4687 Y-9.7129 F30.00
G01 X26.4918 Y-9.6918 F30.00
G01 X26.5114 Y-9.6703 F30.00
G01 X26.5171 Y-9.6634 F30.00
G01 X26.5356 Y-9.6381 F30.00
G01 X26.5516 Y-9.6112 F30.00
G01 X26.5641 Y-9.5850 F30.00
G01 X26.5675 Y-9.5766 F30.00
G01 X26.5772 Y-9.5493 F30.00
G01 X26.5854 Y-9.5167 F30.00
G01 X26.5898 Y-9.4880 F30.00
G01 X26.5906 Y-9.4790 F30.00
G01 X26.5919 Y-9.4500 F30.00
G01 X26.5918 Y-6.4455 F30.00
G01 X26.5905 Y-6.4187 F30.00
G01 X26.5898 Y-6.4120 F30.00
G01 X26.5854 Y-6.3833 F30.00
G01 X26.5784 Y-6.3551 F30.00
G01 X26.5758 Y-6.3465 F30.00
G01 X26.5659 Y-6.3191 F30.00
G01 X26.5505 Y-6.2868 F30.00
G01 X26.5367 Y-6.2638 F30.00
G01 X26.5317 Y-6.2563 F30.00
G01 X26.5143 Y-6.2331 F30.00
G01 X26.4949 Y-6.2115 F30.00
G01 X26.4885 Y-6.2051 F30.00
G01 X26.4669 Y-6.1857 F30.00
G01 X26.4437 Y-6.1683 F30.00
G01 X26.4362 Y-6.1633 F30.00
G01 X26.4112 Y-6.1484 F30.00
G01 X26.3850 Y-6.1359 F30.00
G01 X26.3766 Y-6.1325 F30.00
G01 X26.3514 Y-6.1235 F30.00
G01 X26.3167 Y-6.1146 F30.00
G01 X26.2880 Y-6.1102 F30.00
G01 X26.2790 Y-6.1094 F30.00
G01 X26.2500 Y-6.1081 F30.00
G01 X25.7477 Y-6.1081 F30.00
G01 X25.7210 Y-6.1094 F30.00
G01 X25.7120 Y-6.1102 F30.00
G01 X25.6833 Y-6.1146 F30.00
G01 X25.6551 Y-6.1216 F30.00
G01 X25.6465 Y-6.1242 F30.00
G01 X25.6212 Y-6.1332 F30.00
G01 X25.6150 Y-6.1359 F30.00
G01 X25.5888 Y-6.1484 F30.00
G01 X25.5600 Y-6.1657 F30.00
G01 X25.5331 Y-6.1857 F30.00
G01 X25.5115 Y-6.2051 F30.00
G01 X25.5051 Y-6.2115 F30.00
G01 X25.4857 Y-6.2331 F30.00
G01 X25.4683 Y-6.2563 F30.00
G01 X25.4633 Y-6.2638 F30.00
G01 X25.4484 Y-6.2888 F30.00
G01 X25.4341 Y-6.3191 F30.00
G01 X25.4228 Y-6.3507 F30.00
G01 X25.4156 Y-6.3789 F30.00
G01 X25.4142 Y-6.3855 F30.00
G01 X25.4102 Y-6.4120 F30.00
G01 X25.4094 Y-6.4210 F30.00
G01 X25.4081 Y-6.4500 F30.00
G01 X25.4081 Y-9.4500 F30.00
G01 X25.4094 Y-9.4790 F30.00
G01 X25.4102 Y-9.4880 F30.00
G01 X25.4146 Y-9.5167 F30.00
G01 X25.4216 Y-9.5449 F30.00
G01 X25.4242 Y-9.5535 F30.00
G01 X25.4341 Y-9.5809 F30.00
G01 X25.4464 Y-9.6072 F30.00
G01 X25.4507 Y-9.6151 F30.00
G01 X25.4670 Y-9.6418 F30.00
G01 X25.4857 Y-9.6669 F30.00
G01 X25.5051 Y-9.6885 F30.00
G01 X25.5115 Y-9.6949 F30.00
G01 X25.5313 Y-9.7129 F30.00
G01 X25.5619 Y-9.7356 F30.00
G01 X25.5888 Y-9.7516 F30.00
G01 X25.6079 Y-9.7607 F30.00
G01 X25.6079 Y-11.4476 F30.00
G01 X25.5849 Y-11.4614 F30.00
G01 X25.5793 Y-11.4653 F30.00
G01 X25.5561 Y-11.4827 F30.00
G01 X25.5345 Y-11.5021 F30.00
G01 X25.5281 Y-11.5085 F30.00
G01 X25.5087 Y-11.5301 F30.00
G01 X25.4887 Y-11.5570 F30.00
G01 X25.4714 Y-11.5858 F30.00
G01 X25.4589 Y-11.6120 F30.00
G01 X25.4555 Y-11.6204 F30.00
G01 X25.4458 Y-11.6477 F30.00
G01 X25.4386 Y-11.6759 F30.00
G01 X25.4372 Y-11.6825 F30.00
G01 X25.4332 Y-11.7090 F30.00
G01 X25.4324 Y-11.7180 F30.00
G01 X25.4311 Y-11.7470 F30.00
G01 X25.4311 Y-12.6470 F30.00
G01 X25.4324 Y-12.6760 F30.00
G01 X25.4332 Y-12.6850 F30.00
G01 X25.4376 Y-12.7137 F30.00
G01 X25.4458 Y-12.7463 F30.00
G01 X25.4571 Y-12.7779 F30.00
G01 X25.4694 Y-12.8042 F30.00
G01 X25.4737 Y-12.8121 F30.00
G01 X25.4887 Y-12.8370 F30.00
G01 X25.5087 Y-12.8639 F30.00
G01 X25.5281 Y-12.8855 F30.00
G01 X25.5345 Y-12.8919 F30.00
G01 X25.5561 Y-12.9113 F30.00
G01 X25.5830 Y-12.9313 F30.00
G01 X25.6079 Y-12.9463 F30.00
G01 X25.6158 Y-12.9506 F30.00
G01 X25.6434 Y-12.9634 F30.00
G01 X25.6434 Y-21.1805 F30.00
G01 X22.7000 Y-24.1239 F30.00
G01 X16.8101 Y-24.1239 F30.00
G01 X16.8101 Y-24.0637 F30.00
G01 X16.8085 Y-24.0325 F30.00
G01 X16.8036 Y-23.9993 F30.00
G01 X16.7961 Y-23.9689 F30.00
G01 X16.7841 Y-23.9351 F30.00
G01 X16.7698 Y-23.9048 F30.00
G01 X16.7525 Y-23.8760 F30.00
G01 X16.7311 Y-23.8473 F30.00
G01 X16.7100 Y-23.8242 F30.00
G01 X16.6885 Y-23.8046 F30.00
G01 X16.6816 Y-23.7989 F30.00
G01 X16.6600 Y-23.7830 F30.00
G01 X16.6544 Y-23.7793 F30.00
G01 X16.6294 Y-23.7644 F30.00
G01 X16.6032 Y-23.7519 F30.00
G01 X16.5948 Y-23.7485 F30.00
G01 X16.5675 Y-23.7388 F30.00
G01 X16.5349 Y-23.7306 F30.00
G01 X16.5017 Y-23.7257 F30.00
G01 X16.4682 Y-23.7241 F30.00
G01 X15.9387 Y-23.7242 F30.00
G01 X15.9097 Y-23.7257 F30.00
G01 X15.8765 Y-23.7306 F30.00
G01 X15.8439 Y-23.7388 F30.00
G01 X15.8144 Y-23.7492 F30.00
G01 X15.7860 Y-23.7624 F30.00
G01 X15.7781 Y-23.7667 F30.00
G01 X15.7532 Y-23.7817 F30.00
G01 X15.7263 Y-23.8017 F30.00
G01 X15.7047 Y-23.8211 F30.00
G01 X15.6983 Y-23.8275 F30.00
G01 X15.6789 Y-23.8491 F30.00
G01 X15.6589 Y-23.8760 F30.00
G01 X15.6439 Y-23.9009 F30.00
G01 X15.6396 Y-23.9088 F30.00
G01 X15.6273 Y-23.9351 F30.00
G01 X15.6160 Y-23.9667 F30.00
G01 X15.6078 Y-23.9993 F30.00
G01 X15.6034 Y-24.0280 F30.00
G01 X15.6026 Y-24.0370 F30.00
G01 X15.6013 Y-24.0660 F30.00
G00 Z2.0000
G00 X11.6991 Y-24.0410
G01 F10.00
G01 Z-0.0500
G01 F30.00
G01 X11.6991 Y-24.9910 F30.00
G01 X11.7007 Y-25.0245 F30.00
G01 X11.7056 Y-25.0577 F30.00
G01 X11.7126 Y-25.0859 F30.00
G01 X11.7152 Y-25.0945 F30.00
G01 X11.7251 Y-25.1219 F30.00
G01 X11.7394 Y-25.1522 F30.00
G01 X11.7543 Y-25.1772 F30.00
G01 X11.7593 Y-25.1847 F30.00
G01 X11.7767 Y-25.2079 F30.00
G01 X11.7961 Y-25.2295 F30.00
G01 X11.8025 Y-25.2359 F30.00
G01 X11.8241 Y-25.2553 F30.00
G01 X11.8473 Y-25.2727 F30.00
G01 X11.8548 Y-25.2777 F30.00
G01 X11.8798 Y-25.2926 F30.00
G01 X11.9060 Y-25.3051 F30.00
G01 X11.9144 Y-25.3085 F30.00
G01 X11.9417 Y-25.3182 F30.00
G01 X11.9699 Y-25.3254 F30.00
G01 X11.9787 Y-25.3272 F30.00
G01 X12.0075 Y-25.3313 F30.00
G01 X12.0387 Y-25.3329 F30.00
G01 X12.5433 Y-25.3329 F30.00
G01 X12.5745 Y-25.3313 F30.00
G01 X12.6077 Y-25.3264 F30.00
G01 X12.6403 Y-25.3182 F30.00
G01 X12.6739 Y-25.3060 F30.00
G01 X12.7022 Y-25.2926 F30.00
G01 X12.7310 Y-25.2753 F30.00
G01 X12.7579 Y-25.2553 F30.00
G01 X12.7795 Y-25.2359 F30.00
G01 X12.7859 Y-25.2295 F30.00
G01 X12.8039 Y-25.2097 F30.00
G01 X12.8081 Y-25.2044 F30.00
G01 X12.8253 Y-25.1810 F30.00
G01 X12.8426 Y-25.1522 F30.00
G01 X12.8569 Y-25.1219 F30.00
G01 X12.8668 Y-25.0945 F30.00
G01 X12.8694 Y-25.0859 F30.00
G01 X12.8768 Y-25.0555 F30.00
G01 X12.8813 Y-25.0245 F30.00
G01 X12.8828 Y-24.9955 F30.00
G01 X12.8829 Y-24.9081 F30.00
G01 X13.7763 Y-24.9081 F30.00
G01 X13.7763 Y-24.9683 F30.00
G01 X13.7779 Y-24.9995 F30.00
G01 X13.7828 Y-25.0327 F30.00
G01 X13.7903 Y-25.0631 F30.00
G01 X13.8023 Y-25.0969 F30.00
G01 X13.8166 Y-25.1272 F30.00
G01 X13.8339 Y-25.1560 F30.00
G01 X13.8525 Y-25.1812 F30.00
G01 X13.8764 Y-25.2078 F30.00
G01 X13.9013 Y-25.2303 F30.00
G01 X13.9282 Y-25.2503 F30.00
G01 X13.9570 Y-25.2676 F30.00
G01 X13.9873 Y-25.2819 F30.00
G01 X14.0189 Y-25.2932 F30.00
G01 X14.0515 Y-25.3014 F30.00
G01 X14.0869 Y-25.3065 F30.00
G01 X14.1182 Y-25.3079 F30.00
G01 X14.6455 Y-25.3079 F30.00
G01 X14.6722 Y-25.3066 F30.00
G01 X14.6812 Y-25.3058 F30.00
G01 X14.7099 Y-25.3014 F30.00
G01 X14.7403 Y-25.2939 F30.00
G01 X14.7741 Y-25.2819 F30.00
G01 X14.8004 Y-25.2696 F30.00
G01 X14.8083 Y-25.2653 F30.00
G01 X14.8332 Y-25.2503 F30.00
G01 X14.8566 Y-25.2331 F30.00
G01 X14.8635 Y-25.2274 F30.00
G01 X14.8850 Y-25.2078 F30.00
G01 X14.9075 Y-25.1829 F30.00
G01 X14.9249 Y-25.1597 F30.00
G01 X14.9299 Y-25.1522 F30.00
G01 X14.9448 Y-25.1272 F30.00
G01 X14.9573 Y-25.1010 F30.00
G01 X14.9607 Y-25.0926 F30.00
G01 X14.9704 Y-25.0653 F30.00
G01 X14.9786 Y-25.0327 F30.00
G01 X14.9830 Y-25.0040 F30.00
G01 X14.9838 Y-24.9950 F30.00
G01 X14.9851 Y-24.9660 F30.00
G01 X14.9851 Y-24.0660 F30.00
G01 X14.9835 Y-24.0325 F30.00
G01 X14.9790 Y-24.0015 F30.00
G01 X14.9716 Y-23.9711 F30.00
G01 X14.9690 Y-23.9625 F30.00
G01 X14.9591 Y-23.9351 F30.00
G01 X14.9468 Y-23.9088 F30.00
G01 X14.9425 Y-23.9009 F30.00
G01 X14.9275 Y-23.8760 F30.00
G01 X14.9103 Y-23.8526 F30.00
G01 X14.9046 Y-23.8457 F30.00
G01 X14.8850 Y-23.8242 F30.00
G01 X14.8635 Y-23.8046 F30.00
G01 X14.8566 Y-23.7989 F30.00
G01 X14.8332 Y-23.7817 F30.00
G01 X14.8083 Y-23.7667 F30.00
G01 X14.8004 Y-23.7624 F30.00
G01 X14.7741 Y-23.7501 F30.00
G01 X14.7425 Y-23.7388 F30.00
G01 X14.7143 Y-23.7316 F30.00
G01 X14.7055 Y-23.7298 F30.00
G01 X14.6767 Y-23.7257 F30.00
G01 X14.6455 Y-23.7241 F30.00
G01 X14.1159 Y-23.7241 F30.00
G01 X14.0847 Y-23.7257 F30.00
G01 X14.0515 Y-23.7306 F30.00
G01 X14.0189 Y-23.7388 F30.00
G01 X13.9894 Y-23.7492 F30.00
G01 X13.9570 Y-23.7644 F30.00
G01 X13.9320 Y-23.7793 F30.00
G01 X13.9245 Y-23.7843 F30.00
G01 X13.9030 Y-23.8003 F30.00
G01 X13.8979 Y-23.8046 F30.00
G01 X13.8764 Y-23.8242 F30.00
G01 X13.8539 Y-23.8491 F30.00
G01 X13.8339 Y-23.8760 F30.00
G01 X13.8177 Y-23.9028 F30.00
G01 X13.8041 Y-23.9310 F30.00
G01 X13.8007 Y-23.9394 F30.00
G01 X13.7910 Y-23.9667 F30.00
G01 X13.7828 Y-23.9993 F30.00
G01 X13.7784 Y-24.0280 F30.00
G01 X13.7776 Y-24.0370 F30.00
G01 X13.7763 Y-24.0637 F30.00
G01 X13.7763 Y-24.1239 F30.00
G01 X12.8829 Y-24.1239 F30.00
G01 X12.8828 Y-24.0365 F30.00
G01 X12.8813 Y-24.0075 F30.00
G01 X12.8772 Y-23.9787 F30.00
G01 X12.8754 Y-23.9699 F30.00
G01 X12.8675 Y-23.9396 F30.00
G01 X12.8569 Y-23.9101 F30.00
G01 X12.8446 Y-23.8838 F30.00
G01 X12.8415 Y-23.8778 F30.00
G01 X12.8277 Y-23.8548 F30.00
G01 X12.8227 Y-23.8473 F30.00
G01 X12.8053 Y-23.8241 F30.00
G01 X12.7828 Y-23.7992 F30.00
G01 X12.7579 Y-23.7767 F30.00
G01 X12.7347 Y-23.7593 F30.00
G01 X12.7272 Y-23.7543 F30.00
G01 X12.7042 Y-23.7405 F30.00
G01 X12.6982 Y-23.7374 F30.00
G01 X12.6719 Y-23.7251 F30.00
G01 X12.6381 Y-23.7131 F30.00
G01 X12.6077 Y-23.7056 F30.00
G01 X12.5790 Y-23.7012 F30.00
G01 X12.5700 Y-23.7004 F30.00
G01 X12.5410 Y-23.6991 F30.00
G01 X12.0410 Y-23.6991 F30.00
G01 X12.0075 Y-23.7007 F30.00
G01 X11.9743 Y-23.7056 F30.00
G01 X11.9417 Y-23.7138 F30.00
G01 X11.9101 Y-23.7251 F30.00
G01 X11.8798 Y-23.7394 F30.00
G01 X11.8510 Y-23.7567 F30.00
G01 X11.8241 Y-23.7767 F30.00
G01 X11.7992 Y-23.7992 F30.00
G01 X11.7796 Y-23.8207 F30.00
G01 X11.7753 Y-23.8258 F30.00
G01 X11.7593 Y-23.8473 F30.00
G01 X11.7543 Y-23.8548 F30.00
G01 X11.7384 Y-23.8818 F30.00
G01 X11.7269 Y-23.9060 F30.00
G01 X11.7235 Y-23.9144 F30.00
G01 X11.7138 Y-23.9417 F30.00
G01 X11.7056 Y-23.9743 F30.00
G01 X11.7007 Y-24.0075 F30.00
G01 X11.6991 Y-24.0410 F30.00
G00 Z2.0000
G00 X11.6324 Y-25.0339
G01 F10.00
G01 Z-0.0500
G01 F30.00
G01 X11.6371 Y-25.0772 F30.00
G01 X11.6787 Y-25.1888 F30.00
G01 X11.7491 Y-25.2829 F30.00
G01 X11.8432 Y-25.3533 F30.00
G01 X11.9548 Y-25.3949 F30.00
G01 X11.9981 Y-25.3996 F30.00
G01 X12.5839 Y-25.3995 F30.00
G01 X12.6272 Y-25.3949 F30.00
G01 X12.7388 Y-25.3533 F30.00
G01 X12.8329 Y-25.2829 F30.00
G01 X12.9033 Y-25.1888 F30.00
G01 X12.9316 Y-25.1130 F30.00
G01 X12.9352 Y-25.1050 F30.00
G01 X12.9396 Y-25.0975 F30.00
G01 X12.9866 Y-25.0343 F30.00
G01 X12.9926 Y-25.0274 F30.00
G01 X12.9992 Y-25.0212 F30.00
G01 X13.0046 Y-25.0169 F30.00
G01 X13.0103 Y-25.0131 F30.00
G01 X13.0162 Y-25.0097 F30.00
G01 X13.0224 Y-25.0068 F30.00
G01 X13.0943 Y-24.9799 F30.00
G01 X13.1030 Y-24.9774 F30.00
G01 X13.1119 Y-24.9757 F30.00
G01 X13.1187 Y-24.9750 F30.00
G01 X13.1331 Y-24.9746 F30.00
G01 X13.5398 Y-24.9747 F30.00
G01 X13.5485 Y-24.9755 F30.00
G01 X13.5592 Y-24.9777 F30.00
G01 X13.6284 Y-24.9980 F30.00
G01 X13.6391 Y-25.0018 F30.00
G01 X13.6473 Y-25.0059 F30.00
G01 X13.6550 Y-25.0107 F30.00
G01 X13.6605 Y-25.0149 F30.00
G01 X13.6673 Y-25.0210 F30.00
G01 X13.6719 Y-25.0260 F30.00
G01 X13.7220 Y-25.0841 F30.00
G01 X13.7282 Y-25.0936 F30.00
G01 X13.7332 Y-25.1038 F30.00
G01 X13.7377 Y-25.1150 F30.00
G01 X13.7559 Y-25.1638 F30.00
G01 X13.8263 Y-25.2579 F30.00
G01 X13.9204 Y-25.3283 F30.00
G01 X14.0320 Y-25.3699 F30.00
G01 X14.0753 Y-25.3746 F30.00
G01 X14.6861 Y-25.3745 F30.00
G01 X14.7294 Y-25.3699 F30.00
G01 X14.8410 Y-25.3283 F30.00
G01 X14.9351 Y-25.2579 F30.00
G01 X15.0055 Y-25.1638 F30.00
G01 X15.0471 Y-25.0522 F30.00
G01 X15.0518 Y-25.0089 F30.00
G01 X15.0517 Y-24.0231 F30.00
G01 X15.0471 Y-23.9798 F30.00
G01 X15.0055 Y-23.8682 F30.00
G01 X14.9351 Y-23.7741 F30.00
G01 X14.8410 Y-23.7037 F30.00
G01 X14.7294 Y-23.6621 F30.00
G01 X14.6861 Y-23.6574 F30.00
G01 X14.0753 Y-23.6574 F30.00
G01 X14.0320 Y-23.6621 F30.00
G01 X13.9204 Y-23.7037 F30.00
G01 X13.8263 Y-23.7741 F30.00
G01 X13.7559 Y-23.8682 F30.00
G01 X13.7361 Y-23.9210 F30.00
G01 X13.7312 Y-23.9308 F30.00
G01 X13.7265 Y-23.9382 F30.00
G01 X13.6833 Y-23.9959 F30.00
G01 X13.6775 Y-24.0029 F30.00
G01 X13.6710 Y-24.0093 F30.00
G01 X13.6639 Y-24.0151 F30.00
G01 X13.6543 Y-24.0212 F30.00
G01 X13.6461 Y-24.0252 F30.00
G01 X13.5721 Y-24.0528 F30.00
G01 X13.5611 Y-24.0556 F30.00
G01 X13.5498 Y-24.0570 F30.00
G01 X13.5354 Y-24.0574 F30.00
G01 X13.1331 Y-24.0574 F30.00
G01 X13.1222 Y-24.0568 F30.00
G01 X13.1157 Y-24.0558 F30.00
G01 X13.1072 Y-24.0537 F30.00
G01 X13.0337 Y-24.0319 F30.00
G01 X13.0233 Y-24.0272 F30.00
G01 X13.0154 Y-24.0225 F30.00
G01 X13.0080 Y-24.0171 F30.00
G01 X12.9997 Y-24.0094 F30.00
G01 X12.9508 Y-23.9532 F30.00
G01 X12.9466 Y-23.9479 F30.00
G01 X12.9427 Y-23.9423 F30.00
G01 X12.9372 Y-23.9324 F30.00
G01 X12.9320 Y-23.9200 F30.00
G01 X12.9033 Y-23.8432 F30.00
G01 X12.8329 Y-23.7491 F30.00
G01 X12.7388 Y-23.6787 F30.00
G01 X12.6272 Y-23.6371 F30.00
G01 X12.5839 Y-23.6324 F30.00
G01 X11.9981 Y-23.6324 F30.00
G01 X11.9548 Y-23.6371 F30.00
G01 X11.8432 Y-23.6787 F30.00
G01 X11.7491 Y-23.7491 F30.00
G01 X11.6787 Y-23.8432 F30.00
G01 X11.6371 Y-23.9548 F30.00
G01 X11.6325 Y-23.9981 F30.00
G01 X11.6324 Y-25.0339 F30.00
G00 Z2.0000
G00 X9.7991 Y-24.0410
G01 F10.00
G01 Z-0.0500
G01 F30.00
G01 X9.7991 Y-24.9933 F30.00
G01 X9.8004 Y-25.0200 F30.00
G01 X9.8012 Y-25.0290 F30.00
G01 X9.8056 Y-25.0577 F30.00
G01 X9.8131 Y-25.0881 F30.00
G01 X9.8251 Y-25.1219 F30.00
G01 X9.8374 Y-25.1482 F30.00
G01 X9.8405 Y-25.1542 F30.00
G01 X9.8543 Y-25.1772 F30.00
G01 X9.8593 Y-25.1847 F30.00
G01 X9.8767 Y-25.2079 F30.00
G01 X9.8992 Y-25.2328 F30.00
G01 X9.9241 Y-25.2553 F30.00
G01 X9.9492 Y-25.2740 F30.00
G01 X9.9759 Y-25.2903 F30.00
G01 X9.9838 Y-25.2946 F30.00
G01 X10.0101 Y-25.3069 F30.00
G01 X10.0439 Y-25.3189 F30.00
G01 X10.0743 Y-25.3264 F30.00
G01 X10.1052 Y-25.3311 F30.00
G01 X10.1387 Y-25.3329 F30.00
G01 X10.1570 Y-25.3329 F30.00
G01 X10.1571 Y-30.1280 F30.00
G01 X10.1577 Y-30.1393 F30.00
G01 X10.1588 Y-30.1459 F30.00
G01 X10.1610 Y-30.1547 F30.00
G01 X10.1659 Y-30.1673 F30.00
G01 X10.1725 Y-30.1791 F30.00
G01 X10.1765 Y-30.1846 F30.00
G01 X10.1824 Y-30.1914 F30.00
G01 X10.1889 Y-30.1976 F30.00
G01 X10.1942 Y-30.2019 F30.00
G01 X10.2057 Y-30.2091 F30.00
G01 X10.2180 Y-30.2146 F30.00
G01 X10.2311 Y-30.2182 F30.00
G01 X10.2400 Y-30.2195 F30.00
G01 X10.2490 Y-30.2199 F30.00
G01 X10.5490 Y-30.2199 F30.00
G01 X10.5603 Y-30.2193 F30.00
G01 X10.5691 Y-30.2177 F30.00
G01 X10.5778 Y-30.2153 F30.00
G01 X10.5842 Y-30.2130 F30.00
G01 X10.5923 Y-30.2091 F30.00
G01 X10.6001 Y-30.2045 F30.00
G01 X10.6056 Y-30.2005 F30.00
G01 X10.6124 Y-30.1946 F30.00
G01 X10.6171 Y-30.1897 F30.00
G01 X10.6229 Y-30.1828 F30.00
G01 X10.6279 Y-30.1753 F30.00
G01 X10.6321 Y-30.1673 F30.00
G01 X10.6348 Y-30.1611 F30.00
G01 X10.6370 Y-30.1547 F30.00
G01 X10.6392 Y-30.1459 F30.00
G01 X10.6405 Y-30.1370 F30.00
G01 X10.6409 Y-30.1303 F30.00
G01 X10.6410 Y-25.3329 F30.00
G01 X10.6745 Y-25.3313 F30.00
G01 X10.7033 Y-25.3272 F30.00
G01 X10.7121 Y-25.3254 F30.00
G01 X10.7381 Y-25.3189 F30.00
G01 X10.7445 Y-25.3168 F30.00
G01 X10.7719 Y-25.3069 F30.00
G01 X10.8022 Y-25.2926 F30.00
G01 X10.8310 Y-25.2753 F30.00
G01 X10.8544 Y-25.2581 F30.00
G01 X10.8597 Y-25.2539 F30.00
G01 X10.8795 Y-25.2359 F30.00
G01 X10.8859 Y-25.2295 F30.00
G01 X10.9053 Y-25.2079 F30.00
G01 X10.9253 Y-25.1810 F30.00
G01 X10.9426 Y-25.1522 F30.00
G01 X10.9551 Y-25.1260 F30.00
G01 X10.9585 Y-25.1176 F30.00
G01 X10.9675 Y-25.0924 F30.00
G01 X10.9694 Y-25.0859 F30.00
G01 X10.9764 Y-25.0577 F30.00
G01 X10.9808 Y-25.0290 F30.00
G01 X10.9816 Y-25.0200 F30.00
G01 X10.9829 Y-24.9910 F30.00
G01 X10.9829 Y-24.0410 F30.00
G01 X10.9811 Y-24.0052 F30.00
G01 X10.9764 Y-23.9743 F30.00
G01 X10.9694 Y-23.9461 F30.00
G01 X10.9668 Y-23.9375 F30.00
G01 X10.9569 Y-23.9101 F30.00
G01 X10.9446 Y-23.8838 F30.00
G01 X10.9403 Y-23.8759 F30.00
G01 X10.9253 Y-23.8510 F30.00
G01 X10.9081 Y-23.8276 F30.00
G01 X10.9024 Y-23.8207 F30.00
G01 X10.8812 Y-23.7976 F30.00
G01 X10.8579 Y-23.7767 F30.00
G01 X10.8347 Y-23.7593 F30.00
G01 X10.8272 Y-23.7543 F30.00
G01 X10.8022 Y-23.7394 F30.00
G01 X10.7760 Y-23.7269 F30.00
G01 X10.7676 Y-23.7235 F30.00
G01 X10.7403 Y-23.7138 F30.00
G01 X10.7077 Y-23.7056 F30.00
G01 X10.6745 Y-23.7007 F30.00
G01 X10.6455 Y-23.6992 F30.00
G01 X10.1387 Y-23.6991 F30.00
G01 X10.1075 Y-23.7007 F30.00
G01 X10.0743 Y-23.7056 F30.00
G01 X10.0417 Y-23.7138 F30.00
G01 X10.0101 Y-23.7251 F30.00
G01 X9.9798 Y-23.7394 F30.00
G01 X9.9510 Y-23.7567 F30.00
G01 X9.9241 Y-23.7767 F30.00
G01 X9.8992 Y-23.7992 F30.00
G01 X9.8767 Y-23.8241 F30.00
G01 X9.8567 Y-23.8510 F30.00
G01 X9.8394 Y-23.8798 F30.00
G01 X9.8251 Y-23.9101 F30.00
G01 X9.8138 Y-23.9417 F30.00
G01 X9.8056 Y-23.9743 F30.00
G01 X9.8007 Y-24.0075 F30.00
G01 X9.7991 Y-24.0410 F30.00
G00 Z2.0000
G00 X9.9915 Y-27.5662
G01 F10.00
G01 Z-0.0500
G01 F30.00
G01 X9.9746 Y-27.5754 F30.00
G01 X9.9410 Y-27.5913 F30.00
G01 X9.9293 Y-27.5962 F30.00
G01 X9.8943 Y-27.6087 F30.00
G01 X9.8761 Y-27.6140 F30.00
G01 X9.8400 Y-27.6227 F30.00
G01 X9.8033 Y-27.6285 F30.00
G01 X9.7907 Y-27.6300 F30.00
G01 X9.7781 Y-27.6309 F30.00
G01 X9.7410 Y-27.6325 F30.00
G01 X9.3848 Y-27.6325 F30.00
G01 X9.9915 Y-28.2391 F30.00
G01 X9.9915 Y-27.5662 F30.00
G00 Z2.0000
G00 X10.8065 Y-27.6135
G01 F10.00
G01 Z-0.0500
G01 F30.00
G01 X10.8326 Y-27.5875 F30.00
G01 X10.8065 Y-27.5750 F30.00
G01 X10.8065 Y-27.6135 F30.00
G00 Z2.0000
G00 X10.6570 Y-28.0974
G01 F10.00
G01 Z-0.0500
G01 F30.00
G01 X10.6571 Y-30.1280 F30.00
G01 X10.6575 Y-30.1370 F30.00
G01 X10.6588 Y-30.1459 F30.00
G01 X10.6624 Y-30.1590 F30.00
G01 X10.6679 Y-30.1713 F30.00
G01 X10.6725 Y-30.1791 F30.00
G01 X10.6765 Y-30.1846 F30.00
G01 X10.6856 Y-30.1946 F30.00
G01 X10.6961 Y-30.2032 F30.00
G01 X10.7077 Y-30.2101 F30.00
G01 X10.7202 Y-30.2153 F30.00
G01 X10.7333 Y-30.2186 F30.00
G01 X10.7422 Y-30.2197 F30.00
G01 X10.7490 Y-30.2199 F30.00
G01 X11.0490 Y-30.2199 F30.00
G01 X11.0580 Y-30.2195 F30.00
G01 X11.0669 Y-30.2182 F30.00
G01 X11.0735 Y-30.2166 F30.00
G01 X11.0821 Y-30.2138 F30.00
G01 X11.0883 Y-30.2111 F30.00
G01 X11.0963 Y-30.2069 F30.00
G01 X11.1038 Y-30.2019 F30.00
G01 X11.1091 Y-30.1976 F30.00
G01 X11.1156 Y-30.1914 F30.00
G01 X11.1201 Y-30.1863 F30.00
G01 X11.1255 Y-30.1791 F30.00
G01 X11.1290 Y-30.1733 F30.00
G01 X11.1331 Y-30.1653 F30.00
G01 X11.1356 Y-30.1590 F30.00
G01 X11.1376 Y-30.1525 F30.00
G01 X11.1396 Y-30.1437 F30.00
G01 X11.1409 Y-30.1303 F30.00
G01 X11.1410 Y-28.1976 F30.00
G01 X11.4762 Y-27.8624 F30.00
G01 X11.4891 Y-27.8482 F30.00
G01 X11.4934 Y-27.8429 F30.00
G01 X11.5047 Y-27.8274 F30.00
G01 X11.5159 Y-27.8090 F30.00
G01 X11.5271 Y-27.7855 F30.00
G01 X11.5351 Y-27.7632 F30.00
G01 X11.5409 Y-27.7401 F30.00
G01 X11.5444 Y-27.7166 F30.00
G01 X11.5455 Y-27.6929 F30.00
G01 X11.5455 Y-27.4669 F30.00
G01 X11.5683 Y-27.4669 F30.00
G01 X11.6018 Y-27.4651 F30.00
G01 X11.6327 Y-27.4604 F30.00
G01 X11.6674 Y-27.4515 F30.00
G01 X11.6969 Y-27.4409 F30.00
G01 X11.7272 Y-27.4266 F30.00
G01 X11.7560 Y-27.4093 F30.00
G01 X11.7812 Y-27.3907 F30.00
G01 X11.8078 Y-27.3668 F30.00
G01 X11.8303 Y-27.3419 F30.00
G01 X11.8503 Y-27.3150 F30.00
G01 X11.8653 Y-27.2901 F30.00
G01 X11.8686 Y-27.2842 F30.00
G01 X11.8801 Y-27.2600 F30.00
G01 X11.8835 Y-27.2516 F30.00
G01 X11.8939 Y-27.2221 F30.00
G01 X11.9004 Y-27.1961 F30.00
G01 X11.9022 Y-27.1873 F30.00
G01 X11.9063 Y-27.1585 F30.00
G01 X11.9079 Y-27.1250 F30.00
G01 X11.9079 Y-26.2250 F30.00
G01 X11.9066 Y-26.1960 F30.00
G01 X11.9058 Y-26.1870 F30.00
G01 X11.9018 Y-26.1605 F30.00
G01 X11.9004 Y-26.1539 F30.00
G01 X11.8932 Y-26.1257 F30.00
G01 X11.8835 Y-26.0984 F30.00
G01 X11.8801 Y-26.0900 F30.00
G01 X11.8676 Y-26.0638 F30.00
G01 X11.8503 Y-26.0350 F30.00
G01 X11.8331 Y-26.0116 F30.00
G01 X11.8274 Y-26.0047 F30.00
G01 X11.8078 Y-25.9832 F30.00
G01 X11.7863 Y-25.9636 F30.00
G01 X11.7794 Y-25.9579 F30.00
G01 X11.7560 Y-25.9407 F30.00
G01 X11.7252 Y-25.9224 F30.00
G01 X11.6969 Y-25.9091 F30.00
G01 X11.6653 Y-25.8978 F30.00
G01 X11.6327 Y-25.8896 F30.00
G01 X11.6040 Y-25.8852 F30.00
G01 X11.5950 Y-25.8844 F30.00
G01 X11.5660 Y-25.8831 F30.00
G01 X11.0410 Y-25.8831 F30.00
G01 X11.0120 Y-25.8844 F30.00
G01 X11.0030 Y-25.8852 F30.00
G01 X10.9765 Y-25.8892 F30.00
G01 X10.9699 Y-25.8906 F30.00
G01 X10.9417 Y-25.8978 F30.00
G01 X10.9144 Y-25.9075 F30.00
G01 X10.9060 Y-25.9109 F30.00
G01 X10.8798 Y-25.9234 F30.00
G01 X10.8510 Y-25.9407 F30.00
G01 X10.8276 Y-25.9579 F30.00
G01 X10.8207 Y-25.9636 F30.00
G01 X10.7992 Y-25.9832 F30.00
G01 X10.7796 Y-26.0047 F30.00
G01 X10.7739 Y-26.0116 F30.00
G01 X10.7567 Y-26.0350 F30.00
G01 X10.7384 Y-26.0658 F30.00
G01 X10.7269 Y-26.0900 F30.00
G01 X10.7235 Y-26.0984 F30.00
G01 X10.7138 Y-26.1257 F30.00
G01 X10.7066 Y-26.1539 F30.00
G01 X10.7048 Y-26.1627 F30.00
G01 X10.7007 Y-26.1915 F30.00
G01 X10.6991 Y-26.2227 F30.00
G01 X10.6991 Y-27.1250 F30.00
G01 X10.7007 Y-27.1585 F30.00
G01 X10.7056 Y-27.1917 F30.00
G01 X10.7138 Y-27.2243 F30.00
G01 X10.7251 Y-27.2559 F30.00
G01 X10.7394 Y-27.2862 F30.00
G01 X10.7543 Y-27.3112 F30.00
G01 X10.7593 Y-27.3187 F30.00
G01 X10.7753 Y-27.3402 F30.00
G01 X10.7796 Y-27.3453 F30.00
G01 X10.7992 Y-27.3668 F30.00
G01 X10.8258 Y-27.3907 F30.00
G01 X10.8510 Y-27.4093 F30.00
G01 X10.8798 Y-27.4266 F30.00
G01 X10.9101 Y-27.4409 F30.00
G01 X10.9396 Y-27.4515 F30.00
G01 X10.9743 Y-27.4604 F30.00
G01 X11.0052 Y-27.4651 F30.00
G01 X11.0387 Y-27.4669 F30.00
G01 X11.0615 Y-27.4669 F30.00
G01 X11.0615 Y-27.5927 F30.00
G01 X10.7279 Y-27.9263 F30.00
G01 X10.7119 Y-27.9439 F30.00
G01 X10.6978 Y-27.9629 F30.00
G01 X10.6856 Y-27.9833 F30.00
G01 X10.6754 Y-28.0048 F30.00
G01 X10.6688 Y-28.0229 F30.00
G01 X10.6668 Y-28.0293 F30.00
G01 X10.6626 Y-28.0458 F30.00
G01 X10.6609 Y-28.0546 F30.00
G01 X10.6581 Y-28.0737 F30.00
G01 X10.6570 Y-28.0974 F30.00
G00 Z2.0000
G00 X11.3065 Y-28.4705
G01 F10.00
G01 Z-0.0500
G01 F30.00
G01 X11.4915 Y-28.4705 F30.00
G01 X11.4915 Y-28.3166 F30.00
G01 X11.4918 Y-28.3040 F30.00
G01 X11.4929 Y-28.2830 F30.00
G01 X11.4941 Y-28.2704 F30.00
G01 X11.4981 Y-28.2433 F30.00
G01 X11.5021 Y-28.2248 F30.00
G01 X11.5073 Y-28.2044 F30.00
G01 X11.5109 Y-28.1923 F30.00
G01 X11.5225 Y-28.1606 F30.00
G01 X11.5276 Y-28.1491 F30.00
G01 X11.5396 Y-28.1245 F30.00
G01 X11.5567 Y-28.0955 F30.00
G01 X11.5637 Y-28.0850 F30.00
G01 X11.5762 Y-28.0680 F30.00
G01 X11.5840 Y-28.0581 F30.00
G01 X11.5922 Y-28.0485 F30.00
G01 X11.6108 Y-28.0284 F30.00
G01 X11.6625 Y-27.9767 F30.00
G01 X11.6515 Y-27.9700 F30.00
G01 X11.6409 Y-27.9629 F30.00
G01 X11.6307 Y-27.9552 F30.00
G01 X11.6215 Y-27.9477 F30.00
G01 X11.6103 Y-27.9610 F30.00
G01 X11.5917 Y-27.9811 F30.00
G01 X11.3065 Y-28.2662 F30.00
G01 X11.3065 Y-28.4705 F30.00
G00 Z2.0000
G00 X11.6570 Y-28.3166
G01 F10.00
G01 Z-0.0500
G01 F30.00
G01 X11.6571 Y-30.1280 F30.00
G01 X11.6577 Y-30.1393 F30.00
G01 X11.6593 Y-30.1481 F30.00
G01 X11.6632 Y-30.1611 F30.00
G01 X11.6690 Y-30.1733 F30.00
G01 X11.6765 Y-30.1846 F30.00
G01 X11.6856 Y-30.1946 F30.00
G01 X11.6961 Y-30.2032 F30.00
G01 X11.7077 Y-30.2101 F30.00
G01 X11.7202 Y-30.2153 F30.00
G01 X11.7333 Y-30.2186 F30.00
G01 X11.7422 Y-30.2197 F30.00
G01 X11.7490 Y-30.2199 F30.00
G01 X12.0490 Y-30.2199 F30.00
G01 X12.0580 Y-30.2195 F30.00
G01 X12.0691 Y-30.2177 F30.00
G01 X12.0778 Y-30.2153 F30.00
G01 X12.0842 Y-30.2130 F30.00
G01 X12.0963 Y-30.2069 F30.00
G01 X12.1038 Y-30.2019 F30.00
G01 X12.1091 Y-30.1976 F30.00
G01 X12.1156 Y-30.1914 F30.00
G01 X12.1201 Y-30.1863 F30.00
G01 X12.1279 Y-30.1753 F30.00
G01 X12.1321 Y-30.1673 F30.00
G01 X12.1348 Y-30.1611 F30.00
G01 X12.1387 Y-30.1481 F30.00
G01 X12.1403 Y-30.1393 F30.00
G01 X12.1408 Y-30.1325 F30.00
G01 X12.1410 Y-28.4169 F30.00
G01 X12.1423 Y-28.4156 F30.00
G01 X13.0401 Y-28.4156 F30.00
G01 X13.0402 Y-28.6785 F30.00
G01 X13.0417 Y-28.7075 F30.00
G01 X13.0458 Y-28.7363 F30.00
G01 X13.0476 Y-28.7451 F30.00
G01 X13.0555 Y-28.7754 F30.00
G01 X13.0661 Y-28.8049 F30.00
G01 X13.0804 Y-28.8352 F30.00
G01 X13.0977 Y-28.8640 F30.00
G01 X13.1177 Y-28.8909 F30.00
G01 X13.1402 Y-28.9158 F30.00
G01 X13.1651 Y-28.9383 F30.00
G01 X13.1920 Y-28.9583 F30.00
G01 X13.2169 Y-28.9733 F30.00
G01 X13.2248 Y-28.9776 F30.00
G01 X13.2511 Y-28.9899 F30.00
G01 X13.2785 Y-28.9998 F30.00
G01 X13.2871 Y-29.0024 F30.00
G01 X13.3153 Y-29.0094 F30.00
G01 X13.3440 Y-29.0138 F30.00
G01 X13.3530 Y-29.0146 F30.00
G01 X13.3797 Y-29.0159 F30.00
G01 X13.8865 Y-29.0158 F30.00
G01 X13.9155 Y-29.0143 F30.00
G01 X13.9487 Y-29.0094 F30.00
G01 X13.9813 Y-29.0012 F30.00
G01 X14.0108 Y-28.9908 F30.00
G01 X14.0392 Y-28.9776 F30.00
G01 X14.0471 Y-28.9733 F30.00
G01 X14.0720 Y-28.9583 F30.00
G01 X14.0954 Y-28.9411 F30.00
G01 X14.1023 Y-28.9354 F30.00
G01 X14.1238 Y-28.9158 F30.00
G01 X14.1434 Y-28.8943 F30.00
G01 X14.1491 Y-28.8874 F30.00
G01 X14.1663 Y-28.8640 F30.00
G01 X14.1813 Y-28.8391 F30.00
G01 X14.1856 Y-28.8312 F30.00
G01 X14.1979 Y-28.8049 F30.00
G01 X14.2078 Y-28.7775 F30.00
G01 X14.2104 Y-28.7689 F30.00
G01 X14.2174 Y-28.7407 F30.00
G01 X14.2218 Y-28.7120 F30.00
G01 X14.2226 Y-28.7030 F30.00
G01 X14.2239 Y-28.6740 F30.00
G01 X14.2239 Y-27.7240 F30.00
G01 X14.2226 Y-27.6950 F30.00
G01 X14.2218 Y-27.6860 F30.00
G01 X14.2174 Y-27.6573 F30.00
G01 X14.2099 Y-27.6269 F30.00
G01 X14.1995 Y-27.5974 F30.00
G01 X14.1961 Y-27.5890 F30.00
G01 X14.1836 Y-27.5628 F30.00
G01 X14.1687 Y-27.5378 F30.00
G01 X14.1637 Y-27.5303 F30.00
G01 X14.1463 Y-27.5071 F30.00
G01 X14.1269 Y-27.4855 F30.00
G01 X14.1205 Y-27.4791 F30.00
G01 X14.0989 Y-27.4597 F30.00
G01 X14.0757 Y-27.4423 F30.00
G01 X14.0682 Y-27.4373 F30.00
G01 X14.0432 Y-27.4224 F30.00
G01 X14.0170 Y-27.4099 F30.00
G01 X14.0086 Y-27.4065 F30.00
G01 X13.9813 Y-27.3968 F30.00
G01 X13.9531 Y-27.3896 F30.00
G01 X13.9443 Y-27.3878 F30.00
G01 X13.9155 Y-27.3837 F30.00
G01 X13.8843 Y-27.3821 F30.00
G01 X13.3820 Y-27.3821 F30.00
G01 X13.3530 Y-27.3834 F30.00
G01 X13.3440 Y-27.3842 F30.00
G01 X13.3153 Y-27.3886 F30.00
G01 X13.2849 Y-27.3961 F30.00
G01 X13.2511 Y-27.4081 F30.00
G01 X13.2208 Y-27.4224 F30.00
G01 X13.1920 Y-27.4397 F30.00
G01 X13.1686 Y-27.4569 F30.00
G01 X13.1617 Y-27.4626 F30.00
G01 X13.1418 Y-27.4806 F30.00
G01 X13.1371 Y-27.4855 F30.00
G01 X13.1177 Y-27.5071 F30.00
G01 X13.1003 Y-27.5303 F30.00
G01 X13.0953 Y-27.5378 F30.00
G01 X13.0804 Y-27.5628 F30.00
G01 X13.0670 Y-27.5911 F30.00
G01 X13.0548 Y-27.6247 F30.00
G01 X13.0476 Y-27.6529 F30.00
G01 X13.0458 Y-27.6617 F30.00
G01 X13.0415 Y-27.6927 F30.00
G01 X13.0401 Y-27.7240 F30.00
G01 X13.0401 Y-27.9316 F30.00
G01 X12.0420 Y-27.9316 F30.00
G01 X12.0228 Y-27.9324 F30.00
G01 X12.0138 Y-27.9333 F30.00
G01 X11.9948 Y-27.9362 F30.00
G01 X11.9739 Y-27.9414 F30.00
G01 X11.9494 Y-27.9500 F30.00
G01 X11.9279 Y-27.9602 F30.00
G01 X11.9075 Y-27.9724 F30.00
G01 X11.8867 Y-27.9880 F30.00
G01 X11.8709 Y-28.0025 F30.00
G01 X11.7279 Y-28.1455 F30.00
G01 X11.7134 Y-28.1613 F30.00
G01 X11.6990 Y-28.1803 F30.00
G01 X11.6878 Y-28.1986 F30.00
G01 X11.6845 Y-28.2045 F30.00
G01 X11.6772 Y-28.2199 F30.00
G01 X11.6738 Y-28.2282 F30.00
G01 X11.6674 Y-28.2463 F30.00
G01 X11.6616 Y-28.2694 F30.00
G01 X11.6581 Y-28.2929 F30.00
G01 X11.6570 Y-28.3166 F30.00
G00 Z2.0000
G00 X8.7699 Y-31.0285
G01 F10.00
G01 Z-0.0500
G01 F30.00
G01 X8.7699 Y-31.0057 F30.00
G01 X8.7681 Y-30.9722 F30.00
G01 X8.7634 Y-30.9413 F30.00
G01 X8.7545 Y-30.9066 F30.00
G01 X8.7439 Y-30.8771 F30.00
G01 X8.7296 Y-30.8468 F30.00
G01 X8.7123 Y-30.8180 F30.00
G01 X8.6937 Y-30.7928 F30.00
G01 X8.6698 Y-30.7662 F30.00
G01 X8.6483 Y-30.7466 F30.00
G01 X8.6432 Y-30.7423 F30.00
G01 X8.6217 Y-30.7263 F30.00
G01 X8.6142 Y-30.7213 F30.00
G01 X8.5892 Y-30.7064 F30.00
G01 X8.5589 Y-30.6921 F30.00
G01 X8.5273 Y-30.6808 F30.00
G01 X8.4991 Y-30.6736 F30.00
G01 X8.4903 Y-30.6718 F30.00
G01 X8.4615 Y-30.6677 F30.00
G01 X8.4280 Y-30.6661 F30.00
G01 X7.5257 Y-30.6661 F30.00
G01 X7.4945 Y-30.6677 F30.00
G01 X7.4613 Y-30.6726 F30.00
G01 X7.4287 Y-30.6808 F30.00
G01 X7.3971 Y-30.6921 F30.00
G01 X7.3668 Y-30.7064 F30.00
G01 X7.3418 Y-30.7213 F30.00
G01 X7.3343 Y-30.7263 F30.00
G01 X7.3111 Y-30.7437 F30.00
G01 X7.2895 Y-30.7631 F30.00
G01 X7.2831 Y-30.7695 F30.00
G01 X7.2637 Y-30.7911 F30.00
G01 X7.2437 Y-30.8180 F30.00
G01 X7.2287 Y-30.8429 F30.00
G01 X7.2244 Y-30.8508 F30.00
G01 X7.2121 Y-30.8771 F30.00
G01 X7.2022 Y-30.9045 F30.00
G01 X7.1996 Y-30.9131 F30.00
G01 X7.1926 Y-30.9413 F30.00
G01 X7.1877 Y-30.9745 F30.00
G01 X7.1861 Y-31.0080 F30.00
G01 X7.1861 Y-31.5353 F30.00
G01 X7.1877 Y-31.5665 F30.00
G01 X7.1926 Y-31.5997 F30.00
G01 X7.2008 Y-31.6323 F30.00
G01 X7.2121 Y-31.6639 F30.00
G01 X7.2264 Y-31.6942 F30.00
G01 X7.2413 Y-31.7192 F30.00
G01 X7.2463 Y-31.7267 F30.00
G01 X7.2637 Y-31.7499 F30.00
G01 X7.2831 Y-31.7715 F30.00
G01 X7.2895 Y-31.7779 F30.00
G01 X7.3111 Y-31.7973 F30.00
G01 X7.3343 Y-31.8147 F30.00
G01 X7.3418 Y-31.8197 F30.00
G01 X7.3668 Y-31.8346 F30.00
G01 X7.3930 Y-31.8471 F30.00
G01 X7.4014 Y-31.8505 F30.00
G01 X7.4287 Y-31.8602 F30.00
G01 X7.4635 Y-31.8688 F30.00
G01 X7.4945 Y-31.8733 F30.00
G01 X7.5280 Y-31.8749 F30.00
G01 X8.4280 Y-31.8749 F30.00
G01 X8.4570 Y-31.8736 F30.00
G01 X8.4660 Y-31.8728 F30.00
G01 X8.4947 Y-31.8684 F30.00
G01 X8.5273 Y-31.8602 F30.00
G01 X8.5589 Y-31.8489 F30.00
G01 X8.5892 Y-31.8346 F30.00
G01 X8.6180 Y-31.8173 F30.00
G01 X8.6449 Y-31.7973 F30.00
G01 X8.6698 Y-31.7748 F30.00
G01 X8.6909 Y-31.7517 F30.00
G01 X8.7123 Y-31.7230 F30.00
G01 X8.7296 Y-31.6942 F30.00
G01 X8.7439 Y-31.6639 F30.00
G01 X8.7545 Y-31.6344 F30.00
G01 X8.7634 Y-31.5997 F30.00
G01 X8.7681 Y-31.5688 F30.00
G01 X8.7699 Y-31.5353 F30.00
G01 X8.7699 Y-31.5125 F30.00
G01 X10.6088 Y-31.5125 F30.00
G01 X10.6302 Y-31.5114 F30.00
G01 X10.6493 Y-31.5086 F30.00
G01 X10.6581 Y-31.5069 F30.00
G01 X10.6768 Y-31.5021 F30.00
G01 X10.6949 Y-31.4957 F30.00
G01 X10.7032 Y-31.4923 F30.00
G01 X10.7206 Y-31.4839 F30.00
G01 X10.7410 Y-31.4717 F30.00
G01 X10.7600 Y-31.4576 F30.00
G01 X10.7776 Y-31.4416 F30.00
G01 X11.5717 Y-30.6475 F30.00
G01 X11.5846 Y-30.6333 F30.00
G01 X11.5889 Y-30.6280 F30.00
G01 X11.6002 Y-30.6125 F30.00
G01 X11.6102 Y-30.5960 F30.00
G01 X11.6145 Y-30.5881 F30.00
G01 X11.6226 Y-30.5706 F30.00
G01 X11.6306 Y-30.5483 F30.00
G01 X11.6354 Y-30.5296 F30.00
G01 X11.6371 Y-30.5208 F30.00
G01 X11.6399 Y-30.5017 F30.00
G01 X11.6410 Y-30.4780 F30.00
G01 X11.6409 Y-28.7280 F30.00
G01 X11.6407 Y-28.7212 F30.00
G01 X11.6396 Y-28.7123 F30.00
G01 X11.6382 Y-28.7057 F30.00
G01 X11.6356 Y-28.6970 F30.00
G01 X11.6331 Y-28.6907 F30.00
G01 X11.6290 Y-28.6827 F30.00
G01 X11.6255 Y-28.6769 F30.00
G01 X11.6201 Y-28.6697 F30.00
G01 X11.6140 Y-28.6630 F30.00
G01 X11.6073 Y-28.6569 F30.00
G01 X11.6001 Y-28.6515 F30.00
G01 X11.5923 Y-28.6469 F30.00
G01 X11.5842 Y-28.6430 F30.00
G01 X11.5757 Y-28.6400 F30.00
G01 X11.5669 Y-28.6378 F30.00
G01 X11.5580 Y-28.6365 F30.00
G01 X11.5490 Y-28.6361 F30.00
G01 X11.2445 Y-28.6362 F30.00
G01 X11.2333 Y-28.6374 F30.00
G01 X11.2202 Y-28.6407 F30.00
G01 X11.2097 Y-28.6449 F30.00
G01 X11.1979 Y-28.6515 F30.00
G01 X11.1873 Y-28.6599 F30.00
G01 X11.1794 Y-28.6679 F30.00
G01 X11.1713 Y-28.6788 F30.00
G01 X11.1659 Y-28.6887 F30.00
G01 X11.1624 Y-28.6970 F30.00
G01 X11.1593 Y-28.7079 F30.00
G01 X11.1575 Y-28.7190 F30.00
G01 X11.1571 Y-28.7280 F30.00
G01 X11.1570 Y-30.3778 F30.00
G01 X10.5062 Y-31.0285 F30.00
G01 X8.7699 Y-31.0285 F30.00
G00 Z2.0000
G00 X10.6570 Y-32.7780
G01 F10.00
G01 Z-0.0500
G01 F30.00
G01 X10.6571 Y-34.5303 F30.00
G01 X10.6577 Y-34.5393 F30.00
G01 X10.6588 Y-34.5459 F30.00
G01 X10.6624 Y-34.5590 F30.00
G01 X10.6679 Y-34.5713 F30.00
G01 X10.6725 Y-34.5791 F30.00
G01 X10.6765 Y-34.5846 F30.00
G01 X10.6824 Y-34.5914 F30.00
G01 X10.6873 Y-34.5961 F30.00
G01 X10.6979 Y-34.6045 F30.00
G01 X10.7057 Y-34.6091 F30.00
G01 X10.7117 Y-34.6121 F30.00
G01 X10.7245 Y-34.6166 F30.00
G01 X10.7355 Y-34.6190 F30.00
G01 X10.7490 Y-34.6199 F30.00
G01 X11.0490 Y-34.6199 F30.00
G01 X11.0625 Y-34.6190 F30.00
G01 X11.0757 Y-34.6160 F30.00
G01 X11.0883 Y-34.6111 F30.00
G01 X11.1001 Y-34.6045 F30.00
G01 X11.1107 Y-34.5961 F30.00
G01 X11.1201 Y-34.5863 F30.00
G01 X11.1279 Y-34.5753 F30.00
G01 X11.1340 Y-34.5632 F30.00
G01 X11.1382 Y-34.5503 F30.00
G01 X11.1403 Y-34.5393 F30.00
G01 X11.1409 Y-34.5280 F30.00
G01 X11.1410 Y-33.0130 F30.00
G01 X12.8918 Y-33.0130 F30.00
G01 X13.3060 Y-33.4273 F30.00
G01 X13.2964 Y-33.4438 F30.00
G01 X13.2840 Y-33.4701 F30.00
G01 X13.2725 Y-33.5016 F30.00
G01 X13.2636 Y-33.5363 F30.00
G01 X13.2592 Y-33.5650 F30.00
G01 X13.2584 Y-33.5740 F30.00
G01 X13.2571 Y-33.6030 F30.00
G01 X13.2571 Y-34.1030 F30.00
G01 X13.2587 Y-34.1365 F30.00
G01 X13.2636 Y-34.1697 F30.00
G01 X13.2706 Y-34.1979 F30.00
G01 X13.2732 Y-34.2065 F30.00
G01 X13.2831 Y-34.2339 F30.00
G01 X13.2974 Y-34.2642 F30.00
G01 X13.3123 Y-34.2892 F30.00
G01 X13.3173 Y-34.2967 F30.00
G01 X13.3347 Y-34.3199 F30.00
G01 X13.3541 Y-34.3415 F30.00
G01 X13.3605 Y-34.3479 F30.00
G01 X13.3821 Y-34.3673 F30.00
G01 X13.4053 Y-34.3847 F30.00
G01 X13.4128 Y-34.3897 F30.00
G01 X13.4378 Y-34.4046 F30.00
G01 X13.4661 Y-34.4180 F30.00
G01 X13.4955 Y-34.4288 F30.00
G01 X13.5041 Y-34.4314 F30.00
G01 X13.5323 Y-34.4384 F30.00
G01 X13.5610 Y-34.4428 F30.00
G01 X13.5700 Y-34.4436 F30.00
G01 X13.5990 Y-34.4449 F30.00
G01 X14.5490 Y-34.4449 F30.00
G01 X14.5825 Y-34.4433 F30.00
G01 X14.6135 Y-34.4388 F30.00
G01 X14.6483 Y-34.4302 F30.00
G01 X14.6756 Y-34.4205 F30.00
G01 X14.6819 Y-34.4180 F30.00
G01 X14.7062 Y-34.4066 F30.00
G01 X14.7141 Y-34.4023 F30.00
G01 X14.7390 Y-34.3873 F30.00
G01 X14.7659 Y-34.3673 F30.00
G01 X14.7908 Y-34.3448 F30.00
G01 X14.8133 Y-34.3199 F30.00
G01 X14.8333 Y-34.2930 F30.00
G01 X14.8506 Y-34.2642 F30.00
G01 X14.8649 Y-34.2339 F30.00
G01 X14.8748 Y-34.2065 F30.00
G01 X14.8774 Y-34.1979 F30.00
G01 X14.8839 Y-34.1719 F30.00
G01 X14.8888 Y-34.1410 F30.00
G01 X14.8895 Y-34.1343 F30.00
G01 X14.8908 Y-34.1075 F30.00
G01 X14.8909 Y-34.0950 F30.00
G01 X15.4000 Y-34.0950 F30.00
G01 X15.4000 Y-34.3132 F30.00
G01 X15.4014 Y-34.3445 F30.00
G01 X15.4057 Y-34.3755 F30.00
G01 X15.4075 Y-34.3843 F30.00
G01 X15.4147 Y-34.4125 F30.00
G01 X15.4251 Y-34.4420 F30.00
G01 X15.4403 Y-34.4744 F30.00
G01 X15.4576 Y-34.5032 F30.00
G01 X15.4776 Y-34.5301 F30.00
G01 X15.5001 Y-34.5550 F30.00
G01 X15.5250 Y-34.5775 F30.00
G01 X15.5519 Y-34.5975 F30.00
G01 X15.5807 Y-34.6148 F30.00
G01 X15.6123 Y-34.6296 F30.00
G01 X15.6123 Y-35.4543 F30.00
G01 X15.6015 Y-35.4611 F30.00
G01 X15.5801 Y-35.4770 F30.00
G01 X15.5569 Y-35.4977 F30.00
G01 X15.5344 Y-35.5223 F30.00
G01 X15.5146 Y-35.5492 F30.00
G01 X15.5010 Y-35.5720 F30.00
G01 X15.4978 Y-35.5780 F30.00
G01 X15.4866 Y-35.6021 F30.00
G01 X15.4775 Y-35.6271 F30.00
G01 X15.4749 Y-35.6357 F30.00
G01 X15.4685 Y-35.6616 F30.00
G01 X15.4638 Y-35.6946 F30.00
G01 X15.4625 Y-35.7234 F30.00
G01 X15.4625 Y-36.4757 F30.00
G01 X15.4640 Y-36.5045 F30.00
G01 X15.4685 Y-36.5352 F30.00
G01 X15.4761 Y-36.5654 F30.00
G01 X15.4866 Y-36.5947 F30.00
G01 X15.4978 Y-36.6188 F30.00
G01 X15.5021 Y-36.6267 F30.00
G01 X15.5159 Y-36.6495 F30.00
G01 X15.5344 Y-36.6745 F30.00
G01 X15.5522 Y-36.6942 F30.00
G01 X15.5586 Y-36.7006 F30.00
G01 X15.5783 Y-36.7184 F30.00
G01 X15.5996 Y-36.7343 F30.00
G01 X15.6071 Y-36.7393 F30.00
G01 X15.6300 Y-36.7529 F30.00
G01 X15.6540 Y-36.7644 F30.00
G01 X15.6623 Y-36.7678 F30.00
G01 X15.6874 Y-36.7767 F30.00
G01 X15.7154 Y-36.7838 F30.00
G01 X15.7439 Y-36.7883 F30.00
G01 X15.7528 Y-36.7892 F30.00
G01 X15.7794 Y-36.7903 F30.00
G01 X16.2294 Y-36.7903 F30.00
G01 X16.2605 Y-36.7888 F30.00
G01 X16.2912 Y-36.7843 F30.00
G01 X16.3214 Y-36.7767 F30.00
G01 X16.3507 Y-36.7662 F30.00
G01 X16.3788 Y-36.7529 F30.00
G01 X16.4055 Y-36.7369 F30.00
G01 X16.4305 Y-36.7184 F30.00
G01 X16.4535 Y-36.6975 F30.00
G01 X16.4744 Y-36.6745 F30.00
G01 X16.4929 Y-36.6495 F30.00
G01 X16.5067 Y-36.6267 F30.00
G01 X16.5110 Y-36.6188 F30.00
G01 X16.5222 Y-36.5947 F30.00
G01 X16.5313 Y-36.5697 F30.00
G01 X16.5339 Y-36.5611 F30.00
G01 X16.5403 Y-36.5352 F30.00
G01 X16.5443 Y-36.5089 F30.00
G01 X16.5452 Y-36.5000 F30.00
G01 X16.5463 Y-36.4734 F30.00
G01 X16.5462 Y-35.7189 F30.00
G01 X16.5450 Y-35.6946 F30.00
G01 X16.5443 Y-35.6879 F30.00
G01 X16.5403 Y-35.6616 F30.00
G01 X16.5339 Y-35.6357 F30.00
G01 X16.5313 Y-35.6271 F30.00
G01 X16.5222 Y-35.6021 F30.00
G01 X16.5078 Y-35.5720 F30.00
G01 X16.4942 Y-35.5492 F30.00
G01 X16.4903 Y-35.5436 F30.00
G01 X16.4744 Y-35.5223 F30.00
G01 X16.4551 Y-35.5009 F30.00
G01 X16.4287 Y-35.4770 F30.00
G01 X16.4073 Y-35.4611 F30.00
G01 X16.3965 Y-35.4543 F30.00
G01 X16.3965 Y-34.6296 F30.00
G01 X16.4281 Y-34.6148 F30.00
G01 X16.4531 Y-34.5999 F30.00
G01 X16.4606 Y-34.5949 F30.00
G01 X16.4838 Y-34.5775 F30.00
G01 X16.5054 Y-34.5581 F30.00
G01 X16.5118 Y-34.5517 F30.00
G01 X16.5312 Y-34.5301 F30.00
G01 X16.5486 Y-34.5069 F30.00
G01 X16.5536 Y-34.4994 F30.00
G01 X16.5685 Y-34.4744 F30.00
G01 X16.5810 Y-34.4482 F30.00
G01 X16.5844 Y-34.4398 F30.00
G01 X16.5941 Y-34.4125 F30.00
G01 X16.6027 Y-34.3777 F30.00
G01 X16.6072 Y-34.3467 F30.00
G01 X16.6088 Y-34.3132 F30.00
G01 X16.6088 Y-33.4132 F30.00
G01 X16.6072 Y-33.3797 F30.00
G01 X16.6031 Y-33.3509 F30.00
G01 X16.6013 Y-33.3421 F30.00
G01 X16.5941 Y-33.3139 F30.00
G01 X16.5844 Y-33.2866 F30.00
G01 X16.5810 Y-33.2782 F30.00
G01 X16.5685 Y-33.2520 F30.00
G01 X16.5536 Y-33.2270 F30.00
G01 X16.5486 Y-33.2195 F30.00
G01 X16.5312 Y-33.1963 F30.00
G01 X16.5118 Y-33.1747 F30.00
G01 X16.5054 Y-33.1683 F30.00
G01 X16.4838 Y-33.1489 F30.00
G01 X16.4569 Y-33.1289 F30.00
G01 X16.4320 Y-33.1139 F30.00
G01 X16.4241 Y-33.1096 F30.00
G01 X16.3978 Y-33.0973 F30.00
G01 X16.3704 Y-33.0874 F30.00
G01 X16.3618 Y-33.0848 F30.00
G01 X16.3336 Y-33.0778 F30.00
G01 X16.3049 Y-33.0734 F30.00
G01 X16.2959 Y-33.0726 F30.00
G01 X16.2669 Y-33.0713 F30.00
G01 X15.7396 Y-33.0713 F30.00
G01 X15.7084 Y-33.0729 F30.00
G01 X15.6796 Y-33.0770 F30.00
G01 X15.6708 Y-33.0788 F30.00
G01 X15.6426 Y-33.0860 F30.00
G01 X15.6110 Y-33.0973 F30.00
G01 X15.5807 Y-33.1116 F30.00
G01 X15.5519 Y-33.1289 F30.00
G01 X15.5285 Y-33.1461 F30.00
G01 X15.5216 Y-33.1518 F30.00
G01 X15.5017 Y-33.1698 F30.00
G01 X15.4970 Y-33.1747 F30.00
G01 X15.4776 Y-33.1963 F30.00
G01 X15.4602 Y-33.2195 F30.00
G01 X15.4552 Y-33.2270 F30.00
G01 X15.4414 Y-33.2500 F30.00
G01 X15.4278 Y-33.2782 F30.00
G01 X15.4244 Y-33.2866 F30.00
G01 X15.4154 Y-33.3118 F30.00
G01 X15.4135 Y-33.3183 F30.00
G01 X15.4065 Y-33.3465 F30.00
G01 X15.4014 Y-33.3819 F30.00
G01 X15.4000 Y-33.4132 F30.00
G01 X15.4000 Y-33.6110 F30.00
G01 X14.8909 Y-33.6110 F30.00
G01 X14.8908 Y-33.5985 F30.00
G01 X14.8895 Y-33.5717 F30.00
G01 X14.8888 Y-33.5650 F30.00
G01 X14.8844 Y-33.5363 F30.00
G01 X14.8762 Y-33.5037 F30.00
G01 X14.8649 Y-33.4721 F30.00
G01 X14.8526 Y-33.4458 F30.00
G01 X14.8483 Y-33.4379 F30.00
G01 X14.8320 Y-33.4112 F30.00
G01 X14.8133 Y-33.3861 F30.00
G01 X14.7908 Y-33.3612 F30.00
G01 X14.7659 Y-33.3387 F30.00
G01 X14.7427 Y-33.3213 F30.00
G01 X14.7352 Y-33.3163 F30.00
G01 X14.7122 Y-33.3025 F30.00
G01 X14.7062 Y-33.2994 F30.00
G01 X14.6799 Y-33.2871 F30.00
G01 X14.6504 Y-33.2765 F30.00
G01 X14.6201 Y-33.2686 F30.00
G01 X14.6113 Y-33.2668 F30.00
G01 X14.5825 Y-33.2627 F30.00
G01 X14.5513 Y-33.2611 F30.00
G01 X13.8243 Y-33.2611 F30.00
G01 X13.1599 Y-32.5968 F30.00
G01 X13.1455 Y-32.5839 F30.00
G01 X13.1302 Y-32.5724 F30.00
G01 X13.1226 Y-32.5673 F30.00
G01 X13.1061 Y-32.5576 F30.00
G01 X13.0887 Y-32.5492 F30.00
G01 X13.0804 Y-32.5458 F30.00
G01 X13.0623 Y-32.5394 F30.00
G01 X13.0392 Y-32.5336 F30.00
G01 X13.0157 Y-32.5301 F30.00
G01 X12.9920 Y-32.5290 F30.00
G01 X10.9060 Y-32.5290 F30.00
G01 X10.8823 Y-32.5301 F30.00
G01 X10.8588 Y-32.5336 F30.00
G01 X10.8357 Y-32.5394 F30.00
G01 X10.8134 Y-32.5474 F30.00
G01 X10.7939 Y-32.5565 F30.00
G01 X10.7715 Y-32.5698 F30.00
G01 X10.7542 Y-32.5825 F30.00
G01 X10.7365 Y-32.5983 F30.00
G01 X10.7248 Y-32.6101 F30.00
G01 X10.7119 Y-32.6245 F30.00
G01 X10.6978 Y-32.6435 F30.00
G01 X10.6856 Y-32.6639 F30.00
G01 X10.6754 Y-32.6854 F30.00
G01 X10.6674 Y-32.7077 F30.00
G01 X10.6616 Y-32.7308 F30.00
G01 X10.6581 Y-32.7543 F30.00
G01 X10.6570 Y-32.7780 F30.00
G00 Z2.0000
G00 X11.1571 Y-33.8245
G01 F10.00
G01 Z-0.0500
G01 F30.00
G01 X11.1570 Y-35.2561 F30.00
G01 X10.8370 Y-35.2561 F30.00
G01 X10.8080 Y-35.2574 F30.00
G01 X10.7990 Y-35.2582 F30.00
G01 X10.7725 Y-35.2622 F30.00
G01 X10.7659 Y-35.2636 F30.00
G01 X10.7356 Y-35.2715 F30.00
G01 X10.7104 Y-35.2805 F30.00
G01 X10.7020 Y-35.2839 F30.00
G01 X10.6758 Y-35.2964 F30.00
G01 X10.6508 Y-35.3113 F30.00
G01 X10.6433 Y-35.3163 F30.00
G01 X10.6201 Y-35.3337 F30.00
G01 X10.5985 Y-35.3531 F30.00
G01 X10.5921 Y-35.3595 F30.00
G01 X10.5727 Y-35.3811 F30.00
G01 X10.5553 Y-35.4043 F30.00
G01 X10.5503 Y-35.4118 F30.00
G01 X10.5354 Y-35.4368 F30.00
G01 X10.5229 Y-35.4630 F30.00
G01 X10.5195 Y-35.4714 F30.00
G01 X10.5098 Y-35.4987 F30.00
G01 X10.5026 Y-35.5269 F30.00
G01 X10.5008 Y-35.5357 F30.00
G01 X10.4969 Y-35.5622 F30.00
G01 X10.4951 Y-35.5980 F30.00
G01 X10.4951 Y-36.5480 F30.00
G01 X10.4967 Y-36.5815 F30.00
G01 X10.5021 Y-36.6169 F30.00
G01 X10.5098 Y-36.6473 F30.00
G01 X10.5195 Y-36.6746 F30.00
G01 X10.5229 Y-36.6830 F30.00
G01 X10.5354 Y-36.7092 F30.00
G01 X10.5527 Y-36.7380 F30.00
G01 X10.5699 Y-36.7614 F30.00
G01 X10.5741 Y-36.7667 F30.00
G01 X10.5921 Y-36.7865 F30.00
G01 X10.5985 Y-36.7929 F30.00
G01 X10.6201 Y-36.8123 F30.00
G01 X10.6470 Y-36.8323 F30.00
G01 X10.6758 Y-36.8496 F30.00
G01 X10.7020 Y-36.8621 F30.00
G01 X10.7104 Y-36.8655 F30.00
G01 X10.7356 Y-36.8745 F30.00
G01 X10.7421 Y-36.8764 F30.00
G01 X10.7703 Y-36.8834 F30.00
G01 X10.8012 Y-36.8881 F30.00
G01 X10.8370 Y-36.8899 F30.00
G01 X11.3393 Y-36.8899 F30.00
G01 X11.3705 Y-36.8883 F30.00
G01 X11.3993 Y-36.8842 F30.00
G01 X11.4081 Y-36.8824 F30.00
G01 X11.4363 Y-36.8752 F30.00
G01 X11.4636 Y-36.8655 F30.00
G01 X11.4720 Y-36.8621 F30.00
G01 X11.4982 Y-36.8496 F30.00
G01 X11.5232 Y-36.8347 F30.00
G01 X11.5307 Y-36.8297 F30.00
G01 X11.5539 Y-36.8123 F30.00
G01 X11.5755 Y-36.7929 F30.00
G01 X11.5819 Y-36.7865 F30.00
G01 X11.6013 Y-36.7649 F30.00
G01 X11.6187 Y-36.7417 F30.00
G01 X11.6237 Y-36.7342 F30.00
G01 X11.6386 Y-36.7092 F30.00
G01 X11.6511 Y-36.6830 F30.00
G01 X11.6545 Y-36.6746 F30.00
G01 X11.6642 Y-36.6473 F30.00
G01 X11.6724 Y-36.6147 F30.00
G01 X11.6773 Y-36.5815 F30.00
G01 X11.6789 Y-36.5480 F30.00
G01 X11.6789 Y-35.5957 F30.00
G01 X11.6773 Y-35.5645 F30.00
G01 X11.6732 Y-35.5357 F30.00
G01 X11.6714 Y-35.5269 F30.00
G01 X11.6649 Y-35.5009 F30.00
G01 X11.6628 Y-35.4945 F30.00
G01 X11.6529 Y-35.4671 F30.00
G01 X11.6410 Y-35.4417 F30.00
G01 X11.6409 Y-33.1257 F30.00
G01 X11.6400 Y-33.1145 F30.00
G01 X11.6376 Y-33.1035 F30.00
G01 X11.6340 Y-33.0928 F30.00
G01 X11.6279 Y-33.0807 F30.00
G01 X11.6215 Y-33.0714 F30.00
G01 X11.6124 Y-33.0614 F30.00
G01 X11.6038 Y-33.0541 F30.00
G01 X11.5943 Y-33.0480 F30.00
G01 X11.5842 Y-33.0430 F30.00
G01 X11.5735 Y-33.0394 F30.00
G01 X11.5625 Y-33.0370 F30.00
G01 X11.5513 Y-33.0361 F30.00
G01 X11.2422 Y-33.0363 F30.00
G01 X11.2311 Y-33.0378 F30.00
G01 X11.2202 Y-33.0407 F30.00
G01 X11.2097 Y-33.0449 F30.00
G01 X11.1998 Y-33.0503 F30.00
G01 X11.1907 Y-33.0569 F30.00
G01 X11.1824 Y-33.0646 F30.00
G01 X11.1751 Y-33.0732 F30.00
G01 X11.1690 Y-33.0827 F30.00
G01 X11.1640 Y-33.0928 F30.00
G01 X11.1604 Y-33.1035 F30.00
G01 X11.1580 Y-33.1145 F30.00
G01 X11.1571 Y-33.1257 F30.00
G01 X11.1571 Y-33.8245 F30.00
G00 Z2.0000
G00 X11.6571 Y-33.8245
G01 F10.00
G01 Z-0.0500
G01 F30.00
G01 X11.6572 Y-34.5325 F30.00
G01 X11.6580 Y-34.5415 F30.00
G01 X11.6604 Y-34.5525 F30.00
G01 X11.6632 Y-34.5611 F30.00
G01 X11.6679 Y-34.5713 F30.00
G01 X11.6738 Y-34.5809 F30.00
G01 X11.6794 Y-34.5881 F30.00
G01 X11.6873 Y-34.5961 F30.00
G01 X11.6950 Y-34.6024 F30.00
G01 X11.6950 Y-37.5181 F30.00
G01 X11.4355 Y-37.5182 F30.00
G01 X11.4065 Y-37.5197 F30.00
G01 X11.3777 Y-37.5238 F30.00
G01 X11.3689 Y-37.5256 F30.00
G01 X11.3429 Y-37.5321 F30.00
G01 X11.3091 Y-37.5441 F30.00
G01 X11.2828 Y-37.5564 F30.00
G01 X11.2768 Y-37.5595 F30.00
G01 X11.2538 Y-37.5733 F30.00
G01 X11.2463 Y-37.5783 F30.00
G01 X11.2231 Y-37.5957 F30.00
G01 X11.1982 Y-37.6182 F30.00
G01 X11.1757 Y-37.6431 F30.00
G01 X11.1557 Y-37.6700 F30.00
G01 X11.1407 Y-37.6949 F30.00
G01 X11.1364 Y-37.7028 F30.00
G01 X11.1241 Y-37.7291 F30.00
G01 X11.1142 Y-37.7565 F30.00
G01 X11.1116 Y-37.7651 F30.00
G01 X11.1046 Y-37.7933 F30.00
G01 X11.0995 Y-37.8287 F30.00
G01 X11.0981 Y-37.8600 F30.00
G01 X11.0981 Y-38.3600 F30.00
G01 X11.0997 Y-38.3935 F30.00
G01 X11.1042 Y-38.4245 F30.00
G01 X11.1116 Y-38.4549 F30.00
G01 X11.1142 Y-38.4635 F30.00
G01 X11.1241 Y-38.4909 F30.00
G01 X11.1384 Y-38.5212 F30.00
G01 X11.1533 Y-38.5462 F30.00
G01 X11.1583 Y-38.5537 F30.00
G01 X11.1757 Y-38.5769 F30.00
G01 X11.1982 Y-38.6018 F30.00
G01 X11.2231 Y-38.6243 F30.00
G01 X11.2463 Y-38.6417 F30.00
G01 X11.2538 Y-38.6467 F30.00
G01 X11.2788 Y-38.6616 F30.00
G01 X11.3050 Y-38.6741 F30.00
G01 X11.3134 Y-38.6775 F30.00
G01 X11.3407 Y-38.6872 F30.00
G01 X11.3733 Y-38.6954 F30.00
G01 X11.4065 Y-38.7003 F30.00
G01 X11.4400 Y-38.7019 F30.00
G01 X12.3900 Y-38.7019 F30.00
G01 X12.4235 Y-38.7003 F30.00
G01 X12.4545 Y-38.6958 F30.00
G01 X12.4849 Y-38.6884 F30.00
G01 X12.4935 Y-38.6858 F30.00
G01 X12.5209 Y-38.6759 F30.00
G01 X12.5472 Y-38.6636 F30.00
G01 X12.5551 Y-38.6593 F30.00
G01 X12.5800 Y-38.6443 F30.00
