(G-CODE GENERATED BY FLATCAM v8.994 - www.flatcam.org - Version Date: 2020/11/7)

(Name: BN-PCB-Edge_Cuts.gbr_cutout_cnc)
(Type: G-code from Geometry)
(Units: MM)

(Created on Saturday, 02 December 2023 at 15:17)

(This preprocessor is used with a motion controller loaded with GRBL firmware.)
(It is configured to be compatible with almost any version of GRBL firmware.)

(TOOL DIAMETER: 2.0 mm)
(Feedrate_XY: 60.0 mm/min)
(Feedrate_Z: 60.0 mm/min)
(Feedrate rapids 1500.0 mm/min)

(Z_Cut: -1.8 mm)
(DepthPerCut: 0.6 mm <=>3 passes)
(Z_Move: 2.0 mm)
(Z Start: 5.0 mm)
(Z End: 25.0 mm)
(X,Y End: None mm)
(Steps per circle: 64)
(Steps per circle: 64)
(Preprocessor Geometry: GRBL_11_no_M6)

(X range:   -1.0000 ...   21.0000  mm)
(Y range:  -13.0000 ...    1.0000  mm)

(Spindle Speed: 12000.0 RPM)
G21
G90
G17
G94


G01 F60.00

M5             
G00 Z5.0000
G00 X0.0000 Y0.0000                
T1
(MSG, Change to Tool Dia = 2.0000)
M0
G00 Z5.0000
        
G00 Z2.0000
M03 S12000.0
G4 P1.0
G01 F60.00
G00 X-1.0000 Y-10.0000
G01 F60.00
G01 Z-0.6000
G01 F60.00
G01 X-1.0000 Y-11.0000 F60.00
G01 X0.0000 Y-11.0000 F60.00
G01 X0.0000 Y-13.0000 F60.00
G01 X20.0000 Y-13.0000 F60.00
G01 X20.0000 Y-11.0000 F60.00
G01 X21.0000 Y-11.0000 F60.00
G01 X21.0000 Y1.0000 F60.00
G01 X-1.0000 Y1.0000 F60.00
G01 X-1.0000 Y-10.0000 F60.00
G00 X-1.0000 Y-10.0000
G01 F60.00
G01 Z-1.2000
G01 F60.00
G01 X-1.0000 Y1.0000 F60.00
G01 X21.0000 Y1.0000 F60.00
G01 X21.0000 Y-11.0000 F60.00
G01 X20.0000 Y-11.0000 F60.00
G01 X20.0000 Y-13.0000 F60.00
G01 X0.0000 Y-13.0000 F60.00
G01 X0.0000 Y-11.0000 F60.00
G01 X-1.0000 Y-11.0000 F60.00
G01 X-1.0000 Y-10.0000 F60.00
G00 X-1.0000 Y-10.0000
G01 F60.00
G01 Z-1.8000
G01 F60.00
G01 X-1.0000 Y-11.0000 F60.00
G01 X0.0000 Y-11.0000 F60.00
G01 X0.0000 Y-13.0000 F60.00
G01 X20.0000 Y-13.0000 F60.00
G01 X20.0000 Y-11.0000 F60.00
G01 X21.0000 Y-11.0000 F60.00
G01 X21.0000 Y1.0000 F60.00
G01 X-1.0000 Y1.0000 F60.00
G01 X-1.0000 Y-10.0000 F60.00
G00 Z2.0000
M05
G00 Z2.0000
G00 Z25.00


