(G-CODE GENERATED BY FLATCAM v8.994 - www.flatcam.org - Version Date: 2020/11/7)

(Name: BN-PCB.drl_cnc)
(Type: G-code from Geometry)
(Units: MM)

(Created on Saturday, 02 December 2023 at 15:19)

(This preprocessor is the default preprocessor used by FlatCAM.)
(It is made to work with MACH3 compatible motion controllers.)


(TOOLS DIAMETER: )
(Tool: 1 -> Dia: 4.95)

(FEEDRATE Z: )
(Tool: 1 -> Feedrate: 30.0)

(FEEDRATE RAPIDS: )
(Tool: 1 -> Feedrate Rapids: 1500)

(Z_CUT: )
(Tool: 1 -> Z_Cut: -1.8)

(Tools Offset: )
(Tool: 1 -> Offset Z: 0.0)

(Z_MOVE: )
(Tool: 1 -> Z_Move: 2)

(Z Toolchange: 25.0 mm)
(X,Y Toolchange: 0.0000, 0.0000 mm)
(Z Start: None mm)
(Z End: 0.5 mm)
(X,Y End: None mm)
(Steps per circle: 64)
(Preprocessor Excellon: default)

(X range:    2.3750 ...   17.4750  mm)
(Y range:   -7.3500 ...   -2.4000  mm)

(Spindle Speed: 12000 RPM)
G21
G90
G94

G01 F30.00

M5
G00 Z25.0000
T1
G00 X0.0000 Y0.0000                
(M6)
(MSG, Change to Tool Dia = 4.9500 ||| Total drills for tool T1 = 2)
M0
G00 Z25.0000

G01 F30.00
M03 S12000
G00 X4.8500 Y-4.8750
G01 Z-1.8000
G01 Z0
G00 Z2.0000
G00 X15.0000 Y-4.8750
G01 Z-1.8000
G01 Z0
G00 Z2.0000
M05
G00 Z0.50


