(G-CODE GENERATED BY FLATCAM v8.994 - www.flatcam.org - Version Date: 2020/11/7)

(Name: PA_LPF.drl_cnc)
(Type: G-code from Geometry)
(Units: MM)

(Created on Thursday, 28 December 2023 at 17:32)

(This preprocessor is used with a motion controller loaded with GRBL firmware.)
(It is configured to be compatible with almost any version of GRBL firmware.)


(TOOLS DIAMETER: )
(Tool: 1 -> Dia: 0.2)
(Tool: 2 -> Dia: 0.4)
(Tool: 3 -> Dia: 0.8)
(Tool: 4 -> Dia: 3.2)

(FEEDRATE Z: )
(Tool: 1 -> Feedrate: 30.0)
(Tool: 2 -> Feedrate: 30.0)
(Tool: 3 -> Feedrate: 30.0)
(Tool: 4 -> Feedrate: 30.0)

(FEEDRATE RAPIDS: )
(Tool: 1 -> Feedrate Rapids: 1500)
(Tool: 2 -> Feedrate Rapids: 1500)
(Tool: 3 -> Feedrate Rapids: 1500)
(Tool: 4 -> Feedrate Rapids: 1500)

(Z_CUT: )
(Tool: 1 -> Z_Cut: -1.8)
(Tool: 2 -> Z_Cut: -2.0)
(Tool: 3 -> Z_Cut: -2.0)
(Tool: 4 -> Z_Cut: -1.8)

(Tools Offset: )
(Tool: 3 -> Offset Z: 0.0)

(Z_MOVE: )
(Tool: 1 -> Z_Move: 2)
(Tool: 2 -> Z_Move: 2)
(Tool: 3 -> Z_Move: 2)
(Tool: 4 -> Z_Move: 2)

(Z Toolchange: 25.0 mm)
(X,Y Toolchange: 0.0000, 0.0000 mm)
(Z Start: None mm)
(Z End: 20.5 mm)
(X,Y End: None mm)
(Steps per circle: 64)
(Steps per circle: 64)
(Preprocessor Excellon: GRBL_11_no_M6)

(X range:    1.2400 ...   98.2000  mm)
(Y range:  -54.5800 ...   -0.6000  mm)

(Spindle Speed: 12000 RPM)
G21
G90
G17
G94


G01 F30.00

M5             
G00 Z25.0000
G00 X0.0000 Y0.0000                
T3
(MSG, Change to Tool Dia = 0.8000 ||| Total drills for tool T3 = 12)
M0
G00 Z25.0000
        
G01 F30.00
M03 S12000
G00 X9.1000 Y-2.7000
G01 Z-2.0000
G01 Z0
G00 Z2.0000
G00 X9.1000 Y-13.5000
G01 Z-2.0000
G01 Z0
G00 Z2.0000
G00 X22.8000 Y-23.8000
G01 Z-2.0000
G01 Z0
G00 Z2.0000
G00 X24.2740 Y-36.3000
G01 Z-2.0000
G01 Z0
G00 Z2.0000
G00 X24.0500 Y-41.6000
G01 Z-2.0000
G01 Z0
G00 Z2.0000
G00 X31.0000 Y-25.5000
G01 Z-2.0000
G01 Z0
G00 Z2.0000
G00 X28.2000 Y-21.6000
G01 Z-2.0000
G01 Z0
G00 Z2.0000
G00 X28.2000 Y-19.2000
G01 Z-2.0000
G01 Z0
G00 Z2.0000
G00 X34.6000 Y-13.8000
G01 Z-2.0000
G01 Z0
G00 Z2.0000
G00 X90.2500 Y-28.1500
G01 Z-2.0000
G01 Z0
G00 Z2.0000
G00 X90.4000 Y-7.0000
G01 Z-2.0000
G01 Z0
G00 Z2.0000
G00 X34.6000 Y-2.5000
G01 Z-2.0000
G01 Z0
G00 Z2.0000
M05
G00 Z20.50


