(G-CODE GENERATED BY FLATCAM v8.994 - www.flatcam.org - Version Date: 2020/11/7)

(Name: PA_LPF.drl_cnc)
(Type: G-code from Geometry)
(Units: MM)

(Created on Thursday, 28 December 2023 at 17:31)

(This preprocessor is used with a motion controller loaded with GRBL firmware.)
(It is configured to be compatible with almost any version of GRBL firmware.)


(TOOLS DIAMETER: )
(Tool: 1 -> Dia: 0.2)
(Tool: 2 -> Dia: 0.4)
(Tool: 3 -> Dia: 0.8)
(Tool: 4 -> Dia: 3.2)

(FEEDRATE Z: )
(Tool: 1 -> Feedrate: 30.0)
(Tool: 2 -> Feedrate: 30.0)
(Tool: 3 -> Feedrate: 30.0)
(Tool: 4 -> Feedrate: 30.0)

(FEEDRATE RAPIDS: )
(Tool: 1 -> Feedrate Rapids: 1500)
(Tool: 2 -> Feedrate Rapids: 1500)
(Tool: 3 -> Feedrate Rapids: 1500)
(Tool: 4 -> Feedrate Rapids: 1500)

(Z_CUT: )
(Tool: 1 -> Z_Cut: -1.8)
(Tool: 2 -> Z_Cut: -2.0)
(Tool: 3 -> Z_Cut: -1.8)
(Tool: 4 -> Z_Cut: -1.8)

(Tools Offset: )
(Tool: 2 -> Offset Z: 0.0)

(Z_MOVE: )
(Tool: 1 -> Z_Move: 2)
(Tool: 2 -> Z_Move: 2)
(Tool: 3 -> Z_Move: 2)
(Tool: 4 -> Z_Move: 2)

(Z Toolchange: 25.0 mm)
(X,Y Toolchange: 0.0000, 0.0000 mm)
(Z Start: None mm)
(Z End: 20.5 mm)
(X,Y End: None mm)
(Steps per circle: 64)
(Steps per circle: 64)
(Preprocessor Excellon: GRBL_11_no_M6)

(X range:    1.2400 ...   98.2000  mm)
(Y range:  -54.5800 ...   -0.6000  mm)

(Spindle Speed: 12000 RPM)
G21
G90
G17
G94


G01 F30.00

M5             
G00 Z25.0000
G00 X0.0000 Y0.0000                
T2
(MSG, Change to Tool Dia = 0.4000 ||| Total drills for tool T2 = 91)
M0
G00 Z25.0000
        
G01 F30.00
M03 S12000
G00 X1.4400 Y-7.2000
G01 Z-2.0000
G01 Z0
G00 Z2.0000
G00 X5.2000 Y-9.1000
G01 Z-2.0000
G01 Z0
G00 Z2.0000
G00 X9.7000 Y-7.0000
G01 Z-2.0000
G01 Z0
G00 Z2.0000
G00 X11.5000 Y-10.5000
G01 Z-2.0000
G01 Z0
G00 Z2.0000
G00 X11.5000 Y-13.5000
G01 Z-2.0000
G01 Z0
G00 Z2.0000
G00 X18.0000 Y-18.0000
G01 Z-2.0000
G01 Z0
G00 Z2.0000
G00 X20.0000 Y-18.0000
G01 Z-2.0000
G01 Z0
G00 Z2.0000
G00 X22.0000 Y-18.0000
G01 Z-2.0000
G01 Z0
G00 Z2.0000
G00 X25.4000 Y-18.0000
G01 Z-2.0000
G01 Z0
G00 Z2.0000
G00 X31.0000 Y-18.0000
G01 Z-2.0000
G01 Z0
G00 Z2.0000
G00 X33.0000 Y-18.0000
G01 Z-2.0000
G01 Z0
G00 Z2.0000
G00 X35.7000 Y-15.4000
G01 Z-2.0000
G01 Z0
G00 Z2.0000
G00 X36.6000 Y-18.0000
G01 Z-2.0000
G01 Z0
G00 Z2.0000
G00 X33.0000 Y-23.0000
G01 Z-2.0000
G01 Z0
G00 Z2.0000
G00 X33.0000 Y-27.0000
G01 Z-2.0000
G01 Z0
G00 Z2.0000
G00 X34.4000 Y-42.0000
G01 Z-2.0000
G01 Z0
G00 Z2.0000
G00 X30.0000 Y-42.0000
G01 Z-2.0000
G01 Z0
G00 Z2.0000
G00 X27.4000 Y-38.3000
G01 Z-2.0000
G01 Z0
G00 Z2.0000
G00 X27.4000 Y-36.0000
G01 Z-2.0000
G01 Z0
G00 Z2.0000
G00 X20.0000 Y-36.0000
G01 Z-2.0000
G01 Z0
G00 Z2.0000
G00 X20.0000 Y-31.0000
G01 Z-2.0000
G01 Z0
G00 Z2.0000
G00 X20.0000 Y-27.0000
G01 Z-2.0000
G01 Z0
G00 Z2.0000
G00 X20.0000 Y-21.0000
G01 Z-2.0000
G01 Z0
G00 Z2.0000
G00 X15.0000 Y-18.0000
G01 Z-2.0000
G01 Z0
G00 Z2.0000
G00 X11.5000 Y-18.0000
G01 Z-2.0000
G01 Z0
G00 Z2.0000
G00 X10.5000 Y-16.0000
G01 Z-2.0000
G01 Z0
G00 Z2.0000
G00 X10.5000 Y-14.9000
G01 Z-2.0000
G01 Z0
G00 Z2.0000
G00 X8.0000 Y-18.0000
G01 Z-2.0000
G01 Z0
G00 Z2.0000
G00 X5.0000 Y-18.0000
G01 Z-2.0000
G01 Z0
G00 Z2.0000
G00 X2.0000 Y-18.0000
G01 Z-2.0000
G01 Z0
G00 Z2.0000
G00 X1.4400 Y-21.3600
G01 Z-2.0000
G01 Z0
G00 Z2.0000
G00 X1.4400 Y-32.7900
G01 Z-2.0000
G01 Z0
G00 Z2.0000
G00 X1.4400 Y-46.7600
G01 Z-2.0000
G01 Z0
G00 Z2.0000
G00 X12.0000 Y-41.0000
G01 Z-2.0000
G01 Z0
G00 Z2.0000
G00 X15.0000 Y-41.0000
G01 Z-2.0000
G01 Z0
G00 Z2.0000
G00 X14.1400 Y-54.3800
G01 Z-2.0000
G01 Z0
G00 Z2.0000
G00 X29.3800 Y-54.3800
G01 Z-2.0000
G01 Z0
G00 Z2.0000
G00 X34.4600 Y-54.3800
G01 Z-2.0000
G01 Z0
G00 Z2.0000
G00 X45.8900 Y-54.3800
G01 Z-2.0000
G01 Z0
G00 Z2.0000
G00 X49.7000 Y-54.3800
G01 Z-2.0000
G01 Z0
G00 Z2.0000
G00 X56.0000 Y-24.3000
G01 Z-2.0000
G01 Z0
G00 Z2.0000
G00 X60.0000 Y-24.3000
G01 Z-2.0000
G01 Z0
G00 Z2.0000
G00 X63.5000 Y-24.3000
G01 Z-2.0000
G01 Z0
G00 Z2.0000
G00 X68.3000 Y-24.3000
G01 Z-2.0000
G01 Z0
G00 Z2.0000
G00 X73.2000 Y-24.3000
G01 Z-2.0000
G01 Z0
G00 Z2.0000
G00 X69.0000 Y-14.0000
G01 Z-2.0000
G01 Z0
G00 Z2.0000
G00 X73.2000 Y-14.4000
G01 Z-2.0000
G01 Z0
G00 Z2.0000
G00 X80.0000 Y-16.0000
G01 Z-2.0000
G01 Z0
G00 Z2.0000
G00 X83.0000 Y-22.0000
G01 Z-2.0000
G01 Z0
G00 Z2.0000
G00 X82.7000 Y-25.0000
G01 Z-2.0000
G01 Z0
G00 Z2.0000
G00 X89.0000 Y-22.8000
G01 Z-2.0000
G01 Z0
G00 Z2.0000
G00 X98.0000 Y-41.0000
G01 Z-2.0000
G01 Z0
G00 Z2.0000
G00 X93.7000 Y-25.0000
G01 Z-2.0000
G01 Z0
G00 Z2.0000
G00 X93.7000 Y-19.3000
G01 Z-2.0000
G01 Z0
G00 Z2.0000
G00 X93.7000 Y-9.2000
G01 Z-2.0000
G01 Z0
G00 Z2.0000
G00 X91.2000 Y-4.3000
G01 Z-2.0000
G01 Z0
G00 Z2.0000
G00 X91.2000 Y-0.8000
G01 Z-2.0000
G01 Z0
G00 Z2.0000
G00 X88.0000 Y-9.0000
G01 Z-2.0000
G01 Z0
G00 Z2.0000
G00 X80.0000 Y-10.0000
G01 Z-2.0000
G01 Z0
G00 Z2.0000
G00 X79.0000 Y-1.0000
G01 Z-2.0000
G01 Z0
G00 Z2.0000
G00 X77.2000 Y-0.8000
G01 Z-2.0000
G01 Z0
G00 Z2.0000
G00 X73.0000 Y-0.8000
G01 Z-2.0000
G01 Z0
G00 Z2.0000
G00 X68.0000 Y-0.8000
G01 Z-2.0000
G01 Z0
G00 Z2.0000
G00 X63.0000 Y-0.8000
G01 Z-2.0000
G01 Z0
G00 Z2.0000
G00 X57.1000 Y-0.8000
G01 Z-2.0000
G01 Z0
G00 Z2.0000
G00 X53.5000 Y-0.8000
G01 Z-2.0000
G01 Z0
G00 Z2.0000
G00 X57.7000 Y-8.0000
G01 Z-2.0000
G01 Z0
G00 Z2.0000
G00 X57.7000 Y-9.2000
G01 Z-2.0000
G01 Z0
G00 Z2.0000
G00 X57.8000 Y-11.2000
G01 Z-2.0000
G01 Z0
G00 Z2.0000
G00 X63.5000 Y-14.4000
G01 Z-2.0000
G01 Z0
G00 Z2.0000
G00 X56.0000 Y-17.9800
G01 Z-2.0000
G01 Z0
G00 Z2.0000
G00 X51.0000 Y-18.0000
G01 Z-2.0000
G01 Z0
G00 Z2.0000
G00 X47.0000 Y-18.0000
G01 Z-2.0000
G01 Z0
G00 Z2.0000
G00 X43.8000 Y-18.0000
G01 Z-2.0000
G01 Z0
G00 Z2.0000
G00 X41.0000 Y-18.0000
G01 Z-2.0000
G01 Z0
G00 Z2.0000
G00 X48.3000 Y-8.6000
G01 Z-2.0000
G01 Z0
G00 Z2.0000
G00 X46.1000 Y-8.6000
G01 Z-2.0000
G01 Z0
G00 Z2.0000
G00 X43.8000 Y-8.6000
G01 Z-2.0000
G01 Z0
G00 Z2.0000
G00 X35.9000 Y-1.2000
G01 Z-2.0000
G01 Z0
G00 Z2.0000
G00 X33.0600 Y-1.1400
G01 Z-2.0000
G01 Z0
G00 Z2.0000
G00 X27.9800 Y-1.1400
G01 Z-2.0000
G01 Z0
G00 Z2.0000
G00 X29.6700 Y-5.9500
G01 Z-2.0000
G01 Z0
G00 Z2.0000
G00 X32.0000 Y-8.6000
G01 Z-2.0000
G01 Z0
G00 Z2.0000
G00 X29.7000 Y-11.0000
G01 Z-2.0000
G01 Z0
G00 Z2.0000
G00 X21.5000 Y-11.2000
G01 Z-2.0000
G01 Z0
G00 Z2.0000
G00 X18.9000 Y-9.2000
G01 Z-2.0000
G01 Z0
G00 Z2.0000
G00 X18.9000 Y-8.0000
G01 Z-2.0000
G01 Z0
G00 Z2.0000
G00 X22.0000 Y-6.0000
G01 Z-2.0000
G01 Z0
G00 Z2.0000
G00 X20.0000 Y-6.0000
G01 Z-2.0000
G01 Z0
G00 Z2.0000
G00 X15.6000 Y-7.1000
G01 Z-2.0000
G01 Z0
G00 Z2.0000
G00 X10.2000 Y-1.1400
G01 Z-2.0000
G01 Z0
G00 Z2.0000
M05
G00 Z20.50


