(G-CODE GENERATED BY FLATCAM v8.994 - www.flatcam.org - Version Date: 2020/11/7)

(Name: PA_LPF-F_Cu.gbr_iso_combined_cnc)
(Type: G-code from Geometry)
(Units: MM)

(Created on Thursday, 28 December 2023 at 12:33)

(This preprocessor is used with a motion controller loaded with GRBL firmware.)
(It is configured to be compatible with almost any version of GRBL firmware.)

(TOOL DIAMETER: 0.1839 mm)
(Feedrate_XY: 60.0 mm/min)
(Feedrate_Z: 10.0 mm/min)
(Feedrate rapids 1500.0 mm/min)

(Z_Cut: -0.05 mm)
(DepthPerCut: 0.05 mm <=>1 passes)
(Z_Move: 2.0 mm)
(Z Start: None mm)
(Z End: 15.0 mm)
(X,Y End: None mm)
(Steps per circle: 64)
(Steps per circle: 64)
(Preprocessor Geometry: GRBL_11_no_M6)

(X range:   -0.4556 ...  100.4556  mm)
(Y range:  -55.4556 ...    0.4556  mm)

(Spindle Speed: 12000.0 RPM)
G21
G90
G17
G94


G01 F60.00

M5             
G00 Z15.0000
G00 X0.0000 Y0.0000                
T2
(MSG, Change to Tool Dia = 0.1839)
M0
G00 Z15.0000
        
G00 Z2.0000
M03 S12000.0
G4 P1.0
G01 F60.00
G00 X-0.0914 Y-0.1245
G01 F10.00
G01 Z-0.0500
G01 F60.00
G01 X-0.0914 Y-10.6442 F60.00
G01 X-0.0907 Y-10.6558 F60.00
G01 X-0.0885 Y-10.6673 F60.00
G01 X-0.0690 Y-10.7354 F60.00
G01 X-0.0643 Y-10.7481 F60.00
G01 X-0.0578 Y-10.7599 F60.00
G01 X-0.0511 Y-10.7690 F60.00
G01 X-0.0433 Y-10.7772 F60.00
G01 X0.0106 Y-10.8251 F60.00
G01 X0.0196 Y-10.8322 F60.00
G01 X0.0254 Y-10.8358 F60.00
G01 X0.0314 Y-10.8390 F60.00
G01 X0.0377 Y-10.8418 F60.00
G01 X0.0441 Y-10.8441 F60.00
G01 X0.0552 Y-10.8468 F60.00
G01 X0.1265 Y-10.8580 F60.00
G01 X0.1396 Y-10.8591 F60.00
G01 X0.1505 Y-10.8586 F60.00
G01 X0.1667 Y-10.8564 F60.00
G01 X3.7273 Y-10.8564 F60.00
G01 X3.7347 Y-10.8562 F60.00
G01 X3.7640 Y-10.8536 F60.00
G01 X3.8050 Y-10.8563 F60.00
G01 X3.8333 Y-10.8564 F60.00
G01 X3.8621 Y-10.8601 F60.00
G01 X3.9094 Y-10.8632 F60.00
G01 X4.4903 Y-10.9867 F60.00
G01 X4.4974 Y-10.9880 F60.00
G01 X4.5256 Y-10.9909 F60.00
G01 X4.5352 Y-10.9914 F60.00
G01 X4.7928 Y-10.9914 F60.00
G01 X4.8026 Y-10.9909 F60.00
G01 X4.8312 Y-10.9878 F60.00
G01 X4.8401 Y-10.9862 F60.00
G01 X4.8488 Y-10.9837 F60.00
G01 X4.8612 Y-10.9784 F60.00
G01 X4.9265 Y-10.9428 F60.00
G01 X4.9373 Y-10.9355 F60.00
G01 X4.9455 Y-10.9282 F60.00
G01 X7.5575 Y-8.3162 F60.00
G01 X7.5650 Y-8.3082 F60.00
G01 X7.6009 Y-8.2668 F60.00
G01 X7.6263 Y-8.2465 F60.00
G01 X7.6338 Y-8.2398 F60.00
G01 X7.6549 Y-8.2187 F60.00
G01 X7.7030 Y-8.1862 F60.00
G01 X7.7523 Y-8.1477 F60.00
G01 X7.7811 Y-8.1326 F60.00
G01 X7.7898 Y-8.1274 F60.00
G01 X7.8145 Y-8.1108 F60.00
G01 X7.8718 Y-8.0860 F60.00
G01 X7.9235 Y-8.0594 F60.00
G01 X7.9546 Y-8.0501 F60.00
G01 X7.9641 Y-8.0467 F60.00
G01 X7.9915 Y-8.0350 F60.00
G01 X8.0483 Y-8.0226 F60.00
G01 X8.1083 Y-8.0052 F60.00
G01 X8.1406 Y-8.0019 F60.00
G01 X8.1506 Y-8.0003 F60.00
G01 X8.1797 Y-7.9940 F60.00
G01 X8.2345 Y-7.9927 F60.00
G01 X8.2519 Y-7.9914 F60.00
G01 X8.2891 Y-7.9914 F60.00
G01 X8.3739 Y-7.9894 F60.00
G01 X8.4022 Y-7.9914 F60.00
G01 X15.9585 Y-7.9914 F60.00
G01 X15.9695 Y-7.9911 F60.00
G01 X16.0241 Y-7.9871 F60.00
G01 X16.0537 Y-7.9906 F60.00
G01 X16.0638 Y-7.9913 F60.00
G01 X16.0963 Y-7.9914 F60.00
G01 X16.1577 Y-8.0031 F60.00
G01 X16.2154 Y-8.0100 F60.00
G01 X16.2464 Y-8.0198 F60.00
G01 X16.2562 Y-8.0222 F60.00
G01 X16.2854 Y-8.0279 F60.00
G01 X16.3435 Y-8.0509 F60.00
G01 X16.3988 Y-8.0687 F60.00
G01 X16.4250 Y-8.0829 F60.00
G01 X16.4341 Y-8.0872 F60.00
G01 X16.4642 Y-8.0995 F60.00
G01 X16.5169 Y-8.1331 F60.00
G01 X16.5679 Y-8.1610 F60.00
G01 X16.5931 Y-8.1816 F60.00
G01 X16.6013 Y-8.1875 F60.00
G01 X16.6263 Y-8.2036 F60.00
G01 X16.6659 Y-8.2414 F60.00
G01 X16.6792 Y-8.2529 F60.00
G01 X16.7055 Y-8.2791 F60.00
G01 X16.7669 Y-8.3377 F60.00
G01 X16.7854 Y-8.3591 F60.00
G01 X17.3838 Y-8.9575 F60.00
G01 X17.3918 Y-8.9650 F60.00
G01 X17.4332 Y-9.0009 F60.00
G01 X17.4517 Y-9.0242 F60.00
G01 X17.4584 Y-9.0318 F60.00
G01 X17.4812 Y-9.0549 F60.00
G01 X17.5164 Y-9.1065 F60.00
G01 X17.5523 Y-9.1523 F60.00
G01 X17.5674 Y-9.1811 F60.00
G01 X17.5726 Y-9.1898 F60.00
G01 X17.5892 Y-9.2145 F60.00
G01 X17.6140 Y-9.2718 F60.00
G01 X17.6406 Y-9.3235 F60.00
G01 X17.6490 Y-9.3520 F60.00
G01 X17.6524 Y-9.3615 F60.00
G01 X17.6650 Y-9.3915 F60.00
G01 X17.6785 Y-9.4525 F60.00
G01 X17.6948 Y-9.5083 F60.00
G01 X17.6981 Y-9.5406 F60.00
G01 X17.6997 Y-9.5506 F60.00
G01 X17.7060 Y-9.5797 F60.00
G01 X17.7073 Y-9.6345 F60.00
G01 X17.7086 Y-9.6520 F60.00
G01 X17.7086 Y-9.6891 F60.00
G01 X17.7106 Y-9.7739 F60.00
G01 X17.7086 Y-9.8022 F60.00
G01 X17.7088 Y-11.7721 F60.00
G01 X17.7107 Y-11.7850 F60.00
G01 X17.7229 Y-11.8410 F60.00
G01 X17.7250 Y-11.8476 F60.00
G01 X17.7275 Y-11.8540 F60.00
G01 X17.7328 Y-11.8642 F60.00
G01 X17.7366 Y-11.8700 F60.00
G01 X17.7407 Y-11.8755 F60.00
G01 X17.7910 Y-11.9334 F60.00
G01 X17.7977 Y-11.9397 F60.00
G01 X17.8030 Y-11.9439 F60.00
G01 X17.8107 Y-11.9490 F60.00
G01 X17.8167 Y-11.9522 F60.00
G01 X17.8229 Y-11.9550 F60.00
G01 X17.8294 Y-11.9574 F60.00
G01 X17.9007 Y-11.9783 F60.00
G01 X17.9136 Y-11.9808 F60.00
G01 X17.9245 Y-11.9814 F60.00
G01 X23.4357 Y-11.9814 F60.00
G01 X23.4682 Y-11.9786 F60.00
G01 X23.4795 Y-11.9763 F60.00
G01 X23.4882 Y-11.9735 F60.00
G01 X23.4966 Y-11.9698 F60.00
G01 X23.5591 Y-11.9386 F60.00
G01 X23.5651 Y-11.9354 F60.00
G01 X23.5709 Y-11.9316 F60.00
G01 X23.5763 Y-11.9275 F60.00
G01 X23.5831 Y-11.9214 F60.00
G01 X23.5878 Y-11.9163 F60.00
G01 X23.5934 Y-11.9091 F60.00
G01 X23.6328 Y-11.8433 F60.00
G01 X23.6361 Y-11.8373 F60.00
G01 X23.6398 Y-11.8290 F60.00
G01 X23.6426 Y-11.8203 F60.00
G01 X23.6445 Y-11.8114 F60.00
G01 X23.6456 Y-11.8023 F60.00
G01 X23.6457 Y-11.7932 F60.00
G01 X23.6432 Y-11.7211 F60.00
G01 X23.6423 Y-11.7124 F60.00
G01 X23.6405 Y-11.7039 F60.00
G01 X23.6301 Y-11.6718 F60.00
G01 X23.6275 Y-11.6461 F60.00
G01 X23.6264 Y-11.6393 F60.00
G01 X23.6247 Y-11.6326 F60.00
G01 X23.6117 Y-11.5870 F60.00
G01 X23.6075 Y-11.5767 F60.00
G01 X23.6021 Y-11.5670 F60.00
G01 X23.5970 Y-11.5597 F60.00
G01 X23.5927 Y-11.5546 F60.00
G01 X23.5412 Y-11.4981 F60.00
G01 X23.5346 Y-11.4924 F60.00
G01 X23.5275 Y-11.4873 F60.00
G01 X23.4263 Y-11.4255 F60.00
G01 X23.4166 Y-11.4208 F60.00
G01 X23.3741 Y-11.4043 F60.00
G01 X23.3628 Y-11.4008 F60.00
G01 X23.3466 Y-11.3976 F60.00
G01 X23.2846 Y-11.3900 F60.00
G01 X23.2563 Y-11.3810 F60.00
G01 X23.2465 Y-11.3784 F60.00
G01 X23.2146 Y-11.3721 F60.00
G01 X23.1606 Y-11.3506 F60.00
G01 X23.1012 Y-11.3313 F60.00
G01 X23.0750 Y-11.3171 F60.00
G01 X23.0659 Y-11.3128 F60.00
G01 X23.0358 Y-11.3005 F60.00
G01 X22.9869 Y-11.2692 F60.00
G01 X22.9321 Y-11.2390 F60.00
G01 X22.9091 Y-11.2201 F60.00
G01 X22.9010 Y-11.2141 F60.00
G01 X22.8737 Y-11.1964 F60.00
G01 X22.8341 Y-11.1586 F60.00
G01 X22.8208 Y-11.1471 F60.00
G01 X22.7945 Y-11.1209 F60.00
G01 X22.7331 Y-11.0623 F60.00
G01 X22.7146 Y-11.0409 F60.00
G01 X22.5357 Y-10.8620 F60.00
G01 X22.5234 Y-10.8510 F60.00
G01 X22.5122 Y-10.8385 F60.00
G01 X22.2162 Y-10.5425 F60.00
G01 X22.2082 Y-10.5350 F60.00
G01 X22.1668 Y-10.4991 F60.00
G01 X22.1483 Y-10.4758 F60.00
G01 X22.1416 Y-10.4682 F60.00
G01 X22.1187 Y-10.4451 F60.00
G01 X22.0861 Y-10.3970 F60.00
G01 X22.0477 Y-10.3477 F60.00
G01 X22.0340 Y-10.3213 F60.00
G01 X22.0289 Y-10.3126 F60.00
G01 X22.0108 Y-10.2855 F60.00
G01 X21.9879 Y-10.2322 F60.00
G01 X21.9594 Y-10.1765 F60.00
G01 X21.9501 Y-10.1454 F60.00
G01 X21.9467 Y-10.1359 F60.00
G01 X21.9350 Y-10.1085 F60.00
G01 X21.9226 Y-10.0518 F60.00
G01 X21.9052 Y-9.9917 F60.00
G01 X21.9023 Y-9.9621 F60.00
G01 X21.9008 Y-9.9521 F60.00
G01 X21.8940 Y-9.9203 F60.00
G01 X21.8927 Y-9.8655 F60.00
G01 X21.8914 Y-9.8480 F60.00
G01 X21.8914 Y-9.8109 F60.00
G01 X21.8894 Y-9.7261 F60.00
G01 X21.8914 Y-9.6978 F60.00
G01 X21.8914 Y-9.6296 F60.00
G01 X21.8907 Y-9.6179 F60.00
G01 X21.8890 Y-9.6086 F60.00
G01 X21.8742 Y-9.5467 F60.00
G01 X21.8700 Y-9.5358 F60.00
G01 X21.8588 Y-9.5131 F60.00
G01 X21.8185 Y-9.3512 F60.00
G01 X21.8164 Y-9.3208 F60.00
G01 X21.8164 Y-7.8792 F60.00
G01 X21.8185 Y-7.8488 F60.00
G01 X21.8588 Y-7.6869 F60.00
G01 X21.8700 Y-7.6642 F60.00
G01 X21.8742 Y-7.6533 F60.00
G01 X21.8761 Y-7.6465 F60.00
G01 X21.8904 Y-7.5845 F60.00
G01 X21.8914 Y-7.5727 F60.00
G01 X21.8914 Y-7.5382 F60.00
G01 X21.8871 Y-7.4759 F60.00
G01 X21.8906 Y-7.4463 F60.00
G01 X21.8913 Y-7.4362 F60.00
G01 X21.8914 Y-7.4037 F60.00
G01 X21.9031 Y-7.3423 F60.00
G01 X21.9100 Y-7.2846 F60.00
G01 X21.9190 Y-7.2563 F60.00
G01 X21.9216 Y-7.2465 F60.00
G01 X21.9279 Y-7.2146 F60.00
G01 X21.9494 Y-7.1606 F60.00
G01 X21.9687 Y-7.1012 F60.00
G01 X21.9841 Y-7.0725 F60.00
G01 X21.9884 Y-7.0634 F60.00
G01 X21.9995 Y-7.0358 F60.00
G01 X22.0308 Y-6.9869 F60.00
G01 X22.0610 Y-6.9321 F60.00
G01 X22.0799 Y-6.9091 F60.00
G01 X22.0859 Y-6.9010 F60.00
G01 X22.1036 Y-6.8737 F60.00
G01 X22.1414 Y-6.8341 F60.00
G01 X22.1529 Y-6.8208 F60.00
G01 X22.1791 Y-6.7945 F60.00
G01 X22.2377 Y-6.7331 F60.00
G01 X22.2591 Y-6.7146 F60.00
G01 X22.8575 Y-6.1162 F60.00
G01 X22.8650 Y-6.1082 F60.00
G01 X22.9009 Y-6.0668 F60.00
G01 X22.9263 Y-6.0465 F60.00
G01 X22.9338 Y-6.0398 F60.00
G01 X22.9549 Y-6.0187 F60.00
G01 X23.0030 Y-5.9861 F60.00
G01 X23.0523 Y-5.9477 F60.00
G01 X23.0787 Y-5.9340 F60.00
G01 X23.0874 Y-5.9289 F60.00
G01 X23.1145 Y-5.9108 F60.00
G01 X23.1718 Y-5.8860 F60.00
G01 X23.2409 Y-5.8509 F60.00
G01 X23.2485 Y-5.8460 F60.00
G01 X23.2546 Y-5.8411 F60.00
G01 X23.3021 Y-5.8105 F60.00
G01 X23.3075 Y-5.8063 F60.00
G01 X23.3126 Y-5.8017 F60.00
G01 X23.3203 Y-5.7933 F60.00
G01 X23.3257 Y-5.7859 F60.00
G01 X23.3313 Y-5.7760 F60.00
G01 X23.3639 Y-5.7040 F60.00
G01 X23.3672 Y-5.6931 F60.00
G01 X23.3688 Y-5.6841 F60.00
G01 X23.3696 Y-5.6727 F60.00
G01 X23.3692 Y-5.6636 F60.00
G01 X23.3579 Y-5.5854 F60.00
G01 X23.3551 Y-5.5744 F60.00
G01 X23.3508 Y-5.5638 F60.00
G01 X23.3454 Y-5.5538 F60.00
G01 X23.3387 Y-5.5445 F60.00
G01 X23.2884 Y-5.4866 F60.00
G01 X23.2800 Y-5.4789 F60.00
G01 X23.2707 Y-5.4722 F60.00
G01 X23.2607 Y-5.4668 F60.00
G01 X23.2522 Y-5.4634 F60.00
G01 X23.1766 Y-5.4411 F60.00
G01 X23.1658 Y-5.4392 F60.00
G01 X23.1549 Y-5.4386 F60.00
G01 X17.8104 Y-5.4386 F60.00
G01 X17.8036 Y-5.4388 F60.00
G01 X17.7561 Y-5.4458 F60.00
G01 X17.7453 Y-5.4486 F60.00
G01 X17.7330 Y-5.4537 F60.00
G01 X17.7234 Y-5.4592 F60.00
G01 X17.6632 Y-5.4989 F60.00
G01 X17.6577 Y-5.5031 F60.00
G01 X17.6526 Y-5.5076 F60.00
G01 X17.6448 Y-5.5159 F60.00
G01 X17.6381 Y-5.5252 F60.00
G01 X17.6326 Y-5.5351 F60.00
G01 X17.6025 Y-5.6031 F60.00
G01 X17.5996 Y-5.6114 F60.00
G01 X17.5979 Y-5.6177 F60.00
G01 X17.5955 Y-5.6328 F60.00
G01 X17.5442 Y-5.7565 F60.00
G01 X17.4627 Y-5.8627 F60.00
G01 X17.3565 Y-5.9442 F60.00
G01 X17.2327 Y-5.9955 F60.00
G01 X17.1333 Y-6.0085 F60.00
G01 X16.2667 Y-6.0086 F60.00
G01 X16.1672 Y-5.9955 F60.00
G01 X16.0435 Y-5.9442 F60.00
G01 X15.9373 Y-5.8627 F60.00
G01 X15.8558 Y-5.7565 F60.00
G01 X15.7995 Y-5.6207 F60.00
G01 X15.7936 Y-5.6075 F60.00
G01 X15.7880 Y-5.5976 F60.00
G01 X15.7840 Y-5.5920 F60.00
G01 X15.7782 Y-5.5851 F60.00
G01 X15.7306 Y-5.5340 F60.00
G01 X15.7240 Y-5.5276 F60.00
G01 X15.7169 Y-5.5219 F60.00
G01 X15.7072 Y-5.5158 F60.00
G01 X15.6990 Y-5.5119 F60.00
G01 X15.6904 Y-5.5088 F60.00
G01 X15.6139 Y-5.4892 F60.00
G01 X15.6026 Y-5.4877 F60.00
G01 X15.5912 Y-5.4875 F60.00
G01 X15.5798 Y-5.4888 F60.00
G01 X15.5687 Y-5.4914 F60.00
G01 X15.4938 Y-5.5166 F60.00
G01 X15.4856 Y-5.5205 F60.00
G01 X15.4759 Y-5.5265 F60.00
G01 X15.4687 Y-5.5322 F60.00
G01 X15.4606 Y-5.5402 F60.00
G01 X15.4125 Y-5.5998 F60.00
G01 X15.4087 Y-5.6052 F60.00
G01 X15.4042 Y-5.6128 F60.00
G01 X15.4005 Y-5.6206 F60.00
G01 X15.3442 Y-5.7565 F60.00
G01 X15.2627 Y-5.8627 F60.00
G01 X15.1565 Y-5.9442 F60.00
G01 X15.0327 Y-5.9955 F60.00
G01 X14.9333 Y-6.0085 F60.00
G01 X14.0667 Y-6.0086 F60.00
G01 X13.9672 Y-5.9955 F60.00
G01 X13.8435 Y-5.9442 F60.00
G01 X13.7373 Y-5.8627 F60.00
G01 X13.6558 Y-5.7565 F60.00
G01 X13.6045 Y-5.6328 F60.00
G01 X13.5914 Y-5.5333 F60.00
G01 X13.5914 Y-5.0910 F60.00
G01 X13.5908 Y-5.0801 F60.00
G01 X13.5889 Y-5.0694 F60.00
G01 X13.5739 Y-5.0083 F60.00
G01 X13.5694 Y-4.9960 F60.00
G01 X13.5594 Y-4.9765 F60.00
G01 X13.5052 Y-4.7917 F60.00
G01 X13.4914 Y-4.6480 F60.00
G01 X13.4914 Y-3.3452 F60.00
G01 X13.4903 Y-3.3308 F60.00
G01 X13.4874 Y-3.3089 F60.00
G01 X13.4146 Y-2.5075 F60.00
G01 X13.4164 Y-2.4587 F60.00
G01 X13.4164 Y-1.0792 F60.00
G01 X13.4185 Y-1.0488 F60.00
G01 X13.4588 Y-0.8869 F60.00
G01 X13.5321 Y-0.7391 F60.00
G01 X13.6355 Y-0.6105 F60.00
G01 X13.7641 Y-0.5071 F60.00
G01 X13.9119 Y-0.4338 F60.00
G01 X14.0738 Y-0.3935 F60.00
G01 X14.1042 Y-0.3914 F60.00
G01 X14.8958 Y-0.3914 F60.00
G01 X14.9262 Y-0.3935 F60.00
G01 X15.0881 Y-0.4338 F60.00
G01 X15.2359 Y-0.5071 F60.00
G01 X15.3645 Y-0.6105 F60.00
G01 X15.4352 Y-0.6980 F60.00
G01 X15.4534 Y-0.7167 F60.00
G01 X15.4599 Y-0.7227 F60.00
G01 X15.4686 Y-0.7292 F60.00
G01 X15.4781 Y-0.7347 F60.00
G01 X15.5481 Y-0.7656 F60.00
G01 X15.5542 Y-0.7679 F60.00
G01 X15.5626 Y-0.7703 F60.00
G01 X15.5713 Y-0.7718 F60.00
G01 X15.7118 Y-0.7902 F60.00
G01 X15.7277 Y-0.7914 F60.00
G01 X22.9478 Y-0.7914 F60.00
G01 X22.9572 Y-0.7910 F60.00
G01 X22.9689 Y-0.7890 F60.00
G01 X23.0267 Y-0.7753 F60.00
G01 X23.0357 Y-0.7724 F60.00
G01 X23.0444 Y-0.7687 F60.00
G01 X23.5730 Y-0.5043 F60.00
G01 X23.5794 Y-0.5005 F60.00
G01 X23.6056 Y-0.4835 F60.00
G01 X23.6143 Y-0.4764 F60.00
G01 X23.6222 Y-0.4683 F60.00
G01 X23.6277 Y-0.4612 F60.00
G01 X23.6699 Y-0.4000 F60.00
G01 X23.6732 Y-0.3942 F60.00
G01 X23.6762 Y-0.3879 F60.00
G01 X23.7619 Y-0.2493 F60.00
G01 X23.7668 Y-0.2410 F60.00
G01 X23.7707 Y-0.2329 F60.00
G01 X23.7744 Y-0.2228 F60.00
G01 X23.7951 Y-0.1742 F60.00
G01 X23.7984 Y-0.1632 F60.00
G01 X23.8001 Y-0.1542 F60.00
G01 X23.8009 Y-0.1428 F60.00
G01 X23.8003 Y-0.1313 F60.00
G01 X23.7900 Y-0.0599 F60.00
G01 X23.7888 Y-0.0532 F60.00
G01 X23.7871 Y-0.0465 F60.00
G01 X23.7840 Y-0.0379 F60.00
G01 X23.7812 Y-0.0317 F60.00
G01 X23.7754 Y-0.0218 F60.00
G01 X23.7700 Y-0.0145 F60.00
G01 X23.7212 Y0.0417 F60.00
G01 X23.7147 Y0.0482 F60.00
G01 X23.7095 Y0.0526 F60.00
G01 X23.7020 Y0.0578 F60.00
G01 X23.6940 Y0.0622 F60.00
G01 X23.6878 Y0.0650 F60.00
G01 X23.6813 Y0.0674 F60.00
G01 X23.6100 Y0.0883 F60.00
G01 X23.5993 Y0.0905 F60.00
G01 X23.5862 Y0.0914 F60.00
G01 X0.1245 Y0.0914 F60.00
G01 X0.1158 Y0.0910 F60.00
G01 X0.1071 Y0.0898 F60.00
G01 X0.0534 Y0.0781 F60.00
G01 X0.0424 Y0.0750 F60.00
G01 X0.0318 Y0.0705 F60.00
G01 X0.0219 Y0.0647 F60.00
G01 X0.0145 Y0.0593 F60.00
G01 X-0.0450 Y0.0074 F60.00
G01 X-0.0526 Y-0.0012 F60.00
G01 X-0.0578 Y-0.0087 F60.00
G01 X-0.0622 Y-0.0167 F60.00
G01 X-0.0666 Y-0.0272 F60.00
G01 X-0.0889 Y-0.1028 F60.00
G01 X-0.0908 Y-0.1136 F60.00
G01 X-0.0914 Y-0.1245 F60.00
G00 Z2.0000
G00 X-0.2735 Y-0.1245
G01 F10.00
G01 Z-0.0500
G01 F60.00
G01 X-0.2734 Y-10.6512 F60.00
G01 X-0.2727 Y-10.6651 F60.00
G01 X-0.2713 Y-10.6789 F60.00
G01 X-0.2692 Y-10.6927 F60.00
G01 X-0.2664 Y-10.7063 F60.00
G01 X-0.2629 Y-10.7198 F60.00
G01 X-0.2420 Y-10.7921 F60.00
G01 X-0.2353 Y-10.8111 F60.00
G01 X-0.2271 Y-10.8296 F60.00
G01 X-0.2177 Y-10.8474 F60.00
G01 X-0.2106 Y-10.8589 F60.00
G01 X-0.2030 Y-10.8700 F60.00
G01 X-0.1949 Y-10.8807 F60.00
G01 X-0.1863 Y-10.8911 F60.00
G01 X-0.1771 Y-10.9009 F60.00
G01 X-0.1625 Y-10.9149 F60.00
G01 X-0.1103 Y-10.9613 F60.00
G01 X-0.0945 Y-10.9743 F60.00
G01 X-0.0778 Y-10.9860 F60.00
G01 X-0.0662 Y-10.9932 F60.00
G01 X-0.0482 Y-11.0028 F60.00
G01 X-0.0358 Y-11.0084 F60.00
G01 X-0.0168 Y-11.0157 F60.00
G01 X0.0028 Y-11.0216 F60.00
G01 X0.0160 Y-11.0247 F60.00
G01 X0.0294 Y-11.0271 F60.00
G01 X0.1049 Y-11.0388 F60.00
G01 X0.1244 Y-11.0407 F60.00
G01 X0.1374 Y-11.0411 F60.00
G01 X0.1570 Y-11.0407 F60.00
G01 X0.1786 Y-11.0385 F60.00
G01 X3.7273 Y-11.0385 F60.00
G01 X3.7420 Y-11.0381 F60.00
G01 X3.7666 Y-11.0362 F60.00
G01 X3.7990 Y-11.0382 F60.00
G01 X3.8214 Y-11.0385 F60.00
G01 X3.8441 Y-11.0412 F60.00
G01 X3.8844 Y-11.0440 F60.00
G01 X4.4525 Y-11.1648 F60.00
G01 X4.4737 Y-11.1685 F60.00
G01 X4.5066 Y-11.1720 F60.00
G01 X4.5209 Y-11.1731 F60.00
G01 X4.5352 Y-11.1735 F60.00
G01 X4.8001 Y-11.1734 F60.00
G01 X4.8221 Y-11.1719 F60.00
G01 X4.8618 Y-11.1673 F60.00
G01 X4.8816 Y-11.1635 F60.00
G01 X4.8946 Y-11.1601 F60.00
G01 X4.9074 Y-11.1561 F60.00
G01 X4.9263 Y-11.1489 F60.00
G01 X4.9445 Y-11.1403 F60.00
G01 X5.0118 Y-11.1037 F60.00
G01 X5.0231 Y-11.0972 F60.00
G01 X5.0341 Y-11.0901 F60.00
G01 X5.0499 Y-11.0786 F60.00
G01 X5.0599 Y-11.0703 F60.00
G01 X5.0742 Y-11.0569 F60.00
G01 X7.6862 Y-8.4449 F60.00
G01 X7.7026 Y-8.4274 F60.00
G01 X7.7271 Y-8.3991 F60.00
G01 X7.7472 Y-8.3827 F60.00
G01 X7.7587 Y-8.3723 F60.00
G01 X7.7714 Y-8.3598 F60.00
G01 X7.8104 Y-8.3332 F60.00
G01 X7.8511 Y-8.3015 F60.00
G01 X7.8740 Y-8.2892 F60.00
G01 X7.8873 Y-8.2812 F60.00
G01 X7.9021 Y-8.2713 F60.00
G01 X7.9494 Y-8.2507 F60.00
G01 X7.9914 Y-8.2292 F60.00
G01 X8.0162 Y-8.2214 F60.00
G01 X8.0308 Y-8.2161 F60.00
G01 X8.0472 Y-8.2092 F60.00
G01 X8.0933 Y-8.1990 F60.00
G01 X8.1429 Y-8.1848 F60.00
G01 X8.1687 Y-8.1818 F60.00
G01 X8.1840 Y-8.1793 F60.00
G01 X8.2014 Y-8.1756 F60.00
G01 X8.2388 Y-8.1747 F60.00
G01 X8.2601 Y-8.1735 F60.00
G01 X8.2934 Y-8.1734 F60.00
G01 X8.3685 Y-8.1716 F60.00
G01 X8.3870 Y-8.1731 F60.00
G01 X8.4022 Y-8.1735 F60.00
G01 X15.9585 Y-8.1735 F60.00
G01 X15.9825 Y-8.1727 F60.00
G01 X16.0198 Y-8.1700 F60.00
G01 X16.0375 Y-8.1720 F60.00
G01 X16.0529 Y-8.1730 F60.00
G01 X16.0789 Y-8.1735 F60.00
G01 X16.1296 Y-8.1829 F60.00
G01 X16.1765 Y-8.1887 F60.00
G01 X16.2014 Y-8.1962 F60.00
G01 X16.2164 Y-8.1999 F60.00
G01 X16.2339 Y-8.2034 F60.00
G01 X16.2819 Y-8.2222 F60.00
G01 X16.3268 Y-8.2368 F60.00
G01 X16.3425 Y-8.2452 F60.00
G01 X16.3565 Y-8.2519 F60.00
G01 X16.3804 Y-8.2620 F60.00
G01 X16.4240 Y-8.2897 F60.00
G01 X16.4654 Y-8.3124 F60.00
G01 X16.4857 Y-8.3286 F60.00
G01 X16.4983 Y-8.3377 F60.00
G01 X16.5132 Y-8.3474 F60.00
G01 X16.5403 Y-8.3732 F60.00
G01 X16.5562 Y-8.3874 F60.00
G01 X16.5798 Y-8.4109 F60.00
G01 X16.6342 Y-8.4627 F60.00
G01 X16.6463 Y-8.4768 F60.00
G01 X16.6567 Y-8.4879 F60.00
G01 X17.2551 Y-9.0862 F60.00
G01 X17.2726 Y-9.1026 F60.00
G01 X17.3009 Y-9.1271 F60.00
G01 X17.3120 Y-9.1410 F60.00
G01 X17.3222 Y-9.1527 F60.00
G01 X17.3402 Y-9.1714 F60.00
G01 X17.3694 Y-9.2139 F60.00
G01 X17.3984 Y-9.2511 F60.00
G01 X17.4108 Y-9.2740 F60.00
G01 X17.4188 Y-9.2873 F60.00
G01 X17.4287 Y-9.3021 F60.00
G01 X17.4493 Y-9.3494 F60.00
G01 X17.4708 Y-9.3914 F60.00
G01 X17.4759 Y-9.4085 F60.00
G01 X17.4810 Y-9.4231 F60.00
G01 X17.4908 Y-9.4472 F60.00
G01 X17.5021 Y-9.4975 F60.00
G01 X17.5152 Y-9.5429 F60.00
G01 X17.5182 Y-9.5687 F60.00
G01 X17.5207 Y-9.5840 F60.00
G01 X17.5244 Y-9.6014 F60.00
G01 X17.5253 Y-9.6388 F60.00
G01 X17.5265 Y-9.6601 F60.00
G01 X17.5266 Y-9.6934 F60.00
G01 X17.5284 Y-9.7685 F60.00
G01 X17.5269 Y-9.7870 F60.00
G01 X17.5265 Y-9.8022 F60.00
G01 X17.5265 Y-11.7655 F60.00
G01 X17.5268 Y-11.7785 F60.00
G01 X17.5277 Y-11.7915 F60.00
G01 X17.5293 Y-11.8045 F60.00
G01 X17.5328 Y-11.8237 F60.00
G01 X17.5440 Y-11.8753 F60.00
G01 X17.5491 Y-11.8951 F60.00
G01 X17.5557 Y-11.9146 F60.00
G01 X17.5637 Y-11.9335 F60.00
G01 X17.5698 Y-11.9457 F60.00
G01 X17.5801 Y-11.9635 F60.00
G01 X17.5877 Y-11.9749 F60.00
G01 X17.6002 Y-11.9912 F60.00
G01 X17.6504 Y-12.0493 F60.00
G01 X17.6643 Y-12.0642 F60.00
G01 X17.6793 Y-12.0780 F60.00
G01 X17.6953 Y-12.0907 F60.00
G01 X17.7122 Y-12.1021 F60.00
G01 X17.7239 Y-12.1091 F60.00
G01 X17.7360 Y-12.1154 F60.00
G01 X17.7546 Y-12.1238 F60.00
G01 X17.7738 Y-12.1307 F60.00
G01 X17.8473 Y-12.1524 F60.00
G01 X17.8599 Y-12.1558 F60.00
G01 X17.8791 Y-12.1597 F60.00
G01 X17.8920 Y-12.1616 F60.00
G01 X17.9115 Y-12.1632 F60.00
G01 X17.9245 Y-12.1635 F60.00
G01 X23.4398 Y-12.1634 F60.00
G01 X23.4519 Y-12.1629 F60.00
G01 X23.4798 Y-12.1605 F60.00
G01 X23.5001 Y-12.1579 F60.00
G01 X23.5202 Y-12.1538 F60.00
G01 X23.5334 Y-12.1503 F60.00
G01 X23.5464 Y-12.1461 F60.00
G01 X23.5655 Y-12.1385 F60.00
G01 X23.5779 Y-12.1327 F60.00
G01 X23.6465 Y-12.0984 F60.00
G01 X23.6583 Y-12.0918 F60.00
G01 X23.6698 Y-12.0845 F60.00
G01 X23.6864 Y-12.0726 F60.00
G01 X23.7020 Y-12.0595 F60.00
G01 X23.7166 Y-12.0452 F60.00
G01 X23.7258 Y-12.0351 F60.00
G01 X23.7344 Y-12.0246 F60.00
G01 X23.7463 Y-12.0080 F60.00
G01 X23.7535 Y-11.9965 F60.00
G01 X23.7893 Y-11.9365 F60.00
G01 X23.7991 Y-11.9185 F60.00
G01 X23.8048 Y-11.9062 F60.00
G01 X23.8123 Y-11.8872 F60.00
G01 X23.8165 Y-11.8743 F60.00
G01 X23.8200 Y-11.8611 F60.00
G01 X23.8229 Y-11.8478 F60.00
G01 X23.8252 Y-11.8344 F60.00
G01 X23.8272 Y-11.8141 F60.00
G01 X23.8278 Y-11.8005 F60.00
G01 X23.8277 Y-11.7869 F60.00
G01 X23.8253 Y-11.7171 F60.00
G01 X23.8245 Y-11.7041 F60.00
G01 X23.8231 Y-11.6911 F60.00
G01 X23.8211 Y-11.6782 F60.00
G01 X23.8185 Y-11.6654 F60.00
G01 X23.8153 Y-11.6528 F60.00
G01 X23.8092 Y-11.6334 F60.00
G01 X23.8071 Y-11.6163 F60.00
G01 X23.8033 Y-11.5962 F60.00
G01 X23.7999 Y-11.5830 F60.00
G01 X23.7882 Y-11.5416 F60.00
G01 X23.7821 Y-11.5227 F60.00
G01 X23.7772 Y-11.5103 F60.00
G01 X23.7718 Y-11.4982 F60.00
G01 X23.7626 Y-11.4806 F60.00
G01 X23.7557 Y-11.4692 F60.00
G01 X23.7483 Y-11.4582 F60.00
G01 X23.7363 Y-11.4424 F60.00
G01 X23.7276 Y-11.4324 F60.00
G01 X23.6763 Y-11.3758 F60.00
G01 X23.6623 Y-11.3621 F60.00
G01 X23.6525 Y-11.3536 F60.00
G01 X23.6370 Y-11.3416 F60.00
G01 X23.6262 Y-11.3343 F60.00
G01 X23.5196 Y-11.2690 F60.00
G01 X23.5083 Y-11.2629 F60.00
G01 X23.4968 Y-11.2572 F60.00
G01 X23.4850 Y-11.2521 F60.00
G01 X23.4399 Y-11.2346 F60.00
G01 X23.4199 Y-11.2277 F60.00
G01 X23.3995 Y-11.2224 F60.00
G01 X23.3747 Y-11.2177 F60.00
G01 X23.3235 Y-11.2113 F60.00
G01 X23.3065 Y-11.2060 F60.00
G01 X23.2915 Y-11.2020 F60.00
G01 X23.2661 Y-11.1966 F60.00
G01 X23.2222 Y-11.1792 F60.00
G01 X23.1732 Y-11.1632 F60.00
G01 X23.1575 Y-11.1548 F60.00
G01 X23.1435 Y-11.1481 F60.00
G01 X23.1196 Y-11.1380 F60.00
G01 X23.0798 Y-11.1126 F60.00
G01 X23.0346 Y-11.0876 F60.00
G01 X23.0208 Y-11.0763 F60.00
G01 X23.0084 Y-11.0671 F60.00
G01 X22.9868 Y-11.0526 F60.00
G01 X22.9597 Y-11.0268 F60.00
G01 X22.9438 Y-11.0126 F60.00
G01 X22.9202 Y-10.9891 F60.00
G01 X22.8658 Y-10.9373 F60.00
G01 X22.8537 Y-10.9232 F60.00
G01 X22.8433 Y-10.9121 F60.00
G01 X22.6644 Y-10.7332 F60.00
G01 X22.6525 Y-10.7220 F60.00
G01 X22.6410 Y-10.7098 F60.00
G01 X22.3449 Y-10.4138 F60.00
G01 X22.3274 Y-10.3974 F60.00
G01 X22.2991 Y-10.3729 F60.00
G01 X22.2880 Y-10.3590 F60.00
G01 X22.2778 Y-10.3473 F60.00
G01 X22.2598 Y-10.3286 F60.00
G01 X22.2332 Y-10.2896 F60.00
G01 X22.2016 Y-10.2489 F60.00
G01 X22.1933 Y-10.2331 F60.00
G01 X22.1855 Y-10.2197 F60.00
G01 X22.1713 Y-10.1979 F60.00
G01 X22.1526 Y-10.1546 F60.00
G01 X22.1292 Y-10.1086 F60.00
G01 X22.1214 Y-10.0838 F60.00
G01 X22.1161 Y-10.0692 F60.00
G01 X22.1092 Y-10.0528 F60.00
G01 X22.0990 Y-10.0067 F60.00
G01 X22.0848 Y-9.9571 F60.00
G01 X22.0829 Y-9.9394 F60.00
G01 X22.0807 Y-9.9241 F60.00
G01 X22.0756 Y-9.8986 F60.00
G01 X22.0747 Y-9.8612 F60.00
G01 X22.0735 Y-9.8399 F60.00
G01 X22.0734 Y-9.8066 F60.00
G01 X22.0716 Y-9.7315 F60.00
G01 X22.0734 Y-9.7054 F60.00
G01 X22.0734 Y-9.6226 F60.00
G01 X22.0727 Y-9.6086 F60.00
G01 X22.0713 Y-9.5947 F60.00
G01 X22.0678 Y-9.5739 F60.00
G01 X22.0517 Y-9.5052 F60.00
G01 X22.0478 Y-9.4917 F60.00
G01 X22.0432 Y-9.4785 F60.00
G01 X22.0380 Y-9.4655 F60.00
G01 X22.0307 Y-9.4500 F60.00
G01 X21.9991 Y-9.3228 F60.00
G01 X21.9985 Y-9.3147 F60.00
G01 X21.9985 Y-7.8853 F60.00
G01 X21.9991 Y-7.8772 F60.00
G01 X22.0307 Y-7.7500 F60.00
G01 X22.0407 Y-7.7281 F60.00
G01 X22.0456 Y-7.7149 F60.00
G01 X22.0498 Y-7.7016 F60.00
G01 X22.0534 Y-7.6880 F60.00
G01 X22.0663 Y-7.6329 F60.00
G01 X22.0691 Y-7.6192 F60.00
G01 X22.0721 Y-7.5984 F60.00
G01 X22.0734 Y-7.5774 F60.00
G01 X22.0733 Y-7.5317 F60.00
G01 X22.0700 Y-7.4802 F60.00
G01 X22.0720 Y-7.4625 F60.00
G01 X22.0730 Y-7.4471 F60.00
G01 X22.0735 Y-7.4211 F60.00
G01 X22.0829 Y-7.3704 F60.00
G01 X22.0887 Y-7.3235 F60.00
G01 X22.0940 Y-7.3065 F60.00
G01 X22.0980 Y-7.2915 F60.00
G01 X22.1034 Y-7.2661 F60.00
G01 X22.1208 Y-7.2222 F60.00
G01 X22.1368 Y-7.1732 F60.00
G01 X22.1488 Y-7.1501 F60.00
G01 X22.1553 Y-7.1360 F60.00
G01 X22.1620 Y-7.1196 F60.00
G01 X22.1874 Y-7.0797 F60.00
G01 X22.2124 Y-7.0346 F60.00
G01 X22.2237 Y-7.0208 F60.00
G01 X22.2329 Y-7.0084 F60.00
G01 X22.2474 Y-6.9868 F60.00
G01 X22.2732 Y-6.9597 F60.00
G01 X22.2874 Y-6.9438 F60.00
G01 X22.3109 Y-6.9202 F60.00
G01 X22.3627 Y-6.8658 F60.00
G01 X22.3768 Y-6.8537 F60.00
G01 X22.3879 Y-6.8433 F60.00
G01 X22.9862 Y-6.2449 F60.00
G01 X23.0026 Y-6.2274 F60.00
G01 X23.0271 Y-6.1991 F60.00
G01 X23.0472 Y-6.1827 F60.00
G01 X23.0587 Y-6.1723 F60.00
G01 X23.0714 Y-6.1598 F60.00
G01 X23.1104 Y-6.1332 F60.00
G01 X23.1511 Y-6.1015 F60.00
G01 X23.1669 Y-6.0933 F60.00
G01 X23.1803 Y-6.0855 F60.00
G01 X23.2021 Y-6.0713 F60.00
G01 X23.2494 Y-6.0507 F60.00
G01 X23.3268 Y-6.0115 F60.00
G01 X23.3441 Y-6.0011 F60.00
G01 X23.3610 Y-5.9892 F60.00
G01 X23.4024 Y-5.9625 F60.00
G01 X23.4189 Y-5.9504 F60.00
G01 X23.4293 Y-5.9417 F60.00
G01 X23.4393 Y-5.9324 F60.00
G01 X23.4489 Y-5.9227 F60.00
G01 X23.4579 Y-5.9126 F60.00
G01 X23.4664 Y-5.9019 F60.00
G01 X23.4744 Y-5.8909 F60.00
G01 X23.4853 Y-5.8737 F60.00
G01 X23.4919 Y-5.8618 F60.00
G01 X23.4979 Y-5.8495 F60.00
G01 X23.5296 Y-5.7798 F60.00
G01 X23.5369 Y-5.7607 F60.00
G01 X23.5410 Y-5.7477 F60.00
G01 X23.5444 Y-5.7345 F60.00
G01 X23.5472 Y-5.7212 F60.00
G01 X23.5493 Y-5.7078 F60.00
G01 X23.5508 Y-5.6942 F60.00
G01 X23.5515 Y-5.6807 F60.00
G01 X23.5516 Y-5.6670 F60.00
G01 X23.5510 Y-5.6534 F60.00
G01 X23.5497 Y-5.6399 F60.00
G01 X23.5389 Y-5.5640 F60.00
G01 X23.5353 Y-5.5439 F60.00
G01 X23.5320 Y-5.5307 F60.00
G01 X23.5259 Y-5.5112 F60.00
G01 X23.5210 Y-5.4985 F60.00
G01 X23.5155 Y-5.4861 F60.00
G01 X23.5094 Y-5.4739 F60.00
G01 X23.4991 Y-5.4563 F60.00
G01 X23.4915 Y-5.4450 F60.00
G01 X23.4834 Y-5.4341 F60.00
G01 X23.4748 Y-5.4235 F60.00
G01 X23.4290 Y-5.3707 F60.00
G01 X23.4199 Y-5.3607 F60.00
G01 X23.4102 Y-5.3511 F60.00
G01 X23.4001 Y-5.3420 F60.00
G01 X23.3895 Y-5.3334 F60.00
G01 X23.3786 Y-5.3254 F60.00
G01 X23.3672 Y-5.3179 F60.00
G01 X23.3555 Y-5.3109 F60.00
G01 X23.3434 Y-5.3046 F60.00
G01 X23.3311 Y-5.2989 F60.00
G01 X23.3185 Y-5.2937 F60.00
G01 X23.2991 Y-5.2873 F60.00
G01 X23.2321 Y-5.2676 F60.00
G01 X23.2195 Y-5.2642 F60.00
G01 X23.2003 Y-5.2603 F60.00
G01 X23.1874 Y-5.2584 F60.00
G01 X23.1744 Y-5.2572 F60.00
G01 X23.1614 Y-5.2566 F60.00
G01 X17.8104 Y-5.2565 F60.00
G01 X17.7900 Y-5.2572 F60.00
G01 X17.7698 Y-5.2595 F60.00
G01 X17.7269 Y-5.2660 F60.00
G01 X17.7140 Y-5.2686 F60.00
G01 X17.7011 Y-5.2718 F60.00
G01 X17.6885 Y-5.2756 F60.00
G01 X17.6760 Y-5.2801 F60.00
G01 X17.6638 Y-5.2851 F60.00
G01 X17.6459 Y-5.2937 F60.00
G01 X17.6287 Y-5.3036 F60.00
G01 X17.5649 Y-5.3457 F60.00
G01 X17.5483 Y-5.3576 F60.00
G01 X17.5377 Y-5.3661 F60.00
G01 X17.5276 Y-5.3752 F60.00
G01 X17.5133 Y-5.3898 F60.00
G01 X17.5001 Y-5.4054 F60.00
G01 X17.4881 Y-5.4219 F60.00
G01 X17.4808 Y-5.4334 F60.00
G01 X17.4741 Y-5.4452 F60.00
G01 X17.4651 Y-5.4636 F60.00
G01 X17.4343 Y-5.5335 F60.00
G01 X17.4296 Y-5.5456 F60.00
G01 X17.4255 Y-5.5580 F60.00
G01 X17.4220 Y-5.5706 F60.00
G01 X17.4192 Y-5.5825 F60.00
G01 X17.3852 Y-5.6647 F60.00
G01 X17.3329 Y-5.7329 F60.00
G01 X17.2647 Y-5.7852 F60.00
G01 X17.1852 Y-5.8181 F60.00
G01 X17.1214 Y-5.8265 F60.00
G01 X16.2786 Y-5.8265 F60.00
G01 X16.2148 Y-5.8181 F60.00
G01 X16.1353 Y-5.7852 F60.00
G01 X16.0671 Y-5.7329 F60.00
G01 X16.0148 Y-5.6647 F60.00
G01 X15.9638 Y-5.5420 F60.00
G01 X15.9573 Y-5.5278 F60.00
G01 X15.9510 Y-5.5158 F60.00
G01 X15.9442 Y-5.5041 F60.00
G01 X15.9368 Y-5.4927 F60.00
G01 X15.9289 Y-5.4817 F60.00
G01 X15.9160 Y-5.4661 F60.00
G01 X15.8638 Y-5.4099 F60.00
G01 X15.8494 Y-5.3955 F60.00
G01 X15.8391 Y-5.3865 F60.00
G01 X15.8285 Y-5.3780 F60.00
G01 X15.8174 Y-5.3701 F60.00
G01 X15.8060 Y-5.3627 F60.00
G01 X15.7942 Y-5.3559 F60.00
G01 X15.7821 Y-5.3497 F60.00
G01 X15.7697 Y-5.3441 F60.00
G01 X15.7570 Y-5.3391 F60.00
G01 X15.7376 Y-5.3329 F60.00
G01 X15.6633 Y-5.3138 F60.00
G01 X15.6434 Y-5.3095 F60.00
G01 X15.6299 Y-5.3075 F60.00
G01 X15.6164 Y-5.3061 F60.00
G01 X15.5960 Y-5.3053 F60.00
G01 X15.5824 Y-5.3056 F60.00
G01 X15.5688 Y-5.3066 F60.00
G01 X15.5553 Y-5.3083 F60.00
G01 X15.5419 Y-5.3106 F60.00
G01 X15.5286 Y-5.3136 F60.00
G01 X15.5090 Y-5.3194 F60.00
G01 X15.4427 Y-5.3414 F60.00
G01 X15.4299 Y-5.3460 F60.00
G01 X15.4112 Y-5.3541 F60.00
G01 X15.3991 Y-5.3603 F60.00
G01 X15.3873 Y-5.3671 F60.00
G01 X15.3758 Y-5.3744 F60.00
G01 X15.3647 Y-5.3823 F60.00
G01 X15.3489 Y-5.3952 F60.00
G01 X15.3340 Y-5.4092 F60.00
G01 X15.3203 Y-5.4242 F60.00
G01 X15.2681 Y-5.4890 F60.00
G01 X15.2604 Y-5.4995 F60.00
G01 X15.2532 Y-5.5104 F60.00
G01 X15.2434 Y-5.5273 F60.00
G01 X15.2349 Y-5.5449 F60.00
G01 X15.1852 Y-5.6647 F60.00
G01 X15.1329 Y-5.7329 F60.00
G01 X15.0647 Y-5.7852 F60.00
G01 X14.9852 Y-5.8181 F60.00
G01 X14.9214 Y-5.8265 F60.00
G01 X14.0786 Y-5.8265 F60.00
G01 X14.0148 Y-5.8181 F60.00
G01 X13.9353 Y-5.7852 F60.00
G01 X13.8675 Y-5.7331 F60.00
G01 X13.8142 Y-5.6632 F60.00
G01 X13.7819 Y-5.5852 F60.00
G01 X13.7735 Y-5.5214 F60.00
G01 X13.7735 Y-5.0910 F60.00
G01 X13.7728 Y-5.0715 F60.00
G01 X13.7716 Y-5.0585 F60.00
G01 X13.7697 Y-5.0456 F60.00
G01 X13.7672 Y-5.0328 F60.00
G01 X13.7520 Y-4.9696 F60.00
G01 X13.7486 Y-4.9570 F60.00
G01 X13.7447 Y-4.9446 F60.00
G01 X13.7401 Y-4.9324 F60.00
G01 X13.7350 Y-4.9204 F60.00
G01 X13.7292 Y-4.9086 F60.00
G01 X13.6848 Y-4.7571 F60.00
G01 X13.6735 Y-4.6394 F60.00
G01 X13.6735 Y-3.3492 F60.00
G01 X13.6732 Y-3.3370 F60.00
G01 X13.6719 Y-3.3166 F60.00
G01 X13.6684 Y-3.2885 F60.00
G01 X13.5970 Y-2.5029 F60.00
G01 X13.5985 Y-2.4587 F60.00
G01 X13.5985 Y-1.0853 F60.00
G01 X13.5991 Y-1.0772 F60.00
G01 X13.6307 Y-0.9500 F60.00
G01 X13.6864 Y-0.8377 F60.00
G01 X13.7650 Y-0.7400 F60.00
G01 X13.8627 Y-0.6614 F60.00
G01 X13.9750 Y-0.6057 F60.00
G01 X14.1022 Y-0.5741 F60.00
G01 X14.1103 Y-0.5735 F60.00
G01 X14.8897 Y-0.5735 F60.00
G01 X14.8978 Y-0.5741 F60.00
G01 X15.0250 Y-0.6057 F60.00
G01 X15.1373 Y-0.6614 F60.00
G01 X15.2350 Y-0.7400 F60.00
G01 X15.2932 Y-0.8121 F60.00
G01 X15.3065 Y-0.8268 F60.00
G01 X15.3325 Y-0.8530 F60.00
G01 X15.3474 Y-0.8659 F60.00
G01 X15.3631 Y-0.8776 F60.00
G01 X15.3796 Y-0.8882 F60.00
G01 X15.3968 Y-0.8976 F60.00
G01 X15.4087 Y-0.9032 F60.00
G01 X15.4786 Y-0.9339 F60.00
G01 X15.4969 Y-0.9407 F60.00
G01 X15.5094 Y-0.9445 F60.00
G01 X15.5220 Y-0.9478 F60.00
G01 X15.5348 Y-0.9504 F60.00
G01 X15.5477 Y-0.9524 F60.00
G01 X15.6882 Y-0.9707 F60.00
G01 X15.7000 Y-0.9720 F60.00
G01 X15.7199 Y-0.9733 F60.00
G01 X15.7317 Y-0.9735 F60.00
G01 X22.9478 Y-0.9735 F60.00
G01 X22.9689 Y-0.9727 F60.00
G01 X22.9830 Y-0.9712 F60.00
G01 X23.0039 Y-0.9677 F60.00
G01 X23.0662 Y-0.9531 F60.00
G01 X23.0798 Y-0.9495 F60.00
G01 X23.0933 Y-0.9452 F60.00
G01 X23.1130 Y-0.9375 F60.00
G01 X23.1258 Y-0.9315 F60.00
G01 X23.6588 Y-0.6649 F60.00
G01 X23.6779 Y-0.6537 F60.00
G01 X23.7115 Y-0.6316 F60.00
G01 X23.7222 Y-0.6236 F60.00
G01 X23.7326 Y-0.6150 F60.00
G01 X23.7472 Y-0.6011 F60.00
G01 X23.7608 Y-0.5863 F60.00
G01 X23.7733 Y-0.5705 F60.00
G01 X23.8190 Y-0.5046 F60.00
G01 X23.8279 Y-0.4906 F60.00
G01 X23.8360 Y-0.4758 F60.00
G01 X23.9200 Y-0.3397 F60.00
G01 X23.9294 Y-0.3229 F60.00
G01 X23.9380 Y-0.3047 F60.00
G01 X23.9446 Y-0.2877 F60.00
G01 X23.9607 Y-0.2504 F60.00
G01 X23.9658 Y-0.2377 F60.00
G01 X23.9702 Y-0.2247 F60.00
G01 X23.9757 Y-0.2050 F60.00
G01 X23.9796 Y-0.1849 F60.00
G01 X23.9820 Y-0.1645 F60.00
G01 X23.9830 Y-0.1440 F60.00
G01 X23.9823 Y-0.1235 F60.00
G01 X23.9802 Y-0.1031 F60.00
G01 X23.9702 Y-0.0340 F60.00
G01 X23.9680 Y-0.0206 F60.00
G01 X23.9650 Y-0.0073 F60.00
G01 X23.9594 Y0.0123 F60.00
G01 X23.9523 Y0.0315 F60.00
G01 X23.9438 Y0.0500 F60.00
G01 X23.9340 Y0.0679 F60.00
G01 X23.9229 Y0.0850 F60.00
G01 X23.9105 Y0.1013 F60.00
G01 X23.8603 Y0.1593 F60.00
G01 X23.8464 Y0.1742 F60.00
G01 X23.8314 Y0.1880 F60.00
G01 X23.8154 Y0.2007 F60.00
G01 X23.7985 Y0.2121 F60.00
G01 X23.7868 Y0.2191 F60.00
G01 X23.7748 Y0.2254 F60.00
G01 X23.7561 Y0.2338 F60.00
G01 X23.7370 Y0.2407 F60.00
G01 X23.6634 Y0.2624 F60.00
G01 X23.6508 Y0.2658 F60.00
G01 X23.6317 Y0.2697 F60.00
G01 X23.6187 Y0.2716 F60.00
G01 X23.6058 Y0.2728 F60.00
G01 X23.5862 Y0.2735 F60.00
G01 X0.1180 Y0.2734 F60.00
G01 X0.0985 Y0.2723 F60.00
G01 X0.0791 Y0.2697 F60.00
G01 X0.0147 Y0.2560 F60.00
G01 X0.0014 Y0.2528 F60.00
G01 X-0.0182 Y0.2467 F60.00
G01 X-0.0310 Y0.2418 F60.00
G01 X-0.0435 Y0.2363 F60.00
G01 X-0.0557 Y0.2302 F60.00
G01 X-0.0735 Y0.2199 F60.00
G01 X-0.0849 Y0.2123 F60.00
G01 X-0.0959 Y0.2041 F60.00
G01 X-0.1065 Y0.1954 F60.00
G01 X-0.1593 Y0.1496 F60.00
G01 X-0.1742 Y0.1357 F60.00
G01 X-0.1880 Y0.1207 F60.00
G01 X-0.1966 Y0.1101 F60.00
G01 X-0.2046 Y0.0992 F60.00
G01 X-0.2121 Y0.0878 F60.00
G01 X-0.2191 Y0.0761 F60.00
G01 X-0.2254 Y0.0640 F60.00
G01 X-0.2311 Y0.0517 F60.00
G01 X-0.2363 Y0.0391 F60.00
G01 X-0.2427 Y0.0197 F60.00
G01 X-0.2624 Y-0.0473 F60.00
G01 X-0.2672 Y-0.0663 F60.00
G01 X-0.2697 Y-0.0791 F60.00
G01 X-0.2723 Y-0.0985 F60.00
G01 X-0.2732 Y-0.1115 F60.00
G01 X-0.2735 Y-0.1245 F60.00
G00 Z2.0000
G00 X7.9370 Y-2.7000
G01 F10.00
G01 Z-0.0500
G01 F60.00
G01 X7.9547 Y-2.9019 F60.00
G01 X8.0072 Y-3.0978 F60.00
G01 X8.0145 Y-3.1142 F60.00
G01 X8.0197 Y-3.1308 F60.00
G01 X8.0237 Y-3.1406 F60.00
G01 X8.0266 Y-3.1507 F60.00
G01 X8.5296 Y-4.6077 F60.00
G01 X8.5326 Y-4.6182 F60.00
G01 X8.5405 Y-4.6651 F60.00
G01 X8.5414 Y-4.6782 F60.00
G01 X8.5414 Y-5.5156 F60.00
G01 X8.5506 Y-5.5619 F60.00
G01 X8.5857 Y-5.6143 F60.00
G01 X8.6381 Y-5.6494 F60.00
G01 X8.6844 Y-5.6585 F60.00
G01 X9.5156 Y-5.6586 F60.00
G01 X9.5619 Y-5.6494 F60.00
G01 X9.6143 Y-5.6143 F60.00
G01 X9.6494 Y-5.5619 F60.00
G01 X9.6586 Y-5.5156 F60.00
G01 X9.6586 Y-4.6782 F60.00
G01 X9.6595 Y-4.6651 F60.00
G01 X9.6679 Y-4.6161 F60.00
G01 X9.6704 Y-4.6077 F60.00
G01 X10.1735 Y-3.1504 F60.00
G01 X10.1755 Y-3.1432 F60.00
G01 X10.1843 Y-3.1172 F60.00
G01 X10.1870 Y-3.1103 F60.00
G01 X10.1928 Y-3.0978 F60.00
G01 X10.2453 Y-2.9019 F60.00
G01 X10.2630 Y-2.7000 F60.00
G01 X10.2453 Y-2.4981 F60.00
G01 X10.1928 Y-2.3022 F60.00
G01 X10.1072 Y-2.1185 F60.00
G01 X9.9909 Y-1.9525 F60.00
G01 X9.8475 Y-1.8091 F60.00
G01 X9.6815 Y-1.6928 F60.00
G01 X9.4978 Y-1.6072 F60.00
G01 X9.3019 Y-1.5547 F60.00
G01 X9.1000 Y-1.5370 F60.00
G01 X8.8981 Y-1.5547 F60.00
G01 X8.7022 Y-1.6072 F60.00
G01 X8.5185 Y-1.6928 F60.00
G01 X8.3525 Y-1.8091 F60.00
G01 X8.2091 Y-1.9525 F60.00
G01 X8.0928 Y-2.1185 F60.00
G01 X8.0072 Y-2.3022 F60.00
G01 X7.9547 Y-2.4980 F60.00
G01 X7.9370 Y-2.7000 F60.00
G00 Z2.0000
G00 X8.0912 Y-3.1179
G01 F10.00
G01 Z-0.0500
G01 F60.00
G01 X8.6081 Y-4.6154 F60.00
G01 X8.6081 Y-5.5023 F60.00
G01 X8.6090 Y-5.5135 F60.00
G01 X8.6120 Y-5.5267 F60.00
G01 X8.6159 Y-5.5373 F60.00
G01 X8.6211 Y-5.5473 F60.00
G01 X8.6275 Y-5.5566 F60.00
G01 X8.6350 Y-5.5650 F60.00
G01 X8.6434 Y-5.5725 F60.00
G01 X8.6527 Y-5.5789 F60.00
G01 X8.6627 Y-5.5841 F60.00
G01 X8.6733 Y-5.5880 F60.00
G01 X8.6865 Y-5.5910 F60.00
G01 X8.6977 Y-5.5919 F60.00
G01 X9.5023 Y-5.5919 F60.00
G01 X9.5135 Y-5.5910 F60.00
G01 X9.5267 Y-5.5880 F60.00
G01 X9.5373 Y-5.5841 F60.00
G01 X9.5473 Y-5.5789 F60.00
G01 X9.5566 Y-5.5725 F60.00
G01 X9.5650 Y-5.5650 F60.00
G01 X9.5725 Y-5.5566 F60.00
G01 X9.5789 Y-5.5473 F60.00
G01 X9.5841 Y-5.5373 F60.00
G01 X9.5880 Y-5.5267 F60.00
G01 X9.5906 Y-5.5157 F60.00
G01 X9.5918 Y-5.5045 F60.00
G01 X9.5919 Y-4.6154 F60.00
G01 X10.1088 Y-3.1179 F60.00
G01 X10.1442 Y-3.0191 F60.00
G01 X10.1700 Y-2.9174 F60.00
G01 X10.1717 Y-2.9086 F60.00
G01 X10.1867 Y-2.8070 F60.00
G01 X10.1919 Y-2.7000 F60.00
G01 X10.1867 Y-2.5930 F60.00
G01 X10.1717 Y-2.4914 F60.00
G01 X10.1700 Y-2.4826 F60.00
G01 X10.1461 Y-2.3874 F60.00
G01 X10.1435 Y-2.3787 F60.00
G01 X10.1088 Y-2.2821 F60.00
G01 X10.0650 Y-2.1893 F60.00
G01 X10.0608 Y-2.1813 F60.00
G01 X10.0079 Y-2.0933 F60.00
G01 X9.9441 Y-2.0073 F60.00
G01 X9.8721 Y-1.9279 F60.00
G01 X9.7927 Y-1.8559 F60.00
G01 X9.7067 Y-1.7921 F60.00
G01 X9.6147 Y-1.7370 F60.00
G01 X9.5179 Y-1.6912 F60.00
G01 X9.4170 Y-1.6551 F60.00
G01 X9.3130 Y-1.6290 F60.00
G01 X9.2070 Y-1.6133 F60.00
G01 X9.1000 Y-1.6081 F60.00
G01 X8.9930 Y-1.6133 F60.00
G01 X8.8870 Y-1.6290 F60.00
G01 X8.7830 Y-1.6551 F60.00
G01 X8.6821 Y-1.6912 F60.00
G01 X8.5893 Y-1.7350 F60.00
G01 X8.5813 Y-1.7392 F60.00
G01 X8.4972 Y-1.7897 F60.00
G01 X8.4897 Y-1.7947 F60.00
G01 X8.4073 Y-1.8559 F60.00
G01 X8.3311 Y-1.9248 F60.00
G01 X8.3248 Y-1.9311 F60.00
G01 X8.2559 Y-2.0073 F60.00
G01 X8.1921 Y-2.0933 F60.00
G01 X8.1370 Y-2.1853 F60.00
G01 X8.0930 Y-2.2780 F60.00
G01 X8.0895 Y-2.2863 F60.00
G01 X8.0551 Y-2.3830 F60.00
G01 X8.0290 Y-2.4870 F60.00
G01 X8.0133 Y-2.5930 F60.00
G01 X8.0081 Y-2.7000 F60.00
G01 X8.0133 Y-2.8070 F60.00
G01 X8.0290 Y-2.9130 F60.00
G01 X8.0551 Y-3.0170 F60.00
G01 X8.0912 Y-3.1179 F60.00
G00 Z2.0000
G00 X13.6510 Y-1.1500
G01 F10.00
G01 Z-0.0500
G01 F60.00
G01 X13.6511 Y-2.4567 F60.00
G01 X13.6525 Y-2.4879 F60.00
G01 X13.6535 Y-2.5014 F60.00
G01 X13.6567 Y-2.5249 F60.00
G01 X13.7257 Y-3.2847 F60.00
G01 X13.7257 Y-4.6000 F60.00
G01 X13.7261 Y-4.6134 F60.00
G01 X13.7285 Y-4.6625 F60.00
G01 X13.7295 Y-4.6759 F60.00
G01 X13.7311 Y-4.6892 F60.00
G01 X13.7383 Y-4.7378 F60.00
G01 X13.7406 Y-4.7511 F60.00
G01 X13.7436 Y-4.7642 F60.00
G01 X13.7555 Y-4.8118 F60.00
G01 X13.7611 Y-4.8312 F60.00
G01 X13.7798 Y-4.8837 F60.00
G01 X13.7873 Y-4.9025 F60.00
G01 X13.8141 Y-4.9590 F60.00
G01 X13.8204 Y-4.9709 F60.00
G01 X13.8260 Y-4.9804 F60.00
G01 X13.8261 Y-5.5067 F60.00
G01 X13.8267 Y-5.5202 F60.00
G01 X13.8290 Y-5.5402 F60.00
G01 X13.8326 Y-5.5600 F60.00
G01 X13.8378 Y-5.5795 F60.00
G01 X13.8443 Y-5.5986 F60.00
G01 X13.8523 Y-5.6172 F60.00
G01 X13.8616 Y-5.6351 F60.00
G01 X13.8722 Y-5.6522 F60.00
G01 X13.8840 Y-5.6686 F60.00
G01 X13.8970 Y-5.6840 F60.00
G01 X13.9111 Y-5.6985 F60.00
G01 X13.9210 Y-5.7075 F60.00
G01 X13.9368 Y-5.7201 F60.00
G01 X13.9534 Y-5.7315 F60.00
G01 X13.9708 Y-5.7417 F60.00
G01 X13.9890 Y-5.7505 F60.00
G01 X14.0014 Y-5.7557 F60.00
G01 X14.0205 Y-5.7622 F60.00
G01 X14.0400 Y-5.7674 F60.00
G01 X14.0598 Y-5.7710 F60.00
G01 X14.0798 Y-5.7733 F60.00
G01 X14.1000 Y-5.7740 F60.00
G01 X14.9000 Y-5.7740 F60.00
G01 X14.9202 Y-5.7733 F60.00
G01 X14.9402 Y-5.7710 F60.00
G01 X14.9600 Y-5.7674 F60.00
G01 X14.9795 Y-5.7622 F60.00
G01 X14.9986 Y-5.7557 F60.00
G01 X15.0110 Y-5.7505 F60.00
G01 X15.0292 Y-5.7417 F60.00
G01 X15.0409 Y-5.7350 F60.00
G01 X15.0522 Y-5.7278 F60.00
G01 X15.0686 Y-5.7160 F60.00
G01 X15.0840 Y-5.7030 F60.00
G01 X15.0938 Y-5.6938 F60.00
G01 X15.1030 Y-5.6840 F60.00
G01 X15.1160 Y-5.6686 F60.00
G01 X15.1240 Y-5.6578 F60.00
G01 X15.1350 Y-5.6409 F60.00
G01 X15.1448 Y-5.6232 F60.00
G01 X15.1532 Y-5.6049 F60.00
G01 X15.1580 Y-5.5923 F60.00
G01 X15.1622 Y-5.5795 F60.00
G01 X15.1658 Y-5.5666 F60.00
G01 X15.1687 Y-5.5535 F60.00
G01 X15.1720 Y-5.5335 F60.00
G01 X15.1733 Y-5.5202 F60.00
G01 X15.1739 Y-5.5067 F60.00
G01 X15.1740 Y-4.9804 F60.00
G01 X15.1796 Y-4.9709 F60.00
G01 X15.1859 Y-4.9590 F60.00
G01 X15.2127 Y-4.9025 F60.00
G01 X15.2202 Y-4.8837 F60.00
G01 X15.2367 Y-4.8375 F60.00
G01 X15.2409 Y-4.8248 F60.00
G01 X15.2445 Y-4.8118 F60.00
G01 X15.2564 Y-4.7642 F60.00
G01 X15.2594 Y-4.7511 F60.00
G01 X15.2617 Y-4.7378 F60.00
G01 X15.2689 Y-4.6892 F60.00
G01 X15.2705 Y-4.6759 F60.00
G01 X15.2715 Y-4.6625 F60.00
G01 X15.2739 Y-4.6134 F60.00
G01 X15.2743 Y-4.6001 F60.00
G01 X15.2750 Y-3.2769 F60.00
G01 X15.3349 Y-2.6174 F60.00
G01 X15.6659 Y-2.5743 F60.00
G01 X23.0658 Y-2.5743 F60.00
G01 X23.8570 Y-2.9698 F60.00
G01 X23.8587 Y-2.9890 F60.00
G01 X23.8625 Y-3.0146 F60.00
G01 X23.8651 Y-3.0278 F60.00
G01 X23.8697 Y-3.0464 F60.00
G01 X23.8753 Y-3.0658 F60.00
G01 X23.8817 Y-3.0839 F60.00
G01 X23.8865 Y-3.0965 F60.00
G01 X23.8920 Y-3.1088 F60.00
G01 X23.9002 Y-3.1261 F60.00
G01 X23.9066 Y-3.1379 F60.00
G01 X23.9199 Y-3.1602 F60.00
G01 X23.9274 Y-3.1713 F60.00
G01 X23.9429 Y-3.1923 F60.00
G01 X23.9517 Y-3.2030 F60.00
G01 X23.9687 Y-3.2217 F60.00
G01 X23.9783 Y-3.2313 F60.00
G01 X24.0026 Y-3.2530 F60.00
G01 X24.0232 Y-3.2687 F60.00
G01 X24.0343 Y-3.2765 F60.00
G01 X24.0563 Y-3.2900 F60.00
G01 X24.0680 Y-3.2967 F60.00
G01 X24.0800 Y-3.3027 F60.00
G01 X24.1035 Y-3.3135 F60.00
G01 X24.1161 Y-3.3183 F60.00
G01 X24.1406 Y-3.3267 F60.00
G01 X24.1656 Y-3.3334 F60.00
G01 X24.1788 Y-3.3363 F60.00
G01 X24.2043 Y-3.3404 F60.00
G01 X24.2177 Y-3.3421 F60.00
G01 X24.2503 Y-3.3439 F60.00
G01 X26.5430 Y-3.3440 F60.00
G01 X26.5689 Y-3.3431 F60.00
G01 X26.5890 Y-3.3413 F60.00
G01 X26.6212 Y-3.3363 F60.00
G01 X26.6344 Y-3.3334 F60.00
G01 X26.6594 Y-3.3267 F60.00
G01 X26.6902 Y-3.3160 F60.00
G01 X26.7026 Y-3.3108 F60.00
G01 X26.7200 Y-3.3027 F60.00
G01 X26.7320 Y-3.2967 F60.00
G01 X26.7437 Y-3.2900 F60.00
G01 X26.7602 Y-3.2801 F60.00
G01 X26.7713 Y-3.2726 F60.00
G01 X26.7977 Y-3.2527 F60.00
G01 X26.8168 Y-3.2358 F60.00
G01 X26.8266 Y-3.2266 F60.00
G01 X26.8487 Y-3.2025 F60.00
G01 X26.8572 Y-3.1921 F60.00
G01 X26.8687 Y-3.1768 F60.00
G01 X26.8765 Y-3.1657 F60.00
G01 X26.8836 Y-3.1544 F60.00
G01 X26.8934 Y-3.1379 F60.00
G01 X26.8998 Y-3.1261 F60.00
G01 X26.9135 Y-3.0965 F60.00
G01 X26.9183 Y-3.0839 F60.00
G01 X26.9267 Y-3.0594 F60.00
G01 X26.9349 Y-3.0278 F60.00
G01 X26.9375 Y-3.0146 F60.00
G01 X26.9404 Y-2.9957 F60.00
G01 X26.9427 Y-2.9756 F60.00
G01 X26.9440 Y-2.9430 F60.00
G01 X26.9440 Y-0.6570 F60.00
G01 X26.9431 Y-0.6311 F60.00
G01 X26.9413 Y-0.6110 F60.00
G01 X26.9363 Y-0.5788 F60.00
G01 X26.9334 Y-0.5656 F60.00
G01 X26.9267 Y-0.5406 F60.00
G01 X26.9160 Y-0.5098 F60.00
G01 X26.9108 Y-0.4974 F60.00
G01 X26.9027 Y-0.4800 F60.00
G01 X26.8967 Y-0.4680 F60.00
G01 X26.8900 Y-0.4563 F60.00
G01 X26.8801 Y-0.4398 F60.00
G01 X26.8726 Y-0.4287 F60.00
G01 X26.8530 Y-0.4026 F60.00
G01 X26.8358 Y-0.3832 F60.00
G01 X26.8266 Y-0.3734 F60.00
G01 X26.8025 Y-0.3513 F60.00
G01 X26.7921 Y-0.3428 F60.00
G01 X26.7768 Y-0.3313 F60.00
G01 X26.7657 Y-0.3235 F60.00
G01 X26.7544 Y-0.3164 F60.00
G01 X26.7379 Y-0.3066 F60.00
G01 X26.7261 Y-0.3002 F60.00
G01 X26.6965 Y-0.2865 F60.00
G01 X26.6839 Y-0.2817 F60.00
G01 X26.6594 Y-0.2733 F60.00
G01 X26.6278 Y-0.2651 F60.00
G01 X26.6146 Y-0.2625 F60.00
G01 X26.5957 Y-0.2596 F60.00
G01 X26.5756 Y-0.2573 F60.00
G01 X26.5430 Y-0.2560 F60.00
G01 X24.2570 Y-0.2560 F60.00
G01 X24.2311 Y-0.2569 F60.00
G01 X24.2177 Y-0.2579 F60.00
G01 X24.1920 Y-0.2614 F60.00
G01 X24.1722 Y-0.2651 F60.00
G01 X24.1406 Y-0.2733 F60.00
G01 X24.1161 Y-0.2817 F60.00
G01 X24.1035 Y-0.2865 F60.00
G01 X24.0739 Y-0.3002 F60.00
G01 X24.0621 Y-0.3066 F60.00
G01 X24.0456 Y-0.3164 F60.00
G01 X24.0342 Y-0.3236 F60.00
G01 X24.0232 Y-0.3313 F60.00
G01 X24.0079 Y-0.3428 F60.00
G01 X23.9975 Y-0.3513 F60.00
G01 X23.9734 Y-0.3734 F60.00
G01 X23.9513 Y-0.3975 F60.00
G01 X23.9428 Y-0.4079 F60.00
G01 X23.9313 Y-0.4232 F60.00
G01 X23.9235 Y-0.4343 F60.00
G01 X23.9164 Y-0.4456 F60.00
G01 X23.9066 Y-0.4621 F60.00
G01 X23.9002 Y-0.4739 F60.00
G01 X23.8865 Y-0.5035 F60.00
G01 X23.8817 Y-0.5161 F60.00
G01 X23.8733 Y-0.5406 F60.00
G01 X23.8651 Y-0.5722 F60.00
G01 X23.8625 Y-0.5854 F60.00
G01 X23.8596 Y-0.6043 F60.00
G01 X23.8579 Y-0.6177 F60.00
G01 X23.8570 Y-0.6302 F60.00
G01 X23.0658 Y-1.0257 F60.00
G01 X15.6576 Y-1.0247 F60.00
G01 X15.3207 Y-0.9807 F60.00
G01 X15.3091 Y-0.9495 F60.00
G01 X15.2932 Y-0.9150 F60.00
G01 X15.2841 Y-0.8974 F60.00
G01 X15.2644 Y-0.8645 F60.00
G01 X15.2530 Y-0.8479 F60.00
G01 X15.2301 Y-0.8176 F60.00
G01 X15.2048 Y-0.7892 F60.00
G01 X15.1907 Y-0.7748 F60.00
G01 X15.1626 Y-0.7493 F60.00
G01 X15.1468 Y-0.7367 F60.00
G01 X15.1161 Y-0.7143 F60.00
G01 X15.1048 Y-0.7071 F60.00
G01 X15.0779 Y-0.6911 F60.00
G01 X15.0600 Y-0.6818 F60.00
G01 X15.0255 Y-0.6659 F60.00
G01 X14.9899 Y-0.6528 F60.00
G01 X14.9707 Y-0.6467 F60.00
G01 X14.9338 Y-0.6375 F60.00
G01 X14.9140 Y-0.6338 F60.00
G01 X14.8764 Y-0.6285 F60.00
G01 X14.8629 Y-0.6275 F60.00
G01 X14.8317 Y-0.6261 F60.00
G01 X14.1683 Y-0.6261 F60.00
G01 X14.1371 Y-0.6275 F60.00
G01 X14.1236 Y-0.6285 F60.00
G01 X14.0860 Y-0.6338 F60.00
G01 X14.0728 Y-0.6361 F60.00
G01 X14.0596 Y-0.6390 F60.00
G01 X14.0229 Y-0.6486 F60.00
G01 X13.9870 Y-0.6610 F60.00
G01 X13.9745 Y-0.6659 F60.00
G01 X13.9622 Y-0.6713 F60.00
G01 X13.9282 Y-0.6878 F60.00
G01 X13.9163 Y-0.6945 F60.00
G01 X13.8839 Y-0.7143 F60.00
G01 X13.8532 Y-0.7367 F60.00
G01 X13.8426 Y-0.7449 F60.00
G01 X13.8324 Y-0.7537 F60.00
G01 X13.8045 Y-0.7795 F60.00
G01 X13.7787 Y-0.8074 F60.00
G01 X13.7699 Y-0.8176 F60.00
G01 X13.7617 Y-0.8282 F60.00
G01 X13.7393 Y-0.8589 F60.00
G01 X13.7195 Y-0.8913 F60.00
G01 X13.7129 Y-0.9030 F60.00
G01 X13.7068 Y-0.9150 F60.00
G01 X13.6909 Y-0.9495 F60.00
G01 X13.6860 Y-0.9620 F60.00
G01 X13.6736 Y-0.9979 F60.00
G01 X13.6640 Y-1.0346 F60.00
G01 X13.6611 Y-1.0478 F60.00
G01 X13.6588 Y-1.0610 F60.00
G01 X13.6535 Y-1.0986 F60.00
G01 X13.6513 Y-1.1366 F60.00
G01 X13.6510 Y-1.1500 F60.00
G00 Z2.0000
G00 X13.8331 Y-1.1500
G01 F10.00
G01 Z-0.0500
G01 F60.00
G01 X13.8331 Y-2.4523 F60.00
G01 X13.8347 Y-2.4835 F60.00
G01 X13.8375 Y-2.5032 F60.00
G01 X13.9078 Y-3.2758 F60.00
G01 X13.9078 Y-4.6000 F60.00
G01 X13.9103 Y-4.6535 F60.00
G01 X13.9112 Y-4.6625 F60.00
G01 X13.9192 Y-4.7155 F60.00
G01 X13.9321 Y-4.7676 F60.00
G01 X13.9347 Y-4.7762 F60.00
G01 X13.9529 Y-4.8266 F60.00
G01 X13.9757 Y-4.8751 F60.00
G01 X13.9800 Y-4.8831 F60.00
G01 X14.0081 Y-4.9297 F60.00
G01 X14.0081 Y-5.5000 F60.00
G01 X14.0085 Y-5.5090 F60.00
G01 X14.0098 Y-5.5179 F60.00
G01 X14.0134 Y-5.5310 F60.00
G01 X14.0159 Y-5.5373 F60.00
G01 X14.0200 Y-5.5453 F60.00
G01 X14.0275 Y-5.5566 F60.00
G01 X14.0366 Y-5.5666 F60.00
G01 X14.0471 Y-5.5752 F60.00
G01 X14.0587 Y-5.5821 F60.00
G01 X14.0712 Y-5.5873 F60.00
G01 X14.0777 Y-5.5892 F60.00
G01 X14.0865 Y-5.5910 F60.00
G01 X14.1000 Y-5.5919 F60.00
G01 X14.9068 Y-5.5917 F60.00
G01 X14.9201 Y-5.5897 F60.00
G01 X14.9310 Y-5.5866 F60.00
G01 X14.9433 Y-5.5811 F60.00
G01 X14.9548 Y-5.5739 F60.00
G01 X14.9650 Y-5.5650 F60.00
G01 X14.9739 Y-5.5548 F60.00
G01 X14.9811 Y-5.5433 F60.00
G01 X14.9866 Y-5.5310 F60.00
G01 X14.9886 Y-5.5245 F60.00
G01 X14.9906 Y-5.5157 F60.00
G01 X14.9915 Y-5.5090 F60.00
G01 X14.9919 Y-5.5000 F60.00
G01 X14.9919 Y-4.9297 F60.00
G01 X15.0200 Y-4.8831 F60.00
G01 X15.0243 Y-4.8751 F60.00
G01 X15.0471 Y-4.8266 F60.00
G01 X15.0653 Y-4.7762 F60.00
G01 X15.0679 Y-4.7676 F60.00
G01 X15.0808 Y-4.7155 F60.00
G01 X15.0888 Y-4.6625 F60.00
G01 X15.0897 Y-4.6535 F60.00
G01 X15.0922 Y-4.6000 F60.00
G01 X15.0922 Y-3.2758 F60.00
G01 X15.1625 Y-2.5033 F60.00
G01 X15.1653 Y-2.4835 F60.00
G01 X15.1668 Y-2.4558 F60.00
G01 X15.6538 Y-2.3922 F60.00
G01 X23.1088 Y-2.3922 F60.00
G01 X24.0381 Y-2.8568 F60.00
G01 X24.0381 Y-2.9453 F60.00
G01 X24.0389 Y-2.9622 F60.00
G01 X24.0397 Y-2.9689 F60.00
G01 X24.0427 Y-2.9879 F60.00
G01 X24.0482 Y-3.0087 F60.00
G01 X24.0556 Y-3.0289 F60.00
G01 X24.0629 Y-3.0442 F60.00
G01 X24.0661 Y-3.0501 F60.00
G01 X24.0737 Y-3.0628 F60.00
G01 X24.0775 Y-3.0683 F60.00
G01 X24.0878 Y-3.0820 F60.00
G01 X24.0991 Y-3.0946 F60.00
G01 X24.1038 Y-3.0994 F60.00
G01 X24.1164 Y-3.1108 F60.00
G01 X24.1335 Y-3.1238 F60.00
G01 X24.1538 Y-3.1361 F60.00
G01 X24.1732 Y-3.1453 F60.00
G01 X24.1934 Y-3.1525 F60.00
G01 X24.2121 Y-3.1573 F60.00
G01 X24.2187 Y-3.1585 F60.00
G01 X24.2355 Y-3.1609 F60.00
G01 X24.2570 Y-3.1619 F60.00
G01 X26.5430 Y-3.1619 F60.00
G01 X26.5622 Y-3.1611 F60.00
G01 X26.5835 Y-3.1582 F60.00
G01 X26.6022 Y-3.1537 F60.00
G01 X26.6087 Y-3.1518 F60.00
G01 X26.6226 Y-3.1469 F60.00
G01 X26.6309 Y-3.1435 F60.00
G01 X26.6462 Y-3.1361 F60.00
G01 X26.6646 Y-3.1251 F60.00
G01 X26.6820 Y-3.1122 F60.00
G01 X26.6962 Y-3.0994 F60.00
G01 X26.7108 Y-3.0836 F60.00
G01 X26.7225 Y-3.0683 F60.00
G01 X26.7275 Y-3.0608 F60.00
G01 X26.7371 Y-3.0442 F60.00
G01 X26.7453 Y-3.0268 F60.00
G01 X26.7525 Y-3.0066 F60.00
G01 X26.7577 Y-2.9857 F60.00
G01 X26.7603 Y-2.9689 F60.00
G01 X26.7611 Y-2.9622 F60.00
G01 X26.7619 Y-2.9430 F60.00
G01 X26.7619 Y-0.6570 F60.00
G01 X26.7611 Y-0.6378 F60.00
G01 X26.7582 Y-0.6165 F60.00
G01 X26.7537 Y-0.5978 F60.00
G01 X26.7518 Y-0.5913 F60.00
G01 X26.7469 Y-0.5774 F60.00
G01 X26.7435 Y-0.5691 F60.00
G01 X26.7361 Y-0.5538 F60.00
G01 X26.7251 Y-0.5354 F60.00
G01 X26.7123 Y-0.5181 F60.00
G01 X26.6994 Y-0.5038 F60.00
G01 X26.6836 Y-0.4892 F60.00
G01 X26.6683 Y-0.4775 F60.00
G01 X26.6608 Y-0.4725 F60.00
G01 X26.6442 Y-0.4629 F60.00
G01 X26.6268 Y-0.4547 F60.00
G01 X26.6066 Y-0.4475 F60.00
G01 X26.5857 Y-0.4423 F60.00
G01 X26.5689 Y-0.4397 F60.00
G01 X26.5622 Y-0.4389 F60.00
G01 X26.5430 Y-0.4381 F60.00
G01 X24.2570 Y-0.4381 F60.00
G01 X24.2355 Y-0.4391 F60.00
G01 X24.2121 Y-0.4427 F60.00
G01 X24.1934 Y-0.4475 F60.00
G01 X24.1711 Y-0.4556 F60.00
G01 X24.1518 Y-0.4650 F60.00
G01 X24.1372 Y-0.4737 F60.00
G01 X24.1317 Y-0.4775 F60.00
G01 X24.1181 Y-0.4877 F60.00
G01 X24.1054 Y-0.4991 F60.00
G01 X24.1006 Y-0.5038 F60.00
G01 X24.0907 Y-0.5147 F60.00
G01 X24.0863 Y-0.5199 F60.00
G01 X24.0762 Y-0.5335 F60.00
G01 X24.0650 Y-0.5518 F60.00
G01 X24.0547 Y-0.5732 F60.00
G01 X24.0482 Y-0.5913 F60.00
G01 X24.0427 Y-0.6121 F60.00
G01 X24.0397 Y-0.6311 F60.00
G01 X24.0389 Y-0.6378 F60.00
G01 X24.0381 Y-0.6547 F60.00
G01 X24.0381 Y-0.7432 F60.00
G01 X23.1088 Y-1.2078 F60.00
G01 X15.6539 Y-1.2078 F60.00
G01 X15.1668 Y-1.1442 F60.00
G01 X15.1653 Y-1.1165 F60.00
G01 X15.1604 Y-1.0833 F60.00
G01 X15.1522 Y-1.0507 F60.00
G01 X15.1409 Y-1.0191 F60.00
G01 X15.1266 Y-0.9889 F60.00
G01 X15.1093 Y-0.9600 F60.00
G01 X15.0893 Y-0.9331 F60.00
G01 X15.0668 Y-0.9082 F60.00
G01 X15.0419 Y-0.8857 F60.00
G01 X15.0150 Y-0.8657 F60.00
G01 X14.9862 Y-0.8484 F60.00
G01 X14.9559 Y-0.8341 F60.00
G01 X14.9243 Y-0.8228 F60.00
G01 X14.8917 Y-0.8146 F60.00
G01 X14.8585 Y-0.8097 F60.00
G01 X14.8250 Y-0.8081 F60.00
G01 X14.1727 Y-0.8081 F60.00
G01 X14.1415 Y-0.8097 F60.00
G01 X14.1127 Y-0.8138 F60.00
G01 X14.1039 Y-0.8156 F60.00
G01 X14.0779 Y-0.8221 F60.00
G01 X14.0715 Y-0.8242 F60.00
G01 X14.0441 Y-0.8341 F60.00
G01 X14.0139 Y-0.8484 F60.00
G01 X13.9850 Y-0.8657 F60.00
G01 X13.9616 Y-0.8829 F60.00
G01 X13.9547 Y-0.8886 F60.00
G01 X13.9316 Y-0.9098 F60.00
G01 X13.9107 Y-0.9331 F60.00
G01 X13.8933 Y-0.9563 F60.00
G01 X13.8894 Y-0.9619 F60.00
G01 X13.8757 Y-0.9849 F60.00
G01 X13.8714 Y-0.9928 F60.00
G01 X13.8591 Y-1.0191 F60.00
G01 X13.8478 Y-1.0507 F60.00
G01 X13.8406 Y-1.0789 F60.00
G01 X13.8388 Y-1.0877 F60.00
G01 X13.8347 Y-1.1165 F60.00
G01 X13.8331 Y-1.1500 F60.00
G00 Z2.0000
G00 X16.0260 Y-4.2196
G01 F10.00
G01 Z-0.0500
G01 F60.00
G01 X16.0204 Y-4.2291 F60.00
G01 X16.0141 Y-4.2410 F60.00
G01 X15.9901 Y-4.2914 F60.00
G01 X15.9847 Y-4.3037 F60.00
G01 X15.9798 Y-4.3163 F60.00
G01 X15.9633 Y-4.3625 F60.00
G01 X15.9572 Y-4.3817 F60.00
G01 X15.9436 Y-4.4358 F60.00
G01 X15.9406 Y-4.4489 F60.00
G01 X15.9383 Y-4.4622 F60.00
G01 X15.9311 Y-4.5108 F60.00
G01 X15.9295 Y-4.5241 F60.00
G01 X15.9285 Y-4.5375 F60.00
G01 X15.9261 Y-4.5866 F60.00
G01 X15.9257 Y-4.6000 F60.00
G01 X15.9261 Y-4.6134 F60.00
G01 X15.9285 Y-4.6625 F60.00
G01 X15.9295 Y-4.6759 F60.00
G01 X15.9311 Y-4.6892 F60.00
G01 X15.9383 Y-4.7378 F60.00
G01 X15.9406 Y-4.7511 F60.00
G01 X15.9436 Y-4.7642 F60.00
G01 X15.9572 Y-4.8183 F60.00
G01 X15.9633 Y-4.8375 F60.00
G01 X15.9798 Y-4.8837 F60.00
G01 X15.9847 Y-4.8963 F60.00
G01 X15.9901 Y-4.9086 F60.00
G01 X16.0141 Y-4.9590 F60.00
G01 X16.0204 Y-4.9709 F60.00
G01 X16.0260 Y-4.9804 F60.00
G01 X16.0260 Y-5.5000 F60.00
G01 X16.0263 Y-5.5134 F60.00
G01 X16.0273 Y-5.5269 F60.00
G01 X16.0300 Y-5.5468 F60.00
G01 X16.0342 Y-5.5666 F60.00
G01 X16.0378 Y-5.5795 F60.00
G01 X16.0420 Y-5.5923 F60.00
G01 X16.0468 Y-5.6049 F60.00
G01 X16.0523 Y-5.6172 F60.00
G01 X16.0616 Y-5.6351 F60.00
G01 X16.0722 Y-5.6522 F60.00
G01 X16.0799 Y-5.6632 F60.00
G01 X16.0882 Y-5.6738 F60.00
G01 X16.1015 Y-5.6889 F60.00
G01 X16.1160 Y-5.7030 F60.00
G01 X16.1262 Y-5.7118 F60.00
G01 X16.1368 Y-5.7201 F60.00
G01 X16.1534 Y-5.7315 F60.00
G01 X16.1649 Y-5.7384 F60.00
G01 X16.1768 Y-5.7448 F60.00
G01 X16.1951 Y-5.7532 F60.00
G01 X16.2140 Y-5.7602 F60.00
G01 X16.2334 Y-5.7658 F60.00
G01 X16.2532 Y-5.7700 F60.00
G01 X16.2665 Y-5.7720 F60.00
G01 X16.2798 Y-5.7733 F60.00
G01 X16.3000 Y-5.7740 F60.00
G01 X17.1067 Y-5.7739 F60.00
G01 X17.1202 Y-5.7733 F60.00
G01 X17.1402 Y-5.7710 F60.00
G01 X17.1535 Y-5.7687 F60.00
G01 X17.1731 Y-5.7641 F60.00
G01 X17.1923 Y-5.7580 F60.00
G01 X17.2049 Y-5.7532 F60.00
G01 X17.2172 Y-5.7477 F60.00
G01 X17.2292 Y-5.7417 F60.00
G01 X17.2409 Y-5.7350 F60.00
G01 X17.2522 Y-5.7278 F60.00
G01 X17.2632 Y-5.7201 F60.00
G01 X17.2738 Y-5.7118 F60.00
G01 X17.2840 Y-5.7030 F60.00
G01 X17.2938 Y-5.6938 F60.00
G01 X17.3030 Y-5.6840 F60.00
G01 X17.3118 Y-5.6738 F60.00
G01 X17.3201 Y-5.6632 F60.00
G01 X17.3278 Y-5.6522 F60.00
G01 X17.3384 Y-5.6351 F60.00
G01 X17.3448 Y-5.6232 F60.00
G01 X17.3505 Y-5.6110 F60.00
G01 X17.3557 Y-5.5986 F60.00
G01 X17.3602 Y-5.5860 F60.00
G01 X17.3641 Y-5.5731 F60.00
G01 X17.3674 Y-5.5600 F60.00
G01 X17.3710 Y-5.5402 F60.00
G01 X17.3733 Y-5.5202 F60.00
G01 X17.3739 Y-5.5067 F60.00
G01 X17.3740 Y-5.2043 F60.00
G01 X30.2093 Y-5.2043 F60.00
G01 X32.1525 Y-7.1475 F60.00
G01 X32.1623 Y-7.1568 F60.00
G01 X32.2037 Y-7.1942 F60.00
G01 X32.2194 Y-7.2068 F60.00
G01 X32.2588 Y-7.2360 F60.00
G01 X32.2698 Y-7.2438 F60.00
G01 X32.2812 Y-7.2510 F60.00
G01 X32.3233 Y-7.2762 F60.00
G01 X32.3410 Y-7.2859 F60.00
G01 X32.3914 Y-7.3099 F60.00
G01 X32.4037 Y-7.3153 F60.00
G01 X32.4163 Y-7.3202 F60.00
G01 X32.4625 Y-7.3367 F60.00
G01 X32.4752 Y-7.3409 F60.00
G01 X32.4882 Y-7.3445 F60.00
G01 X32.5358 Y-7.3564 F60.00
G01 X32.5489 Y-7.3594 F60.00
G01 X32.5622 Y-7.3617 F60.00
G01 X32.6108 Y-7.3689 F60.00
G01 X32.6241 Y-7.3705 F60.00
G01 X32.6375 Y-7.3715 F60.00
G01 X32.6933 Y-7.3742 F60.00
G01 X41.1000 Y-7.3743 F60.00
G01 X41.1134 Y-7.3739 F60.00
G01 X41.1625 Y-7.3715 F60.00
G01 X41.1759 Y-7.3705 F60.00
G01 X41.1892 Y-7.3689 F60.00
G01 X41.2378 Y-7.3617 F60.00
G01 X41.2511 Y-7.3594 F60.00
G01 X41.2642 Y-7.3564 F60.00
G01 X41.3118 Y-7.3445 F60.00
G01 X41.3248 Y-7.3409 F60.00
G01 X41.3375 Y-7.3367 F60.00
G01 X41.3837 Y-7.3202 F60.00
G01 X41.4025 Y-7.3127 F60.00
G01 X41.4590 Y-7.2859 F60.00
G01 X41.4767 Y-7.2762 F60.00
G01 X41.5188 Y-7.2510 F60.00
G01 X41.5302 Y-7.2438 F60.00
G01 X41.5412 Y-7.2360 F60.00
G01 X41.5806 Y-7.2068 F60.00
G01 X41.5912 Y-7.1985 F60.00
G01 X41.6014 Y-7.1897 F60.00
G01 X41.6377 Y-7.1568 F60.00
G01 X41.6475 Y-7.1475 F60.00
G01 X42.6475 Y-6.1475 F60.00
G01 X42.6568 Y-6.1377 F60.00
G01 X42.6897 Y-6.1014 F60.00
G01 X42.6985 Y-6.0912 F60.00
G01 X42.7068 Y-6.0806 F60.00
G01 X42.7360 Y-6.0412 F60.00
G01 X42.7438 Y-6.0302 F60.00
G01 X42.7510 Y-6.0188 F60.00
G01 X42.7762 Y-5.9767 F60.00
G01 X42.7828 Y-5.9650 F60.00
G01 X42.7889 Y-5.9530 F60.00
G01 X42.8099 Y-5.9086 F60.00
G01 X42.8153 Y-5.8963 F60.00
G01 X42.8202 Y-5.8837 F60.00
G01 X42.8367 Y-5.8375 F60.00
G01 X42.8409 Y-5.8248 F60.00
G01 X42.8445 Y-5.8118 F60.00
G01 X42.8564 Y-5.7642 F60.00
G01 X42.8606 Y-5.7444 F60.00
G01 X42.8698 Y-5.6826 F60.00
G01 X42.8715 Y-5.6625 F60.00
G01 X42.8739 Y-5.6134 F60.00
G01 X42.8743 Y-5.6000 F60.00
G01 X42.8743 Y-4.9443 F60.00
G01 X56.9062 Y-4.9443 F60.00
G01 X57.7469 Y-5.4357 F60.00
G01 X57.7501 Y-5.4473 F60.00
G01 X57.7543 Y-5.4600 F60.00
G01 X57.7791 Y-5.5293 F60.00
G01 X57.7839 Y-5.5419 F60.00
G01 X57.7894 Y-5.5542 F60.00
G01 X57.8209 Y-5.6207 F60.00
G01 X57.8269 Y-5.6327 F60.00
G01 X57.8335 Y-5.6444 F60.00
G01 X57.8749 Y-5.7133 F60.00
G01 X57.8863 Y-5.7299 F60.00
G01 X57.9302 Y-5.7890 F60.00
G01 X57.9384 Y-5.7996 F60.00
G01 X57.9472 Y-5.8098 F60.00
G01 X57.9966 Y-5.8643 F60.00
G01 X58.0059 Y-5.8741 F60.00
G01 X58.0157 Y-5.8834 F60.00
G01 X58.0702 Y-5.9328 F60.00
G01 X58.0804 Y-5.9416 F60.00
G01 X58.0910 Y-5.9498 F60.00
G01 X58.1501 Y-5.9937 F60.00
G01 X58.1611 Y-6.0014 F60.00
G01 X58.1725 Y-6.0086 F60.00
G01 X58.2356 Y-6.0465 F60.00
G01 X58.2473 Y-6.0531 F60.00
G01 X58.2593 Y-6.0591 F60.00
G01 X58.3258 Y-6.0906 F60.00
G01 X58.3381 Y-6.0961 F60.00
G01 X58.3507 Y-6.1009 F60.00
G01 X58.4200 Y-6.1257 F60.00
G01 X58.4327 Y-6.1299 F60.00
G01 X58.4457 Y-6.1335 F60.00
G01 X58.5171 Y-6.1514 F60.00
G01 X58.5302 Y-6.1543 F60.00
G01 X58.5435 Y-6.1566 F60.00
G01 X58.6163 Y-6.1674 F60.00
G01 X58.6296 Y-6.1691 F60.00
G01 X58.6430 Y-6.1701 F60.00
G01 X58.7166 Y-6.1737 F60.00
G01 X58.7300 Y-6.1740 F60.00
G01 X60.2300 Y-6.1740 F60.00
G01 X60.2434 Y-6.1737 F60.00
G01 X60.3170 Y-6.1701 F60.00
G01 X60.3304 Y-6.1691 F60.00
G01 X60.3437 Y-6.1674 F60.00
G01 X60.4165 Y-6.1566 F60.00
G01 X60.4298 Y-6.1543 F60.00
G01 X60.4429 Y-6.1514 F60.00
G01 X60.5143 Y-6.1335 F60.00
G01 X60.5273 Y-6.1299 F60.00
G01 X60.5400 Y-6.1257 F60.00
G01 X60.6093 Y-6.1009 F60.00
G01 X60.6219 Y-6.0961 F60.00
G01 X60.6342 Y-6.0906 F60.00
G01 X60.7007 Y-6.0591 F60.00
G01 X60.7127 Y-6.0531 F60.00
G01 X60.7244 Y-6.0465 F60.00
G01 X60.7875 Y-6.0086 F60.00
G01 X60.7989 Y-6.0014 F60.00
G01 X60.8099 Y-5.9937 F60.00
G01 X60.8690 Y-5.9498 F60.00
G01 X60.8796 Y-5.9416 F60.00
G01 X60.8898 Y-5.9328 F60.00
G01 X60.9443 Y-5.8834 F60.00
G01 X60.9541 Y-5.8741 F60.00
G01 X60.9634 Y-5.8643 F60.00
G01 X61.0128 Y-5.8098 F60.00
G01 X61.0216 Y-5.7996 F60.00
G01 X61.0298 Y-5.7890 F60.00
G01 X61.0737 Y-5.7299 F60.00
G01 X61.0814 Y-5.7189 F60.00
G01 X61.0886 Y-5.7075 F60.00
G01 X61.1265 Y-5.6444 F60.00
G01 X61.1331 Y-5.6327 F60.00
G01 X61.1391 Y-5.6207 F60.00
G01 X61.1706 Y-5.5542 F60.00
G01 X61.1761 Y-5.5419 F60.00
G01 X61.1809 Y-5.5293 F60.00
G01 X61.2057 Y-5.4600 F60.00
G01 X61.2099 Y-5.4473 F60.00
G01 X61.2135 Y-5.4343 F60.00
G01 X61.2314 Y-5.3629 F60.00
G01 X61.2343 Y-5.3498 F60.00
G01 X61.2366 Y-5.3365 F60.00
G01 X61.2474 Y-5.2637 F60.00
G01 X61.2491 Y-5.2504 F60.00
G01 X61.2501 Y-5.2370 F60.00
G01 X61.2539 Y-5.1567 F60.00
G01 X61.2540 Y-3.6500 F60.00
G01 X61.2537 Y-3.6366 F60.00
G01 X61.2501 Y-3.5630 F60.00
G01 X61.2491 Y-3.5502 F60.00
G01 X61.2474 Y-3.5363 F60.00
G01 X61.2366 Y-3.4635 F60.00
G01 X61.2343 Y-3.4502 F60.00
G01 X61.2314 Y-3.4371 F60.00
G01 X61.2135 Y-3.3657 F60.00
G01 X61.2099 Y-3.3527 F60.00
G01 X61.2057 Y-3.3400 F60.00
G01 X61.1809 Y-3.2707 F60.00
G01 X61.1761 Y-3.2581 F60.00
G01 X61.1706 Y-3.2458 F60.00
G01 X61.1391 Y-3.1793 F60.00
G01 X61.1331 Y-3.1673 F60.00
G01 X61.1265 Y-3.1556 F60.00
G01 X61.0886 Y-3.0925 F60.00
G01 X61.0814 Y-3.0811 F60.00
G01 X61.0737 Y-3.0701 F60.00
G01 X61.0298 Y-3.0110 F60.00
G01 X61.0216 Y-3.0004 F60.00
G01 X61.0128 Y-2.9902 F60.00
G01 X60.9634 Y-2.9357 F60.00
G01 X60.9541 Y-2.9259 F60.00
G01 X60.9443 Y-2.9166 F60.00
G01 X60.8898 Y-2.8672 F60.00
G01 X60.8796 Y-2.8584 F60.00
G01 X60.8690 Y-2.8502 F60.00
G01 X60.8099 Y-2.8063 F60.00
G01 X60.7989 Y-2.7986 F60.00
G01 X60.7875 Y-2.7914 F60.00
G01 X60.7244 Y-2.7535 F60.00
G01 X60.7127 Y-2.7469 F60.00
G01 X60.7007 Y-2.7409 F60.00
G01 X60.6342 Y-2.7094 F60.00
G01 X60.6219 Y-2.7039 F60.00
G01 X60.6093 Y-2.6991 F60.00
G01 X60.5400 Y-2.6743 F60.00
G01 X60.5273 Y-2.6701 F60.00
G01 X60.5143 Y-2.6665 F60.00
G01 X60.4429 Y-2.6486 F60.00
G01 X60.4298 Y-2.6457 F60.00
G01 X60.4165 Y-2.6434 F60.00
G01 X60.3437 Y-2.6326 F60.00
G01 X60.3304 Y-2.6309 F60.00
G01 X60.3170 Y-2.6299 F60.00
G01 X60.2367 Y-2.6261 F60.00
G01 X59.6800 Y-2.6257 F60.00
G01 X58.7300 Y-2.6260 F60.00
G01 X58.7166 Y-2.6263 F60.00
G01 X58.6430 Y-2.6299 F60.00
G01 X58.6302 Y-2.6309 F60.00
G01 X58.6173 Y-2.6324 F60.00
G01 X58.5435 Y-2.6434 F60.00
G01 X58.5236 Y-2.6471 F60.00
G01 X58.4457 Y-2.6665 F60.00
G01 X58.4327 Y-2.6701 F60.00
G01 X58.4200 Y-2.6743 F60.00
G01 X58.3507 Y-2.6991 F60.00
G01 X58.3381 Y-2.7039 F60.00
G01 X58.3258 Y-2.7094 F60.00
G01 X58.2593 Y-2.7409 F60.00
G01 X58.2473 Y-2.7469 F60.00
G01 X58.2356 Y-2.7535 F60.00
G01 X58.1667 Y-2.7949 F60.00
G01 X58.1501 Y-2.8063 F60.00
G01 X58.0910 Y-2.8502 F60.00
G01 X58.0804 Y-2.8584 F60.00
G01 X58.0702 Y-2.8672 F60.00
G01 X58.0107 Y-2.9212 F60.00
G01 X57.9966 Y-2.9357 F60.00
G01 X57.9428 Y-2.9952 F60.00
G01 X57.9302 Y-3.0110 F60.00
G01 X57.9023 Y-3.0486 F60.00
G01 X56.9331 Y-3.3957 F60.00
G01 X42.5300 Y-3.3957 F60.00
G01 X42.5166 Y-3.3961 F60.00
G01 X42.4675 Y-3.3985 F60.00
G01 X42.4541 Y-3.3995 F60.00
G01 X42.4408 Y-3.4011 F60.00
G01 X42.3922 Y-3.4083 F60.00
G01 X42.3789 Y-3.4106 F60.00
G01 X42.3658 Y-3.4136 F60.00
G01 X42.3163 Y-3.4260 F60.00
G01 X41.7000 Y-3.4260 F60.00
G01 X41.6866 Y-3.4263 F60.00
G01 X41.6731 Y-3.4273 F60.00
G01 X41.6532 Y-3.4300 F60.00
G01 X41.6334 Y-3.4342 F60.00
G01 X41.6140 Y-3.4398 F60.00
G01 X41.5951 Y-3.4468 F60.00
G01 X41.5768 Y-3.4552 F60.00
G01 X41.5649 Y-3.4616 F60.00
G01 X41.5534 Y-3.4685 F60.00
G01 X41.5368 Y-3.4799 F60.00
G01 X41.5210 Y-3.4925 F60.00
G01 X41.5062 Y-3.5062 F60.00
G01 X41.4925 Y-3.5210 F60.00
G01 X41.4799 Y-3.5368 F60.00
G01 X41.4685 Y-3.5534 F60.00
G01 X41.4583 Y-3.5708 F60.00
G01 X41.4523 Y-3.5828 F60.00
G01 X41.4468 Y-3.5951 F60.00
G01 X41.4398 Y-3.6140 F60.00
G01 X41.4342 Y-3.6334 F60.00
G01 X41.4300 Y-3.6532 F60.00
G01 X41.4280 Y-3.6665 F60.00
G01 X41.4267 Y-3.6798 F60.00
G01 X41.4260 Y-3.7000 F60.00
G01 X41.4260 Y-4.2196 F60.00
G01 X41.4204 Y-4.2291 F60.00
G01 X41.4141 Y-4.2410 F60.00
G01 X41.3873 Y-4.2975 F60.00
G01 X41.3798 Y-4.3163 F60.00
G01 X41.3633 Y-4.3625 F60.00
G01 X41.3591 Y-4.3752 F60.00
G01 X41.3555 Y-4.3882 F60.00
G01 X41.3436 Y-4.4358 F60.00
G01 X41.3406 Y-4.4489 F60.00
G01 X41.3383 Y-4.4622 F60.00
G01 X41.3311 Y-4.5108 F60.00
G01 X41.3289 Y-4.5308 F60.00
G01 X41.3261 Y-4.5866 F60.00
G01 X41.3257 Y-4.6000 F60.00
G01 X41.3257 Y-5.2793 F60.00
G01 X40.7793 Y-5.8257 F60.00
G01 X33.0207 Y-5.8257 F60.00
G01 X31.0775 Y-3.8825 F60.00
G01 X31.0677 Y-3.8732 F60.00
G01 X31.0314 Y-3.8403 F60.00
G01 X31.0212 Y-3.8315 F60.00
G01 X31.0106 Y-3.8232 F60.00
G01 X30.9657 Y-3.7900 F60.00
G01 X30.9488 Y-3.7790 F60.00
G01 X30.9067 Y-3.7538 F60.00
G01 X30.8950 Y-3.7472 F60.00
G01 X30.8830 Y-3.7411 F60.00
G01 X30.8386 Y-3.7201 F60.00
G01 X30.8263 Y-3.7147 F60.00
G01 X30.8137 Y-3.7098 F60.00
G01 X30.7675 Y-3.6933 F60.00
G01 X30.7548 Y-3.6891 F60.00
G01 X30.7418 Y-3.6855 F60.00
G01 X30.6942 Y-3.6736 F60.00
G01 X30.6811 Y-3.6706 F60.00
G01 X30.6678 Y-3.6683 F60.00
G01 X30.6192 Y-3.6611 F60.00
G01 X30.5992 Y-3.6589 F60.00
G01 X30.5434 Y-3.6561 F60.00
G01 X30.5300 Y-3.6557 F60.00
G01 X17.3704 Y-3.6557 F60.00
G01 X17.3658 Y-3.6334 F60.00
G01 X17.3602 Y-3.6140 F60.00
G01 X17.3532 Y-3.5951 F60.00
G01 X17.3448 Y-3.5768 F60.00
G01 X17.3350 Y-3.5591 F60.00
G01 X17.3240 Y-3.5422 F60.00
G01 X17.3118 Y-3.5262 F60.00
G01 X17.2985 Y-3.5111 F60.00
G01 X17.2889 Y-3.5015 F60.00
G01 X17.2790 Y-3.4925 F60.00
G01 X17.2632 Y-3.4799 F60.00
G01 X17.2466 Y-3.4685 F60.00
G01 X17.2292 Y-3.4583 F60.00
G01 X17.2110 Y-3.4495 F60.00
G01 X17.1923 Y-3.4420 F60.00
G01 X17.1731 Y-3.4359 F60.00
G01 X17.1535 Y-3.4313 F60.00
G01 X17.1402 Y-3.4290 F60.00
G01 X17.1269 Y-3.4273 F60.00
G01 X17.1134 Y-3.4263 F60.00
G01 X17.1000 Y-3.4260 F60.00
G01 X16.3000 Y-3.4260 F60.00
G01 X16.2866 Y-3.4263 F60.00
G01 X16.2665 Y-3.4280 F60.00
G01 X16.2465 Y-3.4313 F60.00
G01 X16.2269 Y-3.4359 F60.00
G01 X16.2077 Y-3.4420 F60.00
G01 X16.1890 Y-3.4495 F60.00
G01 X16.1708 Y-3.4583 F60.00
G01 X16.1534 Y-3.4685 F60.00
G01 X16.1368 Y-3.4799 F60.00
G01 X16.1210 Y-3.4925 F60.00
G01 X16.1062 Y-3.5062 F60.00
G01 X16.0925 Y-3.5210 F60.00
G01 X16.0799 Y-3.5368 F60.00
G01 X16.0685 Y-3.5534 F60.00
G01 X16.0616 Y-3.5649 F60.00
G01 X16.0552 Y-3.5768 F60.00
G01 X16.0468 Y-3.5951 F60.00
G01 X16.0398 Y-3.6140 F60.00
G01 X16.0342 Y-3.6334 F60.00
G01 X16.0300 Y-3.6532 F60.00
G01 X16.0273 Y-3.6731 F60.00
G01 X16.0261 Y-3.6933 F60.00
G01 X16.0260 Y-4.2196 F60.00
G00 Z2.0000
G00 X16.2081 Y-4.2703
G01 F10.00
G01 Z-0.0500
G01 F60.00
G01 X16.1777 Y-4.3208 F60.00
G01 X16.1547 Y-4.3692 F60.00
G01 X16.1513 Y-4.3776 F60.00
G01 X16.1347 Y-4.4238 F60.00
G01 X16.1321 Y-4.4324 F60.00
G01 X16.1192 Y-4.4845 F60.00
G01 X16.1107 Y-4.5420 F60.00
G01 X16.1078 Y-4.6000 F60.00
G01 X16.1105 Y-4.6558 F60.00
G01 X16.1192 Y-4.7155 F60.00
G01 X16.1321 Y-4.7676 F60.00
G01 X16.1347 Y-4.7762 F60.00
G01 X16.1529 Y-4.8266 F60.00
G01 X16.1757 Y-4.8751 F60.00
G01 X16.1800 Y-4.8831 F60.00
G01 X16.2081 Y-4.9297 F60.00
G01 X16.2081 Y-5.5000 F60.00
G01 X16.2085 Y-5.5090 F60.00
G01 X16.2098 Y-5.5179 F60.00
G01 X16.2114 Y-5.5245 F60.00
G01 X16.2142 Y-5.5331 F60.00
G01 X16.2200 Y-5.5453 F60.00
G01 X16.2235 Y-5.5511 F60.00
G01 X16.2289 Y-5.5583 F60.00
G01 X16.2334 Y-5.5634 F60.00
G01 X16.2399 Y-5.5696 F60.00
G01 X16.2452 Y-5.5739 F60.00
G01 X16.2527 Y-5.5789 F60.00
G01 X16.2648 Y-5.5850 F60.00
G01 X16.2712 Y-5.5873 F60.00
G01 X16.2799 Y-5.5897 F60.00
G01 X16.2887 Y-5.5913 F60.00
G01 X16.2955 Y-5.5918 F60.00
G01 X17.1023 Y-5.5919 F60.00
G01 X17.1157 Y-5.5906 F60.00
G01 X17.1267 Y-5.5880 F60.00
G01 X17.1393 Y-5.5831 F60.00
G01 X17.1492 Y-5.5777 F60.00
G01 X17.1583 Y-5.5711 F60.00
G01 X17.1650 Y-5.5650 F60.00
G01 X17.1725 Y-5.5566 F60.00
G01 X17.1789 Y-5.5473 F60.00
G01 X17.1831 Y-5.5393 F60.00
G01 X17.1873 Y-5.5288 F60.00
G01 X17.1902 Y-5.5179 F60.00
G01 X17.1917 Y-5.5068 F60.00
G01 X17.1919 Y-5.0222 F60.00
G01 X30.2847 Y-5.0222 F60.00
G01 X32.2813 Y-7.0187 F60.00
G01 X32.3209 Y-7.0548 F60.00
G01 X32.3279 Y-7.0606 F60.00
G01 X32.3673 Y-7.0898 F60.00
G01 X32.3748 Y-7.0948 F60.00
G01 X32.4208 Y-7.1223 F60.00
G01 X32.4692 Y-7.1453 F60.00
G01 X32.4776 Y-7.1487 F60.00
G01 X32.5281 Y-7.1667 F60.00
G01 X32.5845 Y-7.1808 F60.00
G01 X32.6420 Y-7.1893 F60.00
G01 X32.6977 Y-7.1922 F60.00
G01 X41.1000 Y-7.1922 F60.00
G01 X41.1580 Y-7.1893 F60.00
G01 X41.2111 Y-7.1816 F60.00
G01 X41.2199 Y-7.1798 F60.00
G01 X41.2719 Y-7.1667 F60.00
G01 X41.3224 Y-7.1487 F60.00
G01 X41.3308 Y-7.1453 F60.00
G01 X41.3792 Y-7.1223 F60.00
G01 X41.4252 Y-7.0948 F60.00
G01 X41.4327 Y-7.0898 F60.00
G01 X41.4757 Y-7.0578 F60.00
G01 X41.5155 Y-7.0219 F60.00
G01 X42.5187 Y-6.0187 F60.00
G01 X42.5578 Y-5.9757 F60.00
G01 X42.5936 Y-5.9271 F60.00
G01 X42.6200 Y-5.8831 F60.00
G01 X42.6243 Y-5.8751 F60.00
G01 X42.6471 Y-5.8266 F60.00
G01 X42.6653 Y-5.7762 F60.00
G01 X42.6679 Y-5.7676 F60.00
G01 X42.6808 Y-5.7155 F60.00
G01 X42.6893 Y-5.6580 F60.00
G01 X42.6922 Y-5.6000 F60.00
G01 X42.6922 Y-4.8453 F60.00
G01 X42.7753 Y-4.7622 F60.00
G01 X56.9555 Y-4.7622 F60.00
G01 X57.9049 Y-5.3172 F60.00
G01 X57.9243 Y-5.3944 F60.00
G01 X57.9521 Y-5.4722 F60.00
G01 X57.9875 Y-5.5469 F60.00
G01 X58.0299 Y-5.6178 F60.00
G01 X58.0792 Y-5.6841 F60.00
G01 X58.1347 Y-5.7453 F60.00
G01 X58.1959 Y-5.8008 F60.00
G01 X58.2604 Y-5.8488 F60.00
G01 X58.3292 Y-5.8903 F60.00
G01 X58.3371 Y-5.8946 F60.00
G01 X58.4078 Y-5.9279 F60.00
G01 X58.4856 Y-5.9557 F60.00
G01 X58.5613 Y-5.9748 F60.00
G01 X58.5702 Y-5.9765 F60.00
G01 X58.6475 Y-5.9879 F60.00
G01 X58.7277 Y-5.9919 F60.00
G01 X60.2323 Y-5.9919 F60.00
G01 X60.3125 Y-5.9879 F60.00
G01 X60.3943 Y-5.9758 F60.00
G01 X60.4744 Y-5.9557 F60.00
G01 X60.5480 Y-5.9295 F60.00
G01 X60.5563 Y-5.9260 F60.00
G01 X60.6229 Y-5.8946 F60.00
G01 X60.6308 Y-5.8903 F60.00
G01 X60.6978 Y-5.8501 F60.00
G01 X60.7641 Y-5.8008 F60.00
G01 X60.8253 Y-5.7453 F60.00
G01 X60.8779 Y-5.6875 F60.00
G01 X60.8836 Y-5.6806 F60.00
G01 X60.9301 Y-5.6178 F60.00
G01 X60.9703 Y-5.5508 F60.00
G01 X60.9746 Y-5.5429 F60.00
G01 X61.0079 Y-5.4722 F60.00
G01 X61.0357 Y-5.3944 F60.00
G01 X61.0548 Y-5.3187 F60.00
G01 X61.0565 Y-5.3098 F60.00
G01 X61.0679 Y-5.2325 F60.00
G01 X61.0719 Y-5.1523 F60.00
G01 X61.0719 Y-3.6477 F60.00
G01 X61.0679 Y-3.5677 F60.00
G01 X61.0558 Y-3.4857 F60.00
G01 X61.0357 Y-3.4056 F60.00
G01 X61.0095 Y-3.3320 F60.00
G01 X61.0060 Y-3.3237 F60.00
G01 X60.9746 Y-3.2571 F60.00
G01 X60.9703 Y-3.2492 F60.00
G01 X60.9301 Y-3.1822 F60.00
G01 X60.8808 Y-3.1159 F60.00
G01 X60.8253 Y-3.0547 F60.00
G01 X60.7675 Y-3.0021 F60.00
G01 X60.7606 Y-2.9964 F60.00
G01 X60.6978 Y-2.9499 F60.00
G01 X60.6308 Y-2.9097 F60.00
G01 X60.6229 Y-2.9054 F60.00
G01 X60.5522 Y-2.8721 F60.00
G01 X60.4744 Y-2.8443 F60.00
G01 X60.3987 Y-2.8252 F60.00
G01 X60.3898 Y-2.8235 F60.00
G01 X60.3125 Y-2.8121 F60.00
G01 X60.2323 Y-2.8081 F60.00
G01 X59.6800 Y-2.8078 F60.00
G01 X58.7300 Y-2.8081 F60.00
G01 X58.6477 Y-2.8121 F60.00
G01 X58.5635 Y-2.8247 F60.00
G01 X58.4856 Y-2.8443 F60.00
G01 X58.4078 Y-2.8721 F60.00
G01 X58.3331 Y-2.9075 F60.00
G01 X58.2604 Y-2.9512 F60.00
G01 X58.1959 Y-2.9992 F60.00
G01 X58.1331 Y-3.0563 F60.00
G01 X58.0778 Y-3.1176 F60.00
G01 X58.0312 Y-3.1804 F60.00
G01 X58.0191 Y-3.2001 F60.00
G01 X56.9647 Y-3.5778 F60.00
G01 X42.5300 Y-3.5778 F60.00
G01 X42.4720 Y-3.5807 F60.00
G01 X42.4167 Y-3.5888 F60.00
G01 X42.3603 Y-3.6027 F60.00
G01 X42.3445 Y-3.6081 F60.00
G01 X41.7000 Y-3.6081 F60.00
G01 X41.6910 Y-3.6085 F60.00
G01 X41.6843 Y-3.6094 F60.00
G01 X41.6712 Y-3.6127 F60.00
G01 X41.6587 Y-3.6179 F60.00
G01 X41.6471 Y-3.6248 F60.00
G01 X41.6366 Y-3.6334 F60.00
G01 X41.6275 Y-3.6434 F60.00
G01 X41.6223 Y-3.6508 F60.00
G01 X41.6189 Y-3.6567 F60.00
G01 X41.6134 Y-3.6690 F60.00
G01 X41.6098 Y-3.6821 F60.00
G01 X41.6085 Y-3.6910 F60.00
G01 X41.6081 Y-3.7000 F60.00
G01 X41.6081 Y-4.2703 F60.00
G01 X41.5777 Y-4.3208 F60.00
G01 X41.5547 Y-4.3692 F60.00
G01 X41.5513 Y-4.3776 F60.00
G01 X41.5333 Y-4.4281 F60.00
G01 X41.5202 Y-4.4801 F60.00
G01 X41.5184 Y-4.4889 F60.00
G01 X41.5107 Y-4.5420 F60.00
G01 X41.5078 Y-4.6000 F60.00
G01 X41.5078 Y-5.3547 F60.00
G01 X40.8547 Y-6.0078 F60.00
G01 X32.9453 Y-6.0078 F60.00
G01 X30.9455 Y-4.0081 F60.00
G01 X30.9057 Y-3.9722 F60.00
G01 X30.8590 Y-3.9376 F60.00
G01 X30.8092 Y-3.9077 F60.00
G01 X30.7608 Y-3.8847 F60.00
G01 X30.7524 Y-3.8813 F60.00
G01 X30.7062 Y-3.8647 F60.00
G01 X30.6976 Y-3.8621 F60.00
G01 X30.6455 Y-3.8492 F60.00
G01 X30.5858 Y-3.8405 F60.00
G01 X30.5300 Y-3.8378 F60.00
G01 X17.1919 Y-3.8378 F60.00
G01 X17.1919 Y-3.6977 F60.00
G01 X17.1906 Y-3.6843 F60.00
G01 X17.1880 Y-3.6733 F60.00
G01 X17.1831 Y-3.6607 F60.00
G01 X17.1777 Y-3.6508 F60.00
G01 X17.1711 Y-3.6417 F60.00
G01 X17.1634 Y-3.6334 F60.00
G01 X17.1548 Y-3.6261 F60.00
G01 X17.1453 Y-3.6200 F60.00
G01 X17.1352 Y-3.6150 F60.00
G01 X17.1223 Y-3.6108 F60.00
G01 X17.1113 Y-3.6087 F60.00
G01 X17.1000 Y-3.6081 F60.00
G01 X16.2977 Y-3.6081 F60.00
G01 X16.2887 Y-3.6087 F60.00
G01 X16.2821 Y-3.6098 F60.00
G01 X16.2755 Y-3.6114 F60.00
G01 X16.2669 Y-3.6142 F60.00
G01 X16.2587 Y-3.6179 F60.00
G01 X16.2508 Y-3.6223 F60.00
G01 X16.2434 Y-3.6275 F60.00
G01 X16.2383 Y-3.6319 F60.00
G01 X16.2319 Y-3.6383 F60.00
G01 X16.2261 Y-3.6452 F60.00
G01 X16.2223 Y-3.6508 F60.00
G01 X16.2179 Y-3.6587 F60.00
G01 X16.2142 Y-3.6669 F60.00
G01 X16.2120 Y-3.6733 F60.00
G01 X16.2103 Y-3.6799 F60.00
G01 X16.2087 Y-3.6887 F60.00
G01 X16.2081 Y-3.7000 F60.00
G01 X16.2081 Y-4.2703 F60.00
G00 Z2.0000
G00 X15.3561 Y-5.1795
G01 F10.00
G01 Z-0.0500
G01 F60.00
G01 X15.3745 Y-5.1724 F60.00
G01 X15.3853 Y-5.1687 F60.00
G01 X15.4515 Y-5.1466 F60.00
G01 X15.4732 Y-5.1400 F60.00
G01 X15.4952 Y-5.1345 F60.00
G01 X15.5174 Y-5.1300 F60.00
G01 X15.5286 Y-5.1282 F60.00
G01 X15.5510 Y-5.1254 F60.00
G01 X15.5736 Y-5.1238 F60.00
G01 X15.5963 Y-5.1233 F60.00
G01 X15.6189 Y-5.1239 F60.00
G01 X15.6415 Y-5.1256 F60.00
G01 X15.6528 Y-5.1269 F60.00
G01 X15.6752 Y-5.1303 F60.00
G01 X15.6974 Y-5.1348 F60.00
G01 X15.7870 Y-5.1576 F60.00
G01 X15.8086 Y-5.1643 F60.00
G01 X15.8193 Y-5.1681 F60.00
G01 X15.8439 Y-5.1779 F60.00
G01 X15.8439 Y-5.0253 F60.00
G01 X15.8255 Y-4.9864 F60.00
G01 X15.8165 Y-4.9660 F60.00
G01 X15.8084 Y-4.9451 F60.00
G01 X15.7919 Y-4.8989 F60.00
G01 X15.7882 Y-4.8883 F60.00
G01 X15.7817 Y-4.8669 F60.00
G01 X15.7644 Y-4.7975 F60.00
G01 X15.7600 Y-4.7756 F60.00
G01 X15.7582 Y-4.7645 F60.00
G01 X15.7510 Y-4.7160 F60.00
G01 X15.7483 Y-4.6937 F60.00
G01 X15.7466 Y-4.6714 F60.00
G01 X15.7442 Y-4.6224 F60.00
G01 X15.7437 Y-4.6000 F60.00
G01 X15.7442 Y-4.5776 F60.00
G01 X15.7466 Y-4.5286 F60.00
G01 X15.7483 Y-4.5063 F60.00
G01 X15.7510 Y-4.4840 F60.00
G01 X15.7582 Y-4.4355 F60.00
G01 X15.7600 Y-4.4244 F60.00
G01 X15.7644 Y-4.4025 F60.00
G01 X15.7817 Y-4.3331 F60.00
G01 X15.7882 Y-4.3117 F60.00
G01 X15.7919 Y-4.3011 F60.00
G01 X15.8084 Y-4.2549 F60.00
G01 X15.8165 Y-4.2340 F60.00
G01 X15.8255 Y-4.2136 F60.00
G01 X15.8439 Y-4.1747 F60.00
G01 X15.8441 Y-3.6888 F60.00
G01 X15.8452 Y-3.6664 F60.00
G01 X15.8474 Y-3.6442 F60.00
G01 X15.8506 Y-3.6220 F60.00
G01 X15.8527 Y-3.6110 F60.00
G01 X15.8576 Y-3.5892 F60.00
G01 X15.8604 Y-3.5784 F60.00
G01 X15.8636 Y-3.5676 F60.00
G01 X15.8706 Y-3.5464 F60.00
G01 X15.8786 Y-3.5255 F60.00
G01 X15.8831 Y-3.5152 F60.00
G01 X15.8877 Y-3.5050 F60.00
G01 X15.8978 Y-3.4850 F60.00
G01 X15.9032 Y-3.4752 F60.00
G01 X15.9147 Y-3.4560 F60.00
G01 X15.9208 Y-3.4466 F60.00
G01 X15.9337 Y-3.4283 F60.00
G01 X15.9405 Y-3.4194 F60.00
G01 X15.9547 Y-3.4021 F60.00
G01 X15.9621 Y-3.3937 F60.00
G01 X15.9775 Y-3.3775 F60.00
G01 X15.9937 Y-3.3621 F60.00
G01 X16.0021 Y-3.3547 F60.00
G01 X16.0107 Y-3.3475 F60.00
G01 X16.0283 Y-3.3337 F60.00
G01 X16.0466 Y-3.3208 F60.00
G01 X16.0560 Y-3.3147 F60.00
G01 X16.0655 Y-3.3088 F60.00
G01 X16.0850 Y-3.2978 F60.00
G01 X16.0949 Y-3.2926 F60.00
G01 X16.1152 Y-3.2831 F60.00
G01 X16.1255 Y-3.2786 F60.00
G01 X16.1464 Y-3.2706 F60.00
G01 X16.1676 Y-3.2636 F60.00
G01 X16.1784 Y-3.2604 F60.00
G01 X16.1892 Y-3.2576 F60.00
G01 X16.2110 Y-3.2527 F60.00
G01 X16.2331 Y-3.2489 F60.00
G01 X16.2553 Y-3.2461 F60.00
G01 X16.2776 Y-3.2445 F60.00
G01 X16.3000 Y-3.2439 F60.00
G01 X17.1000 Y-3.2439 F60.00
G01 X17.1224 Y-3.2445 F60.00
G01 X17.1336 Y-3.2452 F60.00
G01 X17.1558 Y-3.2474 F60.00
G01 X17.1780 Y-3.2506 F60.00
G01 X17.1890 Y-3.2527 F60.00
G01 X17.2108 Y-3.2576 F60.00
G01 X17.2324 Y-3.2636 F60.00
G01 X17.2536 Y-3.2706 F60.00
G01 X17.2745 Y-3.2786 F60.00
G01 X17.2848 Y-3.2831 F60.00
G01 X17.3051 Y-3.2926 F60.00
G01 X17.3248 Y-3.3032 F60.00
G01 X17.3440 Y-3.3147 F60.00
G01 X17.3626 Y-3.3271 F60.00
G01 X17.3806 Y-3.3405 F60.00
G01 X17.3893 Y-3.3475 F60.00
G01 X17.4063 Y-3.3621 F60.00
G01 X17.4225 Y-3.3775 F60.00
G01 X17.4379 Y-3.3937 F60.00
G01 X17.4525 Y-3.4107 F60.00
G01 X17.4663 Y-3.4283 F60.00
G01 X17.4792 Y-3.4466 F60.00
G01 X17.4853 Y-3.4560 F60.00
G01 X17.4959 Y-3.4737 F60.00
G01 X24.0157 Y-3.4737 F60.00
G01 X23.9921 Y-3.4624 F60.00
G01 X23.9821 Y-3.4572 F60.00
G01 X23.9520 Y-3.4398 F60.00
G01 X23.9332 Y-3.4279 F60.00
G01 X23.9239 Y-3.4215 F60.00
G01 X23.8958 Y-3.4007 F60.00
G01 X23.8871 Y-3.3937 F60.00
G01 X23.8702 Y-3.3791 F60.00
G01 X23.8447 Y-3.3553 F60.00
G01 X23.8293 Y-3.3391 F60.00
G01 X23.8067 Y-3.3134 F60.00
G01 X23.7925 Y-3.2952 F60.00
G01 X23.7722 Y-3.2669 F60.00
G01 X23.7538 Y-3.2373 F60.00
G01 X23.7482 Y-3.2277 F60.00
G01 X23.7376 Y-3.2079 F60.00
G01 X23.7227 Y-3.1764 F60.00
G01 X23.7142 Y-3.1557 F60.00
G01 X23.7024 Y-3.1229 F60.00
G01 X23.6990 Y-3.1123 F60.00
G01 X23.6933 Y-3.0916 F60.00
G01 X23.0287 Y-2.7593 F60.00
G01 X15.6776 Y-2.7563 F60.00
G01 X15.5030 Y-2.7791 F60.00
G01 X15.4570 Y-3.2852 F60.00
G01 X15.4563 Y-4.6002 F60.00
G01 X15.4558 Y-4.6224 F60.00
G01 X15.4534 Y-4.6714 F60.00
G01 X15.4527 Y-4.6826 F60.00
G01 X15.4505 Y-4.7049 F60.00
G01 X15.4400 Y-4.7756 F60.00
G01 X15.4379 Y-4.7866 F60.00
G01 X15.4330 Y-4.8084 F60.00
G01 X15.4183 Y-4.8669 F60.00
G01 X15.4118 Y-4.8883 F60.00
G01 X15.4081 Y-4.8989 F60.00
G01 X15.3877 Y-4.9556 F60.00
G01 X15.3791 Y-4.9763 F60.00
G01 X15.3561 Y-5.0253 F60.00
G01 X15.3561 Y-5.1795 F60.00
G00 Z2.0000
G00 X14.0657 Y-9.9563
G01 F10.00
G01 Z-0.0500
G01 F60.00
G01 X14.0769 Y-9.9784 F60.00
G01 X14.0816 Y-9.9887 F60.00
G01 X14.0903 Y-10.0096 F60.00
G01 X14.0942 Y-10.0203 F60.00
G01 X14.1012 Y-10.0418 F60.00
G01 X14.1072 Y-10.0636 F60.00
G01 X14.1098 Y-10.0747 F60.00
G01 X14.1121 Y-10.0857 F60.00
G01 X14.1159 Y-10.1081 F60.00
G01 X14.1273 Y-10.1884 F60.00
G01 X14.1294 Y-10.2107 F60.00
G01 X14.1300 Y-10.2219 F60.00
G01 X14.1305 Y-10.2439 F60.00
G01 X14.9112 Y-10.2441 F60.00
G01 X14.9336 Y-10.2452 F60.00
G01 X14.9558 Y-10.2474 F60.00
G01 X14.9780 Y-10.2506 F60.00
G01 X14.9890 Y-10.2527 F60.00
G01 X15.0108 Y-10.2576 F60.00
G01 X15.0324 Y-10.2636 F60.00
G01 X15.0536 Y-10.2706 F60.00
G01 X15.0641 Y-10.2745 F60.00
G01 X15.0848 Y-10.2831 F60.00
G01 X15.0950 Y-10.2877 F60.00
G01 X15.1150 Y-10.2978 F60.00
G01 X15.1345 Y-10.3088 F60.00
G01 X15.1534 Y-10.3208 F60.00
G01 X15.1626 Y-10.3271 F60.00
G01 X15.1806 Y-10.3405 F60.00
G01 X15.1893 Y-10.3475 F60.00
G01 X15.1979 Y-10.3547 F60.00
G01 X15.2145 Y-10.3697 F60.00
G01 X15.2303 Y-10.3855 F60.00
G01 X15.2453 Y-10.4021 F60.00
G01 X15.2525 Y-10.4107 F60.00
G01 X15.2663 Y-10.4283 F60.00
G01 X15.2729 Y-10.4374 F60.00
G01 X15.2853 Y-10.4560 F60.00
G01 X15.2968 Y-10.4752 F60.00
G01 X15.3022 Y-10.4850 F60.00
G01 X15.3123 Y-10.5050 F60.00
G01 X15.3214 Y-10.5255 F60.00
G01 X15.3294 Y-10.5464 F60.00
G01 X15.3331 Y-10.5569 F60.00
G01 X15.3396 Y-10.5784 F60.00
G01 X15.3450 Y-10.6001 F60.00
G01 X15.3473 Y-10.6110 F60.00
G01 X15.3494 Y-10.6220 F60.00
G01 X15.3526 Y-10.6442 F60.00
G01 X15.3539 Y-10.6553 F60.00
G01 X15.3555 Y-10.6776 F60.00
G01 X15.3561 Y-10.7000 F60.00
G01 X15.3561 Y-11.1747 F60.00
G01 X15.3745 Y-11.2136 F60.00
G01 X15.3835 Y-11.2340 F60.00
G01 X15.3916 Y-11.2549 F60.00
G01 X15.4081 Y-11.3011 F60.00
G01 X15.4118 Y-11.3117 F60.00
G01 X15.4183 Y-11.3331 F60.00
G01 X15.4330 Y-11.3916 F60.00
G01 X15.4379 Y-11.4134 F60.00
G01 X15.4400 Y-11.4244 F60.00
G01 X15.4505 Y-11.4951 F60.00
G01 X15.4527 Y-11.5174 F60.00
G01 X15.4558 Y-11.5776 F60.00
G01 X15.4563 Y-11.6000 F60.00
G01 X15.4563 Y-13.9071 F60.00
G01 X15.5030 Y-14.4209 F60.00
G01 X15.6695 Y-14.4426 F60.00
G01 X23.0342 Y-14.4437 F60.00
G01 X23.9535 Y-14.0369 F60.00
G01 X23.9781 Y-14.0097 F60.00
G01 X23.9935 Y-13.9935 F60.00
G01 X24.0097 Y-13.9781 F60.00
G01 X24.0447 Y-13.9463 F60.00
G01 X17.1200 Y-13.9463 F60.00
G01 X17.0976 Y-13.9458 F60.00
G01 X17.0486 Y-13.9434 F60.00
G01 X17.0263 Y-13.9417 F60.00
G01 X17.0040 Y-13.9390 F60.00
G01 X16.9555 Y-13.9318 F60.00
G01 X16.9334 Y-13.9279 F60.00
G01 X16.9116 Y-13.9230 F60.00
G01 X16.8640 Y-13.9111 F60.00
G01 X16.8424 Y-13.9051 F60.00
G01 X16.8211 Y-13.8981 F60.00
G01 X16.7644 Y-13.8777 F60.00
G01 X16.7437 Y-13.8691 F60.00
G01 X16.7336 Y-13.8645 F60.00
G01 X16.6791 Y-13.8386 F60.00
G01 X16.6594 Y-13.8280 F60.00
G01 X16.6076 Y-13.7971 F60.00
G01 X16.5887 Y-13.7852 F60.00
G01 X16.5704 Y-13.7723 F60.00
G01 X16.5221 Y-13.7362 F60.00
G01 X16.5048 Y-13.7220 F60.00
G01 X16.4600 Y-13.6817 F60.00
G01 X16.4438 Y-13.6662 F60.00
G01 X16.0160 Y-13.2382 F60.00
G01 X15.9680 Y-13.1852 F60.00
G01 X15.9538 Y-13.1679 F60.00
G01 X15.9470 Y-13.1590 F60.00
G01 X15.9177 Y-13.1196 F60.00
G01 X15.9048 Y-13.1013 F60.00
G01 X15.8929 Y-13.0824 F60.00
G01 X15.8676 Y-13.0403 F60.00
G01 X15.8566 Y-13.0208 F60.00
G01 X15.8514 Y-13.0109 F60.00
G01 X15.8255 Y-12.9564 F60.00
G01 X15.8165 Y-12.9360 F60.00
G01 X15.8084 Y-12.9151 F60.00
G01 X15.7919 Y-12.8689 F60.00
G01 X15.7849 Y-12.8476 F60.00
G01 X15.7817 Y-12.8369 F60.00
G01 X15.7644 Y-12.7675 F60.00
G01 X15.7600 Y-12.7456 F60.00
G01 X15.7582 Y-12.7345 F60.00
G01 X15.7510 Y-12.6860 F60.00
G01 X15.7483 Y-12.6637 F60.00
G01 X15.7466 Y-12.6414 F60.00
G01 X15.7438 Y-12.5812 F60.00
G01 X15.7437 Y-10.0961 F60.00
G01 X15.6039 Y-9.9563 F60.00
G01 X14.0657 Y-9.9563 F60.00
G00 Z2.0000
G00 X13.8331 Y-14.7500
G01 F10.00
G01 Z-0.0500
G01 F60.00
G01 X13.8331 Y-16.0500 F60.00
G01 X13.8347 Y-16.0835 F60.00
G01 X13.8396 Y-16.1167 F60.00
G01 X13.8478 Y-16.1493 F60.00
G01 X13.8575 Y-16.1766 F60.00
G01 X13.8609 Y-16.1850 F60.00
G01 X13.8724 Y-16.2092 F60.00
G01 X13.8756 Y-16.2150 F60.00
G01 X13.8907 Y-16.2400 F60.00
G01 X13.9107 Y-16.2669 F60.00
G01 X13.9332 Y-16.2918 F60.00
G01 X13.9547 Y-16.3114 F60.00
G01 X13.9616 Y-16.3171 F60.00
G01 X13.9832 Y-16.3330 F60.00
G01 X13.9888 Y-16.3367 F60.00
G01 X14.0138 Y-16.3516 F60.00
G01 X14.0441 Y-16.3659 F60.00
G01 X14.0757 Y-16.3772 F60.00
G01 X14.1039 Y-16.3844 F60.00
G01 X14.1127 Y-16.3862 F60.00
G01 X14.1415 Y-16.3903 F60.00
G01 X14.1750 Y-16.3919 F60.00
G01 X14.8273 Y-16.3919 F60.00
G01 X14.8540 Y-16.3906 F60.00
G01 X14.8630 Y-16.3898 F60.00
G01 X14.8917 Y-16.3854 F60.00
G01 X14.9199 Y-16.3784 F60.00
G01 X14.9264 Y-16.3765 F60.00
G01 X14.9516 Y-16.3675 F60.00
G01 X14.9600 Y-16.3641 F60.00
G01 X14.9861 Y-16.3516 F60.00
G01 X15.0150 Y-16.3343 F60.00
G01 X15.0419 Y-16.3143 F60.00
G01 X15.0635 Y-16.2949 F60.00
G01 X15.0699 Y-16.2885 F60.00
G01 X15.0907 Y-16.2652 F60.00
G01 X15.1093 Y-16.2400 F60.00
G01 X15.1243 Y-16.2151 F60.00
G01 X15.1286 Y-16.2072 F60.00
G01 X15.1400 Y-16.1829 F60.00
G01 X15.1425 Y-16.1766 F60.00
G01 X15.1522 Y-16.1493 F60.00
G01 X15.1604 Y-16.1167 F60.00
G01 X15.1653 Y-16.0835 F60.00
G01 X15.1668 Y-16.0558 F60.00
G01 X15.6538 Y-15.9922 F60.00
G01 X23.1111 Y-15.9922 F60.00
G01 X24.1799 Y-16.4652 F60.00
G01 X24.2045 Y-16.4979 F60.00
G01 X24.2526 Y-16.5506 F60.00
G01 X24.3038 Y-16.5969 F60.00
G01 X24.3593 Y-16.6382 F60.00
G01 X24.4223 Y-16.6761 F60.00
G01 X24.4827 Y-16.7048 F60.00
G01 X24.4910 Y-16.7082 F60.00
G01 X24.5497 Y-16.7292 F60.00
G01 X24.5583 Y-16.7319 F60.00
G01 X24.6232 Y-16.7480 F60.00
G01 X24.6893 Y-16.7579 F60.00
G01 X24.6982 Y-16.7588 F60.00
G01 X24.7627 Y-16.7619 F60.00
G01 X26.0373 Y-16.7619 F60.00
G01 X26.1063 Y-16.7584 F60.00
G01 X26.1768 Y-16.7480 F60.00
G01 X26.2460 Y-16.7306 F60.00
G01 X26.3132 Y-16.7066 F60.00
G01 X26.3777 Y-16.6761 F60.00
G01 X26.4389 Y-16.6394 F60.00
G01 X26.4962 Y-16.5969 F60.00
G01 X26.5458 Y-16.5521 F60.00
G01 X26.5521 Y-16.5458 F60.00
G01 X26.5940 Y-16.4996 F60.00
G01 X26.5997 Y-16.4926 F60.00
G01 X26.6394 Y-16.4389 F60.00
G01 X26.6739 Y-16.3816 F60.00
G01 X26.6781 Y-16.3737 F60.00
G01 X26.7066 Y-16.3132 F60.00
G01 X26.7306 Y-16.2460 F60.00
G01 X26.7480 Y-16.1768 F60.00
G01 X26.7585 Y-16.1059 F60.00
G01 X26.7619 Y-16.0350 F60.00
G01 X26.7619 Y-14.7627 F60.00
G01 X26.7584 Y-14.6937 F60.00
G01 X26.7488 Y-14.6276 F60.00
G01 X26.7470 Y-14.6188 F60.00
G01 X26.7306 Y-14.5540 F60.00
G01 X26.7066 Y-14.4868 F60.00
G01 X26.6781 Y-14.4263 F60.00
G01 X26.6739 Y-14.4184 F60.00
G01 X26.6394 Y-14.3611 F60.00
G01 X26.5997 Y-14.3074 F60.00
G01 X26.5940 Y-14.3004 F60.00
G01 X26.5490 Y-14.2510 F60.00
G01 X26.4962 Y-14.2031 F60.00
G01 X26.4389 Y-14.1606 F60.00
G01 X26.3816 Y-14.1261 F60.00
G01 X26.3737 Y-14.1219 F60.00
G01 X26.3132 Y-14.0934 F60.00
G01 X26.2503 Y-14.0708 F60.00
G01 X26.2417 Y-14.0681 F60.00
G01 X26.1768 Y-14.0520 F60.00
G01 X26.1083 Y-14.0418 F60.00
G01 X26.0350 Y-14.0381 F60.00
G01 X24.7627 Y-14.0381 F60.00
G01 X24.6982 Y-14.0412 F60.00
G01 X24.6893 Y-14.0421 F60.00
G01 X24.6232 Y-14.0520 F60.00
G01 X24.5583 Y-14.0681 F60.00
G01 X24.5497 Y-14.0708 F60.00
G01 X24.4910 Y-14.0918 F60.00
G01 X24.4827 Y-14.0952 F60.00
G01 X24.4223 Y-14.1239 F60.00
G01 X24.3593 Y-14.1618 F60.00
G01 X24.3038 Y-14.2031 F60.00
G01 X24.2526 Y-14.2494 F60.00
G01 X24.2045 Y-14.3021 F60.00
G01 X24.1799 Y-14.3348 F60.00
G01 X23.1111 Y-14.8078 F60.00
G01 X15.6539 Y-14.8078 F60.00
G01 X15.1668 Y-14.7442 F60.00
G01 X15.1653 Y-14.7165 F60.00
G01 X15.1625 Y-14.6967 F60.00
G01 X15.0922 Y-13.9242 F60.00
G01 X15.0922 Y-11.6000 F60.00
G01 X15.0895 Y-11.5442 F60.00
G01 X15.0808 Y-11.4845 F60.00
G01 X15.0679 Y-11.4324 F60.00
G01 X15.0653 Y-11.4238 F60.00
G01 X15.0471 Y-11.3734 F60.00
G01 X15.0243 Y-11.3249 F60.00
G01 X15.0200 Y-11.3169 F60.00
G01 X14.9919 Y-11.2703 F60.00
G01 X14.9919 Y-10.7000 F60.00
G01 X14.9915 Y-10.6910 F60.00
G01 X14.9902 Y-10.6821 F60.00
G01 X14.9866 Y-10.6690 F60.00
G01 X14.9841 Y-10.6627 F60.00
G01 X14.9800 Y-10.6547 F60.00
G01 X14.9765 Y-10.6489 F60.00
G01 X14.9711 Y-10.6417 F60.00
G01 X14.9617 Y-10.6319 F60.00
G01 X14.9511 Y-10.6235 F60.00
G01 X14.9453 Y-10.6200 F60.00
G01 X14.9373 Y-10.6159 F60.00
G01 X14.9245 Y-10.6114 F60.00
G01 X14.9179 Y-10.6098 F60.00
G01 X14.9090 Y-10.6085 F60.00
G01 X14.9000 Y-10.6081 F60.00
G01 X14.0932 Y-10.6083 F60.00
G01 X14.0799 Y-10.6103 F60.00
G01 X14.0712 Y-10.6127 F60.00
G01 X14.0648 Y-10.6150 F60.00
G01 X14.0527 Y-10.6211 F60.00
G01 X14.0417 Y-10.6289 F60.00
G01 X14.0319 Y-10.6383 F60.00
G01 X14.0275 Y-10.6434 F60.00
G01 X14.0223 Y-10.6508 F60.00
G01 X14.0179 Y-10.6587 F60.00
G01 X14.0150 Y-10.6648 F60.00
G01 X14.0108 Y-10.6777 F60.00
G01 X14.0087 Y-10.6887 F60.00
G01 X14.0081 Y-10.7000 F60.00
G01 X14.0081 Y-11.2703 F60.00
G01 X13.9800 Y-11.3169 F60.00
G01 X13.9757 Y-11.3249 F60.00
G01 X13.9529 Y-11.3734 F60.00
G01 X13.9333 Y-11.4281 F60.00
G01 X13.9202 Y-11.4801 F60.00
G01 X13.9184 Y-11.4889 F60.00
G01 X13.9107 Y-11.5420 F60.00
G01 X13.9079 Y-11.5955 F60.00
G01 X13.9078 Y-13.9242 F60.00
G01 X13.8375 Y-14.6968 F60.00
G01 X13.8347 Y-14.7165 F60.00
G01 X13.8331 Y-14.7500 F60.00
G00 Z2.0000
G00 X13.6510 Y-14.7500
G01 F10.00
G01 Z-0.0500
G01 F60.00
G01 X13.6511 Y-16.0567 F60.00
G01 X13.6529 Y-16.0947 F60.00
G01 X13.6552 Y-16.1147 F60.00
G01 X13.6611 Y-16.1522 F60.00
G01 X13.6700 Y-16.1892 F60.00
G01 X13.6736 Y-16.2021 F60.00
G01 X13.6778 Y-16.2149 F60.00
G01 X13.6884 Y-16.2443 F60.00
G01 X13.6935 Y-16.2567 F60.00
G01 X13.7128 Y-16.2968 F60.00
G01 X13.7193 Y-16.3083 F60.00
G01 X13.7356 Y-16.3355 F60.00
G01 X13.7431 Y-16.3467 F60.00
G01 X13.7617 Y-16.3718 F60.00
G01 X13.7743 Y-16.3876 F60.00
G01 X13.7952 Y-16.4108 F60.00
G01 X13.8045 Y-16.4205 F60.00
G01 X13.8142 Y-16.4298 F60.00
G01 X13.8374 Y-16.4507 F60.00
G01 X13.8478 Y-16.4593 F60.00
G01 X13.8729 Y-16.4780 F60.00
G01 X13.8839 Y-16.4857 F60.00
G01 X13.8952 Y-16.4929 F60.00
G01 X13.9280 Y-16.5121 F60.00
G01 X13.9400 Y-16.5182 F60.00
G01 X13.9745 Y-16.5341 F60.00
G01 X13.9870 Y-16.5390 F60.00
G01 X14.0229 Y-16.5514 F60.00
G01 X14.0596 Y-16.5610 F60.00
G01 X14.0794 Y-16.5652 F60.00
G01 X14.1103 Y-16.5698 F60.00
G01 X14.1236 Y-16.5715 F60.00
G01 X14.1616 Y-16.5737 F60.00
G01 X14.1750 Y-16.5740 F60.00
G01 X14.8317 Y-16.5739 F60.00
G01 X14.8697 Y-16.5721 F60.00
G01 X14.8897 Y-16.5698 F60.00
G01 X14.9272 Y-16.5639 F60.00
G01 X14.9642 Y-16.5550 F60.00
G01 X14.9835 Y-16.5494 F60.00
G01 X15.0130 Y-16.5390 F60.00
G01 X15.0255 Y-16.5341 F60.00
G01 X15.0600 Y-16.5182 F60.00
G01 X15.0776 Y-16.5091 F60.00
G01 X15.1105 Y-16.4894 F60.00
G01 X15.1271 Y-16.4780 F60.00
G01 X15.1574 Y-16.4551 F60.00
G01 X15.1676 Y-16.4463 F60.00
G01 X15.1907 Y-16.4252 F60.00
G01 X15.2048 Y-16.4108 F60.00
G01 X15.2301 Y-16.3824 F60.00
G01 X15.2530 Y-16.3521 F60.00
G01 X15.2644 Y-16.3355 F60.00
G01 X15.2839 Y-16.3029 F60.00
G01 X15.2932 Y-16.2850 F60.00
G01 X15.3091 Y-16.2505 F60.00
G01 X15.3207 Y-16.2193 F60.00
G01 X15.6659 Y-16.1743 F60.00
G01 X23.0726 Y-16.1743 F60.00
G01 X24.0631 Y-16.6126 F60.00
G01 X24.1130 Y-16.6680 F60.00
G01 X24.1222 Y-16.6778 F60.00
G01 X24.1320 Y-16.6870 F60.00
G01 X24.1781 Y-16.7289 F60.00
G01 X24.1883 Y-16.7377 F60.00
G01 X24.1989 Y-16.7459 F60.00
G01 X24.2490 Y-16.7831 F60.00
G01 X24.2600 Y-16.7908 F60.00
G01 X24.2713 Y-16.7980 F60.00
G01 X24.3248 Y-16.8300 F60.00
G01 X24.3365 Y-16.8367 F60.00
G01 X24.3485 Y-16.8427 F60.00
G01 X24.4048 Y-16.8694 F60.00
G01 X24.4171 Y-16.8748 F60.00
G01 X24.4297 Y-16.8797 F60.00
G01 X24.4947 Y-16.9028 F60.00
G01 X24.5141 Y-16.9085 F60.00
G01 X24.5745 Y-16.9236 F60.00
G01 X24.5877 Y-16.9265 F60.00
G01 X24.6009 Y-16.9288 F60.00
G01 X24.6626 Y-16.9380 F60.00
G01 X24.6840 Y-16.9403 F60.00
G01 X24.7583 Y-16.9439 F60.00
G01 X26.0417 Y-16.9439 F60.00
G01 X26.1107 Y-16.9406 F60.00
G01 X26.1241 Y-16.9396 F60.00
G01 X26.1374 Y-16.9380 F60.00
G01 X26.1991 Y-16.9288 F60.00
G01 X26.2123 Y-16.9265 F60.00
G01 X26.2255 Y-16.9236 F60.00
G01 X26.2859 Y-16.9085 F60.00
G01 X26.2989 Y-16.9049 F60.00
G01 X26.3116 Y-16.9007 F60.00
G01 X26.3703 Y-16.8797 F60.00
G01 X26.3829 Y-16.8748 F60.00
G01 X26.3952 Y-16.8694 F60.00
G01 X26.4515 Y-16.8427 F60.00
G01 X26.4635 Y-16.8367 F60.00
G01 X26.4752 Y-16.8300 F60.00
G01 X26.5287 Y-16.7980 F60.00
G01 X26.5400 Y-16.7908 F60.00
G01 X26.5510 Y-16.7831 F60.00
G01 X26.6011 Y-16.7459 F60.00
G01 X26.6117 Y-16.7377 F60.00
G01 X26.6219 Y-16.7289 F60.00
G01 X26.6680 Y-16.6870 F60.00
G01 X26.6825 Y-16.6730 F60.00
G01 X26.7289 Y-16.6219 F60.00
G01 X26.7377 Y-16.6117 F60.00
G01 X26.7459 Y-16.6011 F60.00
G01 X26.7831 Y-16.5510 F60.00
G01 X26.7945 Y-16.5344 F60.00
G01 X26.8334 Y-16.4694 F60.00
G01 X26.8427 Y-16.4515 F60.00
G01 X26.8694 Y-16.3952 F60.00
G01 X26.8748 Y-16.3829 F60.00
G01 X26.8797 Y-16.3703 F60.00
G01 X26.9007 Y-16.3116 F60.00
G01 X26.9049 Y-16.2989 F60.00
G01 X26.9085 Y-16.2859 F60.00
G01 X26.9236 Y-16.2255 F60.00
G01 X26.9265 Y-16.2123 F60.00
G01 X26.9288 Y-16.1991 F60.00
G01 X26.9380 Y-16.1374 F60.00
G01 X26.9397 Y-16.1232 F60.00
G01 X26.9437 Y-16.0484 F60.00
G01 X26.9440 Y-16.0350 F60.00
G01 X26.9439 Y-14.7583 F60.00
G01 X26.9406 Y-14.6893 F60.00
G01 X26.9396 Y-14.6759 F60.00
G01 X26.9380 Y-14.6626 F60.00
G01 X26.9288 Y-14.6009 F60.00
G01 X26.9265 Y-14.5877 F60.00
G01 X26.9236 Y-14.5745 F60.00
G01 X26.9085 Y-14.5141 F60.00
G01 X26.9049 Y-14.5011 F60.00
G01 X26.9007 Y-14.4884 F60.00
G01 X26.8797 Y-14.4297 F60.00
G01 X26.8748 Y-14.4171 F60.00
G01 X26.8694 Y-14.4048 F60.00
G01 X26.8427 Y-14.3485 F60.00
G01 X26.8334 Y-14.3306 F60.00
G01 X26.7980 Y-14.2713 F60.00
G01 X26.7908 Y-14.2600 F60.00
G01 X26.7831 Y-14.2490 F60.00
G01 X26.7459 Y-14.1989 F60.00
G01 X26.7377 Y-14.1883 F60.00
G01 X26.7289 Y-14.1781 F60.00
G01 X26.6870 Y-14.1320 F60.00
G01 X26.6778 Y-14.1222 F60.00
G01 X26.6680 Y-14.1130 F60.00
G01 X26.6219 Y-14.0711 F60.00
G01 X26.6117 Y-14.0623 F60.00
G01 X26.6011 Y-14.0541 F60.00
G01 X26.5510 Y-14.0169 F60.00
G01 X26.5400 Y-14.0092 F60.00
G01 X26.5287 Y-14.0020 F60.00
G01 X26.4752 Y-13.9700 F60.00
G01 X26.4635 Y-13.9633 F60.00
G01 X26.4515 Y-13.9573 F60.00
G01 X26.3952 Y-13.9306 F60.00
G01 X26.3829 Y-13.9252 F60.00
G01 X26.3703 Y-13.9203 F60.00
G01 X26.3116 Y-13.8993 F60.00
G01 X26.2989 Y-13.8951 F60.00
G01 X26.2859 Y-13.8915 F60.00
G01 X26.2255 Y-13.8764 F60.00
G01 X26.2123 Y-13.8735 F60.00
G01 X26.1991 Y-13.8712 F60.00
G01 X26.1303 Y-13.8611 F60.00
G01 X26.1107 Y-13.8594 F60.00
G01 X26.0484 Y-13.8563 F60.00
G01 X26.0350 Y-13.8560 F60.00
G01 X24.7650 Y-13.8560 F60.00
G01 X24.7516 Y-13.8563 F60.00
G01 X24.6893 Y-13.8594 F60.00
G01 X24.6759 Y-13.8604 F60.00
G01 X24.6626 Y-13.8620 F60.00
G01 X24.6009 Y-13.8712 F60.00
G01 X24.5877 Y-13.8735 F60.00
G01 X24.5745 Y-13.8764 F60.00
G01 X24.5141 Y-13.8915 F60.00
G01 X24.5011 Y-13.8951 F60.00
G01 X24.4884 Y-13.8993 F60.00
G01 X24.4297 Y-13.9203 F60.00
G01 X24.4171 Y-13.9252 F60.00
G01 X24.4048 Y-13.9306 F60.00
G01 X24.3485 Y-13.9573 F60.00
G01 X24.3365 Y-13.9633 F60.00
G01 X24.3248 Y-13.9700 F60.00
G01 X24.2713 Y-14.0020 F60.00
G01 X24.2544 Y-14.0130 F60.00
G01 X24.1989 Y-14.0541 F60.00
G01 X24.1883 Y-14.0623 F60.00
G01 X24.1781 Y-14.0711 F60.00
G01 X24.1320 Y-14.1130 F60.00
G01 X24.1222 Y-14.1222 F60.00
G01 X24.1130 Y-14.1320 F60.00
G01 X24.0631 Y-14.1874 F60.00
G01 X23.0727 Y-14.6257 F60.00
G01 X15.6576 Y-14.6247 F60.00
G01 X15.3349 Y-14.5826 F60.00
G01 X15.2743 Y-13.9153 F60.00
G01 X15.2743 Y-11.6000 F60.00
G01 X15.2739 Y-11.5866 F60.00
G01 X15.2715 Y-11.5375 F60.00
G01 X15.2705 Y-11.5241 F60.00
G01 X15.2689 Y-11.5108 F60.00
G01 X15.2617 Y-11.4622 F60.00
G01 X15.2594 Y-11.4489 F60.00
G01 X15.2564 Y-11.4358 F60.00
G01 X15.2445 Y-11.3882 F60.00
G01 X15.2389 Y-11.3688 F60.00
G01 X15.2202 Y-11.3163 F60.00
G01 X15.2127 Y-11.2975 F60.00
G01 X15.1859 Y-11.2410 F60.00
G01 X15.1796 Y-11.2291 F60.00
G01 X15.1740 Y-11.2196 F60.00
G01 X15.1739 Y-10.6933 F60.00
G01 X15.1733 Y-10.6798 F60.00
G01 X15.1710 Y-10.6598 F60.00
G01 X15.1674 Y-10.6400 F60.00
G01 X15.1622 Y-10.6205 F60.00
G01 X15.1557 Y-10.6014 F60.00
G01 X15.1477 Y-10.5828 F60.00
G01 X15.1384 Y-10.5649 F60.00
G01 X15.1278 Y-10.5478 F60.00
G01 X15.1160 Y-10.5314 F60.00
G01 X15.1030 Y-10.5160 F60.00
G01 X15.0889 Y-10.5015 F60.00
G01 X15.0738 Y-10.4882 F60.00
G01 X15.0578 Y-10.4760 F60.00
G01 X15.0409 Y-10.4650 F60.00
G01 X15.0232 Y-10.4552 F60.00
G01 X15.0049 Y-10.4468 F60.00
G01 X14.9860 Y-10.4398 F60.00
G01 X14.9666 Y-10.4342 F60.00
G01 X14.9468 Y-10.4300 F60.00
G01 X14.9269 Y-10.4273 F60.00
G01 X14.9134 Y-10.4263 F60.00
G01 X14.9000 Y-10.4260 F60.00
G01 X14.1000 Y-10.4260 F60.00
G01 X14.0866 Y-10.4263 F60.00
G01 X14.0731 Y-10.4273 F60.00
G01 X14.0532 Y-10.4300 F60.00
G01 X14.0334 Y-10.4342 F60.00
G01 X14.0205 Y-10.4378 F60.00
G01 X14.0014 Y-10.4443 F60.00
G01 X13.9828 Y-10.4523 F60.00
G01 X13.9649 Y-10.4616 F60.00
G01 X13.9478 Y-10.4722 F60.00
G01 X13.9314 Y-10.4840 F60.00
G01 X13.9160 Y-10.4970 F60.00
G01 X13.9015 Y-10.5111 F60.00
G01 X13.8882 Y-10.5262 F60.00
G01 X13.8760 Y-10.5422 F60.00
G01 X13.8685 Y-10.5534 F60.00
G01 X13.8583 Y-10.5708 F60.00
G01 X13.8495 Y-10.5890 F60.00
G01 X13.8443 Y-10.6014 F60.00
G01 X13.8378 Y-10.6205 F60.00
G01 X13.8326 Y-10.6400 F60.00
G01 X13.8290 Y-10.6598 F60.00
G01 X13.8273 Y-10.6731 F60.00
G01 X13.8261 Y-10.6933 F60.00
G01 X13.8260 Y-11.2196 F60.00
G01 X13.8204 Y-11.2291 F60.00
G01 X13.8141 Y-11.2410 F60.00
G01 X13.7901 Y-11.2914 F60.00
G01 X13.7847 Y-11.3037 F60.00
G01 X13.7798 Y-11.3163 F60.00
G01 X13.7633 Y-11.3625 F60.00
G01 X13.7572 Y-11.3817 F60.00
G01 X13.7420 Y-11.4424 F60.00
G01 X13.7383 Y-11.4622 F60.00
G01 X13.7311 Y-11.5108 F60.00
G01 X13.7295 Y-11.5241 F60.00
G01 X13.7285 Y-11.5375 F60.00
G01 X13.7261 Y-11.5866 F60.00
G01 X13.7257 Y-11.5999 F60.00
G01 X13.7250 Y-13.9232 F60.00
G01 X13.6567 Y-14.6751 F60.00
G01 X13.6535 Y-14.6986 F60.00
G01 X13.6513 Y-14.7366 F60.00
G01 X13.6510 Y-14.7500 F60.00
G00 Z2.0000
G00 X8.0912 Y-13.0821
G01 F10.00
G01 Z-0.0500
G01 F60.00
G01 X8.0551 Y-13.1830 F60.00
G01 X8.0290 Y-13.2870 F60.00
G01 X8.0133 Y-13.3930 F60.00
G01 X8.0081 Y-13.5000 F60.00
G01 X8.0133 Y-13.6070 F60.00
G01 X8.0290 Y-13.7130 F60.00
G01 X8.0551 Y-13.8170 F60.00
G01 X8.0895 Y-13.9137 F60.00
G01 X8.0930 Y-13.9220 F60.00
G01 X8.1370 Y-14.0147 F60.00
G01 X8.1921 Y-14.1067 F60.00
G01 X8.2559 Y-14.1927 F60.00
G01 X8.3248 Y-14.2689 F60.00
G01 X8.3311 Y-14.2752 F60.00
G01 X8.4073 Y-14.3441 F60.00
G01 X8.4897 Y-14.4053 F60.00
G01 X8.4972 Y-14.4103 F60.00
G01 X8.5813 Y-14.4608 F60.00
G01 X8.5893 Y-14.4650 F60.00
G01 X8.6821 Y-14.5088 F60.00
G01 X8.7830 Y-14.5449 F60.00
G01 X8.8870 Y-14.5710 F60.00
G01 X8.9930 Y-14.5867 F60.00
G01 X9.1000 Y-14.5919 F60.00
G01 X9.2070 Y-14.5867 F60.00
G01 X9.3130 Y-14.5710 F60.00
G01 X9.4170 Y-14.5449 F60.00
G01 X9.5179 Y-14.5088 F60.00
G01 X9.6147 Y-14.4630 F60.00
G01 X9.7067 Y-14.4079 F60.00
G01 X9.7927 Y-14.3441 F60.00
G01 X9.8721 Y-14.2721 F60.00
G01 X9.9441 Y-14.1927 F60.00
G01 X10.0079 Y-14.1067 F60.00
G01 X10.0608 Y-14.0187 F60.00
G01 X10.0650 Y-14.0107 F60.00
G01 X10.1088 Y-13.9179 F60.00
G01 X10.1435 Y-13.8213 F60.00
G01 X10.1461 Y-13.8126 F60.00
G01 X10.1700 Y-13.7174 F60.00
G01 X10.1717 Y-13.7086 F60.00
G01 X10.1867 Y-13.6070 F60.00
G01 X10.1919 Y-13.5000 F60.00
G01 X10.1867 Y-13.3930 F60.00
G01 X10.1717 Y-13.2914 F60.00
G01 X10.1700 Y-13.2826 F60.00
G01 X10.1442 Y-13.1809 F60.00
G01 X10.1088 Y-13.0821 F60.00
G01 X9.5919 Y-11.5846 F60.00
G01 X9.5918 Y-10.6955 F60.00
G01 X9.5906 Y-10.6843 F60.00
G01 X9.5880 Y-10.6733 F60.00
G01 X9.5841 Y-10.6627 F60.00
G01 X9.5789 Y-10.6527 F60.00
G01 X9.5725 Y-10.6434 F60.00
G01 X9.5650 Y-10.6350 F60.00
G01 X9.5566 Y-10.6275 F60.00
G01 X9.5473 Y-10.6211 F60.00
G01 X9.5373 Y-10.6159 F60.00
G01 X9.5267 Y-10.6120 F60.00
G01 X9.5135 Y-10.6090 F60.00
G01 X9.5023 Y-10.6081 F60.00
G01 X8.6977 Y-10.6081 F60.00
G01 X8.6865 Y-10.6090 F60.00
G01 X8.6755 Y-10.6114 F60.00
G01 X8.6648 Y-10.6150 F60.00
G01 X8.6547 Y-10.6200 F60.00
G01 X8.6434 Y-10.6275 F60.00
G01 X8.6350 Y-10.6350 F60.00
G01 X8.6275 Y-10.6434 F60.00
G01 X8.6211 Y-10.6527 F60.00
G01 X8.6159 Y-10.6627 F60.00
G01 X8.6114 Y-10.6755 F60.00
G01 X8.6090 Y-10.6865 F60.00
G01 X8.6081 Y-10.6977 F60.00
G01 X8.6081 Y-11.5846 F60.00
G01 X8.0912 Y-13.0821 F60.00
G00 Z2.0000
G00 X3.8588 Y-12.9026
G01 F10.00
G01 Z-0.0500
G01 F60.00
G01 X4.4626 Y-12.7743 F60.00
G01 X5.3000 Y-12.7743 F60.00
G01 X5.3134 Y-12.7739 F60.00
G01 X5.3625 Y-12.7715 F60.00
G01 X5.3759 Y-12.7705 F60.00
G01 X5.3892 Y-12.7689 F60.00
G01 X5.4444 Y-12.7606 F60.00
G01 X5.4642 Y-12.7564 F60.00
G01 X5.5118 Y-12.7445 F60.00
G01 X5.5248 Y-12.7409 F60.00
G01 X5.5375 Y-12.7367 F60.00
G01 X5.5837 Y-12.7202 F60.00
G01 X5.5963 Y-12.7153 F60.00
G01 X5.6086 Y-12.7099 F60.00
G01 X5.6530 Y-12.6889 F60.00
G01 X5.6650 Y-12.6828 F60.00
G01 X5.6767 Y-12.6762 F60.00
G01 X5.7188 Y-12.6510 F60.00
G01 X5.7302 Y-12.6438 F60.00
G01 X5.7412 Y-12.6360 F60.00
G01 X5.7806 Y-12.6068 F60.00
G01 X5.7912 Y-12.5985 F60.00
G01 X5.8014 Y-12.5897 F60.00
G01 X5.8377 Y-12.5568 F60.00
G01 X5.8475 Y-12.5475 F60.00
G01 X8.6207 Y-9.7743 F60.00
G01 X15.6793 Y-9.7743 F60.00
G01 X15.9257 Y-10.0207 F60.00
G01 X15.9257 Y-12.5700 F60.00
G01 X15.9261 Y-12.5834 F60.00
G01 X15.9285 Y-12.6325 F60.00
G01 X15.9295 Y-12.6459 F60.00
G01 X15.9311 Y-12.6592 F60.00
G01 X15.9383 Y-12.7078 F60.00
G01 X15.9406 Y-12.7211 F60.00
G01 X15.9436 Y-12.7342 F60.00
G01 X15.9555 Y-12.7818 F60.00
G01 X15.9591 Y-12.7948 F60.00
G01 X15.9633 Y-12.8075 F60.00
G01 X15.9798 Y-12.8537 F60.00
G01 X15.9847 Y-12.8663 F60.00
G01 X15.9901 Y-12.8786 F60.00
G01 X16.0111 Y-12.9230 F60.00
G01 X16.0172 Y-12.9350 F60.00
G01 X16.0238 Y-12.9467 F60.00
G01 X16.0490 Y-12.9888 F60.00
G01 X16.0562 Y-13.0002 F60.00
G01 X16.0640 Y-13.0112 F60.00
G01 X16.0932 Y-13.0506 F60.00
G01 X16.1015 Y-13.0612 F60.00
G01 X16.1103 Y-13.0714 F60.00
G01 X16.1432 Y-13.1077 F60.00
G01 X16.1525 Y-13.1175 F60.00
G01 X16.5725 Y-13.5375 F60.00
G01 X16.5823 Y-13.5468 F60.00
G01 X16.6186 Y-13.5797 F60.00
G01 X16.6288 Y-13.5885 F60.00
G01 X16.6394 Y-13.5968 F60.00
G01 X16.6788 Y-13.6260 F60.00
G01 X16.6898 Y-13.6338 F60.00
G01 X16.7012 Y-13.6410 F60.00
G01 X16.7433 Y-13.6662 F60.00
G01 X16.7550 Y-13.6728 F60.00
G01 X16.7670 Y-13.6789 F60.00
G01 X16.8114 Y-13.6999 F60.00
G01 X16.8237 Y-13.7053 F60.00
G01 X16.8363 Y-13.7102 F60.00
G01 X16.8825 Y-13.7267 F60.00
G01 X16.9017 Y-13.7328 F60.00
G01 X16.9558 Y-13.7464 F60.00
G01 X16.9689 Y-13.7494 F60.00
G01 X16.9822 Y-13.7517 F60.00
G01 X17.0308 Y-13.7589 F60.00
G01 X17.0441 Y-13.7605 F60.00
G01 X17.0575 Y-13.7615 F60.00
G01 X17.1066 Y-13.7639 F60.00
G01 X17.1200 Y-13.7643 F60.00
G01 X30.1800 Y-13.7643 F60.00
G01 X30.1934 Y-13.7639 F60.00
G01 X30.2492 Y-13.7611 F60.00
G01 X30.2692 Y-13.7589 F60.00
G01 X30.3178 Y-13.7517 F60.00
G01 X30.3311 Y-13.7494 F60.00
G01 X30.3442 Y-13.7464 F60.00
G01 X30.3918 Y-13.7345 F60.00
G01 X30.4112 Y-13.7289 F60.00
G01 X30.4637 Y-13.7102 F60.00
G01 X30.4763 Y-13.7053 F60.00
G01 X30.4886 Y-13.6999 F60.00
G01 X30.5330 Y-13.6789 F60.00
G01 X30.5450 Y-13.6728 F60.00
G01 X30.5567 Y-13.6662 F60.00
G01 X30.5988 Y-13.6410 F60.00
G01 X30.6102 Y-13.6338 F60.00
G01 X30.6212 Y-13.6260 F60.00
G01 X30.6606 Y-13.5968 F60.00
G01 X30.6712 Y-13.5885 F60.00
G01 X30.6814 Y-13.5797 F60.00
G01 X30.7227 Y-13.5422 F60.00
G01 X33.8907 Y-10.3743 F60.00
G01 X41.3257 Y-10.3743 F60.00
G01 X41.3257 Y-11.6000 F60.00
G01 X41.3261 Y-11.6134 F60.00
G01 X41.3285 Y-11.6625 F60.00
G01 X41.3295 Y-11.6759 F60.00
G01 X41.3311 Y-11.6892 F60.00
G01 X41.3383 Y-11.7378 F60.00
G01 X41.3406 Y-11.7511 F60.00
G01 X41.3436 Y-11.7642 F60.00
G01 X41.3555 Y-11.8118 F60.00
G01 X41.3591 Y-11.8248 F60.00
G01 X41.3633 Y-11.8375 F60.00
G01 X41.3798 Y-11.8837 F60.00
G01 X41.3873 Y-11.9025 F60.00
G01 X41.4141 Y-11.9590 F60.00
G01 X41.4204 Y-11.9709 F60.00
G01 X41.4260 Y-11.9804 F60.00
G01 X41.4260 Y-12.5000 F60.00
G01 X41.4263 Y-12.5134 F60.00
G01 X41.4273 Y-12.5269 F60.00
G01 X41.4290 Y-12.5402 F60.00
G01 X41.4313 Y-12.5535 F60.00
G01 X41.4359 Y-12.5731 F60.00
G01 X41.4398 Y-12.5860 F60.00
G01 X41.4468 Y-12.6049 F60.00
G01 X41.4523 Y-12.6172 F60.00
G01 X41.4583 Y-12.6292 F60.00
G01 X41.4685 Y-12.6466 F60.00
G01 X41.4760 Y-12.6578 F60.00
G01 X41.4882 Y-12.6738 F60.00
G01 X41.4970 Y-12.6840 F60.00
G01 X41.5062 Y-12.6938 F60.00
G01 X41.5210 Y-12.7075 F60.00
G01 X41.5314 Y-12.7160 F60.00
G01 X41.5478 Y-12.7278 F60.00
G01 X41.5649 Y-12.7384 F60.00
G01 X41.5768 Y-12.7448 F60.00
G01 X41.5890 Y-12.7505 F60.00
G01 X41.6014 Y-12.7557 F60.00
G01 X41.6140 Y-12.7602 F60.00
G01 X41.6334 Y-12.7658 F60.00
G01 X41.6532 Y-12.7700 F60.00
G01 X41.6665 Y-12.7720 F60.00
G01 X41.6866 Y-12.7737 F60.00
G01 X41.7000 Y-12.7740 F60.00
G01 X42.5000 Y-12.7740 F60.00
G01 X42.5202 Y-12.7733 F60.00
G01 X42.5402 Y-12.7710 F60.00
G01 X42.5600 Y-12.7674 F60.00
G01 X42.5795 Y-12.7622 F60.00
G01 X42.5923 Y-12.7580 F60.00
G01 X42.6110 Y-12.7505 F60.00
G01 X42.6232 Y-12.7448 F60.00
G01 X42.6409 Y-12.7350 F60.00
G01 X42.6522 Y-12.7278 F60.00
G01 X42.6686 Y-12.7160 F60.00
G01 X42.6790 Y-12.7075 F60.00
G01 X42.6938 Y-12.6938 F60.00
G01 X42.7030 Y-12.6840 F60.00
G01 X42.7160 Y-12.6686 F60.00
G01 X42.7278 Y-12.6522 F60.00
G01 X42.7384 Y-12.6351 F60.00
G01 X42.7477 Y-12.6172 F60.00
G01 X42.7532 Y-12.6049 F60.00
G01 X42.7580 Y-12.5923 F60.00
G01 X42.7641 Y-12.5731 F60.00
G01 X42.7674 Y-12.5600 F60.00
G01 X42.7710 Y-12.5402 F60.00
G01 X42.7733 Y-12.5202 F60.00
G01 X42.7739 Y-12.5067 F60.00
G01 X42.7740 Y-11.9804 F60.00
G01 X42.7796 Y-11.9709 F60.00
G01 X42.7859 Y-11.9590 F60.00
G01 X42.8127 Y-11.9025 F60.00
G01 X42.8202 Y-11.8837 F60.00
G01 X42.8389 Y-11.8312 F60.00
G01 X42.8445 Y-11.8118 F60.00
G01 X42.8564 Y-11.7642 F60.00
G01 X42.8594 Y-11.7511 F60.00
G01 X42.8617 Y-11.7378 F60.00
G01 X42.8689 Y-11.6892 F60.00
G01 X42.8705 Y-11.6759 F60.00
G01 X42.8715 Y-11.6625 F60.00
G01 X42.8739 Y-11.6134 F60.00
G01 X42.8743 Y-11.6000 F60.00
G01 X42.8743 Y-10.0000 F60.00
G01 X42.8739 Y-9.9866 F60.00
G01 X42.8711 Y-9.9308 F60.00
G01 X42.8689 Y-9.9108 F60.00
G01 X42.8617 Y-9.8622 F60.00
G01 X42.8594 Y-9.8489 F60.00
G01 X42.8564 Y-9.8358 F60.00
G01 X42.8445 Y-9.7882 F60.00
G01 X42.8389 Y-9.7688 F60.00
