(G-CODE GENERATED BY FLATCAM v8.994 - www.flatcam.org - Version Date: 2020/11/7)

(Name: PA_LPF.drl_cnc)
(Type: G-code from Geometry)
(Units: MM)

(Created on Thursday, 28 December 2023 at 17:33)

(This preprocessor is used with a motion controller loaded with GRBL firmware.)
(It is configured to be compatible with almost any version of GRBL firmware.)


(TOOLS DIAMETER: )
(Tool: 1 -> Dia: 0.2)
(Tool: 2 -> Dia: 0.4)
(Tool: 3 -> Dia: 0.8)
(Tool: 4 -> Dia: 3.2)

(FEEDRATE Z: )
(Tool: 1 -> Feedrate: 30.0)
(Tool: 2 -> Feedrate: 30.0)
(Tool: 3 -> Feedrate: 30.0)
(Tool: 4 -> Feedrate: 30.0)

(FEEDRATE RAPIDS: )
(Tool: 1 -> Feedrate Rapids: 1500)
(Tool: 2 -> Feedrate Rapids: 1500)
(Tool: 3 -> Feedrate Rapids: 1500)
(Tool: 4 -> Feedrate Rapids: 1500)

(Z_CUT: )
(Tool: 1 -> Z_Cut: -1.8)
(Tool: 2 -> Z_Cut: -2.0)
(Tool: 3 -> Z_Cut: -2.0)
(Tool: 4 -> Z_Cut: -2.1)

(Tools Offset: )
(Tool: 4 -> Offset Z: 0.0)

(DEPTH_PER_CUT: )
(Tool: 1 -> DeptPerCut: 0.7)
(Tool: 2 -> DeptPerCut: 0.7)
(Tool: 3 -> DeptPerCut: 0.7)
(Tool: 4 -> DeptPerCut: 0.7)

(Z_MOVE: )
(Tool: 1 -> Z_Move: 2)
(Tool: 2 -> Z_Move: 2)
(Tool: 3 -> Z_Move: 2)
(Tool: 4 -> Z_Move: 2)

(Z Toolchange: 25.0 mm)
(X,Y Toolchange: 0.0000, 0.0000 mm)
(Z Start: None mm)
(Z End: 20.5 mm)
(X,Y End: None mm)
(Steps per circle: 64)
(Steps per circle: 64)
(Preprocessor Excellon: GRBL_11_no_M6)

(X range:    1.2400 ...   98.2000  mm)
(Y range:  -54.5800 ...   -0.6000  mm)

(Spindle Speed: 12000 RPM)
G21
G90
G17
G94


G01 F30.00

M5             
G00 Z25.0000
G00 X0.0000 Y0.0000                
T4
(MSG, Change to Tool Dia = 3.2000 ||| Total drills for tool T4 = 4)
M0
G00 Z25.0000
        
G01 F30.00
M03 S12000
G00 X4.0000 Y-4.0000
G01 Z-0.7000
G01 Z0
G00 Z2.0000
G01 Z-1.4000
G01 Z0
G00 Z2.0000
G01 Z-2.1000
G01 Z0
G00 Z2.0000
G01 Z-2.8000
G01 Z0
G00 Z2.0000
G00 X4.0000 Y-51.0000
G01 Z-0.7000
G01 Z0
G00 Z2.0000
G01 Z-1.4000
G01 Z0
G00 Z2.0000
G01 Z-2.1000
G01 Z0
G00 Z2.0000
G01 Z-2.8000
G01 Z0
G00 Z2.0000
G00 X96.0000 Y-51.0000
G01 Z-0.7000
G01 Z0
G00 Z2.0000
G01 Z-1.4000
G01 Z0
G00 Z2.0000
G01 Z-2.1000
G01 Z0
G00 Z2.0000
G01 Z-2.8000
G01 Z0
G00 Z2.0000
G00 X96.0000 Y-4.0000
G01 Z-0.7000
G01 Z0
G00 Z2.0000
G01 Z-1.4000
G01 Z0
G00 Z2.0000
G01 Z-2.1000
G01 Z0
G00 Z2.0000
G01 Z-2.8000
G01 Z0
G00 Z2.0000
M05
G00 Z20.50


