(G-CODE GENERATED BY FLATCAM v8.994 - www.flatcam.org - Version Date: 2020/11/7)

(Name: IF_AMP_t1-F_Cu.gbr_iso_combined_cnc)
(Type: G-code from Geometry)
(Units: MM)

(Created on Saturday, 27 May 2023 at 21:03)

(This preprocessor is used with a motion controller loaded with GRBL firmware.)
(It is configured to be compatible with almost any version of GRBL firmware.)

(TOOL DIAMETER: 0.1839 mm)
(Feedrate_XY: 30.0 mm/min)
(Feedrate_Z: 10.0 mm/min)
(Feedrate rapids 1500.0 mm/min)

(Z_Cut: -0.05 mm)
(DepthPerCut: 0.05 mm <=>1 passes)
(Z_Move: 2.0 mm)
(Z Start: None mm)
(Z End: 15.0 mm)
(X,Y End: None mm)
(Steps per circle: 64)
(Steps per circle: 64)
(Preprocessor Geometry: GRBL_11_no_M6)

(X range:   -0.2570 ...   23.2570  mm)
(Y range:  -19.2570 ...    0.2570  mm)

(Spindle Speed: 12000.0 RPM)
G21
G90
G17
G94


G01 F30.00

M5             
G00 Z15.0000
G00 X0.0000 Y0.0000                
T2
(MSG, Change to Tool Dia = 0.1839)
M0
G00 Z15.0000
        
G00 Z2.0000
M03 S12000.0
G4 P1.0
G01 F30.00
G00 X3.7503 Y-11.6731
G01 F10.00
G01 Z-0.0500
G01 F30.00
G01 X3.7604 Y-11.6914 F30.00
G01 X3.7788 Y-11.7308 F30.00
G01 X3.7916 Y-11.7657 F30.00
G01 X3.7974 Y-11.7838 F30.00
G01 X3.8064 Y-11.8198 F30.00
G01 X3.8099 Y-11.8385 F30.00
G01 X3.8150 Y-11.8753 F30.00
G01 X3.8171 Y-11.9124 F30.00
G01 X3.8175 Y-11.9250 F30.00
G01 X3.8177 Y-12.4000 F30.00
G01 X3.8177 Y-13.4914 F30.00
G01 X3.8350 Y-13.4327 F30.00
G01 X3.8392 Y-13.4206 F30.00
G01 X3.8440 Y-13.4087 F30.00
G01 X3.8523 Y-13.3914 F30.00
G01 X3.8586 Y-13.3803 F30.00
G01 X3.8689 Y-13.3641 F30.00
G01 X3.8805 Y-13.3488 F30.00
G01 X3.8931 Y-13.3344 F30.00
G01 X3.9068 Y-13.3210 F30.00
G01 X3.9693 Y-13.2668 F30.00
G01 X3.9845 Y-13.2552 F30.00
G01 X3.9951 Y-13.2481 F30.00
G01 X4.0061 Y-13.2415 F30.00
G01 X4.0231 Y-13.2327 F30.00
G01 X4.0348 Y-13.2275 F30.00
G01 X4.0528 Y-13.2209 F30.00
G01 X4.0651 Y-13.2172 F30.00
G01 X4.0837 Y-13.2128 F30.00
G01 X4.0963 Y-13.2107 F30.00
G01 X4.1718 Y-13.1999 F30.00
G01 X4.1906 Y-13.1984 F30.00
G01 X4.2033 Y-13.1981 F30.00
G01 X4.2159 Y-13.1985 F30.00
G01 X4.2348 Y-13.2002 F30.00
G01 X4.2472 Y-13.2021 F30.00
G01 X4.2658 Y-13.2061 F30.00
G01 X4.2779 Y-13.2095 F30.00
G01 X4.2899 Y-13.2136 F30.00
G01 X4.3373 Y-13.2308 F30.00
G01 X4.3557 Y-13.2382 F30.00
G01 X4.3468 Y-13.2293 F30.00
G01 X4.3218 Y-13.2018 F30.00
G01 X4.3138 Y-13.1920 F30.00
G01 X4.2916 Y-13.1621 F30.00
G01 X4.2846 Y-13.1516 F30.00
G01 X4.2655 Y-13.1198 F30.00
G01 X4.2596 Y-13.1086 F30.00
G01 X4.2463 Y-13.0807 F30.00
G01 X4.2388 Y-13.0633 F30.00
G01 X4.2263 Y-13.0283 F30.00
G01 X4.2226 Y-13.0162 F30.00
G01 X4.2151 Y-12.9863 F30.00
G01 X4.2111 Y-12.9678 F30.00
G01 X4.2065 Y-12.9373 F30.00
G01 X4.2050 Y-12.9247 F30.00
G01 X4.2041 Y-12.9121 F30.00
G01 X4.2025 Y-12.8750 F30.00
G01 X4.2025 Y-11.9250 F30.00
G01 X4.2041 Y-11.8879 F30.00
G01 X4.2057 Y-11.8690 F30.00
G01 X4.2123 Y-11.8260 F30.00
G01 X4.2210 Y-11.7899 F30.00
G01 X4.2263 Y-11.7717 F30.00
G01 X4.2388 Y-11.7367 F30.00
G01 X4.2463 Y-11.7193 F30.00
G01 X4.2625 Y-11.6858 F30.00
G01 X4.2779 Y-11.6594 F30.00
G01 X4.2310 Y-11.7015 F30.00
G01 X4.2159 Y-11.7135 F30.00
G01 X4.2054 Y-11.7208 F30.00
G01 X4.1946 Y-11.7275 F30.00
G01 X4.1834 Y-11.7338 F30.00
G01 X4.1661 Y-11.7421 F30.00
G01 X4.1543 Y-11.7469 F30.00
G01 X4.1361 Y-11.7529 F30.00
G01 X4.1237 Y-11.7562 F30.00
G01 X4.1112 Y-11.7589 F30.00
G01 X4.0296 Y-11.7722 F30.00
G01 X4.0169 Y-11.7736 F30.00
G01 X4.0042 Y-11.7744 F30.00
G01 X3.9850 Y-11.7744 F30.00
G01 X3.9722 Y-11.7736 F30.00
G01 X3.9595 Y-11.7722 F30.00
G01 X3.9469 Y-11.7701 F30.00
G01 X3.9344 Y-11.7674 F30.00
G01 X3.9221 Y-11.7641 F30.00
G01 X3.9099 Y-11.7602 F30.00
G01 X3.8979 Y-11.7557 F30.00
G01 X3.8279 Y-11.7254 F30.00
G01 X3.8163 Y-11.7200 F30.00
G01 X3.8050 Y-11.7141 F30.00
G01 X3.7940 Y-11.7076 F30.00
G01 X3.7782 Y-11.6968 F30.00
G01 X3.7631 Y-11.6849 F30.00
G01 X3.7503 Y-11.6731 F30.00
G00 Z2.0000
G00 X4.3681 Y-11.9250
G01 F10.00
G01 Z-0.0500
G01 F30.00
G01 X4.3681 Y-12.8750 F30.00
G01 X4.3697 Y-12.9085 F30.00
G01 X4.3742 Y-12.9395 F30.00
G01 X4.3828 Y-12.9743 F30.00
G01 X4.3925 Y-13.0016 F30.00
G01 X4.3959 Y-13.0100 F30.00
G01 X4.4084 Y-13.0362 F30.00
G01 X4.4233 Y-13.0612 F30.00
G01 X4.4283 Y-13.0687 F30.00
G01 X4.4457 Y-13.0919 F30.00
G01 X4.4682 Y-13.1168 F30.00
G01 X4.4897 Y-13.1364 F30.00
G01 X4.4966 Y-13.1421 F30.00
G01 X4.5200 Y-13.1593 F30.00
G01 X4.5449 Y-13.1743 F30.00
G01 X4.5528 Y-13.1786 F30.00
G01 X4.5771 Y-13.1900 F30.00
G01 X4.6107 Y-13.2022 F30.00
G01 X4.6433 Y-13.2104 F30.00
G01 X4.6765 Y-13.2153 F30.00
G01 X4.7077 Y-13.2169 F30.00
G01 X5.2123 Y-13.2169 F30.00
G01 X5.2390 Y-13.2156 F30.00
G01 X5.2480 Y-13.2148 F30.00
G01 X5.2767 Y-13.2104 F30.00
G01 X5.3071 Y-13.2029 F30.00
G01 X5.3409 Y-13.1909 F30.00
G01 X5.3712 Y-13.1766 F30.00
G01 X5.4000 Y-13.1593 F30.00
G01 X5.4269 Y-13.1393 F30.00
G01 X5.4518 Y-13.1168 F30.00
G01 X5.4743 Y-13.0919 F30.00
G01 X5.4943 Y-13.0650 F30.00
G01 X5.5116 Y-13.0362 F30.00
G01 X5.5259 Y-13.0059 F30.00
G01 X5.5372 Y-12.9743 F30.00
G01 X5.5454 Y-12.9417 F30.00
G01 X5.5498 Y-12.9130 F30.00
G01 X5.5506 Y-12.9040 F30.00
G01 X5.5519 Y-12.8773 F30.00
G01 X5.5519 Y-12.7421 F30.00
G01 X6.1581 Y-12.7421 F30.00
G01 X6.1582 Y-12.8058 F30.00
G01 X6.1595 Y-12.8317 F30.00
G01 X6.1636 Y-12.8596 F30.00
G01 X6.1702 Y-12.8871 F30.00
G01 X6.1728 Y-12.8957 F30.00
G01 X6.1817 Y-12.9201 F30.00
G01 X6.1947 Y-12.9477 F30.00
G01 X6.2104 Y-12.9739 F30.00
G01 X6.2258 Y-12.9948 F30.00
G01 X6.2315 Y-13.0018 F30.00
G01 X6.2475 Y-13.0193 F30.00
G01 X6.2523 Y-13.0241 F30.00
G01 X6.2716 Y-13.0414 F30.00
G01 X6.2961 Y-13.0596 F30.00
G01 X6.3223 Y-13.0753 F30.00
G01 X6.3454 Y-13.0863 F30.00
G01 X6.3454 Y-13.7881 F30.00
G01 X6.3302 Y-13.7881 F30.00
G01 X6.3065 Y-13.7895 F30.00
G01 X6.2853 Y-13.7927 F30.00
G01 X6.2601 Y-13.7991 F30.00
G01 X6.2399 Y-13.8065 F30.00
G01 X6.2184 Y-13.8166 F30.00
G01 X6.1981 Y-13.8288 F30.00
G01 X6.1773 Y-13.8444 F30.00
G01 X6.1614 Y-13.8589 F30.00
G01 X6.1455 Y-13.8765 F30.00
G01 X6.1313 Y-13.8956 F30.00
G01 X6.1191 Y-13.9159 F30.00
G01 X6.1090 Y-13.9374 F30.00
G01 X6.1010 Y-13.9598 F30.00
G01 X6.0952 Y-13.9828 F30.00
G01 X6.0920 Y-14.0040 F30.00
G01 X6.0906 Y-14.0300 F30.00
G01 X6.0906 Y-14.3300 F30.00
G01 X6.0917 Y-14.3537 F30.00
G01 X6.0948 Y-14.3750 F30.00
G01 X6.1003 Y-14.3981 F30.00
G01 X6.1073 Y-14.4184 F30.00
G01 X6.1099 Y-14.4247 F30.00
G01 X6.1171 Y-14.4400 F30.00
G01 X6.1213 Y-14.4480 F30.00
G01 X6.1326 Y-14.4663 F30.00
G01 X6.1469 Y-14.4852 F30.00
G01 X6.1614 Y-14.5011 F30.00
G01 X6.1808 Y-14.5184 F30.00
G01 X6.1981 Y-14.5312 F30.00
G01 X6.2165 Y-14.5423 F30.00
G01 X6.2358 Y-14.5517 F30.00
G01 X6.2441 Y-14.5552 F30.00
G01 X6.2623 Y-14.5615 F30.00
G01 X6.2853 Y-14.5673 F30.00
G01 X6.3088 Y-14.5708 F30.00
G01 X6.3280 Y-14.5718 F30.00
G01 X7.5098 Y-14.5719 F30.00
G01 X7.5335 Y-14.5705 F30.00
G01 X7.5525 Y-14.5677 F30.00
G01 X7.5591 Y-14.5663 F30.00
G01 X7.5777 Y-14.5615 F30.00
G01 X7.5959 Y-14.5552 F30.00
G01 X7.6022 Y-14.5526 F30.00
G01 X7.6175 Y-14.5454 F30.00
G01 X7.6255 Y-14.5412 F30.00
G01 X7.6419 Y-14.5312 F30.00
G01 X7.6610 Y-14.5170 F30.00
G01 X7.6786 Y-14.5011 F30.00
G01 X7.6959 Y-14.4817 F30.00
G01 X7.7087 Y-14.4644 F30.00
G01 X7.7187 Y-14.4480 F30.00
G01 X7.7229 Y-14.4400 F30.00
G01 X7.7310 Y-14.4226 F30.00
G01 X7.7376 Y-14.4045 F30.00
G01 X7.7402 Y-14.3959 F30.00
G01 X7.7448 Y-14.3772 F30.00
G01 X7.7480 Y-14.3560 F30.00
G01 X7.7494 Y-14.3300 F30.00
G01 X7.7494 Y-14.0277 F30.00
G01 X7.7483 Y-14.0063 F30.00
G01 X7.7448 Y-13.9828 F30.00
G01 X7.7390 Y-13.9598 F30.00
G01 X7.7310 Y-13.9374 F30.00
G01 X7.7209 Y-13.9159 F30.00
G01 X7.7087 Y-13.8956 F30.00
G01 X7.6945 Y-13.8765 F30.00
G01 X7.6802 Y-13.8605 F30.00
G01 X7.6627 Y-13.8444 F30.00
G01 X7.6456 Y-13.8314 F30.00
G01 X7.6400 Y-13.8276 F30.00
G01 X7.6255 Y-13.8188 F30.00
G01 X7.6175 Y-13.8146 F30.00
G01 X7.6001 Y-13.8065 F30.00
G01 X7.5777 Y-13.7985 F30.00
G01 X7.5547 Y-13.7927 F30.00
G01 X7.5335 Y-13.7895 F30.00
G01 X7.5075 Y-13.7881 F30.00
G01 X7.0296 Y-13.7881 F30.00
G01 X7.0296 Y-13.0863 F30.00
G01 X7.0527 Y-13.0753 F30.00
G01 X7.0751 Y-13.0620 F30.00
G01 X7.0826 Y-13.0570 F30.00
G01 X7.1034 Y-13.0414 F30.00
G01 X7.1259 Y-13.0209 F30.00
G01 X7.1435 Y-13.0018 F30.00
G01 X7.1492 Y-12.9948 F30.00
G01 X7.1646 Y-12.9739 F30.00
G01 X7.1803 Y-12.9477 F30.00
G01 X7.1915 Y-12.9243 F30.00
G01 X7.1949 Y-12.9159 F30.00
G01 X7.2036 Y-12.8914 F30.00
G01 X7.2100 Y-12.8663 F30.00
G01 X7.2118 Y-12.8574 F30.00
G01 X7.2155 Y-12.8317 F30.00
G01 X7.2169 Y-12.8035 F30.00
G01 X7.2169 Y-12.0388 F30.00
G01 X7.2152 Y-12.0061 F30.00
G01 X7.2110 Y-11.9781 F30.00
G01 X7.2036 Y-11.9486 F30.00
G01 X7.1933 Y-11.9199 F30.00
G01 X7.1803 Y-11.8923 F30.00
G01 X7.1646 Y-11.8661 F30.00
G01 X7.1464 Y-11.8416 F30.00
G01 X7.1259 Y-11.8191 F30.00
G01 X7.1016 Y-11.7972 F30.00
G01 X7.0789 Y-11.7804 F30.00
G01 X7.0566 Y-11.7670 F30.00
G01 X7.0487 Y-11.7627 F30.00
G01 X7.0251 Y-11.7517 F30.00
G01 X6.9964 Y-11.7414 F30.00
G01 X6.9713 Y-11.7350 F30.00
G01 X6.9624 Y-11.7332 F30.00
G01 X6.9367 Y-11.7295 F30.00
G01 X6.9062 Y-11.7281 F30.00
G01 X6.4688 Y-11.7281 F30.00
G01 X6.4383 Y-11.7295 F30.00
G01 X6.4104 Y-11.7336 F30.00
G01 X6.3786 Y-11.7414 F30.00
G01 X6.3541 Y-11.7501 F30.00
G01 X6.3457 Y-11.7535 F30.00
G01 X6.3243 Y-11.7637 F30.00
G01 X6.3184 Y-11.7670 F30.00
G01 X6.2961 Y-11.7804 F30.00
G01 X6.2716 Y-11.7986 F30.00
G01 X6.2491 Y-11.8191 F30.00
G01 X6.2272 Y-11.8434 F30.00
G01 X6.2104 Y-11.8661 F30.00
G01 X6.1947 Y-11.8923 F30.00
G01 X6.1817 Y-11.9199 F30.00
G01 X6.1721 Y-11.9464 F30.00
G01 X6.1640 Y-11.9781 F30.00
G01 X6.1598 Y-12.0061 F30.00
G01 X6.1581 Y-12.0365 F30.00
G01 X6.1581 Y-12.0579 F30.00
G01 X5.5519 Y-12.0579 F30.00
G01 X5.5519 Y-11.9250 F30.00
G01 X5.5503 Y-11.8915 F30.00
G01 X5.5462 Y-11.8627 F30.00
G01 X5.5444 Y-11.8539 F30.00
G01 X5.5372 Y-11.8257 F30.00
G01 X5.5259 Y-11.7941 F30.00
G01 X5.5116 Y-11.7638 F30.00
G01 X5.4967 Y-11.7388 F30.00
G01 X5.4917 Y-11.7313 F30.00
G01 X5.4757 Y-11.7098 F30.00
G01 X5.4714 Y-11.7047 F30.00
G01 X5.4518 Y-11.6832 F30.00
G01 X5.4269 Y-11.6607 F30.00
G01 X5.4000 Y-11.6407 F30.00
G01 X5.3732 Y-11.6245 F30.00
G01 X5.3409 Y-11.6091 F30.00
G01 X5.3093 Y-11.5978 F30.00
G01 X5.2767 Y-11.5896 F30.00
G01 X5.2413 Y-11.5845 F30.00
G01 X5.2100 Y-11.5831 F30.00
G01 X4.7055 Y-11.5832 F30.00
G01 X4.6765 Y-11.5847 F30.00
G01 X4.6433 Y-11.5896 F30.00
G01 X4.6107 Y-11.5978 F30.00
G01 X4.5791 Y-11.6091 F30.00
G01 X4.5488 Y-11.6234 F30.00
G01 X4.5200 Y-11.6407 F30.00
G01 X4.4931 Y-11.6607 F30.00
G01 X4.4682 Y-11.6832 F30.00
G01 X4.4457 Y-11.7081 F30.00
G01 X4.4257 Y-11.7350 F30.00
G01 X4.4084 Y-11.7638 F30.00
G01 X4.3941 Y-11.7941 F30.00
G01 X4.3828 Y-11.8257 F30.00
G01 X4.3746 Y-11.8583 F30.00
G01 X4.3697 Y-11.8915 F30.00
G01 X4.3681 Y-11.9250 F30.00
G00 Z2.0000
G00 X5.6503 Y-11.6731
G01 F10.00
G01 Z-0.0500
G01 F30.00
G01 X5.6604 Y-11.6914 F30.00
G01 X5.6763 Y-11.7250 F30.00
G01 X5.6834 Y-11.7426 F30.00
G01 X5.6956 Y-11.7777 F30.00
G01 X5.7049 Y-11.8137 F30.00
G01 X5.7089 Y-11.8322 F30.00
G01 X5.7143 Y-11.8690 F30.00
G01 X5.7162 Y-11.8924 F30.00
G01 X6.0157 Y-11.8924 F30.00
G01 X6.0264 Y-11.8624 F30.00
G01 X6.0313 Y-11.8507 F30.00
G01 X6.0459 Y-11.8199 F30.00
G01 X6.0518 Y-11.8087 F30.00
G01 X6.0694 Y-11.7795 F30.00
G01 X6.0764 Y-11.7690 F30.00
G01 X6.0967 Y-11.7416 F30.00
G01 X6.1047 Y-11.7318 F30.00
G01 X6.1155 Y-11.7198 F30.00
G01 X6.0639 Y-11.7479 F30.00
G01 X6.0467 Y-11.7565 F30.00
G01 X6.0350 Y-11.7615 F30.00
G01 X6.0169 Y-11.7679 F30.00
G01 X6.0046 Y-11.7713 F30.00
G01 X5.9921 Y-11.7742 F30.00
G01 X5.9795 Y-11.7765 F30.00
G01 X5.9668 Y-11.7781 F30.00
G01 X5.9541 Y-11.7791 F30.00
G01 X5.9413 Y-11.7794 F30.00
G01 X5.9221 Y-11.7788 F30.00
G01 X5.8461 Y-11.7733 F30.00
G01 X5.8271 Y-11.7707 F30.00
G01 X5.8145 Y-11.7682 F30.00
G01 X5.8021 Y-11.7651 F30.00
G01 X5.7899 Y-11.7614 F30.00
G01 X5.7779 Y-11.7571 F30.00
G01 X5.7660 Y-11.7522 F30.00
G01 X5.7545 Y-11.7467 F30.00
G01 X5.7377 Y-11.7374 F30.00
G01 X5.7217 Y-11.7269 F30.00
G01 X5.6606 Y-11.6812 F30.00
G01 X5.6503 Y-11.6731 F30.00
G00 Z2.0000
G00 X6.0308 Y-13.7564
G01 F10.00
G01 Z-0.0500
G01 F30.00
G01 X6.0400 Y-13.7464 F30.00
G01 X6.0489 Y-13.7375 F30.00
G01 X6.0692 Y-13.7191 F30.00
G01 X6.0789 Y-13.7111 F30.00
G01 X6.1009 Y-13.6948 F30.00
G01 X6.1168 Y-13.6844 F30.00
G01 X6.1404 Y-13.6707 F30.00
G01 X6.1650 Y-13.6587 F30.00
G01 X6.1799 Y-13.6522 F30.00
G01 X6.1799 Y-13.1796 F30.00
G01 X6.1666 Y-13.1694 F30.00
G01 X6.1571 Y-13.1611 F30.00
G01 X6.1365 Y-13.1424 F30.00
G01 X6.1233 Y-13.1288 F30.00
G01 X6.1047 Y-13.1082 F30.00
G01 X6.0967 Y-13.0984 F30.00
G01 X6.0764 Y-13.0710 F30.00
G01 X6.0694 Y-13.0605 F30.00
G01 X6.0488 Y-13.0257 F30.00
G01 X6.0339 Y-12.9950 F30.00
G01 X6.0288 Y-12.9835 F30.00
G01 X6.0150 Y-12.9455 F30.00
G01 X6.0113 Y-12.9334 F30.00
G01 X6.0047 Y-12.9076 F30.00
G01 X5.7162 Y-12.9076 F30.00
G01 X5.7143 Y-12.9310 F30.00
G01 X5.7089 Y-12.9678 F30.00
G01 X5.7064 Y-12.9802 F30.00
G01 X5.6974 Y-13.0162 F30.00
G01 X5.6937 Y-13.0283 F30.00
G01 X5.6812 Y-13.0633 F30.00
G01 X5.6763 Y-13.0750 F30.00
G01 X5.6604 Y-13.1086 F30.00
G01 X5.6545 Y-13.1198 F30.00
G01 X5.6354 Y-13.1516 F30.00
G01 X5.6284 Y-13.1621 F30.00
G01 X5.6062 Y-13.1920 F30.00
G01 X5.5982 Y-13.2018 F30.00
G01 X5.5732 Y-13.2293 F30.00
G01 X5.5643 Y-13.2382 F30.00
G01 X5.5390 Y-13.2613 F30.00
G01 X5.6198 Y-13.2391 F30.00
G01 X5.6323 Y-13.2363 F30.00
G01 X5.6449 Y-13.2342 F30.00
G01 X5.6640 Y-13.2322 F30.00
G01 X5.6832 Y-13.2316 F30.00
G01 X5.6960 Y-13.2320 F30.00
G01 X5.7087 Y-13.2330 F30.00
G01 X5.7277 Y-13.2357 F30.00
G01 X5.7402 Y-13.2383 F30.00
G01 X5.7526 Y-13.2415 F30.00
G01 X5.8254 Y-13.2643 F30.00
G01 X5.8434 Y-13.2707 F30.00
G01 X5.8552 Y-13.2757 F30.00
G01 X5.8667 Y-13.2813 F30.00
G01 X5.8779 Y-13.2875 F30.00
G01 X5.8888 Y-13.2942 F30.00
G01 X5.8993 Y-13.3015 F30.00
G01 X5.9144 Y-13.3133 F30.00
G01 X5.9240 Y-13.3218 F30.00
G01 X5.9331 Y-13.3307 F30.00
G01 X5.9459 Y-13.3450 F30.00
G01 X5.9907 Y-13.3986 F30.00
G01 X5.9986 Y-13.4086 F30.00
G01 X6.0096 Y-13.4244 F30.00
G01 X6.0194 Y-13.4409 F30.00
G01 X6.0252 Y-13.4523 F30.00
G01 X6.0304 Y-13.4639 F30.00
G01 X6.0372 Y-13.4819 F30.00
G01 X6.0409 Y-13.4941 F30.00
G01 X6.0441 Y-13.5065 F30.00
G01 X6.0466 Y-13.5190 F30.00
G01 X6.0485 Y-13.5317 F30.00
G01 X6.0579 Y-13.6074 F30.00
G01 X6.0591 Y-13.6265 F30.00
G01 X6.0588 Y-13.6457 F30.00
G01 X6.0579 Y-13.6584 F30.00
G01 X6.0563 Y-13.6711 F30.00
G01 X6.0541 Y-13.6837 F30.00
G01 X6.0513 Y-13.6962 F30.00
G01 X6.0459 Y-13.7146 F30.00
G01 X6.0308 Y-13.7564 F30.00
G00 Z2.0000
G00 X7.2627 Y-13.1167
G01 F10.00
G01 Z-0.0500
G01 F30.00
G01 X7.2474 Y-13.1335 F30.00
G01 X7.2385 Y-13.1424 F30.00
G01 X7.2132 Y-13.1653 F30.00
G01 X7.1951 Y-13.1796 F30.00
G01 X7.1951 Y-13.6225 F30.00
G01 X7.5136 Y-13.6226 F30.00
G01 X7.4424 Y-13.5954 F30.00
G01 X7.4249 Y-13.5874 F30.00
G01 X7.4081 Y-13.5782 F30.00
G01 X7.3973 Y-13.5714 F30.00
G01 X7.3817 Y-13.5602 F30.00
G01 X7.3718 Y-13.5521 F30.00
G01 X7.3624 Y-13.5435 F30.00
G01 X7.3533 Y-13.5344 F30.00
G01 X7.3447 Y-13.5249 F30.00
G01 X7.3367 Y-13.5150 F30.00
G01 X7.2876 Y-13.4485 F30.00
G01 X7.2772 Y-13.4324 F30.00
G01 X7.2680 Y-13.4156 F30.00
G01 X7.2601 Y-13.3981 F30.00
G01 X7.2536 Y-13.3801 F30.00
G01 X7.2483 Y-13.3616 F30.00
G01 X7.2445 Y-13.3428 F30.00
G01 X7.2427 Y-13.3302 F30.00
G01 X7.2416 Y-13.3174 F30.00
G01 X7.2371 Y-13.2477 F30.00
G01 X7.2366 Y-13.2348 F30.00
G01 X7.2368 Y-13.2219 F30.00
G01 X7.2375 Y-13.2090 F30.00
G01 X7.2390 Y-13.1962 F30.00
G01 X7.2423 Y-13.1771 F30.00
G01 X7.2471 Y-13.1584 F30.00
G01 X7.2511 Y-13.1461 F30.00
G01 X7.2627 Y-13.1167 F30.00
G00 Z2.0000
G00 X8.3049 Y-13.2350
G01 F10.00
G01 Z-0.0500
G01 F30.00
G01 X8.3049 Y-13.1796 F30.00
G01 X8.2868 Y-13.1653 F30.00
G01 X8.2603 Y-13.1411 F30.00
G01 X8.2868 Y-13.1915 F30.00
G01 X8.2926 Y-13.2031 F30.00
G01 X8.3002 Y-13.2211 F30.00
G01 X8.3049 Y-13.2350 F30.00
G00 Z2.0000
G00 X9.3557 Y-13.1495
G01 F10.00
G01 Z-0.0500
G01 F30.00
G01 X9.3382 Y-13.1653 F30.00
G01 X9.3201 Y-13.1796 F30.00
G01 X9.3201 Y-13.2515 F30.00
G01 X9.3357 Y-13.1985 F30.00
G01 X9.3395 Y-13.1864 F30.00
G01 X9.3464 Y-13.1688 F30.00
G01 X9.3557 Y-13.1495 F30.00
G00 Z2.0000
G00 X9.3201 Y-14.3500
G01 F10.00
G01 Z-0.0500
G01 F30.00
G01 X9.3201 Y-14.5725 F30.00
G01 X9.3888 Y-14.5726 F30.00
G01 X9.4161 Y-14.5740 F30.00
G01 X9.4287 Y-14.5752 F30.00
G01 X9.4558 Y-14.5792 F30.00
G01 X9.4682 Y-14.5817 F30.00
G01 X9.4947 Y-14.5883 F30.00
G01 X9.5145 Y-14.5947 F30.00
G01 X9.5058 Y-14.5906 F30.00
G01 X9.4945 Y-14.5846 F30.00
G01 X9.4781 Y-14.5747 F30.00
G01 X9.4625 Y-14.5635 F30.00
G01 X9.4478 Y-14.5512 F30.00
G01 X9.4385 Y-14.5424 F30.00
G01 X9.4296 Y-14.5332 F30.00
G01 X9.3796 Y-14.4756 F30.00
G01 X9.3715 Y-14.4657 F30.00
G01 X9.3638 Y-14.4554 F30.00
G01 X9.3533 Y-14.4392 F30.00
G01 X9.3440 Y-14.4223 F30.00
G01 X9.3385 Y-14.4106 F30.00
G01 X9.3314 Y-14.3927 F30.00
G01 X9.3274 Y-14.3804 F30.00
G01 X9.3241 Y-14.3680 F30.00
G01 X9.3201 Y-14.3500 F30.00
G00 Z2.0000
G00 X9.5428 Y-14.6054
G01 F10.00
G01 Z-0.0500
G01 F30.00
G01 X9.5633 Y-14.6150 F30.00
G01 X9.5778 Y-14.6224 F30.00
G01 X9.6004 Y-14.6224 F30.00
G01 X9.5428 Y-14.6054 F30.00
G00 Z2.0000
G00 X10.8105 Y-14.5725
G01 F10.00
G01 Z-0.0500
G01 F30.00
G01 X10.8596 Y-14.5725 F30.00
G01 X10.9060 Y-14.5261 F30.00
G01 X10.8575 Y-14.5526 F30.00
G01 X10.8463 Y-14.5584 F30.00
G01 X10.8289 Y-14.5660 F30.00
G01 X10.8105 Y-14.5725 F30.00
G00 Z2.0000
G00 X11.1319 Y-14.3003
G01 F10.00
G01 Z-0.0500
G01 F30.00
G01 X11.2787 Y-14.1535 F30.00
G01 X11.2665 Y-14.1424 F30.00
G01 X11.2576 Y-14.1335 F30.00
G01 X11.2347 Y-14.1082 F30.00
G01 X11.2267 Y-14.0984 F30.00
G01 X11.2028 Y-14.0658 F30.00
G01 X11.1839 Y-14.0348 F30.00
G01 X11.1854 Y-14.0550 F30.00
G01 X11.1879 Y-14.1311 F30.00
G01 X11.1878 Y-14.1434 F30.00
G01 X11.1870 Y-14.1558 F30.00
G01 X11.1856 Y-14.1681 F30.00
G01 X11.1837 Y-14.1803 F30.00
G01 X11.1797 Y-14.1984 F30.00
G01 X11.1763 Y-14.2103 F30.00
G01 X11.1723 Y-14.2220 F30.00
G01 X11.1678 Y-14.2335 F30.00
G01 X11.1627 Y-14.2448 F30.00
G01 X11.1571 Y-14.2559 F30.00
G01 X11.1319 Y-14.3003 F30.00
G00 Z2.0000
G00 X11.9000 Y-15.9300
G01 F10.00
G01 Z-0.0500
G01 F30.00
G01 X11.9004 Y-15.9174 F30.00
G01 X11.9020 Y-15.8901 F30.00
G01 X11.9057 Y-15.8630 F30.00
G01 X11.9092 Y-15.8443 F30.00
G01 X11.9158 Y-15.8178 F30.00
G01 X11.9195 Y-15.8057 F30.00
G01 X11.9287 Y-15.7799 F30.00
G01 X11.9362 Y-15.7625 F30.00
G01 X11.9452 Y-15.7435 F30.00
G01 X11.9544 Y-15.7269 F30.00
G01 X11.9687 Y-15.7036 F30.00
G01 X11.9848 Y-15.6815 F30.00
G01 X11.9966 Y-15.6667 F30.00
G01 X12.0150 Y-15.6464 F30.00
G01 X12.0239 Y-15.6375 F30.00
G01 X12.0442 Y-15.6191 F30.00
G01 X12.0590 Y-15.6073 F30.00
G01 X12.0811 Y-15.5912 F30.00
G01 X12.1044 Y-15.5769 F30.00
G01 X12.1154 Y-15.5707 F30.00
G01 X12.1267 Y-15.5650 F30.00
G01 X12.1516 Y-15.5536 F30.00
G01 X12.1772 Y-15.5440 F30.00
G01 X12.1953 Y-15.5383 F30.00
G01 X12.2218 Y-15.5317 F30.00
G01 X12.2342 Y-15.5292 F30.00
G01 X12.2613 Y-15.5252 F30.00
G01 X12.2739 Y-15.5240 F30.00
G01 X12.3012 Y-15.5226 F30.00
G01 X12.3824 Y-15.5225 F30.00
G01 X12.3824 Y-14.1280 F30.00
G01 X12.3685 Y-14.1424 F30.00
G01 X12.3479 Y-14.1611 F30.00
G01 X12.3384 Y-14.1694 F30.00
G01 X12.3251 Y-14.1796 F30.00
G01 X12.3250 Y-14.3388 F30.00
G01 X12.3232 Y-14.3760 F30.00
G01 X12.3211 Y-14.3948 F30.00
G01 X12.3153 Y-14.4315 F30.00
G01 X12.3126 Y-14.4439 F30.00
G01 X12.3032 Y-14.4798 F30.00
G01 X12.2910 Y-14.5150 F30.00
G01 X12.2864 Y-14.5267 F30.00
G01 X12.2681 Y-14.5662 F30.00
G01 X12.2589 Y-14.5828 F30.00
G01 X12.2395 Y-14.6145 F30.00
G01 X12.2138 Y-14.6496 F30.00
G01 X12.2016 Y-14.6641 F30.00
G01 X12.1764 Y-14.6914 F30.00
G01 X11.9994 Y-14.8685 F30.00
G01 X12.0071 Y-14.9005 F30.00
G01 X12.0115 Y-14.9275 F30.00
G01 X12.0135 Y-14.9464 F30.00
G01 X12.0149 Y-14.9737 F30.00
G01 X12.0150 Y-15.2800 F30.00
G01 X12.0139 Y-15.3073 F30.00
G01 X12.0123 Y-15.3262 F30.00
G01 X12.0083 Y-15.3533 F30.00
G01 X12.0058 Y-15.3657 F30.00
G01 X11.9992 Y-15.3922 F30.00
G01 X11.9955 Y-15.4043 F30.00
G01 X11.9863 Y-15.4301 F30.00
G01 X11.9815 Y-15.4417 F30.00
G01 X11.9698 Y-15.4665 F30.00
G01 X11.9606 Y-15.4831 F30.00
G01 X11.9463 Y-15.5064 F30.00
G01 X11.9264 Y-15.5336 F30.00
G01 X11.9142 Y-15.5481 F30.00
G01 X11.8956 Y-15.5681 F30.00
G01 X11.8708 Y-15.5909 F30.00
G01 X11.8560 Y-15.6027 F30.00
G01 X11.8391 Y-15.6152 F30.00
G01 X11.8286 Y-15.6222 F30.00
G01 X11.7996 Y-15.6393 F30.00
G01 X11.7750 Y-15.6513 F30.00
G01 X11.7576 Y-15.6588 F30.00
G01 X11.7258 Y-15.6699 F30.00
G01 X11.6993 Y-15.6769 F30.00
G01 X11.6808 Y-15.6808 F30.00
G01 X11.6474 Y-15.6855 F30.00
G01 X11.6183 Y-15.6872 F30.00
G01 X11.6787 Y-15.7050 F30.00
G01 X11.6967 Y-15.7116 F30.00
G01 X11.7084 Y-15.7167 F30.00
G01 X11.7255 Y-15.7254 F30.00
G01 X11.7419 Y-15.7353 F30.00
G01 X11.7524 Y-15.7427 F30.00
G01 X11.7674 Y-15.7546 F30.00
G01 X11.7769 Y-15.7631 F30.00
G01 X11.7904 Y-15.7768 F30.00
G01 X11.8404 Y-15.8344 F30.00
G01 X11.8525 Y-15.8494 F30.00
G01 X11.8634 Y-15.8653 F30.00
G01 X11.8700 Y-15.8764 F30.00
G01 X11.8760 Y-15.8877 F30.00
G01 X11.8815 Y-15.8994 F30.00
G01 X11.8864 Y-15.9113 F30.00
G01 X11.8907 Y-15.9234 F30.00
G01 X11.8943 Y-15.9358 F30.00
G01 X11.9000 Y-15.9605 F30.00
G01 X11.9000 Y-15.9300 F30.00
G00 Z2.0000
G00 X12.0656 Y-15.9300
G01 F10.00
G01 Z-0.0500
G01 F30.00
G01 X12.0657 Y-16.2345 F30.00
G01 X12.0667 Y-16.2537 F30.00
G01 X12.0702 Y-16.2772 F30.00
G01 X12.0760 Y-16.3002 F30.00
G01 X12.0823 Y-16.3184 F30.00
G01 X12.0858 Y-16.3267 F30.00
G01 X12.0941 Y-16.3441 F30.00
G01 X12.1039 Y-16.3606 F30.00
G01 X12.1089 Y-16.3681 F30.00
G01 X12.1205 Y-16.3835 F30.00
G01 X12.1333 Y-16.3978 F30.00
G01 X12.1397 Y-16.4042 F30.00
G01 X12.1540 Y-16.4170 F30.00
G01 X12.1694 Y-16.4286 F30.00
G01 X12.1769 Y-16.4336 F30.00
G01 X12.1934 Y-16.4434 F30.00
G01 X12.2108 Y-16.4517 F30.00
G01 X12.2191 Y-16.4552 F30.00
G01 X12.2373 Y-16.4615 F30.00
G01 X12.2559 Y-16.4663 F30.00
G01 X12.2647 Y-16.4681 F30.00
G01 X12.2838 Y-16.4708 F30.00
G01 X12.3075 Y-16.4719 F30.00
G01 X13.4848 Y-16.4719 F30.00
G01 X13.5062 Y-16.4708 F30.00
G01 X13.5275 Y-16.4677 F30.00
G01 X13.5484 Y-16.4627 F30.00
G01 X13.5570 Y-16.4601 F30.00
G01 X13.5751 Y-16.4535 F30.00
G01 X13.5966 Y-16.4434 F30.00
G01 X13.6150 Y-16.4324 F30.00
G01 X13.6294 Y-16.4221 F30.00
G01 X15.0231 Y-16.4221 F30.00
G01 X15.0232 Y-16.5345 F30.00
G01 X15.0247 Y-16.5635 F30.00
G01 X15.0301 Y-16.5989 F30.00
G01 X15.0378 Y-16.6293 F30.00
G01 X15.0475 Y-16.6566 F30.00
G01 X15.0509 Y-16.6650 F30.00
G01 X15.0624 Y-16.6892 F30.00
G01 X15.0657 Y-16.6951 F30.00
G01 X15.0807 Y-16.7200 F30.00
G01 X15.0979 Y-16.7434 F30.00
G01 X15.1036 Y-16.7503 F30.00
G01 X15.1232 Y-16.7718 F30.00
G01 X15.1481 Y-16.7943 F30.00
G01 X15.1750 Y-16.8143 F30.00
G01 X15.1999 Y-16.8293 F30.00
G01 X15.2078 Y-16.8336 F30.00
G01 X15.2321 Y-16.8450 F30.00
G01 X15.2384 Y-16.8475 F30.00
G01 X15.2657 Y-16.8572 F30.00
G01 X15.2939 Y-16.8644 F30.00
G01 X15.3027 Y-16.8662 F30.00
G01 X15.3315 Y-16.8703 F30.00
G01 X15.3627 Y-16.8719 F30.00
G01 X15.8923 Y-16.8719 F30.00
G01 X15.9235 Y-16.8703 F30.00
G01 X15.9523 Y-16.8662 F30.00
G01 X15.9611 Y-16.8644 F30.00
G01 X15.9914 Y-16.8565 F30.00
G01 X16.0209 Y-16.8459 F30.00
G01 X16.0472 Y-16.8336 F30.00
G01 X16.0551 Y-16.8293 F30.00
G01 X16.0800 Y-16.8143 F30.00
G01 X16.1034 Y-16.7971 F30.00
G01 X16.1103 Y-16.7914 F30.00
G01 X16.1318 Y-16.7718 F30.00
G01 X16.1514 Y-16.7503 F30.00
G01 X16.1571 Y-16.7434 F30.00
G01 X16.1743 Y-16.7200 F30.00
G01 X16.1893 Y-16.6951 F30.00
G01 X16.1936 Y-16.6872 F30.00
G01 X16.2059 Y-16.6609 F30.00
G01 X16.2158 Y-16.6335 F30.00
G01 X16.2184 Y-16.6249 F30.00
G01 X16.2254 Y-16.5967 F30.00
G01 X16.2303 Y-16.5635 F30.00
G01 X16.2319 Y-16.5300 F30.00
G01 X16.2319 Y-15.6300 F30.00
G01 X16.2303 Y-15.5965 F30.00
G01 X16.2258 Y-15.5655 F30.00
G01 X16.2184 Y-15.5351 F30.00
G01 X16.2158 Y-15.5265 F30.00
G01 X16.2059 Y-15.4991 F30.00
G01 X16.1936 Y-15.4728 F30.00
G01 X16.1893 Y-15.4649 F30.00
G01 X16.1743 Y-15.4400 F30.00
G01 X16.1571 Y-15.4166 F30.00
G01 X16.1514 Y-15.4097 F30.00
G01 X16.1318 Y-15.3882 F30.00
G01 X16.1103 Y-15.3686 F30.00
G01 X16.1034 Y-15.3629 F30.00
G01 X16.0800 Y-15.3457 F30.00
G01 X16.0512 Y-15.3284 F30.00
G01 X16.0250 Y-15.3159 F30.00
G01 X16.0166 Y-15.3125 F30.00
G01 X15.9893 Y-15.3028 F30.00
G01 X15.9611 Y-15.2956 F30.00
G01 X15.9523 Y-15.2938 F30.00
G01 X15.9235 Y-15.2897 F30.00
G01 X15.8923 Y-15.2881 F30.00
G01 X15.3627 Y-15.2881 F30.00
G01 X15.3315 Y-15.2897 F30.00
G01 X15.2983 Y-15.2946 F30.00
G01 X15.2657 Y-15.3028 F30.00
G01 X15.2321 Y-15.3150 F30.00
G01 X15.2038 Y-15.3284 F30.00
G01 X15.1750 Y-15.3457 F30.00
G01 X15.1481 Y-15.3657 F30.00
G01 X15.1265 Y-15.3851 F30.00
G01 X15.1216 Y-15.3898 F30.00
G01 X15.1036 Y-15.4097 F30.00
G01 X15.0979 Y-15.4166 F30.00
G01 X15.0807 Y-15.4400 F30.00
G01 X15.0624 Y-15.4708 F30.00
G01 X15.0491 Y-15.4991 F30.00
G01 X15.0378 Y-15.5307 F30.00
G01 X15.0296 Y-15.5633 F30.00
G01 X15.0252 Y-15.5920 F30.00
G01 X15.0244 Y-15.6010 F30.00
G01 X15.0231 Y-15.6277 F30.00
G01 X15.0231 Y-15.7379 F30.00
G01 X13.6294 Y-15.7379 F30.00
G01 X13.6169 Y-15.7288 F30.00
G01 X13.5985 Y-15.7177 F30.00
G01 X13.5751 Y-15.7065 F30.00
G01 X13.5570 Y-15.6999 F30.00
G01 X13.5484 Y-15.6973 F30.00
G01 X13.5297 Y-15.6927 F30.00
G01 X13.5085 Y-15.6895 F30.00
G01 X13.4825 Y-15.6881 F30.00
G01 X13.2321 Y-15.6881 F30.00
G01 X13.2321 Y-12.0219 F30.00
G01 X13.2424 Y-12.0075 F30.00
G01 X13.2534 Y-11.9891 F30.00
G01 X13.2635 Y-11.9676 F30.00
G01 X13.2701 Y-11.9495 F30.00
G01 X13.2727 Y-11.9409 F30.00
G01 X13.2777 Y-11.9200 F30.00
G01 X13.2808 Y-11.8987 F30.00
G01 X13.2818 Y-11.8795 F30.00
G01 X13.2819 Y-10.6977 F30.00
G01 X13.2808 Y-10.6763 F30.00
G01 X13.2773 Y-10.6528 F30.00
G01 X13.2715 Y-10.6298 F30.00
G01 X13.2652 Y-10.6116 F30.00
G01 X13.2626 Y-10.6053 F30.00
G01 X13.2554 Y-10.5900 F30.00
G01 X13.2512 Y-10.5820 F30.00
G01 X13.2412 Y-10.5656 F30.00
G01 X13.2270 Y-10.5465 F30.00
G01 X13.2111 Y-10.5289 F30.00
G01 X13.1935 Y-10.5130 F30.00
G01 X13.1744 Y-10.4988 F30.00
G01 X13.1580 Y-10.4888 F30.00
G01 X13.1500 Y-10.4846 F30.00
G01 X13.1347 Y-10.4774 F30.00
G01 X13.1284 Y-10.4748 F30.00
G01 X13.1102 Y-10.4685 F30.00
G01 X13.0872 Y-10.4627 F30.00
G01 X13.0637 Y-10.4592 F30.00
G01 X13.0423 Y-10.4581 F30.00
G01 X12.7377 Y-10.4581 F30.00
G01 X12.7163 Y-10.4592 F30.00
G01 X12.6972 Y-10.4619 F30.00
G01 X12.6884 Y-10.4637 F30.00
G01 X12.6676 Y-10.4691 F30.00
G01 X12.6474 Y-10.4765 F30.00
G01 X12.6300 Y-10.4846 F30.00
G01 X12.6220 Y-10.4888 F30.00
G01 X12.6056 Y-10.4988 F30.00
G01 X12.5901 Y-10.5102 F30.00
G01 X12.5831 Y-10.5159 F30.00
G01 X12.5689 Y-10.5289 F30.00
G01 X12.5559 Y-10.5431 F30.00
G01 X12.5502 Y-10.5501 F30.00
G01 X12.5388 Y-10.5656 F30.00
G01 X12.5288 Y-10.5820 F30.00
G01 X12.5246 Y-10.5900 F30.00
G01 X12.5165 Y-10.6074 F30.00
G01 X12.5099 Y-10.6255 F30.00
G01 X12.5073 Y-10.6341 F30.00
G01 X12.5027 Y-10.6528 F30.00
G01 X12.4992 Y-10.6763 F30.00
G01 X12.4981 Y-10.7000 F30.00
G01 X12.4981 Y-11.8773 F30.00
G01 X12.4992 Y-11.8987 F30.00
G01 X12.5023 Y-11.9200 F30.00
G01 X12.5073 Y-11.9409 F30.00
G01 X12.5099 Y-11.9495 F30.00
G01 X12.5165 Y-11.9676 F30.00
G01 X12.5266 Y-11.9891 F30.00
G01 X12.5376 Y-12.0075 F30.00
G01 X12.5479 Y-12.0219 F30.00
G01 X12.5479 Y-15.6881 F30.00
G01 X12.3075 Y-15.6881 F30.00
G01 X12.2860 Y-15.6890 F30.00
G01 X12.2603 Y-15.6927 F30.00
G01 X12.2373 Y-15.6985 F30.00
G01 X12.2149 Y-15.7065 F30.00
G01 X12.1954 Y-15.7156 F30.00
G01 X12.1712 Y-15.7301 F30.00
G01 X12.1540 Y-15.7430 F30.00
G01 X12.1397 Y-15.7558 F30.00
G01 X12.1333 Y-15.7622 F30.00
G01 X12.1205 Y-15.7765 F30.00
G01 X12.1089 Y-15.7919 F30.00
G01 X12.1039 Y-15.7994 F30.00
G01 X12.0941 Y-15.8159 F30.00
G01 X12.0858 Y-15.8333 F30.00
G01 X12.0823 Y-15.8416 F30.00
G01 X12.0760 Y-15.8598 F30.00
G01 X12.0702 Y-15.8828 F30.00
G01 X12.0673 Y-15.9018 F30.00
G01 X12.0664 Y-15.9108 F30.00
G01 X12.0656 Y-15.9300 F30.00
G00 Z2.0000
G00 X13.3976 Y-14.1480
G01 F10.00
G01 Z-0.0500
G01 F30.00
G01 X13.3976 Y-15.5225 F30.00
G01 X13.4825 Y-15.5225 F30.00
G01 X13.4951 Y-15.5229 F30.00
G01 X13.5224 Y-15.5245 F30.00
G01 X13.5558 Y-15.5292 F30.00
G01 X13.5682 Y-15.5317 F30.00
G01 X13.5886 Y-15.5367 F30.00
G01 X13.6008 Y-15.5401 F30.00
G01 X13.6128 Y-15.5440 F30.00
G01 X13.6326 Y-15.5512 F30.00
G01 X13.6442 Y-15.5560 F30.00
G01 X13.6633 Y-15.5650 F30.00
G01 X13.6778 Y-15.5724 F30.00
G01 X14.8609 Y-15.5724 F30.00
G01 X14.8673 Y-15.5310 F30.00
G01 X14.8760 Y-15.4949 F30.00
G01 X14.8813 Y-15.4767 F30.00
G01 X14.8962 Y-15.4358 F30.00
G01 X14.9146 Y-15.3964 F30.00
G01 X14.9237 Y-15.3798 F30.00
G01 X14.9431 Y-15.3481 F30.00
G01 X14.9503 Y-15.3377 F30.00
G01 X14.9727 Y-15.3081 F30.00
G01 X14.9810 Y-15.2985 F30.00
G01 X15.0062 Y-15.2712 F30.00
G01 X15.0335 Y-15.2460 F30.00
G01 X15.0480 Y-15.2338 F30.00
G01 X15.0831 Y-15.2081 F30.00
G01 X15.1202 Y-15.1855 F30.00
G01 X15.1371 Y-15.1768 F30.00
G01 X15.1708 Y-15.1612 F30.00
G01 X15.2117 Y-15.1463 F30.00
G01 X15.2238 Y-15.1426 F30.00
G01 X15.2537 Y-15.1351 F30.00
G01 X15.2722 Y-15.1311 F30.00
G01 X15.3153 Y-15.1250 F30.00
G01 X15.3587 Y-15.1226 F30.00
G01 X15.8963 Y-15.1226 F30.00
G01 X15.9397 Y-15.1250 F30.00
G01 X15.9523 Y-15.1265 F30.00
G01 X15.9890 Y-15.1323 F30.00
G01 X16.0251 Y-15.1410 F30.00
G01 X16.0373 Y-15.1444 F30.00
G01 X16.0783 Y-15.1588 F30.00
G01 X16.0957 Y-15.1663 F30.00
G01 X16.1292 Y-15.1825 F30.00
G01 X16.1666 Y-15.2046 F30.00
G01 X16.1823 Y-15.2153 F30.00
G01 X16.2119 Y-15.2377 F30.00
G01 X16.2443 Y-15.2668 F30.00
G01 X16.2532 Y-15.2757 F30.00
G01 X16.2740 Y-15.2985 F30.00
G01 X16.2862 Y-15.3130 F30.00
G01 X16.3119 Y-15.3481 F30.00
G01 X16.3313 Y-15.3798 F30.00
G01 X16.3404 Y-15.3964 F30.00
G01 X16.3588 Y-15.4358 F30.00
G01 X16.3737 Y-15.4767 F30.00
G01 X16.3790 Y-15.4949 F30.00
G01 X16.3877 Y-15.5310 F30.00
G01 X16.3935 Y-15.5677 F30.00
G01 X16.3956 Y-15.5866 F30.00
G01 X16.3975 Y-15.6300 F30.00
G01 X16.3975 Y-16.5300 F30.00
G01 X16.3956 Y-16.5734 F30.00
G01 X16.3935 Y-16.5923 F30.00
G01 X16.3877 Y-16.6290 F30.00
G01 X16.3774 Y-16.6712 F30.00
G01 X16.3716 Y-16.6893 F30.00
G01 X16.3588 Y-16.7242 F30.00
G01 X16.3404 Y-16.7636 F30.00
G01 X16.3313 Y-16.7802 F30.00
G01 X16.3187 Y-16.8013 F30.00
G01 X16.3103 Y-16.8143 F30.00
G01 X16.3289 Y-16.8031 F30.00
G01 X16.3959 Y-16.7666 F30.00
G01 X16.4074 Y-16.7610 F30.00
G01 X16.4252 Y-16.7538 F30.00
G01 X16.4434 Y-16.7479 F30.00
G01 X16.4558 Y-16.7447 F30.00
G01 X16.4683 Y-16.7421 F30.00
G01 X16.4810 Y-16.7402 F30.00
G01 X16.4937 Y-16.7389 F30.00
G01 X16.5128 Y-16.7381 F30.00
G01 X16.5320 Y-16.7388 F30.00
G01 X16.6017 Y-16.7437 F30.00
G01 X16.6145 Y-16.7450 F30.00
G01 X16.6336 Y-16.7480 F30.00
G01 X16.6461 Y-16.7509 F30.00
G01 X16.6585 Y-16.7543 F30.00
G01 X16.6707 Y-16.7584 F30.00
G01 X16.6827 Y-16.7630 F30.00
G01 X16.6944 Y-16.7683 F30.00
G01 X16.7059 Y-16.7741 F30.00
G01 X16.7225 Y-16.7840 F30.00
G01 X16.7697 Y-16.8143 F30.00
G01 X16.7613 Y-16.8013 F30.00
G01 X16.7487 Y-16.7802 F30.00
G01 X16.7396 Y-16.7636 F30.00
G01 X16.7212 Y-16.7242 F30.00
G01 X16.7084 Y-16.6893 F30.00
G01 X16.7026 Y-16.6712 F30.00
G01 X16.6923 Y-16.6290 F30.00
G01 X16.6865 Y-16.5923 F30.00
G01 X16.6844 Y-16.5734 F30.00
G01 X16.6825 Y-16.5300 F30.00
G01 X16.6825 Y-15.6300 F30.00
G01 X16.6844 Y-15.5866 F30.00
G01 X16.6865 Y-15.5677 F30.00
G01 X16.6923 Y-15.5310 F30.00
G01 X16.7010 Y-15.4949 F30.00
G01 X16.7044 Y-15.4827 F30.00
G01 X16.7084 Y-15.4707 F30.00
G01 X16.7212 Y-15.4358 F30.00
G01 X16.7368 Y-15.4021 F30.00
G01 X16.7455 Y-15.3852 F30.00
G01 X16.7646 Y-15.3534 F30.00
G01 X16.7716 Y-15.3429 F30.00
G01 X16.7938 Y-15.3130 F30.00
G01 X16.8060 Y-15.2985 F30.00
G01 X16.8312 Y-15.2712 F30.00
G01 X16.8585 Y-15.2460 F30.00
G01 X16.8730 Y-15.2338 F30.00
G01 X16.9024 Y-15.2120 F30.00
G01 X16.9024 Y-14.9457 F30.00
G01 X16.8830 Y-14.9312 F30.00
G01 X16.8732 Y-14.9232 F30.00
G01 X16.8457 Y-14.8982 F30.00
G01 X16.8368 Y-14.8893 F30.00
G01 X16.8118 Y-14.8618 F30.00
G01 X16.8038 Y-14.8520 F30.00
G01 X16.7816 Y-14.8221 F30.00
G01 X16.7746 Y-14.8116 F30.00
G01 X16.7555 Y-14.7798 F30.00
G01 X16.7496 Y-14.7686 F30.00
G01 X16.7337 Y-14.7350 F30.00
G01 X16.7288 Y-14.7233 F30.00
G01 X16.7163 Y-14.6883 F30.00
G01 X16.7126 Y-14.6762 F30.00
G01 X16.7036 Y-14.6402 F30.00
G01 X16.7001 Y-14.6215 F30.00
G01 X16.6950 Y-14.5847 F30.00
G01 X16.6941 Y-14.5721 F30.00
G01 X16.6925 Y-14.5350 F30.00
G01 X16.6926 Y-13.5787 F30.00
G01 X16.6944 Y-13.5416 F30.00
G01 X16.6957 Y-13.5290 F30.00
G01 X16.7011 Y-13.4922 F30.00
G01 X16.7051 Y-13.4737 F30.00
G01 X16.7144 Y-13.4377 F30.00
G01 X16.7266 Y-13.4026 F30.00
G01 X16.7337 Y-13.3850 F30.00
G01 X16.7496 Y-13.3514 F30.00
G01 X16.7587 Y-13.3348 F30.00
G01 X16.7781 Y-13.3031 F30.00
G01 X16.8000 Y-13.2730 F30.00
G01 X16.8118 Y-13.2582 F30.00
G01 X16.8368 Y-13.2307 F30.00
G01 X16.8503 Y-13.2175 F30.00
G01 X16.8781 Y-13.1927 F30.00
G01 X16.9024 Y-13.1743 F30.00
G01 X16.9024 Y-12.2445 F30.00
G01 X16.8693 Y-12.2566 F30.00
G01 X16.8573 Y-12.2606 F30.00
G01 X16.8213 Y-12.2699 F30.00
G01 X16.8090 Y-12.2727 F30.00
G01 X16.7723 Y-12.2785 F30.00
G01 X16.7597 Y-12.2800 F30.00
G01 X16.7163 Y-12.2824 F30.00
G01 X16.2037 Y-12.2824 F30.00
G01 X16.1666 Y-12.2806 F30.00
G01 X16.1477 Y-12.2785 F30.00
G01 X16.1110 Y-12.2727 F30.00
G01 X16.0688 Y-12.2624 F30.00
G01 X16.0567 Y-12.2587 F30.00
G01 X16.0276 Y-12.2484 F30.00
G01 X16.0158 Y-12.2438 F30.00
G01 X16.0043 Y-12.2387 F30.00
G01 X15.9708 Y-12.2225 F30.00
G01 X15.9598 Y-12.2163 F30.00
G01 X15.9281 Y-12.1969 F30.00
G01 X15.8930 Y-12.1712 F30.00
G01 X15.8785 Y-12.1590 F30.00
G01 X15.8512 Y-12.1338 F30.00
G01 X15.8260 Y-12.1065 F30.00
G01 X15.8177 Y-12.0969 F30.00
G01 X15.7953 Y-12.0673 F30.00
G01 X15.7881 Y-12.0569 F30.00
G01 X15.7687 Y-12.0252 F30.00
G01 X15.7625 Y-12.0142 F30.00
G01 X15.7568 Y-12.0029 F30.00
G01 X15.7437 Y-11.9750 F30.00
G01 X15.7388 Y-11.9633 F30.00
G01 X15.7244 Y-11.9223 F30.00
G01 X15.7136 Y-11.8802 F30.00
G01 X15.7111 Y-11.8678 F30.00
G01 X15.7057 Y-11.8310 F30.00
G01 X15.7038 Y-11.8076 F30.00
G01 X15.3475 Y-11.8076 F30.00
G01 X15.3475 Y-11.8750 F30.00
G01 X15.3464 Y-11.9023 F30.00
G01 X15.3448 Y-11.9212 F30.00
G01 X15.3396 Y-11.9545 F30.00
G01 X15.3317 Y-11.9872 F30.00
G01 X15.3280 Y-11.9993 F30.00
G01 X15.3210 Y-12.0191 F30.00
G01 X15.3140 Y-12.0367 F30.00
G01 X15.3050 Y-12.0558 F30.00
G01 X15.2976 Y-12.0703 F30.00
G01 X15.2975 Y-12.8163 F30.00
G01 X15.2951 Y-12.8598 F30.00
G01 X15.2890 Y-12.9028 F30.00
G01 X15.2865 Y-12.9152 F30.00
G01 X15.2791 Y-12.9452 F30.00
G01 X15.2757 Y-12.9573 F30.00
G01 X15.2718 Y-12.9693 F30.00
G01 X15.2613 Y-12.9984 F30.00
G01 X15.2565 Y-13.0101 F30.00
G01 X15.2406 Y-13.0437 F30.00
G01 X15.2346 Y-13.0548 F30.00
G01 X15.2155 Y-13.0867 F30.00
G01 X15.2085 Y-13.0972 F30.00
G01 X15.1863 Y-13.1271 F30.00
G01 X15.1741 Y-13.1416 F30.00
G01 X15.1489 Y-13.1689 F30.00
G01 X14.6375 Y-13.6804 F30.00
G01 X14.6375 Y-13.8013 F30.00
G01 X14.6357 Y-13.8416 F30.00
G01 X14.6345 Y-13.8542 F30.00
G01 X14.6295 Y-13.8879 F30.00
G01 X14.6270 Y-13.9003 F30.00
G01 X14.6203 Y-13.9273 F30.00
G01 X14.6150 Y-13.9455 F30.00
G01 X14.6036 Y-13.9776 F30.00
G01 X14.5987 Y-13.9893 F30.00
G01 X14.5841 Y-14.0201 F30.00
G01 X14.5750 Y-14.0367 F30.00
G01 X14.5572 Y-14.0658 F30.00
G01 X14.5371 Y-14.0934 F30.00
G01 X14.5294 Y-14.1034 F30.00
G01 X14.5211 Y-14.1129 F30.00
G01 X14.4980 Y-14.1380 F30.00
G01 X14.4729 Y-14.1611 F30.00
G01 X14.4634 Y-14.1694 F30.00
G01 X14.4534 Y-14.1771 F30.00
G01 X14.4258 Y-14.1972 F30.00
G01 X14.3967 Y-14.2150 F30.00
G01 X14.3801 Y-14.2241 F30.00
G01 X14.3493 Y-14.2387 F30.00
G01 X14.3376 Y-14.2436 F30.00
G01 X14.3055 Y-14.2550 F30.00
G01 X14.2873 Y-14.2603 F30.00
G01 X14.2603 Y-14.2670 F30.00
G01 X14.2417 Y-14.2705 F30.00
G01 X14.2079 Y-14.2752 F30.00
G01 X14.1739 Y-14.2771 F30.00
G01 X14.1612 Y-14.2775 F30.00
G01 X13.7174 Y-14.2774 F30.00
G01 X13.6771 Y-14.2752 F30.00
G01 X13.6371 Y-14.2695 F30.00
G01 X13.6185 Y-14.2655 F30.00
G01 X13.5916 Y-14.2587 F30.00
G01 X13.5795 Y-14.2550 F30.00
G01 X13.5415 Y-14.2412 F30.00
G01 X13.5049 Y-14.2241 F30.00
G01 X13.4883 Y-14.2150 F30.00
G01 X13.4645 Y-14.2006 F30.00
G01 X13.4540 Y-14.1936 F30.00
G01 X13.4216 Y-14.1694 F30.00
G01 X13.3976 Y-14.1480 F30.00
G00 Z2.0000
G00 X13.4151 Y-13.8362
G01 F10.00
G01 Z-0.0500
G01 F30.00
G01 X13.4190 Y-13.8619 F30.00
G01 X13.4264 Y-13.8914 F30.00
G01 X13.4367 Y-13.9201 F30.00
G01 X13.4477 Y-13.9437 F30.00
G01 X13.4520 Y-13.9516 F30.00
G01 X13.4667 Y-13.9757 F30.00
G01 X13.4836 Y-13.9984 F30.00
G01 X13.5009 Y-14.0177 F30.00
G01 X13.5057 Y-14.0225 F30.00
G01 X13.5232 Y-14.0385 F30.00
G01 X13.5302 Y-14.0442 F30.00
G01 X13.5511 Y-14.0596 F30.00
G01 X13.5773 Y-14.0753 F30.00
G01 X13.6049 Y-14.0883 F30.00
G01 X13.6293 Y-14.0972 F30.00
G01 X13.6379 Y-14.0998 F30.00
G01 X13.6654 Y-14.1064 F30.00
G01 X13.6933 Y-14.1105 F30.00
G01 X13.7238 Y-14.1119 F30.00
G01 X14.1612 Y-14.1119 F30.00
G01 X14.1872 Y-14.1108 F30.00
G01 X14.1962 Y-14.1099 F30.00
G01 X14.2219 Y-14.1060 F30.00
G01 X14.2514 Y-14.0986 F30.00
G01 X14.2801 Y-14.0883 F30.00
G01 X14.3077 Y-14.0753 F30.00
G01 X14.3339 Y-14.0596 F30.00
G01 X14.3584 Y-14.0414 F30.00
G01 X14.3809 Y-14.0209 F30.00
G01 X14.4014 Y-13.9984 F30.00
G01 X14.4170 Y-13.9776 F30.00
G01 X14.4220 Y-13.9701 F30.00
G01 X14.4353 Y-13.9477 F30.00
G01 X14.4465 Y-13.9243 F30.00
G01 X14.4499 Y-13.9159 F30.00
G01 X14.4586 Y-13.8914 F30.00
G01 X14.4664 Y-13.8596 F30.00
G01 X14.4705 Y-13.8317 F30.00
G01 X14.4719 Y-13.8035 F30.00
G01 X14.4719 Y-13.6118 F30.00
G01 X15.0350 Y-13.0486 F30.00
G01 X15.0530 Y-13.0287 F30.00
G01 X15.0572 Y-13.0235 F30.00
G01 X15.0744 Y-13.0000 F30.00
G01 X15.0895 Y-12.9752 F30.00
G01 X15.0937 Y-12.9672 F30.00
G01 X15.1060 Y-12.9409 F30.00
G01 X15.1167 Y-12.9115 F30.00
G01 X15.1245 Y-12.8811 F30.00
G01 X15.1263 Y-12.8723 F30.00
G01 X15.1304 Y-12.8435 F30.00
G01 X15.1320 Y-12.8123 F30.00
G01 X15.1321 Y-12.0219 F30.00
G01 X15.1412 Y-12.0094 F30.00
G01 X15.1523 Y-11.9910 F30.00
G01 X15.1635 Y-11.9676 F30.00
G01 X15.1701 Y-11.9495 F30.00
G01 X15.1727 Y-11.9409 F30.00
G01 X15.1773 Y-11.9222 F30.00
G01 X15.1805 Y-11.9010 F30.00
G01 X15.1819 Y-11.8750 F30.00
G01 X15.1819 Y-11.6421 F30.00
G01 X15.8681 Y-11.6421 F30.00
G01 X15.8681 Y-11.7773 F30.00
G01 X15.8694 Y-11.8040 F30.00
G01 X15.8702 Y-11.8130 F30.00
G01 X15.8746 Y-11.8417 F30.00
G01 X15.8835 Y-11.8764 F30.00
G01 X15.8941 Y-11.9059 F30.00
G01 X15.9064 Y-11.9322 F30.00
G01 X15.9107 Y-11.9401 F30.00
G01 X15.9257 Y-11.9650 F30.00
G01 X15.9429 Y-11.9884 F30.00
G01 X15.9471 Y-11.9937 F30.00
G01 X15.9651 Y-12.0135 F30.00
G01 X15.9715 Y-12.0199 F30.00
G01 X15.9913 Y-12.0379 F30.00
G01 X16.0163 Y-12.0567 F30.00
G01 X16.0238 Y-12.0617 F30.00
G01 X16.0488 Y-12.0766 F30.00
G01 X16.0791 Y-12.0909 F30.00
G01 X16.1107 Y-12.1022 F30.00
G01 X16.1411 Y-12.1099 F30.00
G01 X16.1765 Y-12.1153 F30.00
G01 X16.2100 Y-12.1169 F30.00
G01 X16.7100 Y-12.1169 F30.00
G01 X16.7458 Y-12.1151 F30.00
G01 X16.7767 Y-12.1104 F30.00
G01 X16.8049 Y-12.1034 F30.00
G01 X16.8114 Y-12.1015 F30.00
G01 X16.8366 Y-12.0925 F30.00
G01 X16.8450 Y-12.0891 F30.00
G01 X16.8712 Y-12.0766 F30.00
G01 X16.9000 Y-12.0593 F30.00
G01 X16.9269 Y-12.0393 F30.00
G01 X16.9485 Y-12.0199 F30.00
G01 X16.9549 Y-12.0135 F30.00
G01 X16.9743 Y-11.9919 F30.00
G01 X16.9943 Y-11.9650 F30.00
G01 X17.0116 Y-11.9362 F30.00
G01 X17.0259 Y-11.9059 F30.00
G01 X17.0372 Y-11.8743 F30.00
G01 X17.0454 Y-11.8417 F30.00
G01 X17.0503 Y-11.8085 F30.00
G01 X17.0519 Y-11.7750 F30.00
G01 X17.0519 Y-10.8250 F30.00
G01 X17.0505 Y-10.7937 F30.00
G01 X17.0454 Y-10.7583 F30.00
G01 X17.0384 Y-10.7301 F30.00
G01 X17.0365 Y-10.7236 F30.00
G01 X17.0275 Y-10.6984 F30.00
G01 X17.0241 Y-10.6900 F30.00
G01 X17.0116 Y-10.6638 F30.00
G01 X16.9943 Y-10.6350 F30.00
G01 X16.9743 Y-10.6081 F30.00
G01 X16.9549 Y-10.5865 F30.00
G01 X16.9502 Y-10.5816 F30.00
G01 X16.9303 Y-10.5636 F30.00
G01 X16.9234 Y-10.5579 F30.00
G01 X16.8981 Y-10.5394 F30.00
G01 X16.8751 Y-10.5257 F30.00
G01 X16.8672 Y-10.5214 F30.00
G01 X16.8409 Y-10.5091 F30.00
G01 X16.8093 Y-10.4978 F30.00
G01 X16.7767 Y-10.4896 F30.00
G01 X16.7458 Y-10.4849 F30.00
G01 X16.7100 Y-10.4831 F30.00
G01 X16.2100 Y-10.4831 F30.00
G01 X16.1765 Y-10.4847 F30.00
G01 X16.1433 Y-10.4896 F30.00
G01 X16.1107 Y-10.4978 F30.00
G01 X16.0791 Y-10.5091 F30.00
G01 X16.0488 Y-10.5234 F30.00
G01 X16.0238 Y-10.5383 F30.00
G01 X16.0163 Y-10.5433 F30.00
G01 X15.9913 Y-10.5621 F30.00
G01 X15.9715 Y-10.5801 F30.00
G01 X15.9651 Y-10.5865 F30.00
G01 X15.9471 Y-10.6063 F30.00
G01 X15.9429 Y-10.6116 F30.00
G01 X15.9257 Y-10.6350 F30.00
G01 X15.9107 Y-10.6599 F30.00
G01 X15.9064 Y-10.6678 F30.00
G01 X15.8941 Y-10.6941 F30.00
G01 X15.8835 Y-10.7236 F30.00
G01 X15.8746 Y-10.7583 F30.00
G01 X15.8702 Y-10.7870 F30.00
G01 X15.8694 Y-10.7960 F30.00
G01 X15.8681 Y-10.8227 F30.00
G01 X15.8681 Y-10.9579 F30.00
G01 X15.1819 Y-10.9579 F30.00
G01 X15.1819 Y-10.6977 F30.00
G01 X15.1805 Y-10.6740 F30.00
G01 X15.1777 Y-10.6550 F30.00
G01 X15.1763 Y-10.6484 F30.00
G01 X15.1709 Y-10.6276 F30.00
G01 X15.1626 Y-10.6053 F30.00
G01 X15.1534 Y-10.5859 F30.00
G01 X15.1399 Y-10.5637 F30.00
G01 X15.1270 Y-10.5465 F30.00
G01 X15.1095 Y-10.5273 F30.00
G01 X15.0917 Y-10.5116 F30.00
G01 X15.0763 Y-10.5001 F30.00
G01 X15.0706 Y-10.4964 F30.00
G01 X15.0560 Y-10.4877 F30.00
G01 X15.0500 Y-10.4846 F30.00
G01 X15.0326 Y-10.4765 F30.00
G01 X15.0145 Y-10.4699 F30.00
G01 X15.0059 Y-10.4673 F30.00
G01 X14.9872 Y-10.4627 F30.00
G01 X14.9637 Y-10.4592 F30.00
G01 X14.9400 Y-10.4581 F30.00
G01 X14.6355 Y-10.4582 F30.00
G01 X14.6163 Y-10.4592 F30.00
G01 X14.5928 Y-10.4627 F30.00
G01 X14.5698 Y-10.4685 F30.00
G01 X14.5474 Y-10.4765 F30.00
G01 X14.5259 Y-10.4866 F30.00
G01 X14.5056 Y-10.4988 F30.00
G01 X14.4865 Y-10.5130 F30.00
G01 X14.4722 Y-10.5258 F30.00
G01 X14.4658 Y-10.5322 F30.00
G01 X14.4530 Y-10.5465 F30.00
G01 X14.4388 Y-10.5656 F30.00
G01 X14.4266 Y-10.5859 F30.00
G01 X14.4165 Y-10.6074 F30.00
G01 X14.4085 Y-10.6298 F30.00
G01 X14.4027 Y-10.6528 F30.00
G01 X14.3992 Y-10.6763 F30.00
G01 X14.3981 Y-10.7000 F30.00
G01 X14.3981 Y-11.8773 F30.00
G01 X14.3992 Y-11.8987 F30.00
G01 X14.4023 Y-11.9200 F30.00
G01 X14.4073 Y-11.9409 F30.00
G01 X14.4099 Y-11.9495 F30.00
G01 X14.4165 Y-11.9676 F30.00
G01 X14.4266 Y-11.9891 F30.00
G01 X14.4376 Y-12.0075 F30.00
G01 X14.4479 Y-12.0219 F30.00
G01 X14.4479 Y-12.6683 F30.00
G01 X14.3350 Y-12.7812 F30.00
G01 X14.3116 Y-12.7670 F30.00
G01 X14.3037 Y-12.7627 F30.00
G01 X14.2801 Y-12.7517 F30.00
G01 X14.2557 Y-12.7428 F30.00
G01 X14.2471 Y-12.7402 F30.00
G01 X14.2219 Y-12.7340 F30.00
G01 X14.1895 Y-12.7294 F30.00
G01 X14.1612 Y-12.7281 F30.00
G01 X13.7238 Y-12.7281 F30.00
G01 X13.6955 Y-12.7294 F30.00
G01 X13.6631 Y-12.7340 F30.00
G01 X13.6336 Y-12.7414 F30.00
G01 X13.6049 Y-12.7517 F30.00
G01 X13.5773 Y-12.7647 F30.00
G01 X13.5511 Y-12.7804 F30.00
G01 X13.5266 Y-12.7986 F30.00
G01 X13.5041 Y-12.8191 F30.00
G01 X13.4865 Y-12.8382 F30.00
G01 X13.4808 Y-12.8452 F30.00
G01 X13.4667 Y-12.8643 F30.00
G01 X13.4630 Y-12.8699 F30.00
G01 X13.4497 Y-12.8923 F30.00
G01 X13.4367 Y-12.9199 F30.00
G01 X13.4264 Y-12.9486 F30.00
G01 X13.4200 Y-12.9737 F30.00
G01 X13.4182 Y-12.9826 F30.00
G01 X13.4144 Y-13.0105 F30.00
G01 X13.4131 Y-13.0388 F30.00
G01 X13.4131 Y-13.8012 F30.00
G01 X13.4142 Y-13.8272 F30.00
G01 X13.4151 Y-13.8362 F30.00
G00 Z2.0000
G00 X12.0932 Y-12.5661
G01 F10.00
G01 Z-0.0500
G01 F30.00
G01 X12.1292 Y-12.5717 F30.00
G01 X12.1415 Y-12.5745 F30.00
G01 X12.1745 Y-12.5830 F30.00
G01 X12.2067 Y-12.5942 F30.00
G01 X12.2185 Y-12.5988 F30.00
G01 X12.2551 Y-12.6159 F30.00
G01 X12.2663 Y-12.6218 F30.00
G01 X12.2955 Y-12.6394 F30.00
G01 X12.3060 Y-12.6464 F30.00
G01 X12.3284 Y-12.6629 F30.00
G01 X12.3432 Y-12.6747 F30.00
G01 X12.3638 Y-12.6933 F30.00
G01 X12.3730 Y-12.7020 F30.00
G01 X12.3824 Y-12.7120 F30.00
G01 X12.3824 Y-12.2820 F30.00
G01 X12.3668 Y-12.3351 F30.00
G01 X12.3629 Y-12.3473 F30.00
G01 X12.3560 Y-12.3651 F30.00
G01 X12.3506 Y-12.3767 F30.00
G01 X12.3414 Y-12.3936 F30.00
G01 X12.3347 Y-12.4044 F30.00
G01 X12.3273 Y-12.4149 F30.00
G01 X12.3154 Y-12.4299 F30.00
G01 X12.3024 Y-12.4440 F30.00
G01 X12.2884 Y-12.4571 F30.00
G01 X12.2307 Y-12.5070 F30.00
G01 X12.2154 Y-12.5187 F30.00
G01 X12.1992 Y-12.5292 F30.00
G01 X12.1880 Y-12.5356 F30.00
G01 X12.1765 Y-12.5413 F30.00
G01 X12.1647 Y-12.5465 F30.00
G01 X12.1527 Y-12.5511 F30.00
G01 X12.1404 Y-12.5551 F30.00
G01 X12.1280 Y-12.5584 F30.00
G01 X12.0932 Y-12.5661 F30.00
G00 Z2.0000
G00 X13.0095 Y-10.2925
G01 F10.00
G01 Z-0.0500
G01 F30.00
G01 X13.0463 Y-10.2926 F30.00
G01 X13.0736 Y-10.2940 F30.00
G01 X13.0862 Y-10.2952 F30.00
G01 X13.1195 Y-10.3004 F30.00
G01 X13.1318 Y-10.3031 F30.00
G01 X13.1583 Y-10.3101 F30.00
G01 X13.1841 Y-10.3190 F30.00
G01 X13.1959 Y-10.3236 F30.00
G01 X13.2208 Y-10.3350 F30.00
G01 X13.2321 Y-10.3407 F30.00
G01 X13.2431 Y-10.3469 F30.00
G01 X13.2664 Y-10.3612 F30.00
G01 X13.2936 Y-10.3811 F30.00
G01 X13.3033 Y-10.3891 F30.00
G01 X13.3236 Y-10.4075 F30.00
G01 X13.3325 Y-10.4164 F30.00
G01 X13.3509 Y-10.4367 F30.00
G01 X13.3589 Y-10.4464 F30.00
G01 X13.3752 Y-10.4684 F30.00
G01 X13.3822 Y-10.4789 F30.00
G01 X13.3931 Y-10.4969 F30.00
G01 X13.3993 Y-10.5079 F30.00
G01 X13.4050 Y-10.5192 F30.00
G01 X13.4140 Y-10.5383 F30.00
G01 X13.4210 Y-10.5559 F30.00
G01 X13.4280 Y-10.5757 F30.00
G01 X13.4317 Y-10.5878 F30.00
G01 X13.4383 Y-10.6143 F30.00
G01 X13.4408 Y-10.6267 F30.00
G01 X13.4455 Y-10.6601 F30.00
G01 X13.4464 Y-10.6727 F30.00
G01 X13.4475 Y-10.7000 F30.00
G01 X13.4474 Y-11.8813 F30.00
G01 X13.4460 Y-11.9086 F30.00
G01 X13.4440 Y-11.9275 F30.00
G01 X13.4396 Y-11.9545 F30.00
G01 X13.4333 Y-11.9811 F30.00
G01 X13.4280 Y-11.9993 F30.00
G01 X13.4164 Y-12.0309 F30.00
G01 X13.4050 Y-12.0558 F30.00
G01 X13.3976 Y-12.0703 F30.00
G01 X13.3976 Y-12.6920 F30.00
G01 X13.4168 Y-12.6747 F30.00
G01 X13.4266 Y-12.6667 F30.00
G01 X13.4592 Y-12.6428 F30.00
G01 X13.4883 Y-12.6250 F30.00
G01 X13.4993 Y-12.6188 F30.00
G01 X13.5300 Y-12.6039 F30.00
G01 X13.5415 Y-12.5988 F30.00
G01 X13.5533 Y-12.5942 F30.00
G01 X13.5795 Y-12.5850 F30.00
G01 X13.5916 Y-12.5813 F30.00
G01 X13.6308 Y-12.5717 F30.00
G01 X13.6708 Y-12.5655 F30.00
G01 X13.6897 Y-12.5639 F30.00
G01 X13.7238 Y-12.5625 F30.00
G01 X14.1676 Y-12.5626 F30.00
G01 X14.2016 Y-12.5643 F30.00
G01 X14.2205 Y-12.5664 F30.00
G01 X14.2542 Y-12.5717 F30.00
G01 X14.2824 Y-12.5784 F30.00
G01 X14.2824 Y-12.0703 F30.00
G01 X14.2750 Y-12.0558 F30.00
G01 X14.2636 Y-12.0309 F30.00
G01 X14.2520 Y-11.9993 F30.00
G01 X14.2467 Y-11.9811 F30.00
G01 X14.2404 Y-11.9545 F30.00
G01 X14.2360 Y-11.9275 F30.00
G01 X14.2340 Y-11.9086 F30.00
G01 X14.2326 Y-11.8813 F30.00
G01 X14.2325 Y-10.7000 F30.00
G01 X14.2336 Y-10.6727 F30.00
G01 X14.2352 Y-10.6538 F30.00
G01 X14.2392 Y-10.6267 F30.00
G01 X14.2431 Y-10.6082 F30.00
G01 X14.2501 Y-10.5817 F30.00
G01 X14.2590 Y-10.5559 F30.00
G01 X14.2636 Y-10.5441 F30.00
G01 X14.2750 Y-10.5192 F30.00
G01 X14.2837 Y-10.5024 F30.00
G01 X14.2978 Y-10.4789 F30.00
G01 X14.3085 Y-10.4633 F30.00
G01 X14.3250 Y-10.4415 F30.00
G01 X14.3432 Y-10.4210 F30.00
G01 X14.3564 Y-10.4075 F30.00
G01 X14.3767 Y-10.3891 F30.00
G01 X14.3915 Y-10.3773 F30.00
G01 X14.4136 Y-10.3612 F30.00
G01 X14.4369 Y-10.3469 F30.00
G01 X14.4535 Y-10.3377 F30.00
G01 X14.4841 Y-10.3236 F30.00
G01 X14.5097 Y-10.3140 F30.00
G01 X14.5278 Y-10.3083 F30.00
G01 X14.5605 Y-10.3004 F30.00
G01 X14.5875 Y-10.2960 F30.00
G01 X14.6064 Y-10.2940 F30.00
G01 X14.6400 Y-10.2925 F30.00
G01 X14.9400 Y-10.2925 F30.00
G01 X14.9526 Y-10.2929 F30.00
G01 X14.9799 Y-10.2945 F30.00
G01 X15.0133 Y-10.2992 F30.00
G01 X15.0318 Y-10.3031 F30.00
G01 X15.0522 Y-10.3083 F30.00
G01 X15.0643 Y-10.3120 F30.00
G01 X15.0959 Y-10.3236 F30.00
G01 X15.1208 Y-10.3350 F30.00
G01 X15.1321 Y-10.3407 F30.00
G01 X15.1431 Y-10.3469 F30.00
G01 X15.1664 Y-10.3612 F30.00
G01 X15.1885 Y-10.3773 F30.00
G01 X15.1985 Y-10.3850 F30.00
G01 X15.2081 Y-10.3933 F30.00
G01 X15.2281 Y-10.4119 F30.00
G01 X15.2509 Y-10.4367 F30.00
G01 X15.2589 Y-10.4464 F30.00
G01 X15.2752 Y-10.4684 F30.00
G01 X15.2822 Y-10.4789 F30.00
G01 X15.2931 Y-10.4969 F30.00
G01 X15.2993 Y-10.5079 F30.00
G01 X15.3050 Y-10.5192 F30.00
G01 X15.3140 Y-10.5383 F30.00
G01 X15.3210 Y-10.5559 F30.00
G01 X15.3280 Y-10.5757 F30.00
G01 X15.3317 Y-10.5878 F30.00
G01 X15.3383 Y-10.6143 F30.00
G01 X15.3408 Y-10.6267 F30.00
G01 X15.3455 Y-10.6601 F30.00
G01 X15.3471 Y-10.6874 F30.00
G01 X15.3475 Y-10.7000 F30.00
G01 X15.3475 Y-10.7924 F30.00
G01 X15.7038 Y-10.7924 F30.00
G01 X15.7057 Y-10.7690 F30.00
G01 X15.7123 Y-10.7260 F30.00
G01 X15.7226 Y-10.6838 F30.00
G01 X15.7284 Y-10.6657 F30.00
G01 X15.7412 Y-10.6308 F30.00
G01 X15.7596 Y-10.5914 F30.00
G01 X15.7655 Y-10.5802 F30.00
G01 X15.7813 Y-10.5537 F30.00
G01 X15.7881 Y-10.5431 F30.00
G01 X15.7953 Y-10.5327 F30.00
G01 X15.8177 Y-10.5031 F30.00
G01 X15.8468 Y-10.4707 F30.00
G01 X15.8557 Y-10.4618 F30.00
G01 X15.8785 Y-10.4410 F30.00
G01 X15.8930 Y-10.4288 F30.00
G01 X15.9281 Y-10.4031 F30.00
G01 X15.9652 Y-10.3805 F30.00
G01 X15.9764 Y-10.3746 F30.00
G01 X16.0043 Y-10.3613 F30.00
G01 X16.0158 Y-10.3562 F30.00
G01 X16.0276 Y-10.3516 F30.00
G01 X16.0627 Y-10.3394 F30.00
G01 X16.1048 Y-10.3286 F30.00
G01 X16.1172 Y-10.3261 F30.00
G01 X16.1477 Y-10.3215 F30.00
G01 X16.1603 Y-10.3200 F30.00
G01 X16.1729 Y-10.3191 F30.00
G01 X16.2100 Y-10.3175 F30.00
G01 X16.7100 Y-10.3175 F30.00
G01 X16.7471 Y-10.3191 F30.00
G01 X16.7597 Y-10.3200 F30.00
G01 X16.7723 Y-10.3215 F30.00
G01 X16.8090 Y-10.3273 F30.00
G01 X16.8451 Y-10.3360 F30.00
G01 X16.8573 Y-10.3394 F30.00
G01 X16.8693 Y-10.3434 F30.00
G01 X16.9024 Y-10.3555 F30.00
G01 X16.9024 Y-8.2275 F30.00
G01 X16.8757 Y-8.2032 F30.00
G01 X16.8668 Y-8.1943 F30.00
G01 X16.8418 Y-8.1668 F30.00
G01 X16.8300 Y-8.1520 F30.00
G01 X16.8116 Y-8.1271 F30.00
G01 X16.8013 Y-8.1113 F30.00
G01 X16.7825 Y-8.0792 F30.00
G01 X16.7663 Y-8.0457 F30.00
G01 X16.7588 Y-8.0283 F30.00
G01 X16.7463 Y-7.9933 F30.00
G01 X16.7426 Y-7.9812 F30.00
G01 X16.7336 Y-7.9452 F30.00
G01 X16.7311 Y-7.9328 F30.00
G01 X16.7257 Y-7.8960 F30.00
G01 X16.7244 Y-7.8834 F30.00
G01 X16.7226 Y-7.8463 F30.00
G01 X16.7225 Y-6.9400 F30.00
G01 X16.7244 Y-6.8966 F30.00
G01 X16.7265 Y-6.8777 F30.00
G01 X16.7323 Y-6.8410 F30.00
G01 X16.7426 Y-6.7988 F30.00
G01 X16.7484 Y-6.7807 F30.00
G01 X16.7612 Y-6.7458 F30.00
G01 X16.7796 Y-6.7064 F30.00
G01 X16.7887 Y-6.6898 F30.00
G01 X16.8013 Y-6.6687 F30.00
G01 X16.8097 Y-6.6557 F30.00
G01 X16.7911 Y-6.6669 F30.00
G01 X16.7241 Y-6.7034 F30.00
G01 X16.7126 Y-6.7090 F30.00
G01 X16.6948 Y-6.7162 F30.00
G01 X16.6827 Y-6.7203 F30.00
G01 X16.6704 Y-6.7238 F30.00
G01 X16.6517 Y-6.7279 F30.00
G01 X16.6390 Y-6.7298 F30.00
G01 X16.6263 Y-6.7311 F30.00
G01 X16.6072 Y-6.7319 F30.00
G01 X16.5880 Y-6.7312 F30.00
G01 X16.5183 Y-6.7263 F30.00
G01 X16.5055 Y-6.7250 F30.00
G01 X16.4928 Y-6.7231 F30.00
G01 X16.4801 Y-6.7206 F30.00
G01 X16.4615 Y-6.7157 F30.00
G01 X16.4493 Y-6.7116 F30.00
G01 X16.4373 Y-6.7070 F30.00
G01 X16.4255 Y-6.7017 F30.00
G01 X16.4141 Y-6.6959 F30.00
G01 X16.3975 Y-6.6860 F30.00
G01 X16.3503 Y-6.6557 F30.00
G01 X16.3587 Y-6.6687 F30.00
G01 X16.3713 Y-6.6898 F30.00
G01 X16.3804 Y-6.7064 F30.00
G01 X16.3988 Y-6.7458 F30.00
G01 X16.4116 Y-6.7807 F30.00
G01 X16.4174 Y-6.7988 F30.00
G01 X16.4277 Y-6.8410 F30.00
G01 X16.4335 Y-6.8777 F30.00
G01 X16.4356 Y-6.8966 F30.00
G01 X16.4375 Y-6.9400 F30.00
G01 X16.4375 Y-7.8400 F30.00
G01 X16.4359 Y-7.8771 F30.00
G01 X16.4350 Y-7.8897 F30.00
G01 X16.4299 Y-7.9265 F30.00
G01 X16.4264 Y-7.9452 F30.00
G01 X16.4174 Y-7.9812 F30.00
G01 X16.4116 Y-7.9993 F30.00
G01 X16.3988 Y-8.0342 F30.00
G01 X16.3832 Y-8.0679 F30.00
G01 X16.3745 Y-8.0848 F30.00
G01 X16.3554 Y-8.1166 F30.00
G01 X16.3447 Y-8.1323 F30.00
G01 X16.3223 Y-8.1619 F30.00
G01 X16.3140 Y-8.1715 F30.00
G01 X16.2888 Y-8.1988 F30.00
G01 X16.2615 Y-8.2240 F30.00
G01 X16.2470 Y-8.2362 F30.00
G01 X16.2171 Y-8.2584 F30.00
G01 X16.2013 Y-8.2687 F30.00
G01 X16.1692 Y-8.2875 F30.00
G01 X16.1357 Y-8.3037 F30.00
G01 X16.1183 Y-8.3112 F30.00
G01 X16.0833 Y-8.3237 F30.00
G01 X16.0651 Y-8.3290 F30.00
G01 X16.0290 Y-8.3377 F30.00
G01 X15.9923 Y-8.3435 F30.00
G01 X15.9734 Y-8.3456 F30.00
G01 X15.9300 Y-8.3475 F30.00
G01 X15.3987 Y-8.3474 F30.00
G01 X15.3616 Y-8.3456 F30.00
G01 X15.3427 Y-8.3435 F30.00
G01 X15.3060 Y-8.3377 F30.00
G01 X15.2638 Y-8.3274 F30.00
G01 X15.2457 Y-8.3216 F30.00
G01 X15.2167 Y-8.3112 F30.00
G01 X15.2050 Y-8.3063 F30.00
G01 X15.1658 Y-8.2875 F30.00
G01 X15.1284 Y-8.2654 F30.00
G01 X15.1127 Y-8.2547 F30.00
G01 X15.0880 Y-8.2362 F30.00
G01 X15.0782 Y-8.2282 F30.00
G01 X15.0462 Y-8.1988 F30.00
G01 X15.0168 Y-8.1668 F30.00
G01 X15.0088 Y-8.1570 F30.00
G01 X14.9903 Y-8.1323 F30.00
G01 X14.9796 Y-8.1166 F30.00
G01 X14.9575 Y-8.0792 F30.00
G01 X14.9387 Y-8.0400 F30.00
G01 X14.9316 Y-8.0224 F30.00
G01 X14.9213 Y-7.9933 F30.00
G01 X14.9176 Y-7.9812 F30.00
G01 X14.9073 Y-7.9390 F30.00
G01 X14.9009 Y-7.8976 F30.00
G01 X14.7459 Y-7.8976 F30.00
G01 X14.7334 Y-7.9171 F30.00
G01 X14.7073 Y-7.9519 F30.00
G01 X14.6825 Y-7.9797 F30.00
G01 X14.6693 Y-7.9932 F30.00
G01 X14.6418 Y-8.0182 F30.00
G01 X14.6270 Y-8.0300 F30.00
G01 X14.5969 Y-8.0519 F30.00
G01 X14.5652 Y-8.0713 F30.00
G01 X14.5486 Y-8.0804 F30.00
G01 X14.5150 Y-8.0963 F30.00
G01 X14.4974 Y-8.1034 F30.00
G01 X14.4623 Y-8.1156 F30.00
G01 X14.4263 Y-8.1249 F30.00
G01 X14.4078 Y-8.1289 F30.00
G01 X14.3710 Y-8.1343 F30.00
G01 X14.3476 Y-8.1362 F30.00
G01 X14.3476 Y-8.6297 F30.00
G01 X14.3550 Y-8.6442 F30.00
G01 X14.3664 Y-8.6691 F30.00
G01 X14.3780 Y-8.7007 F30.00
G01 X14.3833 Y-8.7189 F30.00
G01 X14.3896 Y-8.7455 F30.00
G01 X14.3940 Y-8.7725 F30.00
G01 X14.3960 Y-8.7914 F30.00
G01 X14.3974 Y-8.8187 F30.00
G01 X14.3974 Y-10.0063 F30.00
G01 X14.3960 Y-10.0336 F30.00
G01 X14.3948 Y-10.0462 F30.00
G01 X14.3908 Y-10.0733 F30.00
G01 X14.3883 Y-10.0857 F30.00
G01 X14.3817 Y-10.1122 F30.00
G01 X14.3780 Y-10.1243 F30.00
G01 X14.3688 Y-10.1501 F30.00
G01 X14.3640 Y-10.1617 F30.00
G01 X14.3523 Y-10.1865 F30.00
G01 X14.3463 Y-10.1976 F30.00
G01 X14.3322 Y-10.2211 F30.00
G01 X14.3252 Y-10.2316 F30.00
G01 X14.3089 Y-10.2536 F30.00
G01 X14.3009 Y-10.2633 F30.00
G01 X14.2825 Y-10.2836 F30.00
G01 X14.2736 Y-10.2925 F30.00
G01 X14.2485 Y-10.3150 F30.00
G01 X14.2216 Y-10.3352 F30.00
G01 X14.2111 Y-10.3422 F30.00
G01 X14.1931 Y-10.3531 F30.00
G01 X14.1821 Y-10.3593 F30.00
G01 X14.1708 Y-10.3650 F30.00
G01 X14.1517 Y-10.3740 F30.00
G01 X14.1401 Y-10.3788 F30.00
G01 X14.1083 Y-10.3899 F30.00
G01 X14.0757 Y-10.3983 F30.00
G01 X14.0633 Y-10.4008 F30.00
G01 X14.0425 Y-10.4040 F30.00
G01 X14.0236 Y-10.4060 F30.00
G01 X13.9900 Y-10.4075 F30.00
G01 X13.6837 Y-10.4074 F30.00
G01 X13.6564 Y-10.4060 F30.00
G01 X13.6375 Y-10.4040 F30.00
G01 X13.6105 Y-10.3996 F30.00
G01 X13.5778 Y-10.3917 F30.00
G01 X13.5657 Y-10.3880 F30.00
G01 X13.5459 Y-10.3810 F30.00
G01 X13.5341 Y-10.3764 F30.00
G01 X13.5225 Y-10.3713 F30.00
G01 X13.5035 Y-10.3623 F30.00
G01 X13.4924 Y-10.3563 F30.00
G01 X13.4636 Y-10.3388 F30.00
G01 X13.4364 Y-10.3189 F30.00
G01 X13.4267 Y-10.3109 F30.00
G01 X13.4110 Y-10.2968 F30.00
G01 X13.4019 Y-10.2881 F30.00
G01 X13.3932 Y-10.2790 F30.00
G01 X13.3791 Y-10.2633 F30.00
G01 X13.3711 Y-10.2536 F30.00
G01 X13.3512 Y-10.2264 F30.00
G01 X13.3337 Y-10.1976 F30.00
G01 X13.3277 Y-10.1865 F30.00
G01 X13.3187 Y-10.1675 F30.00
G01 X13.3136 Y-10.1559 F30.00
G01 X13.3090 Y-10.1441 F30.00
G01 X13.3020 Y-10.1243 F30.00
G01 X13.2983 Y-10.1122 F30.00
G01 X13.2904 Y-10.0795 F30.00
G01 X13.2882 Y-10.0670 F30.00
G01 X13.2845 Y-10.0399 F30.00
G01 X13.2828 Y-10.0108 F30.00
G01 X13.2668 Y-10.0651 F30.00
G01 X13.2629 Y-10.0773 F30.00
G01 X13.2584 Y-10.0892 F30.00
G01 X13.2506 Y-10.1067 F30.00
G01 X13.2414 Y-10.1236 F30.00
G01 X13.2311 Y-10.1397 F30.00
G01 X13.2195 Y-10.1550 F30.00
G01 X13.2112 Y-10.1647 F30.00
G01 X13.2024 Y-10.1740 F30.00
G01 X13.1884 Y-10.1871 F30.00
G01 X13.1307 Y-10.2370 F30.00
G01 X13.1154 Y-10.2487 F30.00
G01 X13.0992 Y-10.2592 F30.00
G01 X13.0880 Y-10.2656 F30.00
G01 X13.0765 Y-10.2713 F30.00
G01 X13.0587 Y-10.2789 F30.00
G01 X13.0466 Y-10.2832 F30.00
G01 X13.0342 Y-10.2868 F30.00
G01 X13.0095 Y-10.2925 F30.00
G00 Z2.0000
G00 X13.1959 Y-8.1081
G01 F10.00
G01 Z-0.0500
G01 F30.00
G01 X13.2092 Y-8.1201 F30.00
G01 X13.2179 Y-8.1288 F30.00
G01 X13.2687 Y-8.1853 F30.00
G01 X13.2807 Y-8.1997 F30.00
G01 X13.2917 Y-8.2149 F30.00
G01 X13.2983 Y-8.2254 F30.00
G01 X13.3045 Y-8.2363 F30.00
G01 X13.3101 Y-8.2474 F30.00
G01 X13.3175 Y-8.2646 F30.00
G01 X13.3217 Y-8.2764 F30.00
G01 X13.3253 Y-8.2883 F30.00
G01 X13.3324 Y-8.3182 F30.00
G01 X13.3324 Y-8.1362 F30.00
G01 X13.3090 Y-8.1343 F30.00
G01 X13.2660 Y-8.1277 F30.00
G01 X13.2238 Y-8.1174 F30.00
G01 X13.2117 Y-8.1137 F30.00
G01 X13.1959 Y-8.1081 F30.00
G00 Z2.0000
G00 X13.0252 Y-7.6680
G01 F10.00
G01 Z-0.0500
G01 F30.00
G01 X13.0292 Y-7.6945 F30.00
G01 X13.0306 Y-7.7011 F30.00
G01 X13.0378 Y-7.7293 F30.00
G01 X13.0475 Y-7.7566 F30.00
G01 X13.0509 Y-7.7650 F30.00
G01 X13.0624 Y-7.7892 F30.00
G01 X13.0783 Y-7.8162 F30.00
G01 X13.0833 Y-7.8237 F30.00
G01 X13.1007 Y-7.8469 F30.00
G01 X13.1232 Y-7.8718 F30.00
G01 X13.1481 Y-7.8943 F30.00
G01 X13.1769 Y-7.9156 F30.00
G01 X13.2038 Y-7.9316 F30.00
G01 X13.2341 Y-7.9459 F30.00
G01 X13.2657 Y-7.9572 F30.00
G01 X13.3005 Y-7.9658 F30.00
G01 X13.3315 Y-7.9703 F30.00
G01 X13.3627 Y-7.9719 F30.00
G01 X13.4979 Y-7.9719 F30.00
G01 X13.4979 Y-8.6781 F30.00
G01 X13.4876 Y-8.6925 F30.00
G01 X13.4766 Y-8.7109 F30.00
G01 X13.4665 Y-8.7324 F30.00
G01 X13.4599 Y-8.7505 F30.00
G01 X13.4573 Y-8.7591 F30.00
G01 X13.4523 Y-8.7800 F30.00
G01 X13.4492 Y-8.8013 F30.00
G01 X13.4481 Y-8.8227 F30.00
G01 X13.4481 Y-10.0023 F30.00
G01 X13.4492 Y-10.0237 F30.00
G01 X13.4527 Y-10.0472 F30.00
G01 X13.4585 Y-10.0702 F30.00
G01 X13.4665 Y-10.0926 F30.00
G01 X13.4766 Y-10.1141 F30.00
G01 X13.4864 Y-10.1306 F30.00
G01 X13.4914 Y-10.1381 F30.00
G01 X13.5030 Y-10.1535 F30.00
G01 X13.5158 Y-10.1678 F30.00
G01 X13.5222 Y-10.1742 F30.00
G01 X13.5365 Y-10.1870 F30.00
G01 X13.5556 Y-10.2012 F30.00
G01 X13.5720 Y-10.2112 F30.00
G01 X13.5800 Y-10.2154 F30.00
G01 X13.5953 Y-10.2226 F30.00
G01 X13.6016 Y-10.2252 F30.00
G01 X13.6198 Y-10.2315 F30.00
G01 X13.6384 Y-10.2363 F30.00
G01 X13.6450 Y-10.2377 F30.00
G01 X13.6640 Y-10.2405 F30.00
G01 X13.6877 Y-10.2419 F30.00
G01 X13.9900 Y-10.2419 F30.00
G01 X14.0092 Y-10.2411 F30.00
G01 X14.0182 Y-10.2402 F30.00
G01 X14.0372 Y-10.2373 F30.00
G01 X14.0559 Y-10.2327 F30.00
G01 X14.0624 Y-10.2309 F30.00
G01 X14.0784 Y-10.2252 F30.00
G01 X14.0867 Y-10.2217 F30.00
G01 X14.1041 Y-10.2134 F30.00
G01 X14.1244 Y-10.2012 F30.00
G01 X14.1399 Y-10.1898 F30.00
G01 X14.1469 Y-10.1841 F30.00
G01 X14.1611 Y-10.1711 F30.00
G01 X14.1770 Y-10.1535 F30.00
G01 X14.1912 Y-10.1344 F30.00
G01 X14.2012 Y-10.1180 F30.00
G01 X14.2054 Y-10.1100 F30.00
G01 X14.2135 Y-10.0926 F30.00
G01 X14.2215 Y-10.0702 F30.00
G01 X14.2263 Y-10.0516 F30.00
G01 X14.2281 Y-10.0428 F30.00
G01 X14.2305 Y-10.0260 F30.00
G01 X14.2311 Y-10.0192 F30.00
G01 X14.2319 Y-10.0000 F30.00
G01 X14.2319 Y-8.8227 F30.00
G01 X14.2308 Y-8.8013 F30.00
G01 X14.2277 Y-8.7800 F30.00
G01 X14.2227 Y-8.7591 F30.00
G01 X14.2201 Y-8.7505 F30.00
G01 X14.2135 Y-8.7324 F30.00
G01 X14.2034 Y-8.7109 F30.00
G01 X14.1924 Y-8.6925 F30.00
G01 X14.1821 Y-8.6781 F30.00
G01 X14.1821 Y-7.9719 F30.00
G01 X14.3173 Y-7.9719 F30.00
G01 X14.3440 Y-7.9706 F30.00
G01 X14.3530 Y-7.9698 F30.00
G01 X14.3817 Y-7.9654 F30.00
G01 X14.4143 Y-7.9572 F30.00
G01 X14.4459 Y-7.9459 F30.00
G01 X14.4762 Y-7.9316 F30.00
G01 X14.5050 Y-7.9143 F30.00
G01 X14.5319 Y-7.8943 F30.00
G01 X14.5568 Y-7.8718 F30.00
G01 X14.5793 Y-7.8469 F30.00
G01 X14.5993 Y-7.8200 F30.00
G01 X14.6166 Y-7.7912 F30.00
G01 X14.6309 Y-7.7609 F30.00
G01 X14.6413 Y-7.7321 F30.00
G01 X15.0631 Y-7.7321 F30.00
G01 X15.0631 Y-7.8423 F30.00
G01 X15.0644 Y-7.8690 F30.00
G01 X15.0652 Y-7.8780 F30.00
G01 X15.0696 Y-7.9067 F30.00
G01 X15.0778 Y-7.9393 F30.00
G01 X15.0891 Y-7.9709 F30.00
G01 X15.1024 Y-7.9992 F30.00
G01 X15.1207 Y-8.0300 F30.00
G01 X15.1407 Y-8.0569 F30.00
G01 X15.1632 Y-8.0818 F30.00
G01 X15.1847 Y-8.1014 F30.00
G01 X15.1898 Y-8.1057 F30.00
G01 X15.2113 Y-8.1217 F30.00
G01 X15.2188 Y-8.1267 F30.00
G01 X15.2438 Y-8.1416 F30.00
G01 X15.2762 Y-8.1568 F30.00
G01 X15.3057 Y-8.1672 F30.00
G01 X15.3383 Y-8.1754 F30.00
G01 X15.3715 Y-8.1803 F30.00
G01 X15.4005 Y-8.1818 F30.00
G01 X15.9323 Y-8.1819 F30.00
G01 X15.9590 Y-8.1806 F30.00
G01 X15.9680 Y-8.1798 F30.00
G01 X15.9967 Y-8.1754 F30.00
G01 X16.0249 Y-8.1684 F30.00
G01 X16.0335 Y-8.1658 F30.00
G01 X16.0609 Y-8.1559 F30.00
G01 X16.0912 Y-8.1416 F30.00
G01 X16.1162 Y-8.1267 F30.00
G01 X16.1237 Y-8.1217 F30.00
G01 X16.1469 Y-8.1043 F30.00
G01 X16.1685 Y-8.0849 F30.00
G01 X16.1749 Y-8.0785 F30.00
G01 X16.1943 Y-8.0569 F30.00
G01 X16.2143 Y-8.0300 F30.00
G01 X16.2316 Y-8.0012 F30.00
G01 X16.2441 Y-7.9750 F30.00
G01 X16.2475 Y-7.9666 F30.00
G01 X16.2572 Y-7.9393 F30.00
G01 X16.2644 Y-7.9111 F30.00
G01 X16.2662 Y-7.9023 F30.00
G01 X16.2701 Y-7.8758 F30.00
G01 X16.2719 Y-7.8400 F30.00
G01 X16.2719 Y-6.9400 F30.00
G01 X16.2706 Y-6.9110 F30.00
G01 X16.2698 Y-6.9020 F30.00
G01 X16.2654 Y-6.8733 F30.00
G01 X16.2584 Y-6.8451 F30.00
G01 X16.2565 Y-6.8386 F30.00
G01 X16.2475 Y-6.8134 F30.00
G01 X16.2441 Y-6.8050 F30.00
G01 X16.2316 Y-6.7788 F30.00
G01 X16.2143 Y-6.7500 F30.00
G01 X16.1943 Y-6.7231 F30.00
G01 X16.1749 Y-6.7015 F30.00
G01 X16.1702 Y-6.6966 F30.00
G01 X16.1503 Y-6.6786 F30.00
G01 X16.1434 Y-6.6729 F30.00
G01 X16.1200 Y-6.6557 F30.00
G01 X16.0912 Y-6.6384 F30.00
G01 X16.0609 Y-6.6241 F30.00
G01 X16.0335 Y-6.6142 F30.00
G01 X16.0249 Y-6.6116 F30.00
G01 X15.9989 Y-6.6051 F30.00
G01 X15.9923 Y-6.6038 F30.00
G01 X15.9635 Y-6.5997 F30.00
G01 X15.9323 Y-6.5981 F30.00
G01 X15.4050 Y-6.5981 F30.00
G01 X15.3760 Y-6.5994 F30.00
G01 X15.3670 Y-6.6002 F30.00
G01 X15.3383 Y-6.6046 F30.00
G01 X15.3057 Y-6.6128 F30.00
G01 X15.2741 Y-6.6241 F30.00
G01 X15.2458 Y-6.6374 F30.00
G01 X15.2150 Y-6.6557 F30.00
G01 X15.1916 Y-6.6729 F30.00
G01 X15.1847 Y-6.6786 F30.00
G01 X15.1648 Y-6.6966 F30.00
G01 X15.1601 Y-6.7015 F30.00
G01 X15.1407 Y-6.7231 F30.00
G01 X15.1207 Y-6.7500 F30.00
G01 X15.1034 Y-6.7788 F30.00
G01 X15.0900 Y-6.8071 F30.00
G01 X15.0792 Y-6.8365 F30.00
G01 X15.0766 Y-6.8451 F30.00
G01 X15.0696 Y-6.8733 F30.00
G01 X15.0649 Y-6.9042 F30.00
G01 X15.0631 Y-6.9377 F30.00
G01 X15.0631 Y-7.0479 F30.00
G01 X14.6466 Y-7.0479 F30.00
G01 X14.6415 Y-7.0286 F30.00
G01 X14.6300 Y-6.9971 F30.00
G01 X14.6166 Y-6.9688 F30.00
G01 X14.6006 Y-6.9419 F30.00
G01 X14.5821 Y-6.9166 F30.00
G01 X14.5764 Y-6.9097 F30.00
G01 X14.5568 Y-6.8882 F30.00
G01 X14.5337 Y-6.8671 F30.00
G01 X14.5087 Y-6.8483 F30.00
G01 X14.5012 Y-6.8433 F30.00
G01 X14.4762 Y-6.8284 F30.00
G01 X14.4459 Y-6.8141 F30.00
G01 X14.4185 Y-6.8042 F30.00
G01 X14.4099 Y-6.8016 F30.00
G01 X14.3817 Y-6.7946 F30.00
G01 X14.3530 Y-6.7902 F30.00
G01 X14.3440 Y-6.7894 F30.00
G01 X14.3150 Y-6.7881 F30.00
G01 X13.3650 Y-6.7881 F30.00
G01 X13.3360 Y-6.7894 F30.00
G01 X13.3270 Y-6.7902 F30.00
G01 X13.2983 Y-6.7946 F30.00
G01 X13.2701 Y-6.8016 F30.00
G01 X13.2615 Y-6.8042 F30.00
G01 X13.2341 Y-6.8141 F30.00
G01 X13.2078 Y-6.8264 F30.00
G01 X13.1999 Y-6.8307 F30.00
G01 X13.1750 Y-6.8457 F30.00
G01 X13.1516 Y-6.8629 F30.00
G01 X13.1447 Y-6.8686 F30.00
G01 X13.1232 Y-6.8882 F30.00
G01 X13.1036 Y-6.9097 F30.00
G01 X13.0979 Y-6.9166 F30.00
G01 X13.0807 Y-6.9400 F30.00
G01 X13.0657 Y-6.9649 F30.00
G01 X13.0614 Y-6.9728 F30.00
G01 X13.0491 Y-6.9991 F30.00
G01 X13.0371 Y-7.0329 F30.00
G01 X13.0296 Y-7.0633 F30.00
G01 X13.0252 Y-7.0920 F30.00
G01 X13.0244 Y-7.1010 F30.00
G01 X13.0231 Y-7.1277 F30.00
G01 X13.0231 Y-7.6300 F30.00
G01 X13.0244 Y-7.6590 F30.00
G01 X13.0252 Y-7.6680 F30.00
G00 Z2.0000
G00 X13.0252 Y-5.7680
G01 F10.00
G01 Z-0.0500
G01 F30.00
G01 X13.0296 Y-5.7967 F30.00
G01 X13.0378 Y-5.8293 F30.00
G01 X13.0491 Y-5.8609 F30.00
G01 X13.0614 Y-5.8872 F30.00
G01 X13.0657 Y-5.8951 F30.00
G01 X13.0794 Y-5.9181 F30.00
G01 X13.0833 Y-5.9237 F30.00
G01 X13.1007 Y-5.9469 F30.00
G01 X13.1232 Y-5.9718 F30.00
G01 X13.1481 Y-5.9943 F30.00
G01 X13.1750 Y-6.0143 F30.00
G01 X13.2038 Y-6.0316 F30.00
G01 X13.2300 Y-6.0441 F30.00
G01 X13.2362 Y-6.0468 F30.00
G01 X13.2615 Y-6.0558 F30.00
G01 X13.2701 Y-6.0584 F30.00
G01 X13.2983 Y-6.0654 F30.00
G01 X13.3337 Y-6.0705 F30.00
G01 X13.3650 Y-6.0719 F30.00
G01 X13.8400 Y-6.0722 F30.00
G01 X14.3150 Y-6.0719 F30.00
G01 X14.3440 Y-6.0706 F30.00
G01 X14.3530 Y-6.0698 F30.00
G01 X14.3795 Y-6.0658 F30.00
G01 X14.3861 Y-6.0644 F30.00
G01 X14.4143 Y-6.0572 F30.00
G01 X14.4416 Y-6.0475 F30.00
G01 X14.4500 Y-6.0441 F30.00
G01 X14.4762 Y-6.0316 F30.00
G01 X14.5050 Y-6.0143 F30.00
G01 X14.5284 Y-5.9971 F30.00
G01 X14.5353 Y-5.9914 F30.00
G01 X14.5568 Y-5.9718 F30.00
G01 X14.5764 Y-5.9503 F30.00
G01 X14.5821 Y-5.9434 F30.00
G01 X14.5993 Y-5.9200 F30.00
G01 X14.6176 Y-5.8892 F30.00
G01 X14.6309 Y-5.8609 F30.00
G01 X14.6422 Y-5.8293 F30.00
G01 X14.6504 Y-5.7967 F30.00
G01 X14.6548 Y-5.7680 F30.00
G01 X14.6556 Y-5.7590 F30.00
G01 X14.6569 Y-5.7300 F30.00
G01 X14.6569 Y-5.2300 F30.00
G01 X14.6553 Y-5.1965 F30.00
G01 X14.6512 Y-5.1677 F30.00
G01 X14.6494 Y-5.1589 F30.00
G01 X14.6422 Y-5.1307 F30.00
G01 X14.6309 Y-5.0991 F30.00
G01 X14.6186 Y-5.0728 F30.00
G01 X14.6143 Y-5.0649 F30.00
G01 X14.5993 Y-5.0400 F30.00
G01 X14.5807 Y-5.0148 F30.00
G01 X14.5599 Y-4.9915 F30.00
G01 X14.5535 Y-4.9851 F30.00
G01 X14.5319 Y-4.9657 F30.00
G01 X14.5068 Y-4.9470 F30.00
G01 X14.4742 Y-4.9274 F30.00
G01 X14.4479 Y-4.9150 F30.00
G01 X14.4322 Y-4.9091 F30.00
G01 X14.4322 Y-3.7800 F30.00
G01 X14.4293 Y-3.7220 F30.00
G01 X14.4219 Y-3.6713 F30.00
G01 X14.4219 Y-3.2327 F30.00
G01 X14.4210 Y-3.2215 F30.00
G01 X14.4180 Y-3.2083 F30.00
G01 X14.4131 Y-3.1957 F30.00
G01 X14.4077 Y-3.1858 F30.00
G01 X14.4011 Y-3.1767 F30.00
G01 X14.3917 Y-3.1669 F30.00
G01 X14.3829 Y-3.1598 F30.00
G01 X14.3713 Y-3.1529 F30.00
G01 X14.3631 Y-3.1492 F30.00
G01 X14.3523 Y-3.1458 F30.00
G01 X14.3413 Y-3.1437 F30.00
G01 X14.3300 Y-3.1431 F30.00
G01 X13.3277 Y-3.1431 F30.00
G01 X13.3165 Y-3.1440 F30.00
G01 X13.3033 Y-3.1470 F30.00
G01 X13.2907 Y-3.1519 F30.00
G01 X13.2808 Y-3.1573 F30.00
G01 X13.2717 Y-3.1639 F30.00
G01 X13.2619 Y-3.1733 F30.00
G01 X13.2535 Y-3.1839 F30.00
G01 X13.2479 Y-3.1937 F30.00
G01 X13.2434 Y-3.2040 F30.00
G01 X13.2408 Y-3.2127 F30.00
G01 X13.2387 Y-3.2237 F30.00
G01 X13.2381 Y-3.2350 F30.00
G01 X13.2381 Y-4.2850 F30.00
G01 X13.2385 Y-4.2940 F30.00
G01 X13.2403 Y-4.3051 F30.00
G01 X13.2434 Y-4.3160 F30.00
G01 X13.2478 Y-4.3262 F30.00
G01 X13.2478 Y-4.9091 F30.00
G01 X13.2321 Y-4.9150 F30.00
G01 X13.2058 Y-4.9274 F30.00
G01 X13.1769 Y-4.9444 F30.00
G01 X13.1481 Y-4.9657 F30.00
G01 X13.1216 Y-4.9898 F30.00
G01 X13.1036 Y-5.0097 F30.00
G01 X13.0979 Y-5.0166 F30.00
G01 X13.0807 Y-5.0400 F30.00
G01 X13.0657 Y-5.0649 F30.00
G01 X13.0614 Y-5.0728 F30.00
G01 X13.0491 Y-5.0991 F30.00
G01 X13.0392 Y-5.1265 F30.00
G01 X13.0366 Y-5.1351 F30.00
G01 X13.0296 Y-5.1633 F30.00
G01 X13.0252 Y-5.1920 F30.00
G01 X13.0244 Y-5.2010 F30.00
G01 X13.0231 Y-5.2277 F30.00
G01 X13.0231 Y-5.7300 F30.00
G01 X13.0244 Y-5.7590 F30.00
G01 X13.0252 Y-5.7680 F30.00
G00 Z2.0000
G00 X13.0823 Y-4.7297
G01 F10.00
G01 Z-0.0500
G01 F30.00
G01 X13.0668 Y-4.7823 F30.00
G01 X13.0630 Y-4.7944 F30.00
G01 X13.0585 Y-4.8062 F30.00
G01 X13.0535 Y-4.8178 F30.00
G01 X13.0434 Y-4.8375 F30.00
G01 X13.0530 Y-4.8300 F30.00
G01 X13.0823 Y-4.8086 F30.00
G01 X13.0823 Y-4.7297 F30.00
G00 Z2.0000
G00 X14.6466 Y-4.8461
G01 F10.00
G01 Z-0.0500
G01 F30.00
G01 X14.6174 Y-4.7925 F30.00
G01 X14.6116 Y-4.7813 F30.00
G01 X14.6040 Y-4.7639 F30.00
G01 X14.5977 Y-4.7463 F30.00
G01 X14.5977 Y-4.8086 F30.00
G01 X14.6320 Y-4.8338 F30.00
G01 X14.6466 Y-4.8461 F30.00
G00 Z2.0000
G00 X15.1647 Y-6.4931
G01 F10.00
G01 Z-0.0500
G01 F30.00
G01 X15.1504 Y-6.4940 F30.00
G01 X15.0806 Y-6.4964 F30.00
G01 X15.0678 Y-6.4965 F30.00
G01 X15.0550 Y-6.4960 F30.00
G01 X15.0359 Y-6.4940 F30.00
G01 X15.0171 Y-6.4907 F30.00
G01 X15.0046 Y-6.4876 F30.00
G01 X14.9863 Y-6.4819 F30.00
G01 X14.9685 Y-6.4749 F30.00
G01 X14.9512 Y-6.4666 F30.00
G01 X14.9401 Y-6.4603 F30.00
G01 X14.8746 Y-6.4212 F30.00
G01 X14.8587 Y-6.4104 F30.00
G01 X14.8437 Y-6.3985 F30.00
G01 X14.8343 Y-6.3899 F30.00
G01 X14.8209 Y-6.3762 F30.00
G01 X14.8085 Y-6.3615 F30.00
G01 X14.8009 Y-6.3512 F30.00
G01 X14.7905 Y-6.3351 F30.00
G01 X14.7813 Y-6.3183 F30.00
G01 X14.7501 Y-6.2558 F30.00
G01 X14.7447 Y-6.2442 F30.00
G01 X14.7399 Y-6.2323 F30.00
G01 X14.7356 Y-6.2203 F30.00
G01 X14.7320 Y-6.2080 F30.00
G01 X14.7289 Y-6.1956 F30.00
G01 X14.7256 Y-6.1767 F30.00
G01 X14.7236 Y-6.1576 F30.00
G01 X14.7231 Y-6.1449 F30.00
G01 X14.7235 Y-6.1257 F30.00
G01 X14.7246 Y-6.1130 F30.00
G01 X14.7329 Y-6.0373 F30.00
G01 X14.7348 Y-6.0249 F30.00
G01 X14.7379 Y-6.0104 F30.00
G01 X14.7297 Y-6.0223 F30.00
G01 X14.7073 Y-6.0519 F30.00
G01 X14.6990 Y-6.0615 F30.00
G01 X14.6738 Y-6.0888 F30.00
G01 X14.6465 Y-6.1140 F30.00
G01 X14.6320 Y-6.1262 F30.00
G01 X14.6021 Y-6.1484 F30.00
G01 X14.5863 Y-6.1587 F30.00
G01 X14.5542 Y-6.1775 F30.00
G01 X14.5207 Y-6.1937 F30.00
G01 X14.5033 Y-6.2012 F30.00
G01 X14.4743 Y-6.2116 F30.00
G01 X14.4562 Y-6.2174 F30.00
G01 X14.4202 Y-6.2264 F30.00
G01 X14.4015 Y-6.2299 F30.00
G01 X14.3647 Y-6.2350 F30.00
G01 X14.3521 Y-6.2359 F30.00
G01 X14.3150 Y-6.2375 F30.00
G01 X13.8400 Y-6.2377 F30.00
G01 X13.3650 Y-6.2375 F30.00
G01 X13.3279 Y-6.2359 F30.00
G01 X13.3090 Y-6.2343 F30.00
G01 X13.2660 Y-6.2277 F30.00
G01 X13.2299 Y-6.2190 F30.00
G01 X13.2117 Y-6.2137 F30.00
G01 X13.1767 Y-6.2012 F30.00
G01 X13.1593 Y-6.1937 F30.00
G01 X13.1258 Y-6.1775 F30.00
G01 X13.0994 Y-6.1621 F30.00
G01 X13.1415 Y-6.2090 F30.00
G01 X13.1534 Y-6.2241 F30.00
G01 X13.1608 Y-6.2346 F30.00
G01 X13.1707 Y-6.2509 F30.00
G01 X13.1767 Y-6.2623 F30.00
G01 X13.1821 Y-6.2739 F30.00
G01 X13.1890 Y-6.2917 F30.00
G01 X13.1929 Y-6.3039 F30.00
G01 X13.1962 Y-6.3162 F30.00
G01 X13.1989 Y-6.3287 F30.00
G01 X13.2122 Y-6.4103 F30.00
G01 X13.2136 Y-6.4230 F30.00
G01 X13.2144 Y-6.4358 F30.00
G01 X13.2146 Y-6.4486 F30.00
G01 X13.2141 Y-6.4614 F30.00
G01 X13.2130 Y-6.4741 F30.00
G01 X13.2101 Y-6.4931 F30.00
G01 X13.2074 Y-6.5056 F30.00
G01 X13.2042 Y-6.5179 F30.00
G01 X13.2002 Y-6.5301 F30.00
G01 X13.1957 Y-6.5421 F30.00
G01 X13.1654 Y-6.6120 F30.00
G01 X13.1600 Y-6.6236 F30.00
G01 X13.1541 Y-6.6350 F30.00
G01 X13.1441 Y-6.6513 F30.00
G01 X13.1368 Y-6.6618 F30.00
G01 X13.1249 Y-6.6768 F30.00
G01 X13.1131 Y-6.6897 F30.00
G01 X13.1314 Y-6.6796 F30.00
G01 X13.1650 Y-6.6637 F30.00
G01 X13.1826 Y-6.6566 F30.00
G01 X13.2177 Y-6.6444 F30.00
G01 X13.2537 Y-6.6351 F30.00
G01 X13.2722 Y-6.6311 F30.00
G01 X13.3090 Y-6.6257 F30.00
G01 X13.3279 Y-6.6241 F30.00
G01 X13.3650 Y-6.6225 F30.00
G01 X14.3150 Y-6.6225 F30.00
G01 X14.3521 Y-6.6241 F30.00
G01 X14.3647 Y-6.6250 F30.00
G01 X14.4015 Y-6.6301 F30.00
G01 X14.4202 Y-6.6336 F30.00
G01 X14.4562 Y-6.6426 F30.00
G01 X14.4743 Y-6.6484 F30.00
G01 X14.5092 Y-6.6612 F30.00
G01 X14.5429 Y-6.6768 F30.00
G01 X14.5598 Y-6.6855 F30.00
G01 X14.5969 Y-6.7081 F30.00
G01 X14.6270 Y-6.7300 F30.00
G01 X14.6418 Y-6.7418 F30.00
G01 X14.6693 Y-6.7668 F30.00
G01 X14.6825 Y-6.7803 F30.00
G01 X14.7073 Y-6.8081 F30.00
G01 X14.7297 Y-6.8377 F30.00
G01 X14.7404 Y-6.8534 F30.00
G01 X14.7578 Y-6.8824 F30.00
G01 X14.9009 Y-6.8824 F30.00
G01 X14.9061 Y-6.8472 F30.00
G01 X14.9101 Y-6.8287 F30.00
G01 X14.9194 Y-6.7927 F30.00
G01 X14.9316 Y-6.7576 F30.00
G01 X14.9387 Y-6.7400 F30.00
G01 X14.9546 Y-6.7064 F30.00
G01 X14.9637 Y-6.6898 F30.00
G01 X14.9831 Y-6.6581 F30.00
G01 X15.0050 Y-6.6280 F30.00
G01 X15.0168 Y-6.6132 F30.00
G01 X15.0418 Y-6.5857 F30.00
G01 X15.0553 Y-6.5725 F30.00
G01 X15.0831 Y-6.5477 F30.00
G01 X15.1127 Y-6.5253 F30.00
G01 X15.1284 Y-6.5146 F30.00
G01 X15.1647 Y-6.4931 F30.00
G00 Z2.0000
G00 X18.1454 Y-6.6158
G01 F10.00
G01 Z-0.0500
G01 F30.00
G01 X18.1550 Y-6.6280 F30.00
G01 X18.1697 Y-6.6477 F30.00
G01 X18.1769 Y-6.6581 F30.00
G01 X18.1837 Y-6.6687 F30.00
G01 X18.2025 Y-6.7008 F30.00
G01 X18.2082 Y-6.7121 F30.00
G01 X18.2238 Y-6.7458 F30.00
G01 X18.2387 Y-6.7867 F30.00
G01 X18.2440 Y-6.8049 F30.00
G01 X18.2527 Y-6.8410 F30.00
G01 X18.2591 Y-6.8824 F30.00
G01 X18.4638 Y-6.8824 F30.00
G01 X18.4657 Y-6.8590 F30.00
G01 X18.4711 Y-6.8222 F30.00
G01 X18.4736 Y-6.8098 F30.00
G01 X18.4844 Y-6.7677 F30.00
G01 X18.4884 Y-6.7557 F30.00
G01 X18.5012 Y-6.7208 F30.00
G01 X18.5168 Y-6.6871 F30.00
G01 X18.5225 Y-6.6758 F30.00
G01 X18.5446 Y-6.6384 F30.00
G01 X18.5516 Y-6.6279 F30.00
G01 X18.5700 Y-6.6030 F30.00
G01 X18.5777 Y-6.5931 F30.00
G01 X18.5860 Y-6.5834 F30.00
G01 X18.5607 Y-6.6053 F30.00
G01 X18.5507 Y-6.6131 F30.00
G01 X18.5402 Y-6.6205 F30.00
G01 X18.5294 Y-6.6274 F30.00
G01 X18.5126 Y-6.6366 F30.00
G01 X18.5010 Y-6.6421 F30.00
G01 X18.4892 Y-6.6469 F30.00
G01 X18.4711 Y-6.6531 F30.00
G01 X18.4587 Y-6.6565 F30.00
G01 X18.4463 Y-6.6593 F30.00
G01 X18.4337 Y-6.6614 F30.00
G01 X18.3645 Y-6.6713 F30.00
G01 X18.3454 Y-6.6734 F30.00
G01 X18.3263 Y-6.6740 F30.00
G01 X18.3135 Y-6.6736 F30.00
G01 X18.3007 Y-6.6725 F30.00
G01 X18.2881 Y-6.6709 F30.00
G01 X18.2755 Y-6.6686 F30.00
G01 X18.2569 Y-6.6640 F30.00
G01 X18.2447 Y-6.6602 F30.00
G01 X18.2267 Y-6.6533 F30.00
G01 X18.1573 Y-6.6217 F30.00
G01 X18.1454 Y-6.6158 F30.00
G00 Z2.0000
G00 X18.6533 Y-6.5186
G01 F10.00
G01 Z-0.0500
G01 F30.00
G01 X18.6881 Y-6.4931 F30.00
G01 X18.7124 Y-6.4781 F30.00
G01 X18.7124 Y-6.3803 F30.00
G01 X18.6950 Y-6.4395 F30.00
G01 X18.6908 Y-6.4515 F30.00
G01 X18.6860 Y-6.4634 F30.00
G01 X18.6777 Y-6.4807 F30.00
G01 X18.6714 Y-6.4918 F30.00
G01 X18.6611 Y-6.5080 F30.00
G01 X18.6533 Y-6.5186 F30.00
G00 Z2.0000
G00 X18.7124 Y-5.5771
G01 F10.00
G01 Z-0.0500
G01 F30.00
G01 X18.7124 Y-5.4214 F30.00
G01 X18.6449 Y-5.3973 F30.00
G01 X18.6331 Y-5.3927 F30.00
G01 X18.5780 Y-5.3670 F30.00
G01 X18.6237 Y-5.4082 F30.00
G01 X18.6372 Y-5.4213 F30.00
G01 X18.6457 Y-5.4306 F30.00
G01 X18.6537 Y-5.4403 F30.00
G01 X18.6612 Y-5.4504 F30.00
G01 X18.6682 Y-5.4608 F30.00
G01 X18.6747 Y-5.4715 F30.00
G01 X18.6806 Y-5.4826 F30.00
G01 X18.6861 Y-5.4939 F30.00
G01 X18.6909 Y-5.5055 F30.00
G01 X18.6971 Y-5.5233 F30.00
G01 X18.7124 Y-5.5771 F30.00
G00 Z2.0000
G00 X19.8612 Y-5.3579
G01 F10.00
G01 Z-0.0500
G01 F30.00
G01 X19.7984 Y-5.3876 F30.00
G01 X19.7869 Y-5.3927 F30.00
G01 X19.7276 Y-5.4143 F30.00
G01 X19.7276 Y-5.5680 F30.00
G01 X19.7432 Y-5.5150 F30.00
G01 X19.7491 Y-5.4971 F30.00
G01 X19.7538 Y-5.4855 F30.00
G01 X19.7591 Y-5.4741 F30.00
G01 X19.7680 Y-5.4575 F30.00
G01 X19.7746 Y-5.4468 F30.00
G01 X19.7817 Y-5.4365 F30.00
G01 X19.7893 Y-5.4265 F30.00
G01 X19.7974 Y-5.4169 F30.00
G01 X19.8060 Y-5.4077 F30.00
G01 X19.8196 Y-5.3947 F30.00
G01 X19.8612 Y-5.3579 F30.00
G00 Z2.0000
G00 X19.7276 Y-6.4059
G01 F10.00
G01 Z-0.0500
G01 F30.00
G01 X19.7276 Y-6.4781 F30.00
G01 X19.7519 Y-6.4931 F30.00
G01 X19.7811 Y-6.5143 F30.00
G01 X19.7474 Y-6.4525 F30.00
G01 X19.7416 Y-6.4413 F30.00
G01 X19.7340 Y-6.4239 F30.00
G01 X19.7276 Y-6.4059 F30.00
G00 Z2.0000
G00 X18.5644 Y-8.1694
G01 F10.00
G01 Z-0.0500
G01 F30.00
G01 X18.5481 Y-8.1469 F30.00
G01 X18.5255 Y-8.1098 F30.00
G01 X18.5196 Y-8.0986 F30.00
G01 X18.5063 Y-8.0707 F30.00
G01 X18.5012 Y-8.0592 F30.00
G01 X18.4966 Y-8.0474 F30.00
G01 X18.4844 Y-8.0123 F30.00
G01 X18.4736 Y-7.9702 F30.00
G01 X18.4711 Y-7.9578 F30.00
G01 X18.4657 Y-7.9210 F30.00
G01 X18.4638 Y-7.8976 F30.00
G01 X18.2591 Y-7.8976 F30.00
G01 X18.2527 Y-7.9390 F30.00
G01 X18.2440 Y-7.9751 F30.00
G01 X18.2387 Y-7.9933 F30.00
G01 X18.2238 Y-8.0342 F30.00
G01 X18.2082 Y-8.0679 F30.00
G01 X18.2025 Y-8.0792 F30.00
G01 X18.1837 Y-8.1113 F30.00
G01 X18.1769 Y-8.1219 F30.00
G01 X18.1697 Y-8.1323 F30.00
G01 X18.1512 Y-8.1570 F30.00
G01 X18.1448 Y-8.1649 F30.00
G01 X18.2059 Y-8.1316 F30.00
G01 X18.2233 Y-8.1235 F30.00
G01 X18.2412 Y-8.1167 F30.00
G01 X18.2596 Y-8.1112 F30.00
G01 X18.2720 Y-8.1083 F30.00
G01 X18.2846 Y-8.1061 F30.00
G01 X18.3037 Y-8.1039 F30.00
G01 X18.3164 Y-8.1032 F30.00
G01 X18.3292 Y-8.1032 F30.00
G01 X18.3420 Y-8.1038 F30.00
G01 X18.4181 Y-8.1093 F30.00
G01 X18.4372 Y-8.1119 F30.00
G01 X18.4499 Y-8.1144 F30.00
G01 X18.4623 Y-8.1175 F30.00
G01 X18.4746 Y-8.1213 F30.00
G01 X18.4867 Y-8.1256 F30.00
G01 X18.4986 Y-8.1306 F30.00
G01 X18.5102 Y-8.1361 F30.00
G01 X18.5271 Y-8.1455 F30.00
G01 X18.5644 Y-8.1694 F30.00
G00 Z2.0000
G00 X18.0144 Y-8.2758
G01 F10.00
G01 Z-0.0500
G01 F30.00
G01 X17.9942 Y-8.2875 F30.00
G01 X17.9607 Y-8.3037 F30.00
G01 X17.9433 Y-8.3112 F30.00
G01 X17.9176 Y-8.3205 F30.00
G01 X17.9176 Y-8.4543 F30.00
G01 X17.9370 Y-8.3894 F30.00
G01 X17.9413 Y-8.3777 F30.00
G01 X17.9463 Y-8.3663 F30.00
G01 X17.9547 Y-8.3496 F30.00
G01 X17.9643 Y-8.3335 F30.00
G01 X17.9714 Y-8.3232 F30.00
G01 X17.9789 Y-8.3133 F30.00
G01 X17.9911 Y-8.2991 F30.00
G01 X18.0144 Y-8.2758 F30.00
G00 Z2.0000
G00 X17.9176 Y-13.0359
G01 F10.00
G01 Z-0.0500
G01 F30.00
G01 X17.9176 Y-13.1269 F30.00
G01 X17.9336 Y-13.1346 F30.00
G01 X17.9448 Y-13.1405 F30.00
G01 X17.9713 Y-13.1563 F30.00
G01 X17.9829 Y-13.1638 F30.00
G01 X17.9770 Y-13.1544 F30.00
G01 X17.9709 Y-13.1438 F30.00
G01 X17.9344 Y-13.0769 F30.00
G01 X17.9289 Y-13.0656 F30.00
G01 X17.9240 Y-13.0539 F30.00
G01 X17.9176 Y-13.0359 F30.00
G00 Z2.0000
G00 X18.0597 Y-14.8930
G01 F10.00
G01 Z-0.0500
G01 F30.00
G01 X18.0497 Y-14.9025 F30.00
G01 X18.0219 Y-14.9273 F30.00
G01 X17.9871 Y-14.9534 F30.00
G01 X17.9766 Y-14.9604 F30.00
G01 X17.9448 Y-14.9795 F30.00
G01 X17.9336 Y-14.9854 F30.00
G01 X17.9176 Y-14.9931 F30.00
G01 X17.9176 Y-15.1648 F30.00
G01 X17.9542 Y-15.1825 F30.00
G01 X17.9652 Y-15.1887 F30.00
G01 X17.9969 Y-15.2081 F30.00
G01 X18.0073 Y-15.2153 F30.00
G01 X18.0369 Y-15.2377 F30.00
G01 X18.0465 Y-15.2460 F30.00
G01 X18.0731 Y-15.2705 F30.00
G01 X18.0437 Y-15.2148 F30.00
G01 X18.0384 Y-15.2035 F30.00
G01 X18.0315 Y-15.1861 F30.00
G01 X18.0259 Y-15.1682 F30.00
G01 X18.0229 Y-15.1561 F30.00
G01 X18.0204 Y-15.1438 F30.00
G01 X18.0179 Y-15.1252 F30.00
G01 X18.0167 Y-15.1065 F30.00
G01 X18.0169 Y-15.0878 F30.00
G01 X18.0223 Y-15.0119 F30.00
G01 X18.0235 Y-14.9996 F30.00
G01 X18.0263 Y-14.9813 F30.00
G01 X18.0305 Y-14.9633 F30.00
G01 X18.0340 Y-14.9514 F30.00
G01 X18.0381 Y-14.9398 F30.00
G01 X18.0452 Y-14.9227 F30.00
G01 X18.0597 Y-14.8930 F30.00
G00 Z2.0000
G00 X16.8502 Y-16.5680
G01 F10.00
G01 Z-0.0500
G01 F30.00
G01 X16.8546 Y-16.5967 F30.00
G01 X16.8616 Y-16.6249 F30.00
G01 X16.8642 Y-16.6335 F30.00
G01 X16.8741 Y-16.6609 F30.00
G01 X16.8864 Y-16.6872 F30.00
G01 X16.8907 Y-16.6951 F30.00
G01 X16.9057 Y-16.7200 F30.00
G01 X16.9257 Y-16.7469 F30.00
G01 X16.9482 Y-16.7718 F30.00
G01 X16.9697 Y-16.7914 F30.00
G01 X16.9766 Y-16.7971 F30.00
G01 X17.0000 Y-16.8143 F30.00
G01 X17.0249 Y-16.8293 F30.00
G01 X17.0328 Y-16.8336 F30.00
G01 X17.0591 Y-16.8459 F30.00
G01 X17.0865 Y-16.8558 F30.00
G01 X17.0951 Y-16.8584 F30.00
G01 X17.1211 Y-16.8649 F30.00
G01 X17.1277 Y-16.8662 F30.00
G01 X17.1565 Y-16.8703 F30.00
G01 X17.1877 Y-16.8719 F30.00
G01 X17.7150 Y-16.8719 F30.00
G01 X17.7485 Y-16.8703 F30.00
G01 X17.7817 Y-16.8654 F30.00
G01 X17.8143 Y-16.8572 F30.00
G01 X17.8416 Y-16.8475 F30.00
G01 X17.8479 Y-16.8450 F30.00
G01 X17.8722 Y-16.8336 F30.00
G01 X17.8801 Y-16.8293 F30.00
G01 X17.9068 Y-16.8130 F30.00
G01 X17.9284 Y-16.7971 F30.00
G01 X17.9353 Y-16.7914 F30.00
G01 X17.9568 Y-16.7718 F30.00
G01 X17.9793 Y-16.7469 F30.00
G01 X17.9993 Y-16.7200 F30.00
G01 X18.0166 Y-16.6912 F30.00
G01 X18.0309 Y-16.6609 F30.00
G01 X18.0422 Y-16.6293 F30.00
G01 X18.0504 Y-16.5967 F30.00
G01 X18.0553 Y-16.5635 F30.00
G01 X18.0569 Y-16.5300 F30.00
G01 X18.0569 Y-15.6300 F30.00
G01 X18.0553 Y-15.5965 F30.00
G01 X18.0512 Y-15.5677 F30.00
G01 X18.0494 Y-15.5589 F30.00
G01 X18.0422 Y-15.5307 F30.00
G01 X18.0318 Y-15.5012 F30.00
G01 X18.0186 Y-15.4728 F30.00
G01 X18.0143 Y-15.4649 F30.00
G01 X17.9993 Y-15.4400 F30.00
G01 X17.9793 Y-15.4131 F30.00
G01 X17.9568 Y-15.3882 F30.00
G01 X17.9353 Y-15.3686 F30.00
G01 X17.9302 Y-15.3643 F30.00
G01 X17.9087 Y-15.3483 F30.00
G01 X17.9012 Y-15.3433 F30.00
G01 X17.8762 Y-15.3284 F30.00
G01 X17.8459 Y-15.3141 F30.00
G01 X17.8185 Y-15.3042 F30.00
G01 X17.8099 Y-15.3016 F30.00
G01 X17.7817 Y-15.2946 F30.00
G01 X17.7521 Y-15.2901 F30.00
G01 X17.7521 Y-14.8727 F30.00
G01 X17.7689 Y-14.8699 F30.00
G01 X17.8014 Y-14.8615 F30.00
G01 X17.8309 Y-14.8509 F30.00
G01 X17.8632 Y-14.8355 F30.00
G01 X17.8900 Y-14.8193 F30.00
G01 X17.9169 Y-14.7993 F30.00
G01 X17.9418 Y-14.7768 F30.00
G01 X17.9629 Y-14.7537 F30.00
G01 X17.9843 Y-14.7250 F30.00
G01 X17.9993 Y-14.7001 F30.00
G01 X18.0036 Y-14.6922 F30.00
G01 X18.0150 Y-14.6679 F30.00
G01 X18.0175 Y-14.6616 F30.00
G01 X18.0272 Y-14.6343 F30.00
G01 X18.0354 Y-14.6017 F30.00
G01 X18.0403 Y-14.5685 F30.00
G01 X18.0419 Y-14.5350 F30.00
G01 X18.0419 Y-13.5850 F30.00
G01 X18.0403 Y-13.5515 F30.00
G01 X18.0349 Y-13.5161 F30.00
G01 X18.0272 Y-13.4857 F30.00
G01 X18.0175 Y-13.4584 F30.00
G01 X18.0141 Y-13.4500 F30.00
G01 X18.0016 Y-13.4238 F30.00
G01 X17.9843 Y-13.3950 F30.00
G01 X17.9671 Y-13.3716 F30.00
G01 X17.9614 Y-13.3647 F30.00
G01 X17.9402 Y-13.3416 F30.00
G01 X17.9169 Y-13.3207 F30.00
G01 X17.8937 Y-13.3033 F30.00
G01 X17.8862 Y-13.2983 F30.00
G01 X17.8592 Y-13.2824 F30.00
G01 X17.8309 Y-13.2691 F30.00
G01 X17.8014 Y-13.2585 F30.00
G01 X17.7689 Y-13.2501 F30.00
G01 X17.7521 Y-13.2473 F30.00
G01 X17.7521 Y-8.1819 F30.00
G01 X17.7885 Y-8.1803 F30.00
G01 X17.8217 Y-8.1754 F30.00
G01 X17.8543 Y-8.1672 F30.00
G01 X17.8816 Y-8.1575 F30.00
G01 X17.8900 Y-8.1541 F30.00
G01 X17.9142 Y-8.1426 F30.00
G01 X17.9201 Y-8.1393 F30.00
G01 X17.9450 Y-8.1243 F30.00
G01 X17.9684 Y-8.1071 F30.00
G01 X17.9753 Y-8.1014 F30.00
G01 X17.9968 Y-8.0818 F30.00
G01 X18.0207 Y-8.0552 F30.00
G01 X18.0393 Y-8.0300 F30.00
G01 X18.0543 Y-8.0051 F30.00
G01 X18.0586 Y-7.9972 F30.00
G01 X18.0709 Y-7.9709 F30.00
G01 X18.0808 Y-7.9435 F30.00
G01 X18.0834 Y-7.9349 F30.00
G01 X18.0899 Y-7.9089 F30.00
G01 X18.0953 Y-7.8735 F30.00
G01 X18.0968 Y-7.8445 F30.00
G01 X18.0969 Y-7.7321 F30.00
G01 X18.6281 Y-7.7321 F30.00
G01 X18.6281 Y-7.8673 F30.00
G01 X18.6294 Y-7.8940 F30.00
G01 X18.6302 Y-7.9030 F30.00
G01 X18.6346 Y-7.9317 F30.00
G01 X18.6435 Y-7.9664 F30.00
G01 X18.6541 Y-7.9959 F30.00
G01 X18.6664 Y-8.0222 F30.00
G01 X18.6707 Y-8.0301 F30.00
G01 X18.6857 Y-8.0550 F30.00
G01 X18.7029 Y-8.0784 F30.00
G01 X18.7071 Y-8.0837 F30.00
G01 X18.7251 Y-8.1035 F30.00
G01 X18.7315 Y-8.1099 F30.00
G01 X18.7513 Y-8.1279 F30.00
G01 X18.7763 Y-8.1467 F30.00
G01 X18.7838 Y-8.1517 F30.00
G01 X18.8088 Y-8.1666 F30.00
G01 X18.8391 Y-8.1809 F30.00
G01 X18.8707 Y-8.1922 F30.00
G01 X18.9033 Y-8.2004 F30.00
G01 X18.9365 Y-8.2053 F30.00
G01 X18.9700 Y-8.2069 F30.00
G01 X19.4700 Y-8.2069 F30.00
G01 X19.5035 Y-8.2053 F30.00
G01 X19.5345 Y-8.2008 F30.00
G01 X19.5693 Y-8.1922 F30.00
G01 X19.6009 Y-8.1809 F30.00
G01 X19.6312 Y-8.1666 F30.00
G01 X19.6600 Y-8.1493 F30.00
G01 X19.6869 Y-8.1293 F30.00
G01 X19.7118 Y-8.1068 F30.00
G01 X19.7343 Y-8.0819 F30.00
G01 X19.7530 Y-8.0568 F30.00
G01 X19.7693 Y-8.0301 F30.00
G01 X19.7736 Y-8.0222 F30.00
G01 X19.7859 Y-7.9959 F30.00
G01 X19.7972 Y-7.9643 F30.00
G01 X19.8044 Y-7.9361 F30.00
G01 X19.8062 Y-7.9273 F30.00
G01 X19.8103 Y-7.8985 F30.00
G01 X19.8118 Y-7.8695 F30.00
G01 X19.8119 Y-6.9150 F30.00
G01 X19.8105 Y-6.8837 F30.00
G01 X19.8062 Y-6.8527 F30.00
G01 X19.8044 Y-6.8439 F30.00
G01 X19.7972 Y-6.8157 F30.00
G01 X19.7859 Y-6.7841 F30.00
G01 X19.7736 Y-6.7578 F30.00
G01 X19.7693 Y-6.7499 F30.00
G01 X19.7543 Y-6.7250 F30.00
G01 X19.7343 Y-6.6981 F30.00
G01 X19.7118 Y-6.6732 F30.00
G01 X19.6903 Y-6.6536 F30.00
G01 X19.6834 Y-6.6479 F30.00
G01 X19.6600 Y-6.6307 F30.00
G01 X19.6312 Y-6.6134 F30.00
G01 X19.6029 Y-6.6000 F30.00
G01 X19.5735 Y-6.5892 F30.00
G01 X19.5621 Y-6.5859 F30.00
G01 X19.5621 Y-5.2937 F30.00
G01 X19.6017 Y-5.2835 F30.00
G01 X19.7214 Y-5.2406 F30.00
G01 X19.8446 Y-5.1824 F30.00
G01 X19.9555 Y-5.1158 F30.00
G01 X20.0578 Y-5.0401 F30.00
G01 X20.0647 Y-5.0344 F30.00
G01 X20.1605 Y-4.9473 F30.00
G01 X20.2473 Y-4.8513 F30.00
G01 X20.3232 Y-4.7492 F30.00
G01 X20.3282 Y-4.7417 F30.00
G01 X20.3935 Y-4.6326 F30.00
G01 X20.4480 Y-4.5177 F30.00
G01 X20.4514 Y-4.5093 F30.00
G01 X20.4942 Y-4.3895 F30.00
G01 X20.5262 Y-4.2618 F30.00
G01 X20.5455 Y-4.1315 F30.00
G01 X20.5519 Y-4.0000 F30.00
G01 X20.5455 Y-3.8685 F30.00
G01 X20.5262 Y-3.7382 F30.00
G01 X20.4942 Y-3.6105 F30.00
G01 X20.4498 Y-3.4865 F30.00
G01 X20.3935 Y-3.3674 F30.00
G01 X20.3258 Y-3.2545 F30.00
G01 X20.2473 Y-3.1487 F30.00
G01 X20.1589 Y-3.0511 F30.00
G01 X20.0613 Y-2.9627 F30.00
G01 X19.9555 Y-2.8842 F30.00
G01 X19.8426 Y-2.8165 F30.00
G01 X19.7235 Y-2.7602 F30.00
G01 X19.5995 Y-2.7158 F30.00
G01 X19.4718 Y-2.6838 F30.00
G01 X19.3415 Y-2.6645 F30.00
G01 X19.2100 Y-2.6581 F30.00
G01 X19.0785 Y-2.6645 F30.00
G01 X18.9482 Y-2.6838 F30.00
G01 X18.8205 Y-2.7158 F30.00
G01 X18.6965 Y-2.7602 F30.00
G01 X18.5774 Y-2.8165 F30.00
G01 X18.4645 Y-2.8842 F30.00
G01 X18.3587 Y-2.9627 F30.00
G01 X18.2611 Y-3.0511 F30.00
G01 X18.1727 Y-3.1487 F30.00
G01 X18.0942 Y-3.2545 F30.00
G01 X18.0265 Y-3.3674 F30.00
G01 X17.9702 Y-3.4865 F30.00
G01 X17.9258 Y-3.6105 F30.00
G01 X17.8938 Y-3.7382 F30.00
G01 X17.8745 Y-3.8685 F30.00
G01 X17.8681 Y-4.0000 F30.00
G01 X17.8745 Y-4.1315 F30.00
G01 X17.8938 Y-4.2618 F30.00
G01 X17.9258 Y-4.3895 F30.00
G01 X17.9702 Y-4.5135 F30.00
G01 X18.0265 Y-4.6326 F30.00
G01 X18.0930 Y-4.7437 F30.00
G01 X18.1727 Y-4.8513 F30.00
G01 X18.2611 Y-4.9489 F30.00
G01 X18.3587 Y-5.0373 F30.00
G01 X18.4626 Y-5.1145 F30.00
G01 X18.5774 Y-5.1835 F30.00
G01 X18.6944 Y-5.2389 F30.00
G01 X18.8183 Y-5.2835 F30.00
G01 X18.8779 Y-5.2987 F30.00
G01 X18.8779 Y-6.5859 F30.00
G01 X18.8686 Y-6.5885 F30.00
G01 X18.8412 Y-6.5982 F30.00
G01 X18.8088 Y-6.6134 F30.00
G01 X18.7800 Y-6.6307 F30.00
G01 X18.7531 Y-6.6507 F30.00
G01 X18.7282 Y-6.6732 F30.00
G01 X18.7057 Y-6.6981 F30.00
G01 X18.6857 Y-6.7250 F30.00
G01 X18.6684 Y-6.7538 F30.00
G01 X18.6541 Y-6.7841 F30.00
G01 X18.6428 Y-6.8157 F30.00
G01 X18.6346 Y-6.8483 F30.00
G01 X18.6302 Y-6.8770 F30.00
G01 X18.6294 Y-6.8860 F30.00
G01 X18.6281 Y-6.9127 F30.00
G01 X18.6281 Y-7.0479 F30.00
G01 X18.0969 Y-7.0479 F30.00
G01 X18.0968 Y-6.9355 F30.00
G01 X18.0953 Y-6.9065 F30.00
G01 X18.0904 Y-6.8733 F30.00
G01 X18.0822 Y-6.8407 F30.00
G01 X18.0709 Y-6.8091 F30.00
G01 X18.0566 Y-6.7788 F30.00
G01 X18.0380 Y-6.7482 F30.00
G01 X18.0193 Y-6.7231 F30.00
G01 X17.9999 Y-6.7015 F30.00
G01 X17.9935 Y-6.6951 F30.00
G01 X17.9737 Y-6.6771 F30.00
G01 X17.9684 Y-6.6729 F30.00
G01 X17.9450 Y-6.6557 F30.00
G01 X17.9201 Y-6.6407 F30.00
G01 X17.9122 Y-6.6364 F30.00
G01 X17.8859 Y-6.6241 F30.00
G01 X17.8543 Y-6.6128 F30.00
G01 X17.8217 Y-6.6046 F30.00
G01 X17.7885 Y-6.5997 F30.00
G01 X17.7550 Y-6.5981 F30.00
G01 X17.2277 Y-6.5981 F30.00
G01 X17.1965 Y-6.5997 F30.00
G01 X17.1677 Y-6.6038 F30.00
G01 X17.1589 Y-6.6056 F30.00
G01 X17.1307 Y-6.6128 F30.00
G01 X17.1034 Y-6.6225 F30.00
G01 X17.0950 Y-6.6259 F30.00
G01 X17.0688 Y-6.6384 F30.00
G01 X17.0400 Y-6.6557 F30.00
G01 X17.0166 Y-6.6729 F30.00
G01 X17.0097 Y-6.6786 F30.00
G01 X16.9882 Y-6.6982 F30.00
G01 X16.9686 Y-6.7197 F30.00
G01 X16.9629 Y-6.7266 F30.00
G01 X16.9457 Y-6.7500 F30.00
G01 X16.9307 Y-6.7749 F30.00
G01 X16.9264 Y-6.7828 F30.00
G01 X16.9141 Y-6.8091 F30.00
G01 X16.9042 Y-6.8365 F30.00
G01 X16.9016 Y-6.8451 F30.00
G01 X16.8946 Y-6.8733 F30.00
G01 X16.8897 Y-6.9065 F30.00
G01 X16.8881 Y-6.9400 F30.00
G01 X16.8881 Y-7.8400 F30.00
G01 X16.8894 Y-7.8690 F30.00
G01 X16.8902 Y-7.8780 F30.00
G01 X16.8942 Y-7.9045 F30.00
G01 X16.8956 Y-7.9111 F30.00
G01 X16.9028 Y-7.9393 F30.00
G01 X16.9125 Y-7.9666 F30.00
G01 X16.9159 Y-7.9750 F30.00
G01 X16.9284 Y-8.0012 F30.00
G01 X16.9457 Y-8.0300 F30.00
G01 X16.9657 Y-8.0569 F30.00
G01 X16.9851 Y-8.0785 F30.00
G01 X16.9915 Y-8.0849 F30.00
G01 X17.0131 Y-8.1043 F30.00
G01 X17.0363 Y-8.1217 F30.00
G01 X17.0438 Y-8.1267 F30.00
G01 X17.0679 Y-8.1411 F30.00
G01 X17.0679 Y-13.2696 F30.00
G01 X17.0428 Y-13.2814 F30.00
G01 X17.0349 Y-13.2857 F30.00
G01 X17.0100 Y-13.3007 F30.00
G01 X16.9866 Y-13.3179 F30.00
G01 X16.9797 Y-13.3236 F30.00
G01 X16.9582 Y-13.3432 F30.00
G01 X16.9357 Y-13.3681 F30.00
G01 X16.9183 Y-13.3913 F30.00
G01 X16.9133 Y-13.3988 F30.00
G01 X16.8984 Y-13.4238 F30.00
G01 X16.8859 Y-13.4500 F30.00
G01 X16.8825 Y-13.4584 F30.00
G01 X16.8728 Y-13.4857 F30.00
G01 X16.8642 Y-13.5205 F30.00
G01 X16.8597 Y-13.5515 F30.00
G01 X16.8581 Y-13.5850 F30.00
G01 X16.8581 Y-14.5373 F30.00
G01 X16.8597 Y-14.5685 F30.00
G01 X16.8638 Y-14.5973 F30.00
G01 X16.8656 Y-14.6061 F30.00
G01 X16.8728 Y-14.6343 F30.00
G01 X16.8825 Y-14.6616 F30.00
G01 X16.8859 Y-14.6700 F30.00
G01 X16.8984 Y-14.6962 F30.00
G01 X16.9157 Y-14.7250 F30.00
G01 X16.9329 Y-14.7484 F30.00
G01 X16.9386 Y-14.7553 F30.00
G01 X16.9582 Y-14.7768 F30.00
G01 X16.9831 Y-14.7993 F30.00
G01 X17.0063 Y-14.8167 F30.00
G01 X17.0138 Y-14.8217 F30.00
G01 X17.0388 Y-14.8366 F30.00
G01 X17.0679 Y-14.8504 F30.00
G01 X17.0679 Y-15.3108 F30.00
G01 X17.0571 Y-15.3150 F30.00
G01 X17.0308 Y-15.3274 F30.00
G01 X16.9982 Y-15.3470 F30.00
G01 X16.9731 Y-15.3657 F30.00
G01 X16.9515 Y-15.3851 F30.00
G01 X16.9451 Y-15.3915 F30.00
G01 X16.9257 Y-15.4131 F30.00
G01 X16.9083 Y-15.4363 F30.00
G01 X16.9033 Y-15.4438 F30.00
G01 X16.8884 Y-15.4688 F30.00
G01 X16.8759 Y-15.4950 F30.00
G01 X16.8725 Y-15.5034 F30.00
G01 X16.8628 Y-15.5307 F30.00
G01 X16.8542 Y-15.5655 F30.00
G01 X16.8497 Y-15.5965 F30.00
G01 X16.8481 Y-15.6300 F30.00
G01 X16.8481 Y-16.5300 F30.00
G01 X16.8494 Y-16.5590 F30.00
G01 X16.8502 Y-16.5680 F30.00
G00 Z2.0000
G00 X14.8915 Y-16.7120
G01 F10.00
G01 Z-0.0500
G01 F30.00
G01 X14.8794 Y-16.6773 F30.00
G01 X14.8701 Y-16.6413 F30.00
G01 X14.8661 Y-16.6228 F30.00
G01 X14.8609 Y-16.5876 F30.00
G01 X14.6859 Y-16.5876 F30.00
G01 X14.7389 Y-16.6032 F30.00
G01 X14.7567 Y-16.6091 F30.00
G01 X14.7683 Y-16.6137 F30.00
G01 X14.7796 Y-16.6190 F30.00
G01 X14.7907 Y-16.6247 F30.00
G01 X14.8015 Y-16.6310 F30.00
G01 X14.8119 Y-16.6378 F30.00
G01 X14.8220 Y-16.6451 F30.00
G01 X14.8365 Y-16.6570 F30.00
G01 X14.8501 Y-16.6698 F30.00
G01 X14.8915 Y-16.7120 F30.00
G00 Z2.0000
G00 X7.9656 Y-14.9800
G01 F10.00
G01 Z-0.0500
G01 F30.00
G01 X7.9657 Y-15.2845 F30.00
G01 X7.9667 Y-15.3037 F30.00
G01 X7.9702 Y-15.3272 F30.00
G01 X7.9760 Y-15.3502 F30.00
G01 X7.9831 Y-15.3705 F30.00
G01 X7.9941 Y-15.3941 F30.00
G01 X8.0039 Y-15.4106 F30.00
G01 X8.0089 Y-15.4181 F30.00
G01 X8.0205 Y-15.4335 F30.00
G01 X8.0348 Y-15.4495 F30.00
G01 X8.0558 Y-15.4684 F30.00
G01 X8.0731 Y-15.4812 F30.00
G01 X8.0895 Y-15.4912 F30.00
G01 X8.0975 Y-15.4954 F30.00
G01 X8.1149 Y-15.5035 F30.00
G01 X8.1330 Y-15.5101 F30.00
G01 X8.1416 Y-15.5127 F30.00
G01 X8.1603 Y-15.5173 F30.00
G01 X8.1793 Y-15.5202 F30.00
G01 X8.1883 Y-15.5211 F30.00
G01 X8.2075 Y-15.5219 F30.00
G01 X9.3848 Y-15.5219 F30.00
G01 X9.4062 Y-15.5208 F30.00
G01 X9.4275 Y-15.5177 F30.00
G01 X9.4484 Y-15.5127 F30.00
G01 X9.4570 Y-15.5101 F30.00
G01 X9.4751 Y-15.5035 F30.00
G01 X9.4966 Y-15.4934 F30.00
G01 X9.5150 Y-15.4824 F30.00
G01 X9.5294 Y-15.4721 F30.00
G01 X10.2856 Y-15.4721 F30.00
G01 X10.3000 Y-15.4824 F30.00
G01 X10.3184 Y-15.4934 F30.00
G01 X10.3399 Y-15.5035 F30.00
G01 X10.3601 Y-15.5109 F30.00
G01 X10.3809 Y-15.5163 F30.00
G01 X10.3897 Y-15.5181 F30.00
G01 X10.4088 Y-15.5208 F30.00
G01 X10.4325 Y-15.5219 F30.00
G01 X11.6098 Y-15.5219 F30.00
G01 X11.6335 Y-15.5205 F30.00
G01 X11.6525 Y-15.5177 F30.00
G01 X11.6591 Y-15.5163 F30.00
G01 X11.6777 Y-15.5115 F30.00
G01 X11.6959 Y-15.5052 F30.00
G01 X11.7022 Y-15.5026 F30.00
G01 X11.7175 Y-15.4954 F30.00
G01 X11.7255 Y-15.4912 F30.00
G01 X11.7419 Y-15.4812 F30.00
G01 X11.7627 Y-15.4656 F30.00
G01 X11.7786 Y-15.4511 F30.00
G01 X11.7916 Y-15.4369 F30.00
G01 X11.7959 Y-15.4317 F30.00
G01 X11.8074 Y-15.4163 F30.00
G01 X11.8209 Y-15.3941 F30.00
G01 X11.8292 Y-15.3767 F30.00
G01 X11.8327 Y-15.3684 F30.00
G01 X11.8390 Y-15.3502 F30.00
G01 X11.8438 Y-15.3316 F30.00
G01 X11.8452 Y-15.3250 F30.00
G01 X11.8480 Y-15.3060 F30.00
G01 X11.8494 Y-15.2800 F30.00
G01 X11.8494 Y-14.9800 F30.00
G01 X11.8483 Y-14.9563 F30.00
G01 X11.8456 Y-14.9372 F30.00
G01 X11.8438 Y-14.9284 F30.00
G01 X11.8390 Y-14.9098 F30.00
G01 X11.8319 Y-14.8895 F30.00
G01 X11.8198 Y-14.8640 F30.00
G01 X11.8087 Y-14.8456 F30.00
G01 X11.8000 Y-14.8337 F30.00
G01 X12.0610 Y-14.5728 F30.00
G01 X12.0790 Y-14.5529 F30.00
G01 X12.0847 Y-14.5460 F30.00
G01 X12.1019 Y-14.5225 F30.00
G01 X12.1181 Y-14.4957 F30.00
G01 X12.1335 Y-14.4634 F30.00
G01 X12.1448 Y-14.4318 F30.00
G01 X12.1530 Y-14.3992 F30.00
G01 X12.1579 Y-14.3660 F30.00
G01 X12.1596 Y-14.3325 F30.00
G01 X12.1596 Y-14.0863 F30.00
G01 X12.1827 Y-14.0753 F30.00
G01 X12.2051 Y-14.0620 F30.00
G01 X12.2107 Y-14.0583 F30.00
G01 X12.2298 Y-14.0442 F30.00
G01 X12.2368 Y-14.0385 F30.00
G01 X12.2559 Y-14.0209 F30.00
G01 X12.2764 Y-13.9984 F30.00
G01 X12.2946 Y-13.9739 F30.00
G01 X12.3080 Y-13.9516 F30.00
G01 X12.3123 Y-13.9437 F30.00
G01 X12.3233 Y-13.9201 F30.00
G01 X12.3322 Y-13.8957 F30.00
G01 X12.3342 Y-13.8893 F30.00
G01 X12.3405 Y-13.8641 F30.00
G01 X12.3455 Y-13.8317 F30.00
G01 X12.3469 Y-13.8012 F30.00
G01 X12.3469 Y-13.0365 F30.00
G01 X12.3455 Y-13.0083 F30.00
G01 X12.3418 Y-12.9826 F30.00
G01 X12.3400 Y-12.9737 F30.00
G01 X12.3336 Y-12.9486 F30.00
G01 X12.3249 Y-12.9241 F30.00
G01 X12.3224 Y-12.9178 F30.00
G01 X12.3123 Y-12.8963 F30.00
G01 X12.3080 Y-12.8884 F30.00
G01 X12.2946 Y-12.8661 F30.00
G01 X12.2792 Y-12.8452 F30.00
G01 X12.2735 Y-12.8382 F30.00
G01 X12.2559 Y-12.8191 F30.00
G01 X12.2368 Y-12.8015 F30.00
G01 X12.2298 Y-12.7958 F30.00
G01 X12.2089 Y-12.7804 F30.00
G01 X12.1866 Y-12.7670 F30.00
G01 X12.1787 Y-12.7627 F30.00
G01 X12.1551 Y-12.7517 F30.00
G01 X12.1307 Y-12.7428 F30.00
G01 X12.1221 Y-12.7402 F30.00
G01 X12.0969 Y-12.7340 F30.00
G01 X12.0712 Y-12.7301 F30.00
G01 X12.0622 Y-12.7292 F30.00
G01 X12.0362 Y-12.7281 F30.00
G01 X11.5988 Y-12.7281 F30.00
G01 X11.5683 Y-12.7295 F30.00
G01 X11.5404 Y-12.7336 F30.00
G01 X11.5086 Y-12.7414 F30.00
G01 X11.4799 Y-12.7517 F30.00
G01 X11.4523 Y-12.7647 F30.00
G01 X11.4299 Y-12.7780 F30.00
G01 X11.4243 Y-12.7817 F30.00
G01 X11.4052 Y-12.7958 F30.00
G01 X11.3982 Y-12.8015 F30.00
G01 X11.3775 Y-12.8207 F30.00
G01 X11.3600 Y-12.8399 F30.00
G01 X11.3558 Y-12.8452 F30.00
G01 X11.3404 Y-12.8661 F30.00
G01 X11.3270 Y-12.8884 F30.00
G01 X11.3227 Y-12.8963 F30.00
G01 X11.3117 Y-12.9199 F30.00
G01 X11.3014 Y-12.9486 F30.00
G01 X11.2950 Y-12.9737 F30.00
G01 X11.2932 Y-12.9826 F30.00
G01 X11.2894 Y-13.0105 F30.00
G01 X11.2881 Y-13.0388 F30.00
G01 X11.2881 Y-13.8012 F30.00
G01 X11.2895 Y-13.8317 F30.00
G01 X11.2932 Y-13.8574 F30.00
G01 X11.2950 Y-13.8663 F30.00
G01 X11.3014 Y-13.8914 F30.00
G01 X11.3101 Y-13.9159 F30.00
G01 X11.3135 Y-13.9243 F30.00
G01 X11.3247 Y-13.9477 F30.00
G01 X11.3380 Y-13.9701 F30.00
G01 X11.3430 Y-13.9776 F30.00
G01 X11.3586 Y-13.9984 F30.00
G01 X11.3759 Y-14.0177 F30.00
G01 X11.3823 Y-14.0241 F30.00
G01 X11.4016 Y-14.0414 F30.00
G01 X11.4224 Y-14.0570 F30.00
G01 X11.4299 Y-14.0620 F30.00
G01 X11.4523 Y-14.0753 F30.00
G01 X11.4754 Y-14.0863 F30.00
G01 X11.4754 Y-14.1908 F30.00
G01 X10.9282 Y-14.7381 F30.00
G01 X10.4325 Y-14.7381 F30.00
G01 X10.4110 Y-14.7390 F30.00
G01 X10.3897 Y-14.7419 F30.00
G01 X10.3809 Y-14.7437 F30.00
G01 X10.3623 Y-14.7485 F30.00
G01 X10.3420 Y-14.7556 F30.00
G01 X10.3165 Y-14.7677 F30.00
G01 X10.2981 Y-14.7788 F30.00
G01 X10.2856 Y-14.7879 F30.00
G01 X9.5294 Y-14.7879 F30.00
G01 X9.5169 Y-14.7788 F30.00
G01 X9.4985 Y-14.7677 F30.00
G01 X9.4751 Y-14.7565 F30.00
G01 X9.4570 Y-14.7499 F30.00
G01 X9.4484 Y-14.7473 F30.00
G01 X9.4297 Y-14.7427 F30.00
G01 X9.4085 Y-14.7395 F30.00
G01 X9.3825 Y-14.7381 F30.00
G01 X9.1546 Y-14.7381 F30.00
G01 X9.1546 Y-13.0863 F30.00
G01 X9.1777 Y-13.0753 F30.00
G01 X9.2001 Y-13.0620 F30.00
G01 X9.2057 Y-13.0583 F30.00
G01 X9.2248 Y-13.0442 F30.00
G01 X9.2318 Y-13.0385 F30.00
G01 X9.2509 Y-13.0209 F30.00
G01 X9.2714 Y-12.9984 F30.00
G01 X9.2870 Y-12.9776 F30.00
G01 X9.2920 Y-12.9701 F30.00
G01 X9.3053 Y-12.9477 F30.00
G01 X9.3165 Y-12.9243 F30.00
G01 X9.3199 Y-12.9159 F30.00
G01 X9.3286 Y-12.8914 F30.00
G01 X9.3364 Y-12.8596 F30.00
G01 X9.3405 Y-12.8317 F30.00
G01 X9.3419 Y-12.8012 F30.00
G01 X9.3419 Y-12.0388 F30.00
G01 X9.3405 Y-12.0083 F30.00
G01 X9.3355 Y-11.9759 F30.00
G01 X9.3286 Y-11.9486 F30.00
G01 X9.3199 Y-11.9241 F30.00
G01 X9.3165 Y-11.9157 F30.00
G01 X9.3053 Y-11.8923 F30.00
G01 X9.2896 Y-11.8661 F30.00
G01 X9.2742 Y-11.8452 F30.00
G01 X9.2685 Y-11.8382 F30.00
G01 X9.2509 Y-11.8191 F30.00
G01 X9.2318 Y-11.8015 F30.00
G01 X9.2248 Y-11.7958 F30.00
G01 X9.2039 Y-11.7804 F30.00
G01 X9.1777 Y-11.7647 F30.00
G01 X9.1543 Y-11.7535 F30.00
G01 X9.1459 Y-11.7501 F30.00
G01 X9.1214 Y-11.7414 F30.00
G01 X9.0963 Y-11.7350 F30.00
G01 X9.0874 Y-11.7332 F30.00
G01 X9.0617 Y-11.7295 F30.00
G01 X9.0335 Y-11.7281 F30.00
G01 X8.5892 Y-11.7282 F30.00
G01 X8.5611 Y-11.7298 F30.00
G01 X8.5354 Y-11.7336 F30.00
G01 X8.5287 Y-11.7350 F30.00
G01 X8.5036 Y-11.7414 F30.00
G01 X8.4791 Y-11.7501 F30.00
G01 X8.4728 Y-11.7526 F30.00
G01 X8.4513 Y-11.7627 F30.00
G01 X8.4434 Y-11.7670 F30.00
G01 X8.4211 Y-11.7804 F30.00
G01 X8.3966 Y-11.7986 F30.00
G01 X8.3741 Y-11.8191 F30.00
G01 X8.3565 Y-11.8382 F30.00
G01 X8.3508 Y-11.8452 F30.00
G01 X8.3354 Y-11.8661 F30.00
G01 X8.3220 Y-11.8884 F30.00
G01 X8.3187 Y-11.8943 F30.00
G01 X8.3085 Y-11.9157 F30.00
G01 X8.3051 Y-11.9241 F30.00
G01 X8.2964 Y-11.9486 F30.00
G01 X8.2886 Y-11.9804 F30.00
G01 X8.2845 Y-12.0083 F30.00
G01 X8.2831 Y-12.0388 F30.00
G01 X8.2831 Y-12.8012 F30.00
G01 X8.2845 Y-12.8317 F30.00
G01 X8.2882 Y-12.8574 F30.00
G01 X8.2900 Y-12.8663 F30.00
G01 X8.2964 Y-12.8914 F30.00
G01 X8.3051 Y-12.9159 F30.00
G01 X8.3085 Y-12.9243 F30.00
G01 X8.3197 Y-12.9477 F30.00
G01 X8.3354 Y-12.9739 F30.00
G01 X8.3508 Y-12.9948 F30.00
G01 X8.3565 Y-13.0018 F30.00
G01 X8.3741 Y-13.0209 F30.00
G01 X8.3966 Y-13.0414 F30.00
G01 X8.4174 Y-13.0570 F30.00
G01 X8.4249 Y-13.0620 F30.00
G01 X8.4473 Y-13.0753 F30.00
G01 X8.4704 Y-13.0863 F30.00
G01 X8.4704 Y-14.7381 F30.00
G01 X8.2075 Y-14.7381 F30.00
G01 X8.1860 Y-14.7390 F30.00
G01 X8.1603 Y-14.7427 F30.00
G01 X8.1394 Y-14.7478 F30.00
G01 X8.1170 Y-14.7556 F30.00
G01 X8.0975 Y-14.7646 F30.00
G01 X8.0895 Y-14.7688 F30.00
G01 X8.0731 Y-14.7788 F30.00
G01 X8.0576 Y-14.7902 F30.00
G01 X8.0506 Y-14.7959 F30.00
G01 X8.0364 Y-14.8089 F30.00
G01 X8.0219 Y-14.8248 F30.00
G01 X8.0089 Y-14.8419 F30.00
G01 X8.0039 Y-14.8494 F30.00
G01 X7.9941 Y-14.8659 F30.00
G01 X7.9858 Y-14.8833 F30.00
G01 X7.9823 Y-14.8916 F30.00
G01 X7.9760 Y-14.9098 F30.00
G01 X7.9702 Y-14.9328 F30.00
G01 X7.9673 Y-14.9518 F30.00
G01 X7.9664 Y-14.9608 F30.00
G01 X7.9656 Y-14.9800 F30.00
G00 Z2.0000
G00 X7.8000 Y-15.0105
G01 F10.00
G01 Z-0.0500
G01 F30.00
G01 X7.8001 Y-14.9737 F30.00
G01 X7.8015 Y-14.9464 F30.00
G01 X7.8027 Y-14.9338 F30.00
G01 X7.8067 Y-14.9067 F30.00
G01 X7.8106 Y-14.8882 F30.00
G01 X7.8176 Y-14.8617 F30.00
G01 X7.8265 Y-14.8359 F30.00
G01 X7.8311 Y-14.8241 F30.00
G01 X7.8425 Y-14.7992 F30.00
G01 X7.8512 Y-14.7824 F30.00
G01 X7.8653 Y-14.7589 F30.00
G01 X7.8760 Y-14.7433 F30.00
G01 X7.8925 Y-14.7215 F30.00
G01 X7.9107 Y-14.7010 F30.00
G01 X7.9239 Y-14.6875 F30.00
G01 X7.9442 Y-14.6691 F30.00
G01 X7.9590 Y-14.6573 F30.00
G01 X7.9811 Y-14.6412 F30.00
G01 X8.0044 Y-14.6269 F30.00
G01 X8.0154 Y-14.6207 F30.00
G01 X8.0267 Y-14.6150 F30.00
G01 X8.0516 Y-14.6036 F30.00
G01 X8.0772 Y-14.5940 F30.00
G01 X8.0953 Y-14.5883 F30.00
G01 X8.1218 Y-14.5817 F30.00
G01 X8.1342 Y-14.5792 F30.00
G01 X8.1613 Y-14.5752 F30.00
G01 X8.1739 Y-14.5740 F30.00
G01 X8.2075 Y-14.5725 F30.00
G01 X8.3049 Y-14.5725 F30.00
G01 X8.3049 Y-13.4713 F30.00
G01 X8.2875 Y-13.5305 F30.00
G01 X8.2833 Y-13.5426 F30.00
G01 X8.2785 Y-13.5544 F30.00
G01 X8.2731 Y-13.5660 F30.00
G01 X8.2639 Y-13.5829 F30.00
G01 X8.2572 Y-13.5937 F30.00
G01 X8.2460 Y-13.6093 F30.00
G01 X8.2337 Y-13.6240 F30.00
G01 X8.2204 Y-13.6378 F30.00
G01 X8.2109 Y-13.6464 F30.00
G01 X8.1532 Y-13.6963 F30.00
G01 X8.1380 Y-13.7079 F30.00
G01 X8.1274 Y-13.7150 F30.00
G01 X8.1164 Y-13.7216 F30.00
G01 X8.1051 Y-13.7276 F30.00
G01 X8.0935 Y-13.7331 F30.00
G01 X8.0757 Y-13.7402 F30.00
G01 X8.0574 Y-13.7459 F30.00
G01 X8.0450 Y-13.7490 F30.00
G01 X8.0262 Y-13.7524 F30.00
G01 X7.9570 Y-13.7624 F30.00
G01 X7.9385 Y-13.7643 F30.00
G01 X7.9261 Y-13.7649 F30.00
G01 X7.9138 Y-13.7649 F30.00
G01 X7.8952 Y-13.7638 F30.00
G01 X7.8829 Y-13.7623 F30.00
G01 X7.8646 Y-13.7589 F30.00
G01 X7.8526 Y-13.7559 F30.00
G01 X7.8407 Y-13.7524 F30.00
G01 X7.7867 Y-13.7334 F30.00
G01 X7.7956 Y-13.7419 F30.00
G01 X7.8043 Y-13.7510 F30.00
G01 X7.8184 Y-13.7667 F30.00
G01 X7.8264 Y-13.7764 F30.00
G01 X7.8463 Y-13.8036 F30.00
G01 X7.8606 Y-13.8269 F30.00
G01 X7.8668 Y-13.8379 F30.00
G01 X7.8725 Y-13.8492 F30.00
G01 X7.8839 Y-13.8741 F30.00
G01 X7.8955 Y-13.9057 F30.00
G01 X7.8992 Y-13.9178 F30.00
G01 X7.9044 Y-13.9382 F30.00
G01 X7.9071 Y-13.9505 F30.00
G01 X7.9093 Y-13.9630 F30.00
G01 X7.9130 Y-13.9901 F30.00
G01 X7.9149 Y-14.0237 F30.00
G01 X7.9149 Y-14.3363 F30.00
G01 X7.9135 Y-14.3636 F30.00
G01 X7.9115 Y-14.3825 F30.00
G01 X7.9071 Y-14.4095 F30.00
G01 X7.8992 Y-14.4422 F30.00
