(G-CODE GENERATED BY FLATCAM v8.994 - www.flatcam.org - Version Date: 2020/11/7)

(Name: IF_AMP_t1-F_Cu.gbr_iso_combined_cnc)
(Type: G-code from Geometry)
(Units: MM)

(Created on Saturday, 27 May 2023 at 20:44)

(This preprocessor is the default preprocessor used by FlatCAM.)
(It is made to work with MACH3 compatible motion controllers.)

(TOOL DIAMETER: 0.1839 mm)
(Feedrate_XY: 30.0 mm/min)
(Feedrate_Z: 10.0 mm/min)
(Feedrate rapids 1500.0 mm/min)

(Z_Cut: -0.05 mm)
(Z_Move: 2.0 mm)
(Z Start: None mm)
(Z End: 15.0 mm)
(X,Y End: None mm)
(Steps per circle: 64)
(Preprocessor Geometry: default)

(X range:   84.5444 ...  108.4556  mm)
(Y range:  -77.4556 ...  -57.5444  mm)

(Spindle Speed: 12000.0 RPM)
G21
G90
G94

G01 F30.00

M5
G00 Z15.0000
G00 X0.0000 Y0.0000
T2
M6    
(MSG, Change to Tool Dia = 0.1839)
M0
G00 Z15.0000

G00 Z2.0000
M03 S12000.0
G4 P1.0
G01 F30.00
G00 X88.7954 Y-69.7276
G01 F10.00
G01 Z-0.0500
G01 F30.00
G01 X88.8072 Y-69.7601
G01 X88.8114 Y-69.7729
G01 X88.8210 Y-69.8096
G01 X88.8239 Y-69.8228
G01 X88.8298 Y-69.8603
G01 X88.8315 Y-69.8736
G01 X88.8325 Y-69.8871
G01 X88.8339 Y-69.9183
G01 X88.8343 Y-71.3905
G01 X88.8443 Y-71.3718
G01 X88.8515 Y-71.3603
G01 X88.8593 Y-71.3491
G01 X88.8676 Y-71.3384
G01 X88.8765 Y-71.3280
G01 X88.8858 Y-71.3181
G01 X88.8957 Y-71.3087
G01 X88.9535 Y-71.2585
G01 X88.9695 Y-71.2457
G01 X88.9806 Y-71.2378
G01 X88.9980 Y-71.2271
G01 X89.0161 Y-71.2177
G01 X89.0285 Y-71.2122
G01 X89.0412 Y-71.2074
G01 X89.0542 Y-71.2031
G01 X89.0673 Y-71.1995
G01 X89.0806 Y-71.1966
G01 X89.0940 Y-71.1943
G01 X89.1631 Y-71.1844
G01 X89.1765 Y-71.1828
G01 X89.1899 Y-71.1819
G01 X89.2033 Y-71.1816
G01 X89.2168 Y-71.1820
G01 X89.2302 Y-71.1830
G01 X89.2435 Y-71.1847
G01 X89.2567 Y-71.1871
G01 X89.2698 Y-71.1901
G01 X89.2828 Y-71.1937
G01 X89.2983 Y-71.1990
G01 X89.2743 Y-71.1661
G01 X89.2671 Y-71.1548
G01 X89.2511 Y-71.1279
G01 X89.2418 Y-71.1100
G01 X89.2285 Y-71.0817
G01 X89.2234 Y-71.0693
G01 X89.2128 Y-71.0399
G01 X89.2086 Y-71.0271
G01 X89.2050 Y-71.0142
G01 X89.1975 Y-70.9838
G01 X89.1948 Y-70.9706
G01 X89.1902 Y-70.9397
G01 X89.1885 Y-70.9264
G01 X89.1875 Y-70.9129
G01 X89.1860 Y-70.8750
G01 X89.1861 Y-69.9183
G01 X89.1875 Y-69.8871
G01 X89.1885 Y-69.8736
G01 X89.1902 Y-69.8603
G01 X89.1961 Y-69.8228
G01 X89.2050 Y-69.7858
G01 X89.2086 Y-69.7729
G01 X89.2128 Y-69.7601
G01 X89.2246 Y-69.7276
G01 X89.2146 Y-69.7346
G01 X89.2030 Y-69.7418
G01 X89.1851 Y-69.7515
G01 X89.1727 Y-69.7572
G01 X89.1601 Y-69.7624
G01 X89.1407 Y-69.7688
G01 X89.1276 Y-69.7723
G01 X89.1143 Y-69.7752
G01 X89.0386 Y-69.7876
G01 X89.0184 Y-69.7901
G01 X88.9980 Y-69.7911
G01 X88.9776 Y-69.7906
G01 X88.9573 Y-69.7886
G01 X88.9372 Y-69.7850
G01 X88.9239 Y-69.7819
G01 X88.9109 Y-69.7780
G01 X88.8917 Y-69.7711
G01 X88.8213 Y-69.7406
G01 X88.8090 Y-69.7349
G01 X88.7954 Y-69.7276
G00 Z2.0000
G00 X89.3681 Y-69.9250
G01 F10.00
G01 Z-0.0500
G01 F30.00
G01 X89.3681 Y-70.8750
G01 X89.3697 Y-70.9085
G01 X89.3742 Y-70.9395
G01 X89.3828 Y-70.9743
G01 X89.3925 Y-71.0016
G01 X89.3959 Y-71.0100
G01 X89.4084 Y-71.0362
G01 X89.4233 Y-71.0612
G01 X89.4283 Y-71.0687
G01 X89.4457 Y-71.0919
G01 X89.4682 Y-71.1168
G01 X89.4897 Y-71.1364
G01 X89.4966 Y-71.1421
G01 X89.5200 Y-71.1593
G01 X89.5449 Y-71.1743
G01 X89.5528 Y-71.1786
G01 X89.5771 Y-71.1900
G01 X89.6107 Y-71.2022
G01 X89.6433 Y-71.2104
G01 X89.6765 Y-71.2153
G01 X89.7077 Y-71.2169
G01 X90.2123 Y-71.2169
G01 X90.2390 Y-71.2156
G01 X90.2480 Y-71.2148
G01 X90.2767 Y-71.2104
G01 X90.3071 Y-71.2029
G01 X90.3409 Y-71.1909
G01 X90.3712 Y-71.1766
G01 X90.4000 Y-71.1593
G01 X90.4269 Y-71.1393
G01 X90.4518 Y-71.1168
G01 X90.4743 Y-71.0919
G01 X90.4943 Y-71.0650
G01 X90.5116 Y-71.0362
G01 X90.5259 Y-71.0059
G01 X90.5372 Y-70.9743
G01 X90.5454 Y-70.9417
G01 X90.5498 Y-70.9130
G01 X90.5506 Y-70.9040
G01 X90.5519 Y-70.8773
G01 X90.5519 Y-70.7421
G01 X91.1581 Y-70.7421
G01 X91.1582 Y-70.8058
G01 X91.1595 Y-70.8317
G01 X91.1636 Y-70.8596
G01 X91.1702 Y-70.8871
G01 X91.1728 Y-70.8957
G01 X91.1817 Y-70.9201
G01 X91.1947 Y-70.9477
G01 X91.2104 Y-70.9739
G01 X91.2258 Y-70.9948
G01 X91.2315 Y-71.0018
G01 X91.2475 Y-71.0193
G01 X91.2523 Y-71.0241
G01 X91.2716 Y-71.0414
G01 X91.2961 Y-71.0596
G01 X91.3223 Y-71.0753
G01 X91.3454 Y-71.0863
G01 X91.3454 Y-71.7881
G01 X91.3302 Y-71.7881
G01 X91.3065 Y-71.7895
G01 X91.2853 Y-71.7927
G01 X91.2601 Y-71.7991
G01 X91.2399 Y-71.8065
G01 X91.2184 Y-71.8166
G01 X91.1981 Y-71.8288
G01 X91.1773 Y-71.8444
G01 X91.1614 Y-71.8589
G01 X91.1455 Y-71.8765
G01 X91.1313 Y-71.8956
G01 X91.1191 Y-71.9159
G01 X91.1090 Y-71.9374
G01 X91.1010 Y-71.9598
G01 X91.0952 Y-71.9828
G01 X91.0920 Y-72.0040
G01 X91.0906 Y-72.0300
G01 X91.0906 Y-72.3300
G01 X91.0917 Y-72.3537
G01 X91.0948 Y-72.3750
G01 X91.1003 Y-72.3981
G01 X91.1073 Y-72.4184
G01 X91.1099 Y-72.4247
G01 X91.1171 Y-72.4400
G01 X91.1213 Y-72.4480
G01 X91.1326 Y-72.4663
G01 X91.1469 Y-72.4852
G01 X91.1614 Y-72.5011
G01 X91.1808 Y-72.5184
G01 X91.1981 Y-72.5312
G01 X91.2165 Y-72.5423
G01 X91.2358 Y-72.5517
G01 X91.2441 Y-72.5552
G01 X91.2623 Y-72.5615
G01 X91.2853 Y-72.5673
G01 X91.3088 Y-72.5708
G01 X91.3280 Y-72.5718
G01 X92.5098 Y-72.5719
G01 X92.5335 Y-72.5705
G01 X92.5525 Y-72.5677
G01 X92.5591 Y-72.5663
G01 X92.5777 Y-72.5615
G01 X92.5959 Y-72.5552
G01 X92.6022 Y-72.5526
G01 X92.6175 Y-72.5454
G01 X92.6255 Y-72.5412
G01 X92.6419 Y-72.5312
G01 X92.6610 Y-72.5170
G01 X92.6786 Y-72.5011
G01 X92.6959 Y-72.4817
G01 X92.7087 Y-72.4644
G01 X92.7187 Y-72.4480
G01 X92.7229 Y-72.4400
G01 X92.7310 Y-72.4226
G01 X92.7376 Y-72.4045
G01 X92.7402 Y-72.3959
G01 X92.7448 Y-72.3772
G01 X92.7480 Y-72.3560
G01 X92.7494 Y-72.3300
G01 X92.7494 Y-72.0277
G01 X92.7483 Y-72.0063
G01 X92.7448 Y-71.9828
G01 X92.7390 Y-71.9598
G01 X92.7310 Y-71.9374
G01 X92.7209 Y-71.9159
G01 X92.7087 Y-71.8956
G01 X92.6945 Y-71.8765
G01 X92.6802 Y-71.8605
G01 X92.6627 Y-71.8444
G01 X92.6456 Y-71.8314
G01 X92.6400 Y-71.8276
G01 X92.6255 Y-71.8188
G01 X92.6175 Y-71.8146
G01 X92.6001 Y-71.8065
G01 X92.5777 Y-71.7985
G01 X92.5547 Y-71.7927
G01 X92.5335 Y-71.7895
G01 X92.5075 Y-71.7881
G01 X92.0296 Y-71.7881
G01 X92.0296 Y-71.0863
G01 X92.0527 Y-71.0753
G01 X92.0751 Y-71.0620
G01 X92.0826 Y-71.0570
G01 X92.1034 Y-71.0414
G01 X92.1259 Y-71.0209
G01 X92.1435 Y-71.0018
G01 X92.1492 Y-70.9948
G01 X92.1646 Y-70.9739
G01 X92.1803 Y-70.9477
G01 X92.1915 Y-70.9243
G01 X92.1949 Y-70.9159
G01 X92.2036 Y-70.8914
G01 X92.2100 Y-70.8663
G01 X92.2118 Y-70.8574
G01 X92.2155 Y-70.8317
G01 X92.2169 Y-70.8035
G01 X92.2169 Y-70.0388
G01 X92.2152 Y-70.0061
G01 X92.2110 Y-69.9781
G01 X92.2036 Y-69.9486
G01 X92.1933 Y-69.9199
G01 X92.1803 Y-69.8923
G01 X92.1646 Y-69.8661
G01 X92.1464 Y-69.8416
G01 X92.1259 Y-69.8191
G01 X92.1016 Y-69.7972
G01 X92.0789 Y-69.7804
G01 X92.0566 Y-69.7670
G01 X92.0487 Y-69.7627
G01 X92.0251 Y-69.7517
G01 X91.9964 Y-69.7414
G01 X91.9713 Y-69.7350
G01 X91.9624 Y-69.7332
G01 X91.9367 Y-69.7295
G01 X91.9062 Y-69.7281
G01 X91.4688 Y-69.7281
G01 X91.4383 Y-69.7295
G01 X91.4104 Y-69.7336
G01 X91.3786 Y-69.7414
G01 X91.3541 Y-69.7501
G01 X91.3457 Y-69.7535
G01 X91.3243 Y-69.7637
G01 X91.3184 Y-69.7670
G01 X91.2961 Y-69.7804
G01 X91.2716 Y-69.7986
G01 X91.2491 Y-69.8191
G01 X91.2272 Y-69.8434
G01 X91.2104 Y-69.8661
G01 X91.1947 Y-69.8923
G01 X91.1817 Y-69.9199
G01 X91.1721 Y-69.9464
G01 X91.1640 Y-69.9781
G01 X91.1598 Y-70.0061
G01 X91.1581 Y-70.0365
G01 X91.1581 Y-70.0579
G01 X90.5519 Y-70.0579
G01 X90.5519 Y-69.9250
G01 X90.5503 Y-69.8915
G01 X90.5462 Y-69.8627
G01 X90.5444 Y-69.8539
G01 X90.5372 Y-69.8257
G01 X90.5259 Y-69.7941
G01 X90.5116 Y-69.7638
G01 X90.4967 Y-69.7388
G01 X90.4917 Y-69.7313
G01 X90.4757 Y-69.7098
G01 X90.4714 Y-69.7047
G01 X90.4518 Y-69.6832
G01 X90.4269 Y-69.6607
G01 X90.4000 Y-69.6407
G01 X90.3732 Y-69.6245
G01 X90.3409 Y-69.6091
G01 X90.3093 Y-69.5978
G01 X90.2767 Y-69.5896
G01 X90.2413 Y-69.5845
G01 X90.2100 Y-69.5831
G01 X89.7055 Y-69.5832
G01 X89.6765 Y-69.5847
G01 X89.6433 Y-69.5896
G01 X89.6107 Y-69.5978
G01 X89.5791 Y-69.6091
G01 X89.5488 Y-69.6234
G01 X89.5200 Y-69.6407
G01 X89.4931 Y-69.6607
G01 X89.4682 Y-69.6832
G01 X89.4457 Y-69.7081
G01 X89.4257 Y-69.7350
G01 X89.4084 Y-69.7638
G01 X89.3941 Y-69.7941
G01 X89.3828 Y-69.8257
G01 X89.3746 Y-69.8583
G01 X89.3697 Y-69.8915
G01 X89.3681 Y-69.9250
G00 Z2.0000
G00 X89.0198 Y-71.0238
G01 F10.00
G01 Z-0.0500
G01 F30.00
G01 X89.0175 Y-71.0127
G01 X89.0163 Y-71.0064
G01 X89.0163 Y-71.0247
G01 X89.0198 Y-71.0238
G00 Z2.0000
G00 X90.6956 Y-69.7281
G01 F10.00
G01 Z-0.0500
G01 F30.00
G01 X90.7072 Y-69.7601
G01 X90.7114 Y-69.7729
G01 X90.7210 Y-69.8096
G01 X90.7252 Y-69.8294
G01 X90.7298 Y-69.8603
G01 X90.7317 Y-69.8759
G01 X91.0040 Y-69.8759
G01 X91.0135 Y-69.8502
G01 X91.0189 Y-69.8379
G01 X91.0311 Y-69.8124
G01 X91.0374 Y-69.8006
G01 X91.0553 Y-69.7708
G01 X91.0347 Y-69.7793
G01 X91.0218 Y-69.7837
G01 X91.0087 Y-69.7874
G01 X90.9954 Y-69.7904
G01 X90.9820 Y-69.7928
G01 X90.9618 Y-69.7952
G01 X90.9482 Y-69.7959
G01 X90.9278 Y-69.7957
G01 X90.8513 Y-69.7903
G01 X90.8377 Y-69.7890
G01 X90.8176 Y-69.7858
G01 X90.7977 Y-69.7811
G01 X90.7783 Y-69.7749
G01 X90.7656 Y-69.7700
G01 X90.7470 Y-69.7614
G01 X90.7292 Y-69.7516
G01 X90.7121 Y-69.7404
G01 X90.6956 Y-69.7281
G00 Z2.0000
G00 X91.0676 Y-71.6989
G01 F10.00
G01 Z-0.0500
G01 F30.00
G01 X91.0914 Y-71.6813
G01 X91.1083 Y-71.6703
G01 X91.1326 Y-71.6561
G01 X91.1634 Y-71.6412
G01 X91.1634 Y-71.1879
G01 X91.1510 Y-71.1778
G01 X91.1301 Y-71.1590
G01 X91.1203 Y-71.1497
G01 X91.1110 Y-71.1399
G01 X91.0922 Y-71.1190
G01 X91.0836 Y-71.1086
G01 X91.0628 Y-71.0806
G01 X91.0554 Y-71.0694
G01 X91.0408 Y-71.0452
G01 X91.0342 Y-71.0335
G01 X91.0281 Y-71.0215
G01 X91.0161 Y-70.9960
G01 X91.0110 Y-70.9836
G01 X90.9992 Y-70.9507
G01 X90.9953 Y-70.9378
G01 X90.9918 Y-70.9241
G01 X90.7317 Y-70.9241
G01 X90.7298 Y-70.9397
G01 X90.7252 Y-70.9706
G01 X90.7225 Y-70.9838
G01 X90.7150 Y-71.0142
G01 X90.7114 Y-71.0271
G01 X90.7072 Y-71.0399
G01 X90.6966 Y-71.0693
G01 X90.6915 Y-71.0817
G01 X90.6782 Y-71.1100
G01 X90.6721 Y-71.1220
G01 X90.6655 Y-71.1337
G01 X90.6494 Y-71.1605
G01 X90.6419 Y-71.1717
G01 X90.6193 Y-71.2022
G01 X90.6107 Y-71.2126
G01 X90.5967 Y-71.2282
G01 X90.6159 Y-71.2230
G01 X90.6359 Y-71.2189
G01 X90.6561 Y-71.2162
G01 X90.6765 Y-71.2151
G01 X90.6969 Y-71.2154
G01 X90.7172 Y-71.2173
G01 X90.7306 Y-71.2194
G01 X90.7506 Y-71.2238
G01 X90.7637 Y-71.2276
G01 X90.8368 Y-71.2506
G01 X90.8496 Y-71.2553
G01 X90.8682 Y-71.2636
G01 X90.8862 Y-71.2732
G01 X90.9035 Y-71.2841
G01 X90.9198 Y-71.2963
G01 X90.9302 Y-71.3051
G01 X90.9402 Y-71.3144
G01 X90.9542 Y-71.3292
G01 X91.0034 Y-71.3880
G01 X91.0119 Y-71.3987
G01 X91.0198 Y-71.4097
G01 X91.0271 Y-71.4212
G01 X91.0371 Y-71.4390
G01 X91.0457 Y-71.4575
G01 X91.0529 Y-71.4766
G01 X91.0569 Y-71.4896
G01 X91.0602 Y-71.5028
G01 X91.0640 Y-71.5229
G01 X91.0736 Y-71.5990
G01 X91.0749 Y-71.6125
G01 X91.0757 Y-71.6329
G01 X91.0749 Y-71.6533
G01 X91.0727 Y-71.6736
G01 X91.0703 Y-71.6870
G01 X91.0676 Y-71.6989
G00 Z2.0000
G00 X92.2256 Y-71.1764
G01 F10.00
G01 Z-0.0500
G01 F30.00
G01 X92.2116 Y-71.1879
G01 X92.2116 Y-71.6060
G01 X92.4253 Y-71.6060
G01 X92.4114 Y-71.5991
G01 X92.3996 Y-71.5924
G01 X92.3881 Y-71.5852
G01 X92.3769 Y-71.5774
G01 X92.3662 Y-71.5690
G01 X92.3559 Y-71.5601
G01 X92.3461 Y-71.5507
G01 X92.3367 Y-71.5408
G01 X92.3278 Y-71.5305
G01 X92.3195 Y-71.5198
G01 X92.2740 Y-71.4580
G01 X92.2665 Y-71.4467
G01 X92.2596 Y-71.4350
G01 X92.2502 Y-71.4168
G01 X92.2448 Y-71.4043
G01 X92.2400 Y-71.3916
G01 X92.2339 Y-71.3721
G01 X92.2294 Y-71.3522
G01 X92.2263 Y-71.3320
G01 X92.2251 Y-71.3185
G01 X92.2206 Y-71.2488
G01 X92.2201 Y-71.2350
G01 X92.2202 Y-71.2213
G01 X92.2211 Y-71.2076
G01 X92.2226 Y-71.1939
G01 X92.2256 Y-71.1764
G00 Z2.0000
G00 X92.7874 Y-72.9237
G01 F10.00
G01 Z-0.0500
G01 F30.00
G01 X92.7916 Y-72.8973
G01 X92.7982 Y-72.8699
G01 X92.8038 Y-72.8505
G01 X92.8109 Y-72.8303
G01 X92.8184 Y-72.8116
G01 X92.8305 Y-72.7861
G01 X92.8368 Y-72.7742
G01 X92.8478 Y-72.7558
G01 X92.8588 Y-72.7389
G01 X92.8755 Y-72.7163
G01 X92.8841 Y-72.7059
G01 X92.9030 Y-72.6850
G01 X92.9125 Y-72.6755
G01 X92.9334 Y-72.6566
G01 X92.9438 Y-72.6480
G01 X92.9609 Y-72.6352
G01 X92.9776 Y-72.6238
G01 X93.0017 Y-72.6093
G01 X93.0136 Y-72.6030
G01 X93.0391 Y-72.5909
G01 X93.0515 Y-72.5858
G01 X93.0780 Y-72.5763
G01 X93.0909 Y-72.5724
G01 X93.1117 Y-72.5671
G01 X93.1248 Y-72.5641
G01 X93.1380 Y-72.5618
G01 X93.1593 Y-72.5588
G01 X93.1726 Y-72.5575
G01 X93.2008 Y-72.5561
G01 X93.2884 Y-72.5560
G01 X93.2884 Y-71.5724
G01 X93.2782 Y-71.5913
G01 X93.2710 Y-71.6028
G01 X93.2632 Y-71.6140
G01 X93.2505 Y-71.6300
G01 X93.2414 Y-71.6401
G01 X93.2318 Y-71.6498
G01 X93.2218 Y-71.6589
G01 X93.1690 Y-71.7047
G01 X93.1530 Y-71.7175
G01 X93.1419 Y-71.7253
G01 X93.1245 Y-71.7360
G01 X93.1125 Y-71.7424
G01 X93.1002 Y-71.7482
G01 X93.0877 Y-71.7534
G01 X93.0748 Y-71.7580
G01 X93.0618 Y-71.7619
G01 X93.0486 Y-71.7652
G01 X93.0285 Y-71.7688
G01 X92.9594 Y-71.7788
G01 X92.9463 Y-71.7803
G01 X92.9331 Y-71.7812
G01 X92.9199 Y-71.7815
G01 X92.9067 Y-71.7812
G01 X92.8936 Y-71.7802
G01 X92.8805 Y-71.7786
G01 X92.8675 Y-71.7764
G01 X92.8546 Y-71.7735
G01 X92.8425 Y-71.7702
G01 X92.8601 Y-71.7944
G01 X92.8782 Y-71.8242
G01 X92.8875 Y-71.8421
G01 X92.8992 Y-71.8677
G01 X92.9112 Y-71.9005
G01 X92.9168 Y-71.9199
G01 X92.9234 Y-71.9473
G01 X92.9287 Y-71.9818
G01 X92.9305 Y-72.0019
G01 X92.9315 Y-72.0300
G01 X92.9314 Y-72.3367
G01 X92.9300 Y-72.3649
G01 X92.9278 Y-72.3849
G01 X92.9234 Y-72.4127
G01 X92.9168 Y-72.4401
G01 X92.9112 Y-72.4595
G01 X92.8992 Y-72.4923
G01 X92.8845 Y-72.5239
G01 X92.8748 Y-72.5416
G01 X92.8601 Y-72.5656
G01 X92.8395 Y-72.5937
G01 X92.8265 Y-72.6092
G01 X92.8120 Y-72.6250
G01 X92.8025 Y-72.6345
G01 X92.7765 Y-72.6578
G01 X92.7541 Y-72.6748
G01 X92.7374 Y-72.6862
G01 X92.7074 Y-72.7039
G01 X92.6759 Y-72.7191
G01 X92.6572 Y-72.7266
G01 X92.6306 Y-72.7358
G01 X92.5978 Y-72.7442
G01 X92.6092 Y-72.7489
G01 X92.6215 Y-72.7546
G01 X92.6336 Y-72.7609
G01 X92.6453 Y-72.7679
G01 X92.6567 Y-72.7754
G01 X92.6676 Y-72.7834
G01 X92.6782 Y-72.7920
G01 X92.6883 Y-72.8011
G01 X92.6980 Y-72.8107
G01 X92.7071 Y-72.8207
G01 X92.7573 Y-72.8788
G01 X92.7657 Y-72.8896
G01 X92.7736 Y-72.9008
G01 X92.7809 Y-72.9123
G01 X92.7874 Y-72.9237
G00 Z2.0000
G00 X92.9656 Y-72.9800
G01 F10.00
G01 Z-0.0500
G01 F30.00
G01 X92.9657 Y-73.2845
G01 X92.9667 Y-73.3037
G01 X92.9702 Y-73.3272
G01 X92.9760 Y-73.3502
G01 X92.9831 Y-73.3705
G01 X92.9941 Y-73.3941
G01 X93.0039 Y-73.4106
G01 X93.0089 Y-73.4181
G01 X93.0205 Y-73.4335
G01 X93.0348 Y-73.4495
G01 X93.0558 Y-73.4684
G01 X93.0731 Y-73.4812
G01 X93.0895 Y-73.4912
G01 X93.0975 Y-73.4954
G01 X93.1149 Y-73.5035
G01 X93.1330 Y-73.5101
G01 X93.1416 Y-73.5127
G01 X93.1603 Y-73.5173
G01 X93.1793 Y-73.5202
G01 X93.1883 Y-73.5211
G01 X93.2075 Y-73.5219
G01 X94.3848 Y-73.5219
G01 X94.4062 Y-73.5208
G01 X94.4275 Y-73.5177
G01 X94.4484 Y-73.5127
G01 X94.4570 Y-73.5101
G01 X94.4751 Y-73.5035
G01 X94.4966 Y-73.4934
G01 X94.5150 Y-73.4824
G01 X94.5294 Y-73.4721
G01 X95.2856 Y-73.4721
G01 X95.3000 Y-73.4824
G01 X95.3184 Y-73.4934
G01 X95.3399 Y-73.5035
G01 X95.3601 Y-73.5109
G01 X95.3809 Y-73.5163
G01 X95.3897 Y-73.5181
G01 X95.4088 Y-73.5208
G01 X95.4325 Y-73.5219
G01 X96.6098 Y-73.5219
G01 X96.6335 Y-73.5205
G01 X96.6525 Y-73.5177
G01 X96.6591 Y-73.5163
G01 X96.6777 Y-73.5115
G01 X96.6959 Y-73.5052
G01 X96.7022 Y-73.5026
G01 X96.7175 Y-73.4954
G01 X96.7255 Y-73.4912
G01 X96.7419 Y-73.4812
G01 X96.7627 Y-73.4656
G01 X96.7786 Y-73.4511
G01 X96.7916 Y-73.4369
G01 X96.7959 Y-73.4317
G01 X96.8074 Y-73.4163
G01 X96.8209 Y-73.3941
G01 X96.8292 Y-73.3767
G01 X96.8327 Y-73.3684
G01 X96.8390 Y-73.3502
G01 X96.8438 Y-73.3316
G01 X96.8452 Y-73.3250
G01 X96.8480 Y-73.3060
G01 X96.8494 Y-73.2800
G01 X96.8494 Y-72.9800
G01 X96.8483 Y-72.9563
G01 X96.8456 Y-72.9372
G01 X96.8438 Y-72.9284
G01 X96.8390 Y-72.9098
G01 X96.8319 Y-72.8895
G01 X96.8198 Y-72.8640
G01 X96.8087 Y-72.8456
G01 X96.8000 Y-72.8337
G01 X97.0610 Y-72.5728
G01 X97.0790 Y-72.5529
G01 X97.0847 Y-72.5460
G01 X97.1019 Y-72.5225
G01 X97.1181 Y-72.4957
G01 X97.1335 Y-72.4634
G01 X97.1448 Y-72.4318
G01 X97.1530 Y-72.3992
G01 X97.1579 Y-72.3660
G01 X97.1596 Y-72.3325
G01 X97.1596 Y-72.0863
G01 X97.1827 Y-72.0753
G01 X97.2051 Y-72.0620
G01 X97.2107 Y-72.0583
G01 X97.2298 Y-72.0442
G01 X97.2368 Y-72.0385
G01 X97.2559 Y-72.0209
G01 X97.2764 Y-71.9984
G01 X97.2946 Y-71.9739
G01 X97.3080 Y-71.9516
G01 X97.3123 Y-71.9437
G01 X97.3233 Y-71.9201
G01 X97.3322 Y-71.8957
G01 X97.3342 Y-71.8893
G01 X97.3405 Y-71.8641
G01 X97.3455 Y-71.8317
G01 X97.3469 Y-71.8012
G01 X97.3469 Y-71.0365
G01 X97.3455 Y-71.0083
G01 X97.3418 Y-70.9826
G01 X97.3400 Y-70.9737
G01 X97.3336 Y-70.9486
G01 X97.3249 Y-70.9241
G01 X97.3224 Y-70.9178
G01 X97.3123 Y-70.8963
G01 X97.3080 Y-70.8884
G01 X97.2946 Y-70.8661
G01 X97.2792 Y-70.8452
G01 X97.2735 Y-70.8382
G01 X97.2559 Y-70.8191
G01 X97.2368 Y-70.8015
G01 X97.2298 Y-70.7958
G01 X97.2089 Y-70.7804
G01 X97.1866 Y-70.7670
G01 X97.1787 Y-70.7627
G01 X97.1551 Y-70.7517
G01 X97.1307 Y-70.7428
G01 X97.1221 Y-70.7402
G01 X97.0969 Y-70.7340
G01 X97.0712 Y-70.7301
G01 X97.0622 Y-70.7292
G01 X97.0362 Y-70.7281
G01 X96.5988 Y-70.7281
G01 X96.5683 Y-70.7295
G01 X96.5404 Y-70.7336
G01 X96.5086 Y-70.7414
G01 X96.4799 Y-70.7517
G01 X96.4523 Y-70.7647
G01 X96.4299 Y-70.7780
G01 X96.4243 Y-70.7817
G01 X96.4052 Y-70.7958
G01 X96.3982 Y-70.8015
G01 X96.3775 Y-70.8207
G01 X96.3600 Y-70.8399
G01 X96.3558 Y-70.8452
G01 X96.3404 Y-70.8661
G01 X96.3270 Y-70.8884
G01 X96.3227 Y-70.8963
G01 X96.3117 Y-70.9199
G01 X96.3014 Y-70.9486
G01 X96.2950 Y-70.9737
G01 X96.2932 Y-70.9826
G01 X96.2894 Y-71.0105
G01 X96.2881 Y-71.0388
G01 X96.2881 Y-71.8012
G01 X96.2895 Y-71.8317
G01 X96.2932 Y-71.8574
G01 X96.2950 Y-71.8663
G01 X96.3014 Y-71.8914
G01 X96.3101 Y-71.9159
G01 X96.3135 Y-71.9243
G01 X96.3247 Y-71.9477
G01 X96.3380 Y-71.9701
G01 X96.3430 Y-71.9776
G01 X96.3586 Y-71.9984
G01 X96.3759 Y-72.0177
G01 X96.3823 Y-72.0241
G01 X96.4016 Y-72.0414
G01 X96.4224 Y-72.0570
G01 X96.4299 Y-72.0620
G01 X96.4523 Y-72.0753
G01 X96.4754 Y-72.0863
G01 X96.4754 Y-72.1908
G01 X95.9282 Y-72.7381
G01 X95.4325 Y-72.7381
G01 X95.4110 Y-72.7390
G01 X95.3897 Y-72.7419
G01 X95.3809 Y-72.7437
G01 X95.3623 Y-72.7485
G01 X95.3420 Y-72.7556
G01 X95.3165 Y-72.7677
G01 X95.2981 Y-72.7788
G01 X95.2856 Y-72.7879
G01 X94.5294 Y-72.7879
G01 X94.5169 Y-72.7788
G01 X94.4985 Y-72.7677
G01 X94.4751 Y-72.7565
G01 X94.4570 Y-72.7499
G01 X94.4484 Y-72.7473
G01 X94.4297 Y-72.7427
G01 X94.4085 Y-72.7395
G01 X94.3825 Y-72.7381
G01 X94.1546 Y-72.7381
G01 X94.1546 Y-71.0863
G01 X94.1777 Y-71.0753
G01 X94.2001 Y-71.0620
G01 X94.2057 Y-71.0583
G01 X94.2248 Y-71.0442
G01 X94.2318 Y-71.0385
G01 X94.2509 Y-71.0209
G01 X94.2714 Y-70.9984
G01 X94.2870 Y-70.9776
G01 X94.2920 Y-70.9701
G01 X94.3053 Y-70.9477
G01 X94.3165 Y-70.9243
G01 X94.3199 Y-70.9159
G01 X94.3286 Y-70.8914
G01 X94.3364 Y-70.8596
G01 X94.3405 Y-70.8317
G01 X94.3419 Y-70.8012
G01 X94.3419 Y-70.0388
G01 X94.3405 Y-70.0083
G01 X94.3355 Y-69.9759
G01 X94.3286 Y-69.9486
G01 X94.3199 Y-69.9241
G01 X94.3165 Y-69.9157
G01 X94.3053 Y-69.8923
G01 X94.2896 Y-69.8661
G01 X94.2742 Y-69.8452
G01 X94.2685 Y-69.8382
G01 X94.2509 Y-69.8191
G01 X94.2318 Y-69.8015
G01 X94.2248 Y-69.7958
G01 X94.2039 Y-69.7804
G01 X94.1777 Y-69.7647
G01 X94.1543 Y-69.7535
G01 X94.1459 Y-69.7501
G01 X94.1214 Y-69.7414
G01 X94.0963 Y-69.7350
G01 X94.0874 Y-69.7332
G01 X94.0617 Y-69.7295
G01 X94.0335 Y-69.7281
G01 X93.5892 Y-69.7282
G01 X93.5611 Y-69.7298
G01 X93.5354 Y-69.7336
G01 X93.5287 Y-69.7350
G01 X93.5036 Y-69.7414
G01 X93.4791 Y-69.7501
G01 X93.4728 Y-69.7526
G01 X93.4513 Y-69.7627
G01 X93.4434 Y-69.7670
G01 X93.4211 Y-69.7804
G01 X93.3966 Y-69.7986
G01 X93.3741 Y-69.8191
G01 X93.3565 Y-69.8382
G01 X93.3508 Y-69.8452
G01 X93.3354 Y-69.8661
G01 X93.3220 Y-69.8884
G01 X93.3187 Y-69.8943
G01 X93.3085 Y-69.9157
G01 X93.3051 Y-69.9241
G01 X93.2964 Y-69.9486
G01 X93.2886 Y-69.9804
G01 X93.2845 Y-70.0083
G01 X93.2831 Y-70.0388
G01 X93.2831 Y-70.8012
G01 X93.2845 Y-70.8317
G01 X93.2882 Y-70.8574
G01 X93.2900 Y-70.8663
G01 X93.2964 Y-70.8914
G01 X93.3051 Y-70.9159
G01 X93.3085 Y-70.9243
G01 X93.3197 Y-70.9477
G01 X93.3354 Y-70.9739
G01 X93.3508 Y-70.9948
G01 X93.3565 Y-71.0018
G01 X93.3741 Y-71.0209
G01 X93.3966 Y-71.0414
G01 X93.4174 Y-71.0570
G01 X93.4249 Y-71.0620
G01 X93.4473 Y-71.0753
G01 X93.4704 Y-71.0863
G01 X93.4704 Y-72.7381
G01 X93.2075 Y-72.7381
G01 X93.1860 Y-72.7390
G01 X93.1603 Y-72.7427
G01 X93.1394 Y-72.7478
G01 X93.1170 Y-72.7556
G01 X93.0975 Y-72.7646
G01 X93.0895 Y-72.7688
G01 X93.0731 Y-72.7788
G01 X93.0576 Y-72.7902
G01 X93.0506 Y-72.7959
G01 X93.0364 Y-72.8089
G01 X93.0219 Y-72.8248
G01 X93.0089 Y-72.8419
G01 X93.0039 Y-72.8494
G01 X92.9941 Y-72.8659
G01 X92.9858 Y-72.8833
G01 X92.9823 Y-72.8916
G01 X92.9760 Y-72.9098
G01 X92.9702 Y-72.9328
G01 X92.9673 Y-72.9518
G01 X92.9664 Y-72.9608
G01 X92.9656 Y-72.9800
G00 Z2.0000
G00 X94.3366 Y-72.4435
G01 F10.00
G01 Z-0.0500
G01 F30.00
G01 X94.3366 Y-72.5560
G01 X94.3892 Y-72.5561
G01 X94.4174 Y-72.5575
G01 X94.4317 Y-72.5589
G01 X94.4220 Y-72.5493
G01 X94.4129 Y-72.5393
G01 X94.3627 Y-72.4812
G01 X94.3502 Y-72.4649
G01 X94.3426 Y-72.4535
G01 X94.3366 Y-72.4435
G00 Z2.0000
G00 X96.1914 Y-72.2174
G01 F10.00
G01 Z-0.0500
G01 F30.00
G01 X96.2547 Y-72.1540
G01 X96.2456 Y-72.1449
G01 X96.2222 Y-72.1190
G01 X96.2136 Y-72.1086
G01 X96.2033 Y-72.0948
G01 X96.2045 Y-72.1309
G01 X96.2043 Y-72.1441
G01 X96.2035 Y-72.1572
G01 X96.2011 Y-72.1768
G01 X96.1987 Y-72.1898
G01 X96.1957 Y-72.2026
G01 X96.1914 Y-72.2174
G00 Z2.0000
G00 X96.8874 Y-73.8737
G01 F10.00
G01 Z-0.0500
G01 F30.00
G01 X96.8904 Y-73.8539
G01 X96.8930 Y-73.8407
G01 X96.8999 Y-73.8134
G01 X96.9038 Y-73.8005
G01 X96.9133 Y-73.7740
G01 X96.9184 Y-73.7616
G01 X96.9305 Y-73.7361
G01 X96.9368 Y-73.7242
G01 X96.9513 Y-73.7001
G01 X96.9588 Y-73.6889
G01 X96.9755 Y-73.6663
G01 X96.9841 Y-73.6559
G01 X97.0030 Y-73.6350
G01 X97.0125 Y-73.6255
G01 X97.0334 Y-73.6066
G01 X97.0438 Y-73.5980
G01 X97.0664 Y-73.5813
G01 X97.0776 Y-73.5738
G01 X97.1017 Y-73.5593
G01 X97.1136 Y-73.5530
G01 X97.1391 Y-73.5409
G01 X97.1515 Y-73.5358
G01 X97.1780 Y-73.5263
G01 X97.1909 Y-73.5224
G01 X97.2248 Y-73.5141
G01 X97.2380 Y-73.5118
G01 X97.2659 Y-73.5080
G01 X97.3008 Y-73.5061
G01 X97.3659 Y-73.5060
G01 X97.3659 Y-72.1672
G01 X97.3540 Y-72.1778
G01 X97.3416 Y-72.1879
G01 X97.3416 Y-72.3325
G01 X97.3413 Y-72.3459
G01 X97.3391 Y-72.3839
G01 X97.3339 Y-72.4215
G01 X97.3316 Y-72.4348
G01 X97.3286 Y-72.4479
G01 X97.3209 Y-72.4782
G01 X97.3148 Y-72.4974
G01 X97.3017 Y-72.5331
G01 X97.2963 Y-72.5454
G01 X97.2828 Y-72.5736
G01 X97.2731 Y-72.5913
G01 X97.2533 Y-72.6237
G01 X97.2309 Y-72.6544
G01 X97.2183 Y-72.6702
G01 X97.1974 Y-72.6934
G01 X97.1881 Y-72.7031
G01 X97.0177 Y-72.8735
G01 X97.0234 Y-72.8973
G01 X97.0278 Y-72.9251
G01 X97.0300 Y-72.9451
G01 X97.0314 Y-72.9733
G01 X97.0314 Y-73.2867
G01 X97.0300 Y-73.3149
G01 X97.0287 Y-73.3282
G01 X97.0246 Y-73.3561
G01 X97.0220 Y-73.3693
G01 X97.0151 Y-73.3966
G01 X97.0112 Y-73.4095
G01 X97.0017 Y-73.4360
G01 X96.9966 Y-73.4484
G01 X96.9845 Y-73.4739
G01 X96.9748 Y-73.4916
G01 X96.9601 Y-73.5156
G01 X96.9435 Y-73.5384
G01 X96.9309 Y-73.5541
G01 X96.9120 Y-73.5750
G01 X96.8976 Y-73.5891
G01 X96.8765 Y-73.6078
G01 X96.8541 Y-73.6248
G01 X96.8374 Y-73.6362
G01 X96.8133 Y-73.6507
G01 X96.7954 Y-73.6600
G01 X96.7698 Y-73.6717
G01 X96.7434 Y-73.6815
G01 X96.7241 Y-73.6876
G01 X96.6978 Y-73.6942
G01 X96.7092 Y-73.6989
G01 X96.7215 Y-73.7046
G01 X96.7336 Y-73.7109
G01 X96.7453 Y-73.7179
G01 X96.7567 Y-73.7254
G01 X96.7676 Y-73.7334
G01 X96.7782 Y-73.7420
G01 X96.7883 Y-73.7511
G01 X96.7980 Y-73.7607
G01 X96.8071 Y-73.7707
G01 X96.8573 Y-73.8288
G01 X96.8657 Y-73.8396
G01 X96.8736 Y-73.8508
G01 X96.8809 Y-73.8623
G01 X96.8874 Y-73.8737
G00 Z2.0000
G00 X97.0656 Y-73.9300
G01 F10.00
G01 Z-0.0500
G01 F30.00
G01 X97.0657 Y-74.2345
G01 X97.0667 Y-74.2537
G01 X97.0702 Y-74.2772
G01 X97.0760 Y-74.3002
G01 X97.0823 Y-74.3184
G01 X97.0858 Y-74.3267
G01 X97.0941 Y-74.3441
G01 X97.1039 Y-74.3606
G01 X97.1089 Y-74.3681
G01 X97.1205 Y-74.3835
G01 X97.1333 Y-74.3978
G01 X97.1397 Y-74.4042
G01 X97.1540 Y-74.4170
G01 X97.1694 Y-74.4286
G01 X97.1769 Y-74.4336
G01 X97.1934 Y-74.4434
G01 X97.2108 Y-74.4517
G01 X97.2191 Y-74.4552
G01 X97.2373 Y-74.4615
G01 X97.2559 Y-74.4663
G01 X97.2647 Y-74.4681
G01 X97.2838 Y-74.4708
G01 X97.3075 Y-74.4719
G01 X98.4848 Y-74.4719
G01 X98.5062 Y-74.4708
G01 X98.5275 Y-74.4677
G01 X98.5484 Y-74.4627
G01 X98.5570 Y-74.4601
G01 X98.5751 Y-74.4535
G01 X98.5966 Y-74.4434
G01 X98.6150 Y-74.4324
G01 X98.6294 Y-74.4221
G01 X100.0231 Y-74.4221
G01 X100.0232 Y-74.5345
G01 X100.0247 Y-74.5635
G01 X100.0301 Y-74.5989
G01 X100.0378 Y-74.6293
G01 X100.0475 Y-74.6566
G01 X100.0509 Y-74.6650
G01 X100.0624 Y-74.6892
G01 X100.0657 Y-74.6951
G01 X100.0807 Y-74.7200
G01 X100.0979 Y-74.7434
G01 X100.1036 Y-74.7503
G01 X100.1232 Y-74.7718
G01 X100.1481 Y-74.7943
G01 X100.1750 Y-74.8143
G01 X100.1999 Y-74.8293
G01 X100.2078 Y-74.8336
G01 X100.2321 Y-74.8450
G01 X100.2384 Y-74.8475
G01 X100.2657 Y-74.8572
G01 X100.2939 Y-74.8644
G01 X100.3027 Y-74.8662
G01 X100.3315 Y-74.8703
G01 X100.3627 Y-74.8719
G01 X100.8923 Y-74.8719
G01 X100.9235 Y-74.8703
G01 X100.9523 Y-74.8662
G01 X100.9611 Y-74.8644
G01 X100.9914 Y-74.8565
G01 X101.0209 Y-74.8459
G01 X101.0472 Y-74.8336
G01 X101.0551 Y-74.8293
G01 X101.0800 Y-74.8143
G01 X101.1034 Y-74.7971
G01 X101.1103 Y-74.7914
G01 X101.1318 Y-74.7718
G01 X101.1514 Y-74.7503
G01 X101.1571 Y-74.7434
G01 X101.1743 Y-74.7200
G01 X101.1893 Y-74.6951
G01 X101.1936 Y-74.6872
G01 X101.2059 Y-74.6609
G01 X101.2158 Y-74.6335
G01 X101.2184 Y-74.6249
G01 X101.2254 Y-74.5967
G01 X101.2303 Y-74.5635
G01 X101.2319 Y-74.5300
G01 X101.2319 Y-73.6300
G01 X101.2303 Y-73.5965
G01 X101.2258 Y-73.5655
G01 X101.2184 Y-73.5351
G01 X101.2158 Y-73.5265
G01 X101.2059 Y-73.4991
G01 X101.1936 Y-73.4728
G01 X101.1893 Y-73.4649
G01 X101.1743 Y-73.4400
G01 X101.1571 Y-73.4166
G01 X101.1514 Y-73.4097
G01 X101.1318 Y-73.3882
G01 X101.1103 Y-73.3686
G01 X101.1034 Y-73.3629
G01 X101.0800 Y-73.3457
G01 X101.0512 Y-73.3284
G01 X101.0250 Y-73.3159
G01 X101.0166 Y-73.3125
G01 X100.9893 Y-73.3028
G01 X100.9611 Y-73.2956
G01 X100.9523 Y-73.2938
G01 X100.9235 Y-73.2897
G01 X100.8923 Y-73.2881
G01 X100.3627 Y-73.2881
G01 X100.3315 Y-73.2897
G01 X100.2983 Y-73.2946
G01 X100.2657 Y-73.3028
G01 X100.2321 Y-73.3150
G01 X100.2038 Y-73.3284
G01 X100.1750 Y-73.3457
G01 X100.1481 Y-73.3657
G01 X100.1265 Y-73.3851
G01 X100.1216 Y-73.3898
G01 X100.1036 Y-73.4097
G01 X100.0979 Y-73.4166
G01 X100.0807 Y-73.4400
G01 X100.0624 Y-73.4708
G01 X100.0491 Y-73.4991
G01 X100.0378 Y-73.5307
G01 X100.0296 Y-73.5633
G01 X100.0252 Y-73.5920
G01 X100.0244 Y-73.6010
G01 X100.0231 Y-73.6277
G01 X100.0231 Y-73.7379
G01 X98.6294 Y-73.7379
G01 X98.6169 Y-73.7288
G01 X98.5985 Y-73.7177
G01 X98.5751 Y-73.7065
G01 X98.5570 Y-73.6999
G01 X98.5484 Y-73.6973
G01 X98.5297 Y-73.6927
G01 X98.5085 Y-73.6895
G01 X98.4825 Y-73.6881
G01 X98.2321 Y-73.6881
G01 X98.2321 Y-70.0219
G01 X98.2424 Y-70.0075
G01 X98.2534 Y-69.9891
G01 X98.2635 Y-69.9676
G01 X98.2701 Y-69.9495
G01 X98.2727 Y-69.9409
G01 X98.2777 Y-69.9200
G01 X98.2808 Y-69.8987
G01 X98.2818 Y-69.8795
G01 X98.2819 Y-68.6977
G01 X98.2808 Y-68.6763
G01 X98.2773 Y-68.6528
G01 X98.2715 Y-68.6298
G01 X98.2652 Y-68.6116
G01 X98.2626 Y-68.6053
G01 X98.2554 Y-68.5900
G01 X98.2512 Y-68.5820
G01 X98.2412 Y-68.5656
G01 X98.2270 Y-68.5465
G01 X98.2111 Y-68.5289
G01 X98.1935 Y-68.5130
G01 X98.1744 Y-68.4988
G01 X98.1580 Y-68.4888
G01 X98.1500 Y-68.4846
G01 X98.1347 Y-68.4774
G01 X98.1284 Y-68.4748
G01 X98.1102 Y-68.4685
G01 X98.0872 Y-68.4627
G01 X98.0637 Y-68.4592
G01 X98.0423 Y-68.4581
G01 X97.7377 Y-68.4581
G01 X97.7163 Y-68.4592
G01 X97.6972 Y-68.4619
G01 X97.6884 Y-68.4637
G01 X97.6676 Y-68.4691
G01 X97.6474 Y-68.4765
G01 X97.6300 Y-68.4846
G01 X97.6220 Y-68.4888
G01 X97.6056 Y-68.4988
G01 X97.5901 Y-68.5102
G01 X97.5831 Y-68.5159
G01 X97.5689 Y-68.5289
G01 X97.5559 Y-68.5431
G01 X97.5502 Y-68.5501
G01 X97.5388 Y-68.5656
G01 X97.5288 Y-68.5820
G01 X97.5246 Y-68.5900
G01 X97.5165 Y-68.6074
G01 X97.5099 Y-68.6255
G01 X97.5073 Y-68.6341
G01 X97.5027 Y-68.6528
G01 X97.4992 Y-68.6763
G01 X97.4981 Y-68.7000
G01 X97.4981 Y-69.8773
G01 X97.4992 Y-69.8987
G01 X97.5023 Y-69.9200
G01 X97.5073 Y-69.9409
G01 X97.5099 Y-69.9495
G01 X97.5165 Y-69.9676
G01 X97.5266 Y-69.9891
G01 X97.5376 Y-70.0075
G01 X97.5479 Y-70.0219
G01 X97.5479 Y-73.6881
G01 X97.3075 Y-73.6881
G01 X97.2860 Y-73.6890
G01 X97.2603 Y-73.6927
G01 X97.2373 Y-73.6985
G01 X97.2149 Y-73.7065
G01 X97.1954 Y-73.7156
G01 X97.1712 Y-73.7301
G01 X97.1540 Y-73.7430
G01 X97.1397 Y-73.7558
G01 X97.1333 Y-73.7622
G01 X97.1205 Y-73.7765
G01 X97.1089 Y-73.7919
G01 X97.1039 Y-73.7994
G01 X97.0941 Y-73.8159
G01 X97.0858 Y-73.8333
G01 X97.0823 Y-73.8416
G01 X97.0760 Y-73.8598
G01 X97.0702 Y-73.8828
G01 X97.0673 Y-73.9018
G01 X97.0664 Y-73.9108
G01 X97.0656 Y-73.9300
G00 Z2.0000
G00 X98.5962 Y-72.4639
G01 F10.00
G01 Z-0.0500
G01 F30.00
G01 X98.5962 Y-73.3347
G01 X98.6226 Y-73.3405
G01 X98.6584 Y-73.3500
G01 X98.6935 Y-73.3620
G01 X98.7040 Y-73.3659
G01 X98.7232 Y-73.3738
G01 X99.7072 Y-73.3738
G01 X99.7171 Y-73.3495
G01 X99.7322 Y-73.3172
G01 X99.7423 Y-73.2972
G01 X99.7533 Y-73.2777
G01 X99.7718 Y-73.2471
G01 X99.7843 Y-73.2285
G01 X99.8054 Y-73.1997
G01 X99.8192 Y-73.1821
G01 X99.8338 Y-73.1651
G01 X99.8579 Y-73.1387
G01 X99.8737 Y-73.1229
G01 X99.9001 Y-73.0988
G01 X99.9085 Y-73.0914
G01 X99.9258 Y-73.0772
G01 X99.9544 Y-73.0558
G01 X99.9727 Y-73.0429
G01 X99.9916 Y-73.0309
G01 X100.0224 Y-73.0127
G01 X100.0421 Y-73.0021
G01 X100.0522 Y-72.9972
G01 X100.0845 Y-72.9821
G01 X100.1052 Y-72.9735
G01 X100.1388 Y-72.9614
G01 X100.1600 Y-72.9543
G01 X100.1816 Y-72.9484
G01 X100.2163 Y-72.9398
G01 X100.2383 Y-72.9354
G01 X100.2736 Y-72.9301
G01 X100.2847 Y-72.9286
G01 X100.3069 Y-72.9264
G01 X100.3426 Y-72.9245
G01 X100.3650 Y-72.9239
G01 X100.8900 Y-72.9239
G01 X100.9124 Y-72.9245
G01 X100.9369 Y-72.9257
G01 X100.9592 Y-72.9273
G01 X100.9814 Y-72.9301
G01 X101.0167 Y-72.9354
G01 X101.0387 Y-72.9398
G01 X101.0734 Y-72.9484
G01 X101.0950 Y-72.9543
G01 X101.1162 Y-72.9614
G01 X101.1393 Y-72.9696
G01 X101.1602 Y-72.9777
G01 X101.1705 Y-72.9821
G01 X101.2129 Y-73.0021
G01 X101.2326 Y-73.0127
G01 X101.2729 Y-73.0368
G01 X101.2915 Y-73.0493
G01 X101.3292 Y-73.0772
G01 X101.3465 Y-73.0914
G01 X101.3813 Y-73.1229
G01 X101.3971 Y-73.1387
G01 X101.4047 Y-73.1469
G01 X101.4212 Y-73.1651
G01 X101.4358 Y-73.1821
G01 X101.4496 Y-73.1997
G01 X101.4642 Y-73.2194
G01 X101.4771 Y-73.2377
G01 X101.4891 Y-73.2566
G01 X101.5017 Y-73.2777
G01 X101.5127 Y-73.2972
G01 X101.5228 Y-73.3172
G01 X101.5400 Y-73.3544
G01 X101.5572 Y-73.3172
G01 X101.5673 Y-73.2972
G01 X101.5783 Y-73.2777
G01 X101.5909 Y-73.2566
G01 X101.5968 Y-73.2471
G01 X101.6093 Y-73.2285
G01 X101.6372 Y-73.1908
G01 X101.6514 Y-73.1735
G01 X101.6829 Y-73.1387
G01 X101.7038 Y-73.1182
G01 X101.7038 Y-73.0373
G01 X101.6853 Y-73.0181
G01 X101.6688 Y-72.9999
G01 X101.6542 Y-72.9829
G01 X101.6404 Y-72.9653
G01 X101.6258 Y-72.9456
G01 X101.6193 Y-72.9365
G01 X101.6068 Y-72.9179
G01 X101.5827 Y-72.8776
G01 X101.5721 Y-72.8579
G01 X101.5521 Y-72.8155
G01 X101.5435 Y-72.7948
G01 X101.5396 Y-72.7843
G01 X101.5277 Y-72.7506
G01 X101.5212 Y-72.7292
G01 X101.5098 Y-72.6837
G01 X101.5054 Y-72.6617
G01 X101.5001 Y-72.6264
G01 X101.4973 Y-72.6042
G01 X101.4957 Y-72.5819
G01 X101.4945 Y-72.5574
G01 X101.4939 Y-72.5350
G01 X101.4939 Y-71.5850
G01 X101.4945 Y-71.5626
G01 X101.4957 Y-71.5381
G01 X101.4973 Y-71.5158
G01 X101.5001 Y-71.4936
G01 X101.5037 Y-71.4693
G01 X101.5075 Y-71.4473
G01 X101.5124 Y-71.4254
G01 X101.5212 Y-71.3908
G01 X101.5277 Y-71.3694
G01 X101.5435 Y-71.3252
G01 X101.5521 Y-71.3045
G01 X101.5672 Y-71.2722
G01 X101.5773 Y-71.2522
G01 X101.5883 Y-71.2327
G01 X101.6068 Y-71.2021
G01 X101.6193 Y-71.1835
G01 X101.6404 Y-71.1547
G01 X101.6542 Y-71.1371
G01 X101.6688 Y-71.1201
G01 X101.6853 Y-71.1019
G01 X101.7038 Y-71.0827
G01 X101.7038 Y-70.4811
G01 X101.2100 Y-70.4811
G01 X101.1876 Y-70.4805
G01 X101.1519 Y-70.4786
G01 X101.1297 Y-70.4764
G01 X101.0943 Y-70.4713
G01 X101.0723 Y-70.4675
G01 X101.0504 Y-70.4626
G01 X101.0158 Y-70.4538
G01 X100.9944 Y-70.4473
G01 X100.9607 Y-70.4354
G01 X100.9398 Y-70.4273
G01 X100.9193 Y-70.4183
G01 X100.8972 Y-70.4078
G01 X100.8772 Y-70.3977
G01 X100.8577 Y-70.3867
G01 X100.8366 Y-70.3741
G01 X100.8177 Y-70.3621
G01 X100.7994 Y-70.3492
G01 X100.7797 Y-70.3346
G01 X100.7621 Y-70.3208
G01 X100.7451 Y-70.3062
G01 X100.7269 Y-70.2897
G01 X100.7187 Y-70.2821
G01 X100.7029 Y-70.2663
G01 X100.6788 Y-70.2399
G01 X100.6642 Y-70.2229
G01 X100.6504 Y-70.2053
G01 X100.6358 Y-70.1856
G01 X100.6229 Y-70.1673
G01 X100.6109 Y-70.1484
G01 X100.5983 Y-70.1273
G01 X100.5927 Y-70.1176
G01 X100.5821 Y-70.0979
G01 X100.5667 Y-70.0657
G01 X100.5577 Y-70.0452
G01 X100.5535 Y-70.0348
G01 X100.5431 Y-70.0062
G01 X100.5316 Y-70.0062
G01 X100.5231 Y-70.0402
G01 X100.5166 Y-70.0616
G01 X100.5041 Y-70.0965
G01 X100.4962 Y-70.1157
G01 X100.4962 Y-70.8100
G01 X100.4956 Y-70.8324
G01 X100.4938 Y-70.8681
G01 X100.4916 Y-70.8903
G01 X100.4865 Y-70.9257
G01 X100.4826 Y-70.9478
G01 X100.4803 Y-70.9587
G01 X100.4718 Y-70.9934
G01 X100.4658 Y-71.0150
G01 X100.4588 Y-71.0363
G01 X100.4466 Y-71.0699
G01 X100.4380 Y-71.0905
G01 X100.4180 Y-71.1330
G01 X100.4074 Y-71.1527
G01 X100.3892 Y-71.1834
G01 X100.3772 Y-71.2023
G01 X100.3643 Y-71.2206
G01 X100.3429 Y-71.2493
G01 X100.3287 Y-71.2666
G01 X100.3048 Y-71.2931
G01 X100.2894 Y-71.3094
G01 X99.8361 Y-71.7626
G01 X99.8361 Y-71.8013
G01 X99.8355 Y-71.8236
G01 X99.8338 Y-71.8562
G01 X99.8316 Y-71.8785
G01 X99.8252 Y-71.9219
G01 X99.8208 Y-71.9439
G01 X99.8101 Y-71.9864
G01 X99.8036 Y-72.0078
G01 X99.7928 Y-72.0386
G01 X99.7847 Y-72.0595
G01 X99.7756 Y-72.0800
G01 X99.7615 Y-72.1094
G01 X99.7564 Y-72.1194
G01 X99.7454 Y-72.1388
G01 X99.7284 Y-72.1668
G01 X99.7223 Y-72.1762
G01 X99.7095 Y-72.1945
G01 X99.6899 Y-72.2206
G01 X99.6757 Y-72.2379
G01 X99.6462 Y-72.2704
G01 X99.6304 Y-72.2862
G01 X99.6063 Y-72.3083
G01 X99.5894 Y-72.3229
G01 X99.5717 Y-72.3367
G01 X99.5454 Y-72.3560
G01 X99.5268 Y-72.3684
G01 X99.4988 Y-72.3854
G01 X99.4794 Y-72.3964
G01 X99.4694 Y-72.4015
G01 X99.4400 Y-72.4156
G01 X99.4195 Y-72.4247
G01 X99.3986 Y-72.4328
G01 X99.3678 Y-72.4436
G01 X99.3571 Y-72.4470
G01 X99.3356 Y-72.4530
G01 X99.3039 Y-72.4608
G01 X99.2929 Y-72.4631
G01 X99.2708 Y-72.4669
G01 X99.2385 Y-72.4716
G01 X99.2274 Y-72.4728
G01 X99.2051 Y-72.4745
G01 X99.1724 Y-72.4759
G01 X99.1612 Y-72.4761
G01 X98.7126 Y-72.4759
G01 X98.6799 Y-72.4745
G01 X98.6576 Y-72.4728
G01 X98.6354 Y-72.4701
G01 X98.5962 Y-72.4639
G00 Z2.0000
G00 X98.4141 Y-72.1846
G01 F10.00
G01 Z-0.0500
G01 F30.00
G01 X98.4141 Y-73.5060
G01 X98.4825 Y-73.5060
G01 X98.5106 Y-73.5070
G01 X98.5307 Y-73.5088
G01 X98.5652 Y-73.5141
G01 X98.5991 Y-73.5224
G01 X98.6184 Y-73.5285
G01 X98.6385 Y-73.5358
G01 X98.6509 Y-73.5409
G01 X98.6820 Y-73.5559
G01 X99.8466 Y-73.5559
G01 X99.8511 Y-73.5278
G01 X99.8540 Y-73.5146
G01 X99.8617 Y-73.4843
G01 X99.8678 Y-73.4651
G01 X99.8784 Y-73.4357
G01 X99.8835 Y-73.4233
G01 X99.8968 Y-73.3950
G01 X99.9029 Y-73.3830
G01 X99.9095 Y-73.3713
G01 X99.9256 Y-73.3445
G01 X99.9370 Y-73.3279
G01 X99.9557 Y-73.3028
G01 X99.9643 Y-73.2924
G01 X99.9852 Y-73.2692
G01 X99.9945 Y-73.2595
G01 X100.0224 Y-73.2337
G01 X100.0378 Y-73.2207
G01 X100.0629 Y-73.2020
G01 X100.0739 Y-73.1943
G01 X100.0852 Y-73.1871
G01 X100.1121 Y-73.1711
G01 X100.1300 Y-73.1618
G01 X100.1645 Y-73.1459
G01 X100.1770 Y-73.1410
G01 X100.2065 Y-73.1306
G01 X100.2193 Y-73.1267
G01 X100.2496 Y-73.1190
G01 X100.2694 Y-73.1148
G01 X100.3003 Y-73.1102
G01 X100.3136 Y-73.1085
G01 X100.3271 Y-73.1075
G01 X100.3583 Y-73.1061
G01 X100.8967 Y-73.1061
G01 X100.9279 Y-73.1075
G01 X100.9414 Y-73.1085
G01 X100.9547 Y-73.1102
G01 X100.9922 Y-73.1161
G01 X101.0292 Y-73.1250
G01 X101.0421 Y-73.1286
G01 X101.0549 Y-73.1328
G01 X101.0843 Y-73.1434
G01 X101.1028 Y-73.1513
G01 X101.1370 Y-73.1679
G01 X101.1487 Y-73.1745
G01 X101.1755 Y-73.1906
G01 X101.1921 Y-73.2020
G01 X101.2224 Y-73.2249
G01 X101.2508 Y-73.2502
G01 X101.2652 Y-73.2643
G01 X101.2863 Y-73.2874
G01 X101.2951 Y-73.2976
G01 X101.3033 Y-73.3082
G01 X101.3219 Y-73.3333
G01 X101.3329 Y-73.3502
G01 X101.3521 Y-73.3830
G01 X101.3687 Y-73.4172
G01 X101.3766 Y-73.4357
G01 X101.3872 Y-73.4651
G01 X101.3914 Y-73.4779
G01 X101.4010 Y-73.5146
G01 X101.4052 Y-73.5344
G01 X101.4098 Y-73.5653
G01 X101.4115 Y-73.5786
G01 X101.4125 Y-73.5921
G01 X101.4140 Y-73.6300
G01 X101.4140 Y-74.5300
G01 X101.4137 Y-74.5434
G01 X101.4121 Y-74.5747
G01 X101.4098 Y-74.5947
G01 X101.4039 Y-74.6322
G01 X101.3950 Y-74.6692
G01 X101.3894 Y-74.6885
G01 X101.3766 Y-74.7243
G01 X101.3715 Y-74.7367
G01 X101.3560 Y-74.7694
G01 X101.3883 Y-74.7519
G01 X101.4006 Y-74.7460
G01 X101.4131 Y-74.7407
G01 X101.4324 Y-74.7339
G01 X101.4521 Y-74.7286
G01 X101.4721 Y-74.7247
G01 X101.4924 Y-74.7224
G01 X101.5128 Y-74.7216
G01 X101.5332 Y-74.7223
G01 X101.6029 Y-74.7272
G01 X101.6233 Y-74.7295
G01 X101.6368 Y-74.7318
G01 X101.6568 Y-74.7366
G01 X101.6699 Y-74.7406
G01 X101.6827 Y-74.7452
G01 X101.7016 Y-74.7534
G01 X101.7212 Y-74.7638
G01 X101.7059 Y-74.7305
G01 X101.6928 Y-74.6949
G01 X101.6867 Y-74.6757
G01 X101.6790 Y-74.6454
G01 X101.6748 Y-74.6256
G01 X101.6693 Y-74.5880
G01 X101.6679 Y-74.5747
G01 X101.6663 Y-74.5434
G01 X101.6660 Y-74.5300
G01 X101.6660 Y-73.6300
G01 X101.6675 Y-73.5921
G01 X101.6685 Y-73.5786
G01 X101.6702 Y-73.5653
G01 X101.6761 Y-73.5278
G01 X101.6850 Y-73.4908
G01 X101.6886 Y-73.4779
G01 X101.6928 Y-73.4651
G01 X101.7059 Y-73.4295
G01 X101.7218 Y-73.3950
G01 X101.7311 Y-73.3771
G01 X101.7506 Y-73.3445
G01 X101.7581 Y-73.3333
G01 X101.7807 Y-73.3028
G01 X101.7937 Y-73.2874
G01 X101.8148 Y-73.2643
G01 X101.8292 Y-73.2502
G01 X101.8576 Y-73.2249
G01 X101.8859 Y-73.2035
G01 X101.8859 Y-72.9540
G01 X101.8728 Y-72.9443
G01 X101.8574 Y-72.9313
G01 X101.8343 Y-72.9102
G01 X101.8202 Y-72.8958
G01 X101.7993 Y-72.8726
G01 X101.7907 Y-72.8622
G01 X101.7681 Y-72.8317
G01 X101.7571 Y-72.8148
G01 X101.7411 Y-72.7879
G01 X101.7348 Y-72.7760
G01 X101.7185 Y-72.7417
G01 X101.7134 Y-72.7293
G01 X101.7006 Y-72.6935
G01 X101.6967 Y-72.6807
G01 X101.6875 Y-72.6438
G01 X101.6838 Y-72.6240
G01 X101.6785 Y-72.5864
G01 X101.6775 Y-72.5729
G01 X101.6760 Y-72.5350
G01 X101.6761 Y-71.5783
G01 X101.6779 Y-71.5403
G01 X101.6793 Y-71.5270
G01 X101.6848 Y-71.4894
G01 X101.6890 Y-71.4696
G01 X101.6986 Y-71.4329
G01 X101.7110 Y-71.3970
G01 X101.7185 Y-71.3783
G01 X101.7348 Y-71.3440
G01 X101.7445 Y-71.3263
G01 X101.7643 Y-71.2939
G01 X101.7867 Y-71.2632
G01 X101.7993 Y-71.2474
G01 X101.8248 Y-71.2193
G01 X101.8343 Y-71.2098
G01 X101.8624 Y-71.1843
G01 X101.8728 Y-71.1757
G01 X101.8859 Y-71.1660
G01 X101.8859 Y-70.2683
G01 X101.8685 Y-70.2744
G01 X101.8557 Y-70.2783
G01 X101.8188 Y-70.2875
G01 X101.8056 Y-70.2902
G01 X101.7747 Y-70.2948
G01 X101.7614 Y-70.2965
G01 X101.7479 Y-70.2975
G01 X101.7100 Y-70.2990
G01 X101.2033 Y-70.2989
G01 X101.1721 Y-70.2975
G01 X101.1586 Y-70.2965
G01 X101.1210 Y-70.2912
G01 X101.1012 Y-70.2875
G01 X101.0708 Y-70.2800
G01 X101.0579 Y-70.2764
G01 X101.0451 Y-70.2722
G01 X101.0157 Y-70.2616
G01 X100.9972 Y-70.2537
G01 X100.9630 Y-70.2371
G01 X100.9513 Y-70.2305
G01 X100.9189 Y-70.2107
G01 X100.9079 Y-70.2030
G01 X100.8828 Y-70.1843
G01 X100.8674 Y-70.1713
G01 X100.8395 Y-70.1455
G01 X100.8137 Y-70.1176
G01 X100.8049 Y-70.1074
G01 X100.7820 Y-70.0771
G01 X100.7743 Y-70.0661
G01 X100.7545 Y-70.0337
G01 X100.7448 Y-70.0160
G01 X100.7313 Y-69.9878
G01 X100.7259 Y-69.9755
G01 X100.7210 Y-69.9630
G01 X100.7086 Y-69.9271
G01 X100.6990 Y-69.8904
G01 X100.6948 Y-69.8706
G01 X100.6902 Y-69.8397
G01 X100.6883 Y-69.8241
G01 X100.3640 Y-69.8241
G01 X100.3639 Y-69.8817
G01 X100.3630 Y-69.9031
G01 X100.3612 Y-69.9232
G01 X100.3559 Y-69.9577
G01 X100.3476 Y-69.9916
G01 X100.3415 Y-70.0109
G01 X100.3342 Y-70.0310
G01 X100.3291 Y-70.0434
G01 X100.3141 Y-70.0745
G01 X100.3141 Y-70.8100
G01 X100.3138 Y-70.8234
G01 X100.3116 Y-70.8614
G01 X100.3064 Y-70.8990
G01 X100.3041 Y-70.9123
G01 X100.3011 Y-70.9254
G01 X100.2916 Y-70.9621
G01 X100.2791 Y-70.9980
G01 X100.2716 Y-71.0168
G01 X100.2553 Y-71.0511
G01 X100.2490 Y-71.0630
G01 X100.2295 Y-71.0956
G01 X100.2220 Y-71.1067
G01 X100.1994 Y-71.1373
G01 X100.1908 Y-71.1477
G01 X100.1699 Y-71.1709
G01 X100.1606 Y-71.1806
G01 X99.6540 Y-71.6872
G01 X99.6540 Y-71.8013
G01 X99.6537 Y-71.8147
G01 X99.6522 Y-71.8428
G01 X99.6509 Y-71.8562
G01 X99.6458 Y-71.8908
G01 X99.6431 Y-71.9040
G01 X99.6364 Y-71.9313
G01 X99.6308 Y-71.9507
G01 X99.6190 Y-71.9836
G01 X99.6139 Y-71.9960
G01 X99.5989 Y-72.0276
G01 X99.5892 Y-72.0452
G01 X99.5710 Y-72.0750
G01 X99.5504 Y-72.1033
G01 X99.5422 Y-72.1139
G01 X99.5334 Y-72.1240
G01 X99.5097 Y-72.1497
G01 X99.4840 Y-72.1734
G01 X99.4739 Y-72.1822
G01 X99.4633 Y-72.1904
G01 X99.4350 Y-72.2110
G01 X99.4052 Y-72.2292
G01 X99.3935 Y-72.2358
G01 X99.3621 Y-72.2511
G01 X99.3498 Y-72.2565
G01 X99.3373 Y-72.2613
G01 X99.3043 Y-72.2728
G01 X99.2705 Y-72.2816
G01 X99.2574 Y-72.2845
G01 X99.2229 Y-72.2900
G01 X99.2028 Y-72.2922
G01 X99.1747 Y-72.2937
G01 X99.1612 Y-72.2940
G01 X98.7238 Y-72.2940
G01 X98.7103 Y-72.2937
G01 X98.6822 Y-72.2922
G01 X98.6621 Y-72.2900
G01 X98.6276 Y-72.2845
G01 X98.6145 Y-72.2816
G01 X98.5872 Y-72.2747
G01 X98.5679 Y-72.2686
G01 X98.5352 Y-72.2565
G01 X98.5229 Y-72.2511
G01 X98.4974 Y-72.2389
G01 X98.4798 Y-72.2292
G01 X98.4500 Y-72.2110
G01 X98.4390 Y-72.2032
G01 X98.4141 Y-72.1846
G00 Z2.0000
G00 X98.4151 Y-71.8362
G01 F10.00
G01 Z-0.0500
G01 F30.00
G01 X98.4190 Y-71.8619
G01 X98.4264 Y-71.8914
G01 X98.4367 Y-71.9201
G01 X98.4477 Y-71.9437
G01 X98.4520 Y-71.9516
G01 X98.4667 Y-71.9757
G01 X98.4836 Y-71.9984
G01 X98.5009 Y-72.0177
G01 X98.5057 Y-72.0225
G01 X98.5232 Y-72.0385
G01 X98.5302 Y-72.0442
G01 X98.5511 Y-72.0596
G01 X98.5773 Y-72.0753
G01 X98.6049 Y-72.0883
G01 X98.6293 Y-72.0972
G01 X98.6379 Y-72.0998
G01 X98.6654 Y-72.1064
G01 X98.6933 Y-72.1105
G01 X98.7238 Y-72.1119
G01 X99.1612 Y-72.1119
G01 X99.1872 Y-72.1108
G01 X99.1962 Y-72.1099
G01 X99.2219 Y-72.1060
G01 X99.2514 Y-72.0986
G01 X99.2801 Y-72.0883
G01 X99.3077 Y-72.0753
G01 X99.3339 Y-72.0596
G01 X99.3584 Y-72.0414
G01 X99.3809 Y-72.0209
G01 X99.4014 Y-71.9984
G01 X99.4170 Y-71.9776
G01 X99.4220 Y-71.9701
G01 X99.4353 Y-71.9477
G01 X99.4465 Y-71.9243
G01 X99.4499 Y-71.9159
G01 X99.4586 Y-71.8914
G01 X99.4664 Y-71.8596
G01 X99.4705 Y-71.8317
G01 X99.4719 Y-71.8035
G01 X99.4719 Y-71.6118
G01 X100.0350 Y-71.0486
G01 X100.0530 Y-71.0287
G01 X100.0572 Y-71.0235
G01 X100.0744 Y-71.0000
G01 X100.0895 Y-70.9752
G01 X100.0937 Y-70.9672
G01 X100.1060 Y-70.9409
G01 X100.1167 Y-70.9115
G01 X100.1245 Y-70.8811
G01 X100.1263 Y-70.8723
G01 X100.1304 Y-70.8435
G01 X100.1320 Y-70.8123
G01 X100.1321 Y-70.0219
G01 X100.1412 Y-70.0094
G01 X100.1523 Y-69.9910
G01 X100.1635 Y-69.9676
G01 X100.1701 Y-69.9495
G01 X100.1727 Y-69.9409
G01 X100.1773 Y-69.9222
G01 X100.1805 Y-69.9010
G01 X100.1819 Y-69.8750
G01 X100.1819 Y-69.6421
G01 X100.8681 Y-69.6421
G01 X100.8681 Y-69.7773
G01 X100.8694 Y-69.8040
G01 X100.8702 Y-69.8130
G01 X100.8746 Y-69.8417
G01 X100.8835 Y-69.8764
G01 X100.8941 Y-69.9059
G01 X100.9064 Y-69.9322
G01 X100.9107 Y-69.9401
G01 X100.9257 Y-69.9650
G01 X100.9429 Y-69.9884
G01 X100.9471 Y-69.9937
G01 X100.9651 Y-70.0135
G01 X100.9715 Y-70.0199
G01 X100.9913 Y-70.0379
G01 X101.0163 Y-70.0567
G01 X101.0238 Y-70.0617
G01 X101.0488 Y-70.0766
G01 X101.0791 Y-70.0909
G01 X101.1107 Y-70.1022
G01 X101.1411 Y-70.1099
G01 X101.1765 Y-70.1153
G01 X101.2100 Y-70.1169
G01 X101.7100 Y-70.1169
G01 X101.7458 Y-70.1151
G01 X101.7767 Y-70.1104
G01 X101.8049 Y-70.1034
G01 X101.8114 Y-70.1015
G01 X101.8366 Y-70.0925
G01 X101.8450 Y-70.0891
G01 X101.8712 Y-70.0766
G01 X101.9000 Y-70.0593
G01 X101.9269 Y-70.0393
G01 X101.9485 Y-70.0199
G01 X101.9549 Y-70.0135
G01 X101.9743 Y-69.9919
G01 X101.9943 Y-69.9650
G01 X102.0116 Y-69.9362
G01 X102.0259 Y-69.9059
G01 X102.0372 Y-69.8743
G01 X102.0454 Y-69.8417
G01 X102.0503 Y-69.8085
G01 X102.0519 Y-69.7750
G01 X102.0519 Y-68.8250
G01 X102.0505 Y-68.7937
G01 X102.0454 Y-68.7583
G01 X102.0384 Y-68.7301
G01 X102.0365 Y-68.7236
G01 X102.0275 Y-68.6984
G01 X102.0241 Y-68.6900
G01 X102.0116 Y-68.6638
G01 X101.9943 Y-68.6350
G01 X101.9743 Y-68.6081
G01 X101.9549 Y-68.5865
G01 X101.9502 Y-68.5816
G01 X101.9303 Y-68.5636
G01 X101.9234 Y-68.5579
G01 X101.8981 Y-68.5394
G01 X101.8751 Y-68.5257
G01 X101.8672 Y-68.5214
G01 X101.8409 Y-68.5091
G01 X101.8093 Y-68.4978
G01 X101.7767 Y-68.4896
G01 X101.7458 Y-68.4849
G01 X101.7100 Y-68.4831
G01 X101.2100 Y-68.4831
G01 X101.1765 Y-68.4847
G01 X101.1433 Y-68.4896
G01 X101.1107 Y-68.4978
G01 X101.0791 Y-68.5091
G01 X101.0488 Y-68.5234
G01 X101.0238 Y-68.5383
G01 X101.0163 Y-68.5433
G01 X100.9913 Y-68.5621
G01 X100.9715 Y-68.5801
G01 X100.9651 Y-68.5865
G01 X100.9471 Y-68.6063
G01 X100.9429 Y-68.6116
G01 X100.9257 Y-68.6350
G01 X100.9107 Y-68.6599
G01 X100.9064 Y-68.6678
G01 X100.8941 Y-68.6941
G01 X100.8835 Y-68.7236
G01 X100.8746 Y-68.7583
G01 X100.8702 Y-68.7870
G01 X100.8694 Y-68.7960
G01 X100.8681 Y-68.8227
G01 X100.8681 Y-68.9579
G01 X100.1819 Y-68.9579
G01 X100.1819 Y-68.6977
G01 X100.1805 Y-68.6740
G01 X100.1777 Y-68.6550
G01 X100.1763 Y-68.6484
G01 X100.1709 Y-68.6276
G01 X100.1626 Y-68.6053
G01 X100.1534 Y-68.5859
G01 X100.1399 Y-68.5637
G01 X100.1270 Y-68.5465
G01 X100.1095 Y-68.5273
G01 X100.0917 Y-68.5116
G01 X100.0763 Y-68.5001
G01 X100.0706 Y-68.4964
G01 X100.0560 Y-68.4877
G01 X100.0500 Y-68.4846
G01 X100.0326 Y-68.4765
G01 X100.0145 Y-68.4699
G01 X100.0059 Y-68.4673
G01 X99.9872 Y-68.4627
G01 X99.9637 Y-68.4592
G01 X99.9400 Y-68.4581
G01 X99.6355 Y-68.4582
G01 X99.6163 Y-68.4592
G01 X99.5928 Y-68.4627
G01 X99.5698 Y-68.4685
G01 X99.5474 Y-68.4765
G01 X99.5259 Y-68.4866
G01 X99.5056 Y-68.4988
G01 X99.4865 Y-68.5130
G01 X99.4722 Y-68.5258
G01 X99.4658 Y-68.5322
G01 X99.4530 Y-68.5465
G01 X99.4388 Y-68.5656
G01 X99.4266 Y-68.5859
G01 X99.4165 Y-68.6074
G01 X99.4085 Y-68.6298
G01 X99.4027 Y-68.6528
G01 X99.3992 Y-68.6763
G01 X99.3981 Y-68.7000
G01 X99.3981 Y-69.8773
G01 X99.3992 Y-69.8987
G01 X99.4023 Y-69.9200
G01 X99.4073 Y-69.9409
G01 X99.4099 Y-69.9495
G01 X99.4165 Y-69.9676
G01 X99.4266 Y-69.9891
G01 X99.4376 Y-70.0075
G01 X99.4479 Y-70.0219
G01 X99.4479 Y-70.6683
G01 X99.3350 Y-70.7812
G01 X99.3116 Y-70.7670
G01 X99.3037 Y-70.7627
G01 X99.2801 Y-70.7517
G01 X99.2557 Y-70.7428
G01 X99.2471 Y-70.7402
G01 X99.2219 Y-70.7340
G01 X99.1895 Y-70.7294
G01 X99.1612 Y-70.7281
G01 X98.7238 Y-70.7281
G01 X98.6955 Y-70.7294
G01 X98.6631 Y-70.7340
G01 X98.6336 Y-70.7414
G01 X98.6049 Y-70.7517
G01 X98.5773 Y-70.7647
G01 X98.5511 Y-70.7804
G01 X98.5266 Y-70.7986
G01 X98.5041 Y-70.8191
G01 X98.4865 Y-70.8382
G01 X98.4808 Y-70.8452
G01 X98.4667 Y-70.8643
G01 X98.4630 Y-70.8699
G01 X98.4497 Y-70.8923
G01 X98.4367 Y-70.9199
G01 X98.4264 Y-70.9486
G01 X98.4200 Y-70.9737
G01 X98.4182 Y-70.9826
G01 X98.4144 Y-71.0105
G01 X98.4131 Y-71.0388
G01 X98.4131 Y-71.8012
G01 X98.4142 Y-71.8272
G01 X98.4151 Y-71.8362
G00 Z2.0000
G00 X97.1664 Y-70.5636
G01 F10.00
G01 Z-0.0500
G01 F30.00
G01 X97.1857 Y-70.5692
G01 X97.2186 Y-70.5810
G01 X97.2371 Y-70.5889
G01 X97.2685 Y-70.6042
G01 X97.2987 Y-70.6218
G01 X97.3156 Y-70.6328
G01 X97.3436 Y-70.6536
G01 X97.3540 Y-70.6622
G01 X97.3659 Y-70.6728
G01 X97.3659 Y-70.3831
G01 X97.3557 Y-70.4020
G01 X97.3485 Y-70.4135
G01 X97.3407 Y-70.4247
G01 X97.3324 Y-70.4355
G01 X97.3235 Y-70.4458
G01 X97.3142 Y-70.4557
G01 X97.3043 Y-70.4651
G01 X97.2464 Y-70.5154
G01 X97.2359 Y-70.5241
G01 X97.2249 Y-70.5323
G01 X97.2077 Y-70.5434
G01 X97.1957 Y-70.5502
G01 X97.1835 Y-70.5563
G01 X97.1664 Y-70.5636
G00 Z2.0000
G00 X98.6383 Y-68.6038
G01 F10.00
G01 Z-0.0500
G01 F30.00
G01 X98.6419 Y-68.6295
G01 X98.6441 Y-68.6517
G01 X98.6455 Y-68.6776
G01 X98.6461 Y-68.7000
G01 X98.6459 Y-69.8862
G01 X98.6441 Y-69.9233
G01 X98.6419 Y-69.9455
G01 X98.6365 Y-69.9822
G01 X98.6321 Y-70.0042
G01 X98.6231 Y-70.0402
G01 X98.6166 Y-70.0616
G01 X98.6041 Y-70.0965
G01 X98.5962 Y-70.1157
G01 X98.5962 Y-70.3761
G01 X98.6354 Y-70.3699
G01 X98.6576 Y-70.3672
G01 X98.6799 Y-70.3655
G01 X98.7126 Y-70.3641
G01 X99.0838 Y-70.3639
G01 X99.0838 Y-70.1157
G01 X99.0759 Y-70.0965
G01 X99.0634 Y-70.0616
G01 X99.0569 Y-70.0402
G01 X99.0479 Y-70.0042
G01 X99.0435 Y-69.9822
G01 X99.0381 Y-69.9455
G01 X99.0359 Y-69.9233
G01 X99.0341 Y-69.8862
G01 X99.0339 Y-68.7000
G01 X99.0345 Y-68.6776
G01 X99.0359 Y-68.6517
G01 X99.0381 Y-68.6295
G01 X99.0417 Y-68.6038
G01 X99.0124 Y-68.6055
G01 X98.9900 Y-68.6061
G01 X98.6900 Y-68.6061
G01 X98.6676 Y-68.6055
G01 X98.6383 Y-68.6038
G00 Z2.0000
G00 X98.0963 Y-68.2799
G01 F10.00
G01 Z-0.0500
G01 F30.00
G01 X98.1161 Y-68.2829
G01 X98.1293 Y-68.2855
G01 X98.1631 Y-68.2942
G01 X98.1897 Y-68.3034
G01 X98.2023 Y-68.3083
G01 X98.2339 Y-68.3230
G01 X98.2458 Y-68.3293
G01 X98.2642 Y-68.3403
G01 X98.2756 Y-68.3474
G01 X98.2866 Y-68.3552
G01 X98.3037 Y-68.3680
G01 X98.3141 Y-68.3766
G01 X98.3398 Y-68.4002
G01 X98.3590 Y-68.4208
G01 X98.3678 Y-68.4310
G01 X98.3887 Y-68.4589
G01 X98.3962 Y-68.4701
G01 X98.4073 Y-68.4884
G01 X98.4139 Y-68.5001
G01 X98.4200 Y-68.5121
G01 X98.4291 Y-68.5316
G01 X98.4342 Y-68.5440
G01 X98.4458 Y-68.5769
G01 X98.4529 Y-68.6042
G01 X98.4559 Y-68.6173
G01 X98.4612 Y-68.6518
G01 X98.4630 Y-68.6719
G01 X98.4640 Y-68.7000
G01 X98.4639 Y-69.8817
G01 X98.4625 Y-69.9099
G01 X98.4603 Y-69.9299
G01 X98.4559 Y-69.9577
G01 X98.4493 Y-69.9851
G01 X98.4437 Y-70.0045
G01 X98.4342 Y-70.0310
G01 X98.4263 Y-70.0496
G01 X98.4141 Y-70.0745
G01 X98.4141 Y-70.6554
G01 X98.4390 Y-70.6368
G01 X98.4500 Y-70.6290
G01 X98.4798 Y-70.6108
G01 X98.4974 Y-70.6011
G01 X98.5229 Y-70.5889
G01 X98.5352 Y-70.5835
G01 X98.5477 Y-70.5787
G01 X98.5743 Y-70.5692
G01 X98.5937 Y-70.5636
G01 X98.6276 Y-70.5555
G01 X98.6409 Y-70.5532
G01 X98.6688 Y-70.5491
G01 X98.6889 Y-70.5474
G01 X98.7238 Y-70.5460
G01 X99.1680 Y-70.5461
G01 X99.2028 Y-70.5478
G01 X99.2162 Y-70.5491
G01 X99.2508 Y-70.5542
G01 X99.2659 Y-70.5573
G01 X99.2659 Y-70.0745
G01 X99.2537 Y-70.0496
G01 X99.2458 Y-70.0310
G01 X99.2363 Y-70.0045
G01 X99.2307 Y-69.9851
G01 X99.2241 Y-69.9577
G01 X99.2197 Y-69.9299
G01 X99.2175 Y-69.9099
G01 X99.2161 Y-69.8817
G01 X99.2160 Y-68.7000
G01 X99.2175 Y-68.6651
G01 X99.2197 Y-68.6451
G01 X99.2241 Y-68.6173
G01 X99.2271 Y-68.6042
G01 X99.2342 Y-68.5769
G01 X99.2434 Y-68.5503
G01 X99.2509 Y-68.5316
G01 X99.2630 Y-68.5061
G01 X99.2727 Y-68.4884
G01 X99.2874 Y-68.4644
G01 X99.3040 Y-68.4416
G01 X99.3166 Y-68.4259
G01 X99.3355 Y-68.4050
G01 X99.3499 Y-68.3909
G01 X99.3710 Y-68.3722
G01 X99.3816 Y-68.3640
G01 X99.4044 Y-68.3474
G01 X99.4284 Y-68.3327
G01 X99.4461 Y-68.3230
G01 X99.4777 Y-68.3083
G01 X99.5041 Y-68.2985
G01 X99.5234 Y-68.2924
G01 X99.5573 Y-68.2841
G01 X99.5851 Y-68.2797
G01 X99.6051 Y-68.2775
G01 X99.6400 Y-68.2760
G01 X99.9400 Y-68.2760
G01 X99.9534 Y-68.2763
G01 X99.9816 Y-68.2780
G01 X100.0161 Y-68.2829
G01 X100.0358 Y-68.2871
G01 X100.0566 Y-68.2924
G01 X100.0695 Y-68.2963
G01 X100.1023 Y-68.3083
G01 X100.1279 Y-68.3200
G01 X100.1399 Y-68.3261
G01 X100.1516 Y-68.3327
G01 X100.1756 Y-68.3474
G01 X100.2037 Y-68.3680
G01 X100.2141 Y-68.3766
G01 X100.2350 Y-68.3955
G01 X100.2445 Y-68.4050
G01 X100.2590 Y-68.4208
G01 X100.2678 Y-68.4310
G01 X100.2760 Y-68.4416
G01 X100.2887 Y-68.4589
G01 X100.2997 Y-68.4758
G01 X100.3107 Y-68.4942
G01 X100.3170 Y-68.5061
G01 X100.3317 Y-68.5377
G01 X100.3366 Y-68.5503
G01 X100.3458 Y-68.5769
G01 X100.3545 Y-68.6107
G01 X100.3571 Y-68.6239
G01 X100.3603 Y-68.6451
G01 X100.3620 Y-68.6584
G01 X100.3630 Y-68.6719
G01 X100.3640 Y-68.7000
G01 X100.3640 Y-68.7759
G01 X100.6883 Y-68.7759
G01 X100.6902 Y-68.7603
G01 X100.6948 Y-68.7294
G01 X100.6990 Y-68.7096
G01 X100.7086 Y-68.6729
G01 X100.7128 Y-68.6601
G01 X100.7234 Y-68.6307
G01 X100.7285 Y-68.6183
G01 X100.7418 Y-68.5900
G01 X100.7511 Y-68.5721
G01 X100.7671 Y-68.5452
G01 X100.7743 Y-68.5339
G01 X100.7967 Y-68.5032
G01 X100.8049 Y-68.4926
G01 X100.8137 Y-68.4824
G01 X100.8348 Y-68.4593
G01 X100.8443 Y-68.4498
G01 X100.8674 Y-68.4287
G01 X100.8776 Y-68.4199
G01 X100.9079 Y-68.3970
G01 X100.9245 Y-68.3856
G01 X100.9513 Y-68.3695
G01 X100.9630 Y-68.3629
G01 X100.9750 Y-68.3568
G01 X101.0033 Y-68.3435
G01 X101.0220 Y-68.3360
G01 X101.0579 Y-68.3236
G01 X101.0946 Y-68.3140
G01 X101.1078 Y-68.3111
G01 X101.1453 Y-68.3052
G01 X101.1586 Y-68.3035
G01 X101.1721 Y-68.3025
G01 X101.2100 Y-68.3010
G01 X101.7100 Y-68.3010
G01 X101.7234 Y-68.3013
G01 X101.7614 Y-68.3035
G01 X101.7747 Y-68.3052
G01 X101.8122 Y-68.3111
G01 X101.8254 Y-68.3140
G01 X101.8557 Y-68.3217
G01 X101.8685 Y-68.3256
G01 X101.8859 Y-68.3317
G01 X101.8859 Y-66.2349
G01 X101.8595 Y-66.2105
G01 X101.8337 Y-66.1826
G01 X101.8207 Y-66.1672
G01 X101.8020 Y-66.1421
G01 X101.7906 Y-66.1255
G01 X101.7711 Y-66.0929
G01 X101.7648 Y-66.0810
G01 X101.7513 Y-66.0528
G01 X101.7434 Y-66.0343
G01 X101.7306 Y-65.9985
G01 X101.7267 Y-65.9857
G01 X101.7175 Y-65.9488
G01 X101.7148 Y-65.9356
G01 X101.7093 Y-65.8980
G01 X101.7079 Y-65.8847
G01 X101.7061 Y-65.8467
G01 X101.7060 Y-64.9400
G01 X101.7075 Y-64.9021
G01 X101.7093 Y-64.8820
G01 X101.7148 Y-64.8444
G01 X101.7175 Y-64.8312
G01 X101.7267 Y-64.7943
G01 X101.7306 Y-64.7815
G01 X101.7434 Y-64.7457
G01 X101.7485 Y-64.7333
G01 X101.7640 Y-64.7006
G01 X101.7317 Y-64.7181
G01 X101.7194 Y-64.7240
G01 X101.7069 Y-64.7293
G01 X101.6876 Y-64.7361
G01 X101.6679 Y-64.7414
G01 X101.6479 Y-64.7453
G01 X101.6276 Y-64.7476
G01 X101.6072 Y-64.7484
G01 X101.5868 Y-64.7477
G01 X101.5171 Y-64.7428
G01 X101.5035 Y-64.7414
G01 X101.4832 Y-64.7382
G01 X101.4698 Y-64.7352
G01 X101.4567 Y-64.7315
G01 X101.4373 Y-64.7248
G01 X101.4184 Y-64.7166
G01 X101.3988 Y-64.7062
G01 X101.4141 Y-64.7395
G01 X101.4272 Y-64.7751
G01 X101.4333 Y-64.7943
G01 X101.4410 Y-64.8246
G01 X101.4452 Y-64.8444
G01 X101.4507 Y-64.8820
G01 X101.4521 Y-64.8953
G01 X101.4537 Y-64.9266
G01 X101.4540 Y-64.9400
G01 X101.4540 Y-65.8400
G01 X101.4525 Y-65.8779
G01 X101.4507 Y-65.8980
G01 X101.4452 Y-65.9356
G01 X101.4425 Y-65.9488
G01 X101.4333 Y-65.9857
G01 X101.4272 Y-66.0049
G01 X101.4141 Y-66.0405
G01 X101.3982 Y-66.0750
G01 X101.3889 Y-66.0929
G01 X101.3694 Y-66.1255
G01 X101.3580 Y-66.1421
G01 X101.3351 Y-66.1724
G01 X101.3263 Y-66.1826
G01 X101.3005 Y-66.2105
G01 X101.2726 Y-66.2363
G01 X101.2572 Y-66.2493
G01 X101.2267 Y-66.2719
G01 X101.2098 Y-66.2829
G01 X101.1770 Y-66.3021
G01 X101.1428 Y-66.3187
G01 X101.1243 Y-66.3266
G01 X101.0885 Y-66.3394
G01 X101.0692 Y-66.3450
G01 X101.0322 Y-66.3539
G01 X100.9947 Y-66.3598
G01 X100.9747 Y-66.3621
G01 X100.9434 Y-66.3637
G01 X100.9300 Y-66.3640
G01 X100.3983 Y-66.3639
G01 X100.3603 Y-66.3621
G01 X100.3403 Y-66.3598
G01 X100.3028 Y-66.3539
G01 X100.2896 Y-66.3510
G01 X100.2593 Y-66.3433
G01 X100.2401 Y-66.3372
G01 X100.2107 Y-66.3266
G01 X100.1983 Y-66.3215
G01 X100.1700 Y-66.3082
G01 X100.1580 Y-66.3021
G01 X100.1463 Y-66.2955
G01 X100.1195 Y-66.2794
G01 X100.1029 Y-66.2680
G01 X100.0778 Y-66.2493
G01 X100.0674 Y-66.2407
G01 X100.0442 Y-66.2198
G01 X100.0345 Y-66.2105
G01 X100.0252 Y-66.2008
G01 X100.0043 Y-66.1776
G01 X99.9957 Y-66.1672
G01 X99.9770 Y-66.1421
G01 X99.9656 Y-66.1255
G01 X99.9495 Y-66.0987
G01 X99.9429 Y-66.0870
G01 X99.9368 Y-66.0750
G01 X99.9235 Y-66.0467
G01 X99.9160 Y-66.0280
G01 X99.9056 Y-65.9985
G01 X99.9017 Y-65.9857
G01 X99.8940 Y-65.9554
G01 X99.8911 Y-65.9422
G01 X99.8866 Y-65.9141
G01 X99.7552 Y-65.9141
G01 X99.7430 Y-65.9321
G01 X99.7201 Y-65.9624
G01 X99.7113 Y-65.9726
G01 X99.6855 Y-66.0005
G01 X99.6576 Y-66.0263
G01 X99.6422 Y-66.0393
G01 X99.6117 Y-66.0619
G01 X99.5948 Y-66.0729
G01 X99.5620 Y-66.0921
G01 X99.5278 Y-66.1087
G01 X99.5093 Y-66.1166
G01 X99.4735 Y-66.1294
G01 X99.4542 Y-66.1350
G01 X99.4172 Y-66.1439
G01 X99.3797 Y-66.1498
G01 X99.3641 Y-66.1517
G01 X99.3641 Y-66.6255
G01 X99.3763 Y-66.6504
G01 X99.3842 Y-66.6690
G01 X99.3937 Y-66.6955
G01 X99.3993 Y-66.7149
G01 X99.4059 Y-66.7423
G01 X99.4103 Y-66.7701
G01 X99.4125 Y-66.7901
G01 X99.4139 Y-66.8183
G01 X99.4139 Y-68.0067
G01 X99.4120 Y-68.0416
G01 X99.4082 Y-68.0695
G01 X99.4059 Y-68.0827
G01 X99.4029 Y-68.0958
G01 X99.3958 Y-68.1231
G01 X99.3866 Y-68.1497
G01 X99.3817 Y-68.1623
G01 X99.3700 Y-68.1879
G01 X99.3639 Y-68.1999
G01 X99.3573 Y-68.2116
G01 X99.3426 Y-68.2356
G01 X99.3260 Y-68.2584
G01 X99.3178 Y-68.2690
G01 X99.3090 Y-68.2792
G01 X99.2898 Y-68.2998
G01 X99.2641 Y-68.3234
G01 X99.2484 Y-68.3360
G01 X99.2311 Y-68.3487
G01 X99.2199 Y-68.3562
G01 X99.1899 Y-68.3739
G01 X99.1584 Y-68.3891
G01 X99.1460 Y-68.3942
G01 X99.1259 Y-68.4015
G01 X99.1131 Y-68.4058
G01 X99.1001 Y-68.4093
G01 X99.0793 Y-68.4145
G01 X99.0661 Y-68.4171
G01 X99.0316 Y-68.4220
G01 X98.9967 Y-68.4239
G01 X98.6900 Y-68.4240
G01 X98.6766 Y-68.4237
G01 X98.6484 Y-68.4220
G01 X98.6205 Y-68.4182
G01 X98.6073 Y-68.4159
G01 X98.5734 Y-68.4076
G01 X98.5605 Y-68.4037
G01 X98.5403 Y-68.3966
G01 X98.5216 Y-68.3891
G01 X98.4901 Y-68.3739
G01 X98.4601 Y-68.3562
G01 X98.4489 Y-68.3487
G01 X98.4316 Y-68.3360
G01 X98.4159 Y-68.3234
G01 X98.3902 Y-68.2998
G01 X98.3666 Y-68.2741
G01 X98.3540 Y-68.2584
G01 X98.3413 Y-68.2411
G01 X98.3338 Y-68.2299
G01 X98.3161 Y-68.1999
G01 X98.3009 Y-68.1684
G01 X98.2934 Y-68.1497
G01 X98.2842 Y-68.1231
G01 X98.2758 Y-68.0903
G01 X98.2711 Y-68.1017
G01 X98.2654 Y-68.1140
G01 X98.2591 Y-68.1261
G01 X98.2521 Y-68.1378
G01 X98.2446 Y-68.1492
G01 X98.2366 Y-68.1601
G01 X98.2280 Y-68.1707
G01 X98.2189 Y-68.1808
G01 X98.2093 Y-68.1905
G01 X98.1993 Y-68.1996
G01 X98.1412 Y-68.2498
G01 X98.1304 Y-68.2582
G01 X98.1192 Y-68.2661
G01 X98.1077 Y-68.2734
G01 X98.0963 Y-68.2799
G00 Z2.0000
G00 X99.5883 Y-68.0962
G01 F10.00
G01 Z-0.0500
G01 F30.00
G01 X99.6176 Y-68.0945
G01 X99.6400 Y-68.0939
G01 X99.9400 Y-68.0939
G01 X99.9624 Y-68.0945
G01 X99.9994 Y-68.0968
G01 X100.0362 Y-68.1017
G01 X100.0582 Y-68.1056
G01 X100.0801 Y-68.1105
G01 X100.1159 Y-68.1200
G01 X100.1510 Y-68.1320
G01 X100.1719 Y-68.1401
G01 X100.2057 Y-68.1554
G01 X100.2257 Y-68.1655
G01 X100.2452 Y-68.1765
G01 X100.2767 Y-68.1961
G01 X100.3068 Y-68.2177
G01 X100.3245 Y-68.2315
G01 X100.3331 Y-68.2387
G01 X100.3605 Y-68.2636
G01 X100.3764 Y-68.2795
G01 X100.3840 Y-68.2877
G01 X100.4085 Y-68.3155
G01 X100.4310 Y-68.3450
G01 X100.4439 Y-68.3633
G01 X100.4500 Y-68.3727
G01 X100.4691 Y-68.4045
G01 X100.4797 Y-68.4242
G01 X100.4846 Y-68.4343
G01 X100.4999 Y-68.4681
G01 X100.5080 Y-68.4890
G01 X100.5200 Y-68.5241
G01 X100.5295 Y-68.5599
G01 X100.5344 Y-68.5818
G01 X100.5366 Y-68.5938
G01 X100.5431 Y-68.5938
G01 X100.5535 Y-68.5652
G01 X100.5577 Y-68.5548
G01 X100.5667 Y-68.5343
G01 X100.5772 Y-68.5122
G01 X100.5873 Y-68.4922
G01 X100.5927 Y-68.4824
G01 X100.6168 Y-68.4421
G01 X100.6293 Y-68.4235
G01 X100.6572 Y-68.3858
G01 X100.6714 Y-68.3685
G01 X100.7029 Y-68.3337
G01 X100.7107 Y-68.3257
G01 X100.7269 Y-68.3103
G01 X100.7451 Y-68.2938
G01 X100.7621 Y-68.2792
G01 X100.7797 Y-68.2654
G01 X100.7994 Y-68.2508
G01 X100.8177 Y-68.2379
G01 X100.8366 Y-68.2259
G01 X100.8577 Y-68.2133
G01 X100.8772 Y-68.2023
G01 X100.8972 Y-68.1922
G01 X100.9193 Y-68.1817
G01 X100.9398 Y-68.1727
G01 X100.9607 Y-68.1646
G01 X100.9944 Y-68.1527
G01 X101.0158 Y-68.1462
G01 X101.0504 Y-68.1374
G01 X101.0723 Y-68.1325
G01 X101.0943 Y-68.1287
G01 X101.1297 Y-68.1236
G01 X101.1519 Y-68.1214
G01 X101.1876 Y-68.1195
G01 X101.2100 Y-68.1189
G01 X101.7038 Y-68.1189
G01 X101.7038 Y-66.3104
G01 X101.6914 Y-66.2965
G01 X101.6772 Y-66.2792
G01 X101.6493 Y-66.2415
G01 X101.6368 Y-66.2229
G01 X101.6183 Y-66.1923
G01 X101.6073 Y-66.1728
G01 X101.5972 Y-66.1528
G01 X101.5800 Y-66.1156
G01 X101.5628 Y-66.1528
G01 X101.5527 Y-66.1728
G01 X101.5417 Y-66.1923
G01 X101.5291 Y-66.2134
G01 X101.5232 Y-66.2229
G01 X101.5107 Y-66.2415
G01 X101.4896 Y-66.2703
G01 X101.4758 Y-66.2879
G01 X101.4612 Y-66.3049
G01 X101.4447 Y-66.3231
G01 X101.4371 Y-66.3313
G01 X101.4213 Y-66.3471
G01 X101.3949 Y-66.3712
G01 X101.3779 Y-66.3858
G01 X101.3603 Y-66.3996
G01 X101.3406 Y-66.4142
G01 X101.3223 Y-66.4271
G01 X101.3129 Y-66.4332
G01 X101.2823 Y-66.4517
G01 X101.2628 Y-66.4627
G01 X101.2428 Y-66.4728
G01 X101.2207 Y-66.4833
G01 X101.2105 Y-66.4879
G01 X101.1898 Y-66.4965
G01 X101.1562 Y-66.5086
G01 X101.1350 Y-66.5157
G01 X101.1134 Y-66.5216
G01 X101.0896 Y-66.5276
G01 X101.0787 Y-66.5302
G01 X101.0567 Y-66.5346
G01 X101.0214 Y-66.5399
G01 X100.9992 Y-66.5427
G01 X100.9769 Y-66.5443
G01 X100.9524 Y-66.5455
G01 X100.9300 Y-66.5461
G01 X100.3938 Y-66.5459
G01 X100.3581 Y-66.5443
G01 X100.3358 Y-66.5427
G01 X100.3136 Y-66.5399
G01 X100.2893 Y-66.5363
G01 X100.2783 Y-66.5346
G01 X100.2563 Y-66.5302
G01 X100.2216 Y-66.5216
G01 X100.2000 Y-66.5157
G01 X100.1788 Y-66.5086
G01 X100.1557 Y-66.5004
G01 X100.1348 Y-66.4923
G01 X100.1143 Y-66.4833
G01 X100.0922 Y-66.4728
G01 X100.0722 Y-66.4627
G01 X100.0527 Y-66.4517
G01 X100.0316 Y-66.4391
G01 X100.0127 Y-66.4271
G01 X99.9944 Y-66.4142
G01 X99.9747 Y-66.3996
G01 X99.9571 Y-66.3858
G01 X99.9401 Y-66.3712
G01 X99.9219 Y-66.3547
G01 X99.9057 Y-66.3393
G01 X99.8903 Y-66.3231
G01 X99.8738 Y-66.3049
G01 X99.8592 Y-66.2879
G01 X99.8454 Y-66.2703
G01 X99.8308 Y-66.2506
G01 X99.8179 Y-66.2323
G01 X99.8059 Y-66.2134
G01 X99.7933 Y-66.1923
G01 X99.7877 Y-66.1826
G01 X99.7774 Y-66.1634
G01 X99.7542 Y-66.1828
G01 X99.7165 Y-66.2107
G01 X99.6979 Y-66.2232
G01 X99.6576 Y-66.2473
G01 X99.6379 Y-66.2579
G01 X99.5955 Y-66.2779
G01 X99.5748 Y-66.2865
G01 X99.5462 Y-66.2969
G01 X99.5462 Y-66.5843
G01 X99.5541 Y-66.6035
G01 X99.5666 Y-66.6384
G01 X99.5731 Y-66.6598
G01 X99.5821 Y-66.6958
G01 X99.5865 Y-66.7178
G01 X99.5919 Y-66.7545
G01 X99.5941 Y-66.7767
G01 X99.5959 Y-66.8138
G01 X99.5961 Y-68.0000
G01 X99.5955 Y-68.0224
G01 X99.5941 Y-68.0483
G01 X99.5919 Y-68.0705
G01 X99.5883 Y-68.0962
G00 Z2.0000
G00 X98.2516 Y-66.1415
G01 F10.00
G01 Z-0.0500
G01 F30.00
G01 X98.2810 Y-66.1742
G01 X98.2938 Y-66.1895
G01 X98.3055 Y-66.2057
G01 X98.3159 Y-66.2226
G01 X98.3159 Y-66.1517
G01 X98.3003 Y-66.1498
G01 X98.2760 Y-66.1462
G01 X98.2628 Y-66.1439
G01 X98.2516 Y-66.1415
G00 Z2.0000
G00 X98.0252 Y-65.6680
G01 F10.00
G01 Z-0.0500
G01 F30.00
G01 X98.0292 Y-65.6945
G01 X98.0306 Y-65.7011
G01 X98.0378 Y-65.7293
G01 X98.0475 Y-65.7566
G01 X98.0509 Y-65.7650
G01 X98.0624 Y-65.7892
G01 X98.0783 Y-65.8162
G01 X98.0833 Y-65.8237
G01 X98.1007 Y-65.8469
G01 X98.1232 Y-65.8718
G01 X98.1481 Y-65.8943
G01 X98.1769 Y-65.9156
G01 X98.2038 Y-65.9316
G01 X98.2341 Y-65.9459
G01 X98.2657 Y-65.9572
G01 X98.3005 Y-65.9658
G01 X98.3315 Y-65.9703
G01 X98.3627 Y-65.9719
G01 X98.4979 Y-65.9719
G01 X98.4979 Y-66.6781
G01 X98.4876 Y-66.6925
G01 X98.4766 Y-66.7109
G01 X98.4665 Y-66.7324
G01 X98.4599 Y-66.7505
G01 X98.4573 Y-66.7591
G01 X98.4523 Y-66.7800
G01 X98.4492 Y-66.8013
G01 X98.4481 Y-66.8227
G01 X98.4481 Y-68.0023
G01 X98.4492 Y-68.0237
G01 X98.4527 Y-68.0472
G01 X98.4585 Y-68.0702
G01 X98.4665 Y-68.0926
G01 X98.4766 Y-68.1141
G01 X98.4864 Y-68.1306
G01 X98.4914 Y-68.1381
G01 X98.5030 Y-68.1535
G01 X98.5158 Y-68.1678
G01 X98.5222 Y-68.1742
G01 X98.5365 Y-68.1870
G01 X98.5556 Y-68.2012
G01 X98.5720 Y-68.2112
G01 X98.5800 Y-68.2154
G01 X98.5953 Y-68.2226
G01 X98.6016 Y-68.2252
G01 X98.6198 Y-68.2315
G01 X98.6384 Y-68.2363
G01 X98.6450 Y-68.2377
G01 X98.6640 Y-68.2405
G01 X98.6877 Y-68.2419
G01 X98.9900 Y-68.2419
G01 X99.0092 Y-68.2411
G01 X99.0182 Y-68.2402
G01 X99.0372 Y-68.2373
G01 X99.0559 Y-68.2327
G01 X99.0624 Y-68.2309
G01 X99.0784 Y-68.2252
G01 X99.0867 Y-68.2217
G01 X99.1041 Y-68.2134
G01 X99.1244 Y-68.2012
G01 X99.1399 Y-68.1898
G01 X99.1469 Y-68.1841
G01 X99.1611 Y-68.1711
G01 X99.1770 Y-68.1535
G01 X99.1912 Y-68.1344
G01 X99.2012 Y-68.1180
G01 X99.2054 Y-68.1100
G01 X99.2135 Y-68.0926
G01 X99.2215 Y-68.0702
G01 X99.2263 Y-68.0516
G01 X99.2281 Y-68.0428
G01 X99.2305 Y-68.0260
G01 X99.2311 Y-68.0192
G01 X99.2319 Y-68.0000
G01 X99.2319 Y-66.8227
G01 X99.2308 Y-66.8013
G01 X99.2277 Y-66.7800
G01 X99.2227 Y-66.7591
G01 X99.2201 Y-66.7505
G01 X99.2135 Y-66.7324
G01 X99.2034 Y-66.7109
G01 X99.1924 Y-66.6925
G01 X99.1821 Y-66.6781
G01 X99.1821 Y-65.9719
G01 X99.3173 Y-65.9719
G01 X99.3440 Y-65.9706
G01 X99.3530 Y-65.9698
G01 X99.3817 Y-65.9654
G01 X99.4143 Y-65.9572
G01 X99.4459 Y-65.9459
G01 X99.4762 Y-65.9316
G01 X99.5050 Y-65.9143
G01 X99.5319 Y-65.8943
G01 X99.5568 Y-65.8718
G01 X99.5793 Y-65.8469
G01 X99.5993 Y-65.8200
G01 X99.6166 Y-65.7912
G01 X99.6309 Y-65.7609
G01 X99.6413 Y-65.7321
G01 X100.0631 Y-65.7321
G01 X100.0631 Y-65.8423
G01 X100.0644 Y-65.8690
G01 X100.0652 Y-65.8780
G01 X100.0696 Y-65.9067
G01 X100.0778 Y-65.9393
G01 X100.0891 Y-65.9709
G01 X100.1024 Y-65.9992
G01 X100.1207 Y-66.0300
G01 X100.1407 Y-66.0569
G01 X100.1632 Y-66.0818
G01 X100.1847 Y-66.1014
G01 X100.1898 Y-66.1057
G01 X100.2113 Y-66.1217
G01 X100.2188 Y-66.1267
G01 X100.2438 Y-66.1416
G01 X100.2762 Y-66.1568
G01 X100.3057 Y-66.1672
G01 X100.3383 Y-66.1754
G01 X100.3715 Y-66.1803
G01 X100.4005 Y-66.1818
G01 X100.9323 Y-66.1819
G01 X100.9590 Y-66.1806
G01 X100.9680 Y-66.1798
G01 X100.9967 Y-66.1754
G01 X101.0249 Y-66.1684
G01 X101.0335 Y-66.1658
G01 X101.0609 Y-66.1559
G01 X101.0912 Y-66.1416
G01 X101.1162 Y-66.1267
G01 X101.1237 Y-66.1217
G01 X101.1469 Y-66.1043
G01 X101.1685 Y-66.0849
G01 X101.1749 Y-66.0785
G01 X101.1943 Y-66.0569
G01 X101.2143 Y-66.0300
G01 X101.2316 Y-66.0012
G01 X101.2441 Y-65.9750
G01 X101.2475 Y-65.9666
G01 X101.2572 Y-65.9393
G01 X101.2644 Y-65.9111
G01 X101.2662 Y-65.9023
G01 X101.2701 Y-65.8758
G01 X101.2719 Y-65.8400
G01 X101.2719 Y-64.9400
G01 X101.2706 Y-64.9110
G01 X101.2698 Y-64.9020
G01 X101.2654 Y-64.8733
G01 X101.2584 Y-64.8451
G01 X101.2565 Y-64.8386
G01 X101.2475 Y-64.8134
G01 X101.2441 Y-64.8050
G01 X101.2316 Y-64.7788
G01 X101.2143 Y-64.7500
G01 X101.1943 Y-64.7231
G01 X101.1749 Y-64.7015
G01 X101.1702 Y-64.6966
G01 X101.1503 Y-64.6786
G01 X101.1434 Y-64.6729
G01 X101.1200 Y-64.6557
G01 X101.0912 Y-64.6384
G01 X101.0609 Y-64.6241
G01 X101.0335 Y-64.6142
G01 X101.0249 Y-64.6116
G01 X100.9989 Y-64.6051
G01 X100.9923 Y-64.6038
G01 X100.9635 Y-64.5997
G01 X100.9323 Y-64.5981
G01 X100.4050 Y-64.5981
G01 X100.3760 Y-64.5994
G01 X100.3670 Y-64.6002
G01 X100.3383 Y-64.6046
G01 X100.3057 Y-64.6128
G01 X100.2741 Y-64.6241
G01 X100.2458 Y-64.6374
G01 X100.2150 Y-64.6557
G01 X100.1916 Y-64.6729
G01 X100.1847 Y-64.6786
G01 X100.1648 Y-64.6966
G01 X100.1601 Y-64.7015
G01 X100.1407 Y-64.7231
G01 X100.1207 Y-64.7500
G01 X100.1034 Y-64.7788
G01 X100.0900 Y-64.8071
G01 X100.0792 Y-64.8365
G01 X100.0766 Y-64.8451
G01 X100.0696 Y-64.8733
G01 X100.0649 Y-64.9042
G01 X100.0631 Y-64.9377
G01 X100.0631 Y-65.0479
G01 X99.6466 Y-65.0479
G01 X99.6415 Y-65.0286
G01 X99.6300 Y-64.9971
G01 X99.6166 Y-64.9688
G01 X99.6006 Y-64.9419
G01 X99.5821 Y-64.9166
G01 X99.5764 Y-64.9097
G01 X99.5568 Y-64.8882
G01 X99.5337 Y-64.8671
G01 X99.5087 Y-64.8483
G01 X99.5012 Y-64.8433
G01 X99.4762 Y-64.8284
G01 X99.4459 Y-64.8141
G01 X99.4185 Y-64.8042
G01 X99.4099 Y-64.8016
G01 X99.3817 Y-64.7946
G01 X99.3530 Y-64.7902
G01 X99.3440 Y-64.7894
G01 X99.3150 Y-64.7881
G01 X98.3650 Y-64.7881
G01 X98.3360 Y-64.7894
G01 X98.3270 Y-64.7902
G01 X98.2983 Y-64.7946
G01 X98.2701 Y-64.8016
G01 X98.2615 Y-64.8042
G01 X98.2341 Y-64.8141
G01 X98.2078 Y-64.8264
G01 X98.1999 Y-64.8307
G01 X98.1750 Y-64.8457
G01 X98.1516 Y-64.8629
G01 X98.1447 Y-64.8686
G01 X98.1232 Y-64.8882
G01 X98.1036 Y-64.9097
G01 X98.0979 Y-64.9166
G01 X98.0807 Y-64.9400
G01 X98.0657 Y-64.9649
G01 X98.0614 Y-64.9728
G01 X98.0491 Y-64.9991
G01 X98.0371 Y-65.0329
G01 X98.0296 Y-65.0633
G01 X98.0252 Y-65.0920
G01 X98.0244 Y-65.1010
G01 X98.0231 Y-65.1277
G01 X98.0231 Y-65.6300
G01 X98.0244 Y-65.6590
G01 X98.0252 Y-65.6680
G00 Z2.0000
G00 X98.0252 Y-63.7680
G01 F10.00
G01 Z-0.0500
G01 F30.00
G01 X98.0296 Y-63.7967
G01 X98.0378 Y-63.8293
G01 X98.0491 Y-63.8609
G01 X98.0614 Y-63.8872
G01 X98.0657 Y-63.8951
G01 X98.0794 Y-63.9181
G01 X98.0833 Y-63.9237
G01 X98.1007 Y-63.9469
G01 X98.1232 Y-63.9718
G01 X98.1481 Y-63.9943
G01 X98.1750 Y-64.0143
G01 X98.2038 Y-64.0316
G01 X98.2300 Y-64.0441
G01 X98.2362 Y-64.0468
G01 X98.2615 Y-64.0558
G01 X98.2701 Y-64.0584
G01 X98.2983 Y-64.0654
G01 X98.3337 Y-64.0705
G01 X98.3650 Y-64.0719
G01 X98.8400 Y-64.0722
G01 X99.3150 Y-64.0719
G01 X99.3440 Y-64.0706
G01 X99.3530 Y-64.0698
G01 X99.3795 Y-64.0658
G01 X99.3861 Y-64.0644
G01 X99.4143 Y-64.0572
G01 X99.4416 Y-64.0475
G01 X99.4500 Y-64.0441
G01 X99.4762 Y-64.0316
G01 X99.5050 Y-64.0143
G01 X99.5284 Y-63.9971
G01 X99.5353 Y-63.9914
G01 X99.5568 Y-63.9718
G01 X99.5764 Y-63.9503
G01 X99.5821 Y-63.9434
G01 X99.5993 Y-63.9200
G01 X99.6176 Y-63.8892
G01 X99.6309 Y-63.8609
G01 X99.6422 Y-63.8293
G01 X99.6504 Y-63.7967
G01 X99.6548 Y-63.7680
G01 X99.6556 Y-63.7590
G01 X99.6569 Y-63.7300
G01 X99.6569 Y-63.2300
G01 X99.6553 Y-63.1965
G01 X99.6512 Y-63.1677
G01 X99.6494 Y-63.1589
G01 X99.6422 Y-63.1307
G01 X99.6309 Y-63.0991
G01 X99.6186 Y-63.0728
G01 X99.6143 Y-63.0649
G01 X99.5993 Y-63.0400
G01 X99.5807 Y-63.0148
G01 X99.5599 Y-62.9915
G01 X99.5535 Y-62.9851
G01 X99.5319 Y-62.9657
G01 X99.5068 Y-62.9470
G01 X99.4742 Y-62.9274
G01 X99.4479 Y-62.9150
G01 X99.4322 Y-62.9091
G01 X99.4322 Y-61.7800
G01 X99.4293 Y-61.7220
G01 X99.4219 Y-61.6713
G01 X99.4219 Y-61.2327
G01 X99.4206 Y-61.2193
G01 X99.4180 Y-61.2083
G01 X99.4131 Y-61.1957
G01 X99.4077 Y-61.1858
G01 X99.3996 Y-61.1749
G01 X99.3917 Y-61.1669
G01 X99.3829 Y-61.1598
G01 X99.3713 Y-61.1529
G01 X99.3610 Y-61.1484
G01 X99.3523 Y-61.1458
G01 X99.3413 Y-61.1437
G01 X99.3300 Y-61.1431
G01 X98.3277 Y-61.1431
G01 X98.3165 Y-61.1440
G01 X98.3033 Y-61.1470
G01 X98.2927 Y-61.1509
G01 X98.2808 Y-61.1573
G01 X98.2699 Y-61.1654
G01 X98.2619 Y-61.1733
G01 X98.2535 Y-61.1839
G01 X98.2479 Y-61.1937
G01 X98.2434 Y-61.2040
G01 X98.2408 Y-61.2127
G01 X98.2387 Y-61.2237
G01 X98.2381 Y-61.2350
G01 X98.2381 Y-62.2850
G01 X98.2387 Y-62.2963
G01 X98.2403 Y-62.3051
G01 X98.2434 Y-62.3160
G01 X98.2478 Y-62.3262
G01 X98.2478 Y-62.9091
G01 X98.2321 Y-62.9150
G01 X98.2058 Y-62.9274
G01 X98.1769 Y-62.9444
G01 X98.1481 Y-62.9657
G01 X98.1216 Y-62.9898
G01 X98.1036 Y-63.0097
G01 X98.0979 Y-63.0166
G01 X98.0807 Y-63.0400
G01 X98.0657 Y-63.0649
G01 X98.0614 Y-63.0728
G01 X98.0491 Y-63.0991
G01 X98.0392 Y-63.1265
G01 X98.0366 Y-63.1351
G01 X98.0296 Y-63.1633
G01 X98.0252 Y-63.1920
G01 X98.0244 Y-63.2010
G01 X98.0231 Y-63.2277
G01 X98.0231 Y-63.7300
G01 X98.0244 Y-63.7590
G01 X98.0252 Y-63.7680
G00 Z2.0000
G00 X99.7074 Y-64.5430
G01 F10.00
G01 Z-0.0500
G01 F30.00
G01 X99.6893 Y-64.5259
G01 X99.6737 Y-64.5095
G01 X99.6662 Y-64.5010
G01 X99.6518 Y-64.4835
G01 X99.6383 Y-64.4653
G01 X99.6258 Y-64.4464
G01 X99.6142 Y-64.4270
G01 X99.6036 Y-64.4069
G01 X99.5902 Y-64.3802
G01 X99.5748 Y-64.3865
G01 X99.5412 Y-64.3986
G01 X99.5200 Y-64.4057
G01 X99.5092 Y-64.4088
G01 X99.4746 Y-64.4176
G01 X99.4527 Y-64.4225
G01 X99.4307 Y-64.4263
G01 X99.4059 Y-64.4300
G01 X99.4307 Y-64.4337
G01 X99.4527 Y-64.4375
G01 X99.4746 Y-64.4424
G01 X99.4984 Y-64.4484
G01 X99.5200 Y-64.4543
G01 X99.5306 Y-64.4577
G01 X99.5748 Y-64.4735
G01 X99.5852 Y-64.4777
G01 X99.6057 Y-64.4867
G01 X99.6278 Y-64.4972
G01 X99.6478 Y-64.5073
G01 X99.6673 Y-64.5183
G01 X99.6884 Y-64.5309
G01 X99.7074 Y-64.5430
G00 Z2.0000
G00 X99.7863 Y-64.5999
G01 F10.00
G01 Z-0.0500
G01 F30.00
G01 X99.7785 Y-64.5953
G01 X99.7697 Y-64.5899
G01 X99.7846 Y-64.6031
G01 X99.7863 Y-64.5999
G00 Z2.0000
G00 X100.1027 Y-64.5122
G01 F10.00
G01 Z-0.0500
G01 F30.00
G01 X100.0744 Y-64.5131
G01 X100.0607 Y-64.5129
G01 X100.0472 Y-64.5120
G01 X100.0269 Y-64.5094
G01 X100.0136 Y-64.5068
G01 X99.9938 Y-64.5018
G01 X99.9808 Y-64.4976
G01 X99.9618 Y-64.4901
G01 X99.9495 Y-64.4843
G01 X99.9375 Y-64.4779
G01 X99.8716 Y-64.4388
G01 X99.8600 Y-64.4316
G01 X99.8435 Y-64.4196
G01 X99.8329 Y-64.4110
G01 X99.8180 Y-64.3971
G01 X99.8086 Y-64.3873
G01 X99.7955 Y-64.3716
G01 X99.7874 Y-64.3607
G01 X99.7798 Y-64.3494
G01 X99.7696 Y-64.3317
G01 X99.7324 Y-64.2570
G01 X99.7244 Y-64.2382
G01 X99.7178 Y-64.2189
G01 X99.7143 Y-64.2057
G01 X99.7102 Y-64.1858
G01 X99.7083 Y-64.1723
G01 X99.7067 Y-64.1519
G01 X99.7065 Y-64.1383
G01 X99.7070 Y-64.1247
G01 X99.7081 Y-64.1112
G01 X99.7124 Y-64.0713
G01 X99.6855 Y-64.1005
G01 X99.6576 Y-64.1263
G01 X99.6474 Y-64.1351
G01 X99.6171 Y-64.1580
G01 X99.6061 Y-64.1657
G01 X99.5737 Y-64.1855
G01 X99.5620 Y-64.1921
G01 X99.5500 Y-64.1982
G01 X99.5155 Y-64.2141
G01 X99.5030 Y-64.2190
G01 X99.4671 Y-64.2314
G01 X99.4304 Y-64.2410
G01 X99.4172 Y-64.2439
G01 X99.3797 Y-64.2498
G01 X99.3664 Y-64.2515
G01 X99.3529 Y-64.2525
G01 X99.3150 Y-64.2540
G01 X98.8400 Y-64.2543
G01 X98.3583 Y-64.2539
G01 X98.3271 Y-64.2525
G01 X98.3136 Y-64.2515
G01 X98.3003 Y-64.2498
G01 X98.2628 Y-64.2439
G01 X98.2258 Y-64.2350
G01 X98.2129 Y-64.2314
G01 X98.2001 Y-64.2272
G01 X98.1676 Y-64.2154
G01 X98.1746 Y-64.2254
G01 X98.1818 Y-64.2370
G01 X98.1915 Y-64.2549
G01 X98.1972 Y-64.2673
G01 X98.2023 Y-64.2799
G01 X98.2088 Y-64.2992
G01 X98.2123 Y-64.3124
G01 X98.2152 Y-64.3257
G01 X98.2276 Y-64.4014
G01 X98.2301 Y-64.4216
G01 X98.2311 Y-64.4420
G01 X98.2306 Y-64.4624
G01 X98.2294 Y-64.4760
G01 X98.2276 Y-64.4894
G01 X98.2235 Y-64.5094
G01 X98.2180 Y-64.5291
G01 X98.2111 Y-64.5483
G01 X98.1806 Y-64.6186
G01 X98.1749 Y-64.6310
G01 X98.1676 Y-64.6446
G01 X98.2001 Y-64.6328
G01 X98.2129 Y-64.6286
G01 X98.2496 Y-64.6190
G01 X98.2628 Y-64.6161
G01 X98.3003 Y-64.6102
G01 X98.3136 Y-64.6085
G01 X98.3271 Y-64.6075
G01 X98.3583 Y-64.6061
G01 X99.3150 Y-64.6060
G01 X99.3529 Y-64.6075
G01 X99.3730 Y-64.6093
G01 X99.4106 Y-64.6148
G01 X99.4304 Y-64.6190
G01 X99.4671 Y-64.6286
G01 X99.5030 Y-64.6410
G01 X99.5217 Y-64.6485
G01 X99.5560 Y-64.6648
G01 X99.5737 Y-64.6745
G01 X99.6061 Y-64.6943
G01 X99.6171 Y-64.7020
G01 X99.6474 Y-64.7249
G01 X99.6758 Y-64.7502
G01 X99.6902 Y-64.7643
G01 X99.7157 Y-64.7924
G01 X99.7283 Y-64.8082
G01 X99.7507 Y-64.8389
G01 X99.7673 Y-64.8659
G01 X99.8866 Y-64.8659
G01 X99.8911 Y-64.8378
G01 X99.9000 Y-64.8008
G01 X99.9056 Y-64.7815
G01 X99.9160 Y-64.7520
G01 X99.9235 Y-64.7333
G01 X99.9398 Y-64.6990
G01 X99.9461 Y-64.6871
G01 X99.9621 Y-64.6602
G01 X99.9731 Y-64.6433
G01 X99.9957 Y-64.6128
G01 X100.0043 Y-64.6024
G01 X100.0298 Y-64.5743
G01 X100.0393 Y-64.5648
G01 X100.0674 Y-64.5393
G01 X100.0778 Y-64.5307
G01 X100.1027 Y-64.5122
G00 Z2.0000
G00 X103.1963 Y-64.6577
G01 F10.00
G01 Z-0.0500
G01 F30.00
G01 X103.2139 Y-64.6871
G01 X103.2202 Y-64.6990
G01 X103.2365 Y-64.7333
G01 X103.2440 Y-64.7520
G01 X103.2544 Y-64.7815
G01 X103.2600 Y-64.8008
G01 X103.2689 Y-64.8378
G01 X103.2734 Y-64.8659
G01 X103.4483 Y-64.8659
G01 X103.4502 Y-64.8503
G01 X103.4561 Y-64.8128
G01 X103.4650 Y-64.7758
G01 X103.4706 Y-64.7565
G01 X103.4834 Y-64.7207
G01 X103.4885 Y-64.7083
G01 X103.5048 Y-64.6740
G01 X103.5163 Y-64.6532
G01 X103.5015 Y-64.6599
G01 X103.4823 Y-64.6670
G01 X103.4693 Y-64.6709
G01 X103.4494 Y-64.6755
G01 X103.4360 Y-64.6778
G01 X103.3601 Y-64.6886
G01 X103.3466 Y-64.6899
G01 X103.3330 Y-64.6905
G01 X103.3193 Y-64.6904
G01 X103.2990 Y-64.6890
G01 X103.2855 Y-64.6872
G01 X103.2655 Y-64.6833
G01 X103.2523 Y-64.6799
G01 X103.2329 Y-64.6735
G01 X103.2202 Y-64.6685
G01 X103.1963 Y-64.6577
G00 Z2.0000
G00 X103.6959 Y-63.4760
G01 F10.00
G01 Z-0.0500
G01 F30.00
G01 X103.6959 Y-63.4331
G01 X103.6579 Y-63.4195
G01 X103.6667 Y-63.4301
G01 X103.6785 Y-63.4463
G01 X103.6890 Y-63.4633
G01 X103.6959 Y-63.4760
G00 Z2.0000
G00 X104.7785 Y-63.4136
G01 F10.00
G01 Z-0.0500
G01 F30.00
G01 X104.7441 Y-63.4259
G01 X104.7441 Y-63.4670
G01 X104.7504 Y-63.4549
G01 X104.7607 Y-63.4378
G01 X104.7683 Y-63.4268
G01 X104.7785 Y-63.4136
G00 Z2.0000
G00 X103.5113 Y-66.1182
G01 F10.00
G01 Z-0.0500
G01 F30.00
G01 X103.5018 Y-66.1000
G01 X103.4859 Y-66.0655
G01 X103.4810 Y-66.0530
G01 X103.4686 Y-66.0171
G01 X103.4590 Y-65.9804
G01 X103.4561 Y-65.9672
G01 X103.4502 Y-65.9297
G01 X103.4483 Y-65.9141
G01 X103.2734 Y-65.9141
G01 X103.2689 Y-65.9422
G01 X103.2600 Y-65.9792
G01 X103.2544 Y-65.9985
G01 X103.2440 Y-66.0280
G01 X103.2365 Y-66.0467
G01 X103.2202 Y-66.0810
G01 X103.2139 Y-66.0929
G01 X103.2002 Y-66.1160
G01 X103.2168 Y-66.1082
G01 X103.2295 Y-66.1032
G01 X103.2489 Y-66.0969
G01 X103.2621 Y-66.0936
G01 X103.2754 Y-66.0908
G01 X103.2889 Y-66.0888
G01 X103.3092 Y-66.0869
G01 X103.3228 Y-66.0866
G01 X103.3432 Y-66.0873
G01 X103.4129 Y-66.0922
G01 X103.4265 Y-66.0936
G01 X103.4401 Y-66.0956
G01 X103.4535 Y-66.0982
G01 X103.4733 Y-66.1035
G01 X103.4927 Y-66.1102
G01 X103.5113 Y-66.1182
G00 Z2.0000
G00 X102.9490 Y-66.3267
G01 F10.00
G01 Z-0.0500
G01 F30.00
G01 X102.9341 Y-66.3321
G01 X102.9341 Y-66.3532
G01 X102.9402 Y-66.3416
G01 X102.9490 Y-66.3267
G00 Z2.0000
G00 X102.9341 Y-71.1111
G01 F10.00
G01 Z-0.0500
G01 F30.00
G01 X102.9341 Y-71.1164
G01 X102.9381 Y-71.1183
G01 X102.9341 Y-71.1111
G00 Z2.0000
G00 X103.0164 Y-72.9524
G01 F10.00
G01 Z-0.0500
G01 F30.00
G01 X102.9967 Y-72.9669
G01 X102.9855 Y-72.9744
G01 X102.9529 Y-72.9939
G01 X102.9341 Y-73.0036
G01 X102.9341 Y-73.1543
G01 X102.9560 Y-73.1648
G01 X102.9679 Y-73.1711
G01 X103.0005 Y-73.1906
G01 X103.0117 Y-73.1981
G01 X103.0211 Y-73.2050
G01 X103.0138 Y-73.1853
G01 X103.0099 Y-73.1726
G01 X103.0067 Y-73.1597
G01 X103.0041 Y-73.1466
G01 X103.0022 Y-73.1335
G01 X103.0009 Y-73.1202
G01 X103.0002 Y-73.1069
G01 X103.0002 Y-73.0937
G01 X103.0008 Y-73.0804
G01 X103.0063 Y-73.0041
G01 X103.0079 Y-72.9911
G01 X103.0101 Y-72.9781
G01 X103.0129 Y-72.9653
G01 X103.0164 Y-72.9524
G00 Z2.0000
G00 X101.8502 Y-74.5680
G01 F10.00
G01 Z-0.0500
G01 F30.00
G01 X101.8546 Y-74.5967
G01 X101.8616 Y-74.6249
G01 X101.8642 Y-74.6335
G01 X101.8741 Y-74.6609
G01 X101.8864 Y-74.6872
G01 X101.8907 Y-74.6951
G01 X101.9057 Y-74.7200
G01 X101.9257 Y-74.7469
G01 X101.9482 Y-74.7718
G01 X101.9697 Y-74.7914
G01 X101.9766 Y-74.7971
G01 X102.0000 Y-74.8143
G01 X102.0249 Y-74.8293
G01 X102.0328 Y-74.8336
G01 X102.0591 Y-74.8459
G01 X102.0865 Y-74.8558
G01 X102.0951 Y-74.8584
G01 X102.1211 Y-74.8649
G01 X102.1277 Y-74.8662
G01 X102.1565 Y-74.8703
G01 X102.1877 Y-74.8719
G01 X102.7150 Y-74.8719
G01 X102.7485 Y-74.8703
G01 X102.7817 Y-74.8654
G01 X102.8143 Y-74.8572
G01 X102.8416 Y-74.8475
G01 X102.8479 Y-74.8450
G01 X102.8722 Y-74.8336
G01 X102.8801 Y-74.8293
G01 X102.9068 Y-74.8130
G01 X102.9284 Y-74.7971
G01 X102.9353 Y-74.7914
G01 X102.9568 Y-74.7718
G01 X102.9793 Y-74.7469
G01 X102.9993 Y-74.7200
G01 X103.0166 Y-74.6912
G01 X103.0309 Y-74.6609
G01 X103.0422 Y-74.6293
G01 X103.0504 Y-74.5967
G01 X103.0553 Y-74.5635
G01 X103.0569 Y-74.5300
G01 X103.0569 Y-73.6300
G01 X103.0553 Y-73.5965
G01 X103.0512 Y-73.5677
G01 X103.0494 Y-73.5589
G01 X103.0422 Y-73.5307
G01 X103.0318 Y-73.5012
G01 X103.0186 Y-73.4728
G01 X103.0143 Y-73.4649
G01 X102.9993 Y-73.4400
G01 X102.9793 Y-73.4131
G01 X102.9568 Y-73.3882
G01 X102.9353 Y-73.3686
G01 X102.9302 Y-73.3643
G01 X102.9087 Y-73.3483
G01 X102.9012 Y-73.3433
G01 X102.8762 Y-73.3284
G01 X102.8459 Y-73.3141
G01 X102.8185 Y-73.3042
G01 X102.8099 Y-73.3016
G01 X102.7817 Y-73.2946
G01 X102.7521 Y-73.2901
G01 X102.7521 Y-72.8727
G01 X102.7689 Y-72.8699
G01 X102.8014 Y-72.8615
G01 X102.8309 Y-72.8509
G01 X102.8632 Y-72.8355
G01 X102.8900 Y-72.8193
G01 X102.9169 Y-72.7993
G01 X102.9418 Y-72.7768
G01 X102.9629 Y-72.7537
G01 X102.9843 Y-72.7250
G01 X102.9993 Y-72.7001
G01 X103.0036 Y-72.6922
G01 X103.0150 Y-72.6679
G01 X103.0175 Y-72.6616
G01 X103.0272 Y-72.6343
G01 X103.0354 Y-72.6017
G01 X103.0403 Y-72.5685
G01 X103.0419 Y-72.5350
G01 X103.0419 Y-71.5850
G01 X103.0403 Y-71.5515
G01 X103.0349 Y-71.5161
G01 X103.0272 Y-71.4857
G01 X103.0175 Y-71.4584
G01 X103.0141 Y-71.4500
G01 X103.0016 Y-71.4238
G01 X102.9843 Y-71.3950
G01 X102.9671 Y-71.3716
G01 X102.9614 Y-71.3647
G01 X102.9402 Y-71.3416
G01 X102.9169 Y-71.3207
G01 X102.8937 Y-71.3033
G01 X102.8862 Y-71.2983
G01 X102.8592 Y-71.2824
G01 X102.8309 Y-71.2691
G01 X102.8014 Y-71.2585
G01 X102.7689 Y-71.2501
G01 X102.7521 Y-71.2473
G01 X102.7521 Y-66.1819
G01 X102.7885 Y-66.1803
G01 X102.8217 Y-66.1754
G01 X102.8543 Y-66.1672
G01 X102.8816 Y-66.1575
G01 X102.8900 Y-66.1541
G01 X102.9142 Y-66.1426
G01 X102.9201 Y-66.1393
G01 X102.9450 Y-66.1243
G01 X102.9684 Y-66.1071
G01 X102.9753 Y-66.1014
G01 X102.9968 Y-66.0818
G01 X103.0207 Y-66.0552
G01 X103.0393 Y-66.0300
G01 X103.0543 Y-66.0051
G01 X103.0586 Y-65.9972
G01 X103.0709 Y-65.9709
G01 X103.0808 Y-65.9435
G01 X103.0834 Y-65.9349
G01 X103.0899 Y-65.9089
G01 X103.0953 Y-65.8735
G01 X103.0968 Y-65.8445
G01 X103.0969 Y-65.7321
G01 X103.6281 Y-65.7321
G01 X103.6281 Y-65.8673
G01 X103.6294 Y-65.8940
G01 X103.6302 Y-65.9030
G01 X103.6346 Y-65.9317
G01 X103.6435 Y-65.9664
G01 X103.6541 Y-65.9959
G01 X103.6664 Y-66.0222
G01 X103.6707 Y-66.0301
G01 X103.6857 Y-66.0550
G01 X103.7029 Y-66.0784
G01 X103.7071 Y-66.0837
G01 X103.7251 Y-66.1035
G01 X103.7315 Y-66.1099
G01 X103.7513 Y-66.1279
G01 X103.7763 Y-66.1467
G01 X103.7838 Y-66.1517
G01 X103.8088 Y-66.1666
G01 X103.8391 Y-66.1809
G01 X103.8707 Y-66.1922
G01 X103.9033 Y-66.2004
G01 X103.9365 Y-66.2053
G01 X103.9700 Y-66.2069
G01 X104.4700 Y-66.2069
G01 X104.5035 Y-66.2053
G01 X104.5345 Y-66.2008
G01 X104.5693 Y-66.1922
G01 X104.6009 Y-66.1809
G01 X104.6312 Y-66.1666
G01 X104.6600 Y-66.1493
G01 X104.6869 Y-66.1293
G01 X104.7118 Y-66.1068
G01 X104.7343 Y-66.0819
G01 X104.7530 Y-66.0568
G01 X104.7693 Y-66.0301
G01 X104.7736 Y-66.0222
G01 X104.7859 Y-65.9959
G01 X104.7972 Y-65.9643
G01 X104.8044 Y-65.9361
G01 X104.8062 Y-65.9273
G01 X104.8103 Y-65.8985
G01 X104.8118 Y-65.8695
G01 X104.8119 Y-64.9150
G01 X104.8105 Y-64.8837
G01 X104.8062 Y-64.8527
G01 X104.8044 Y-64.8439
G01 X104.7972 Y-64.8157
G01 X104.7859 Y-64.7841
G01 X104.7736 Y-64.7578
G01 X104.7693 Y-64.7499
G01 X104.7543 Y-64.7250
G01 X104.7343 Y-64.6981
G01 X104.7118 Y-64.6732
G01 X104.6903 Y-64.6536
G01 X104.6834 Y-64.6479
G01 X104.6600 Y-64.6307
G01 X104.6312 Y-64.6134
G01 X104.6029 Y-64.6000
G01 X104.5735 Y-64.5892
G01 X104.5621 Y-64.5859
G01 X104.5621 Y-63.2937
G01 X104.6017 Y-63.2835
G01 X104.7214 Y-63.2406
G01 X104.8446 Y-63.1824
G01 X104.9555 Y-63.1158
G01 X105.0578 Y-63.0401
G01 X105.0647 Y-63.0344
G01 X105.1605 Y-62.9473
G01 X105.2473 Y-62.8513
G01 X105.3232 Y-62.7492
G01 X105.3282 Y-62.7417
G01 X105.3935 Y-62.6326
G01 X105.4480 Y-62.5177
G01 X105.4514 Y-62.5093
G01 X105.4942 Y-62.3895
G01 X105.5262 Y-62.2618
G01 X105.5455 Y-62.1315
G01 X105.5519 Y-62.0000
G01 X105.5455 Y-61.8685
G01 X105.5262 Y-61.7382
G01 X105.4942 Y-61.6105
G01 X105.4498 Y-61.4865
G01 X105.3935 Y-61.3674
G01 X105.3258 Y-61.2545
G01 X105.2473 Y-61.1487
G01 X105.1589 Y-61.0511
G01 X105.0613 Y-60.9627
G01 X104.9555 Y-60.8842
G01 X104.8426 Y-60.8165
G01 X104.7235 Y-60.7602
G01 X104.5995 Y-60.7158
G01 X104.4718 Y-60.6838
G01 X104.3415 Y-60.6645
G01 X104.2100 Y-60.6581
G01 X104.0785 Y-60.6645
G01 X103.9482 Y-60.6838
G01 X103.8205 Y-60.7158
G01 X103.6965 Y-60.7602
G01 X103.5774 Y-60.8165
G01 X103.4645 Y-60.8842
G01 X103.3587 Y-60.9627
G01 X103.2611 Y-61.0511
G01 X103.1727 Y-61.1487
G01 X103.0942 Y-61.2545
G01 X103.0265 Y-61.3674
G01 X102.9702 Y-61.4865
G01 X102.9258 Y-61.6105
G01 X102.8938 Y-61.7382
G01 X102.8745 Y-61.8685
G01 X102.8681 Y-62.0000
G01 X102.8745 Y-62.1315
G01 X102.8938 Y-62.2618
G01 X102.9258 Y-62.3895
G01 X102.9702 Y-62.5135
G01 X103.0265 Y-62.6326
G01 X103.0930 Y-62.7437
G01 X103.1727 Y-62.8513
G01 X103.2611 Y-62.9489
G01 X103.3587 Y-63.0373
G01 X103.4626 Y-63.1145
G01 X103.5774 Y-63.1835
G01 X103.6944 Y-63.2389
G01 X103.8183 Y-63.2835
G01 X103.8779 Y-63.2987
G01 X103.8779 Y-64.5859
G01 X103.8686 Y-64.5885
G01 X103.8412 Y-64.5982
G01 X103.8088 Y-64.6134
G01 X103.7800 Y-64.6307
G01 X103.7531 Y-64.6507
G01 X103.7282 Y-64.6732
G01 X103.7057 Y-64.6981
G01 X103.6857 Y-64.7250
G01 X103.6684 Y-64.7538
G01 X103.6541 Y-64.7841
G01 X103.6428 Y-64.8157
G01 X103.6346 Y-64.8483
G01 X103.6302 Y-64.8770
G01 X103.6294 Y-64.8860
G01 X103.6281 Y-64.9127
G01 X103.6281 Y-65.0479
G01 X103.0969 Y-65.0479
G01 X103.0968 Y-64.9355
G01 X103.0953 Y-64.9065
G01 X103.0904 Y-64.8733
G01 X103.0822 Y-64.8407
G01 X103.0709 Y-64.8091
G01 X103.0566 Y-64.7788
G01 X103.0380 Y-64.7482
G01 X103.0193 Y-64.7231
G01 X102.9999 Y-64.7015
G01 X102.9935 Y-64.6951
G01 X102.9737 Y-64.6771
G01 X102.9684 Y-64.6729
G01 X102.9450 Y-64.6557
G01 X102.9201 Y-64.6407
G01 X102.9122 Y-64.6364
G01 X102.8859 Y-64.6241
G01 X102.8543 Y-64.6128
G01 X102.8217 Y-64.6046
G01 X102.7885 Y-64.5997
G01 X102.7550 Y-64.5981
G01 X102.2277 Y-64.5981
G01 X102.1965 Y-64.5997
G01 X102.1677 Y-64.6038
G01 X102.1589 Y-64.6056
G01 X102.1307 Y-64.6128
G01 X102.1034 Y-64.6225
G01 X102.0950 Y-64.6259
G01 X102.0688 Y-64.6384
G01 X102.0400 Y-64.6557
G01 X102.0166 Y-64.6729
G01 X102.0097 Y-64.6786
G01 X101.9882 Y-64.6982
G01 X101.9686 Y-64.7197
G01 X101.9629 Y-64.7266
G01 X101.9457 Y-64.7500
G01 X101.9307 Y-64.7749
G01 X101.9264 Y-64.7828
G01 X101.9141 Y-64.8091
G01 X101.9042 Y-64.8365
G01 X101.9016 Y-64.8451
G01 X101.8946 Y-64.8733
G01 X101.8897 Y-64.9065
G01 X101.8881 Y-64.9400
G01 X101.8881 Y-65.8400
G01 X101.8894 Y-65.8690
G01 X101.8902 Y-65.8780
G01 X101.8942 Y-65.9045
G01 X101.8956 Y-65.9111
G01 X101.9028 Y-65.9393
G01 X101.9125 Y-65.9666
G01 X101.9159 Y-65.9750
G01 X101.9284 Y-66.0012
G01 X101.9457 Y-66.0300
G01 X101.9657 Y-66.0569
G01 X101.9851 Y-66.0785
G01 X101.9915 Y-66.0849
G01 X102.0131 Y-66.1043
G01 X102.0363 Y-66.1217
G01 X102.0438 Y-66.1267
G01 X102.0679 Y-66.1411
G01 X102.0679 Y-71.2696
G01 X102.0428 Y-71.2814
G01 X102.0349 Y-71.2857
G01 X102.0100 Y-71.3007
G01 X101.9866 Y-71.3179
G01 X101.9797 Y-71.3236
G01 X101.9582 Y-71.3432
G01 X101.9357 Y-71.3681
G01 X101.9183 Y-71.3913
G01 X101.9133 Y-71.3988
G01 X101.8984 Y-71.4238
G01 X101.8859 Y-71.4500
G01 X101.8825 Y-71.4584
G01 X101.8728 Y-71.4857
G01 X101.8642 Y-71.5205
G01 X101.8597 Y-71.5515
G01 X101.8581 Y-71.5850
G01 X101.8581 Y-72.5373
G01 X101.8597 Y-72.5685
G01 X101.8638 Y-72.5973
G01 X101.8656 Y-72.6061
G01 X101.8728 Y-72.6343
G01 X101.8825 Y-72.6616
G01 X101.8859 Y-72.6700
G01 X101.8984 Y-72.6962
G01 X101.9157 Y-72.7250
G01 X101.9329 Y-72.7484
G01 X101.9386 Y-72.7553
G01 X101.9582 Y-72.7768
G01 X101.9831 Y-72.7993
G01 X102.0063 Y-72.8167
G01 X102.0138 Y-72.8217
G01 X102.0388 Y-72.8366
G01 X102.0679 Y-72.8504
G01 X102.0679 Y-73.3108
G01 X102.0571 Y-73.3150
G01 X102.0308 Y-73.3274
G01 X101.9982 Y-73.3470
G01 X101.9731 Y-73.3657
G01 X101.9515 Y-73.3851
G01 X101.9451 Y-73.3915
G01 X101.9257 Y-73.4131
G01 X101.9083 Y-73.4363
G01 X101.9033 Y-73.4438
G01 X101.8884 Y-73.4688
G01 X101.8759 Y-73.4950
G01 X101.8725 Y-73.5034
G01 X101.8628 Y-73.5307
G01 X101.8542 Y-73.5655
G01 X101.8497 Y-73.5965
G01 X101.8481 Y-73.6300
G01 X101.8481 Y-74.5300
G01 X101.8494 Y-74.5590
G01 X101.8502 Y-74.5680
G00 Z2.0000
G00 X99.8557 Y-74.6521
G01 F10.00
G01 Z-0.0500
G01 F30.00
G01 X99.8511 Y-74.6322
G01 X99.8466 Y-74.6041
G01 X99.7870 Y-74.6041
G01 X99.8045 Y-74.6135
G01 X99.8213 Y-74.6241
G01 X99.8373 Y-74.6360
G01 X99.8475 Y-74.6445
G01 X99.8557 Y-74.6521
G00 Z2.0000
G00 X87.5600 Y-73.1869
G01 F10.00
G01 Z-0.0500
G01 F30.00
G01 X88.5668 Y-73.1867
G01 X88.5801 Y-73.1847
G01 X88.5888 Y-73.1823
G01 X88.5952 Y-73.1800
G01 X88.6073 Y-73.1739
G01 X88.6148 Y-73.1689
G01 X88.6201 Y-73.1646
G01 X88.6296 Y-73.1551
G01 X88.6339 Y-73.1498
G01 X88.6389 Y-73.1423
G01 X88.6421 Y-73.1363
G01 X88.6458 Y-73.1281
G01 X88.6497 Y-73.1151
G01 X88.6515 Y-73.1040
G01 X88.6519 Y-73.0950
G01 X88.6522 Y-72.5700
G01 X88.6519 Y-69.9250
G01 X88.6505 Y-69.8937
G01 X88.6462 Y-69.8627
G01 X88.6444 Y-69.8539
G01 X88.6372 Y-69.8257
G01 X88.6259 Y-69.7941
G01 X88.6116 Y-69.7638
G01 X88.5967 Y-69.7388
G01 X88.5917 Y-69.7313
G01 X88.5757 Y-69.7098
G01 X88.5714 Y-69.7047
G01 X88.5518 Y-69.6832
G01 X88.5269 Y-69.6607
G01 X88.5000 Y-69.6407
G01 X88.4751 Y-69.6257
G01 X88.4672 Y-69.6214
G01 X88.4429 Y-69.6100
G01 X88.4366 Y-69.6075
G01 X88.4093 Y-69.5978
G01 X88.3789 Y-69.5901
G01 X88.3435 Y-69.5847
G01 X88.3123 Y-69.5831
G01 X87.8100 Y-69.5831
G01 X87.7810 Y-69.5844
G01 X87.7720 Y-69.5852
G01 X87.7433 Y-69.5896
G01 X87.7107 Y-69.5978
G01 X87.6834 Y-69.6075
G01 X87.6750 Y-69.6109
G01 X87.6488 Y-69.6234
G01 X87.6238 Y-69.6383
G01 X87.6163 Y-69.6433
G01 X87.5931 Y-69.6607
G01 X87.5715 Y-69.6801
G01 X87.5651 Y-69.6865
G01 X87.5457 Y-69.7081
G01 X87.5283 Y-69.7313
G01 X87.5233 Y-69.7388
G01 X87.5084 Y-69.7638
G01 X87.4959 Y-69.7900
G01 X87.4925 Y-69.7984
G01 X87.4828 Y-69.8257
G01 X87.4751 Y-69.8561
G01 X87.4697 Y-69.8915
G01 X87.4681 Y-69.9250
G01 X87.4678 Y-72.5700
G01 X87.4681 Y-73.0973
G01 X87.4687 Y-73.1063
G01 X87.4698 Y-73.1129
G01 X87.4720 Y-73.1217
G01 X87.4750 Y-73.1302
G01 X87.4789 Y-73.1383
G01 X87.4835 Y-73.1461
G01 X87.4889 Y-73.1533
G01 X87.4950 Y-73.1600
G01 X87.5017 Y-73.1661
G01 X87.5089 Y-73.1715
G01 X87.5167 Y-73.1761
G01 X87.5248 Y-73.1800
G01 X87.5333 Y-73.1830
G01 X87.5421 Y-73.1852
G01 X87.5510 Y-73.1865
G01 X87.5600 Y-73.1869
G00 Z2.0000
G00 X87.1514 Y-72.9129
G01 F10.00
G01 Z-0.0500
G01 F30.00
G01 X87.1611 Y-72.9185
G01 X87.1701 Y-72.9254
G01 X87.1781 Y-72.9333
G01 X87.1852 Y-72.9421
G01 X87.1911 Y-72.9517
G01 X87.1958 Y-72.9619
G01 X87.1992 Y-72.9727
G01 X87.2013 Y-72.9837
G01 X87.2019 Y-72.9950
G01 X87.2019 Y-73.2984
G01 X87.2681 Y-73.3869
G01 X87.3622 Y-73.4573
G01 X87.4738 Y-73.4989
G01 X87.5171 Y-73.5036
G01 X88.6029 Y-73.5035
G01 X88.6462 Y-73.4989
G01 X88.7578 Y-73.4573
G01 X88.8519 Y-73.3869
G01 X88.9181 Y-73.2984
G01 X88.9181 Y-72.9950
G01 X88.9187 Y-72.9837
G01 X88.9208 Y-72.9727
G01 X88.9242 Y-72.9619
G01 X88.9289 Y-72.9517
G01 X88.9348 Y-72.9421
G01 X88.9419 Y-72.9333
G01 X88.9499 Y-72.9254
G01 X88.9589 Y-72.9185
G01 X88.9686 Y-72.9129
G01 X88.9686 Y-71.5762
G01 X88.9695 Y-71.5653
G01 X88.9717 Y-71.5545
G01 X88.9934 Y-71.4810
G01 X88.9978 Y-71.4705
G01 X89.0022 Y-71.4626
G01 X89.0074 Y-71.4551
G01 X89.0134 Y-71.4481
G01 X89.0200 Y-71.4418
G01 X89.0745 Y-71.3946
G01 X89.0838 Y-71.3879
G01 X89.0897 Y-71.3844
G01 X89.0958 Y-71.3814
G01 X89.1022 Y-71.3789
G01 X89.1087 Y-71.3769
G01 X89.1199 Y-71.3745
G01 X89.1913 Y-71.3643
G01 X89.2003 Y-71.3637
G01 X89.2093 Y-71.3639
G01 X89.2205 Y-71.3655
G01 X89.2314 Y-71.3684
G01 X89.2809 Y-71.3864
G01 X89.2917 Y-71.3911
G01 X89.2979 Y-71.3945
G01 X89.4298 Y-71.4759
G01 X89.5766 Y-71.5245
G01 X89.6647 Y-71.5336
G01 X90.2553 Y-71.5335
G01 X90.3434 Y-71.5245
G01 X90.4902 Y-71.4759
G01 X90.5678 Y-71.4281
G01 X90.5756 Y-71.4240
G01 X90.5837 Y-71.4207
G01 X90.6618 Y-71.3992
G01 X90.6685 Y-71.3980
G01 X90.6776 Y-71.3972
G01 X90.6844 Y-71.3971
G01 X90.6935 Y-71.3979
G01 X90.7003 Y-71.3990
G01 X90.7070 Y-71.4006
G01 X90.7801 Y-71.4237
G01 X90.7865 Y-71.4263
G01 X90.7926 Y-71.4294
G01 X90.7985 Y-71.4329
G01 X90.8058 Y-71.4383
G01 X90.8110 Y-71.4427
G01 X90.8174 Y-71.4493
G01 X90.8678 Y-71.5101
G01 X90.8739 Y-71.5198
G01 X90.8778 Y-71.5280
G01 X90.8816 Y-71.5388
G01 X90.8840 Y-71.5499
G01 X90.8935 Y-71.6283
G01 X90.8936 Y-71.6352
G01 X90.8932 Y-71.6420
G01 X90.8923 Y-71.6488
G01 X90.8902 Y-71.6577
G01 X90.8725 Y-71.7075
G01 X90.8683 Y-71.7173
G01 X90.8158 Y-71.8064
G01 X90.7758 Y-71.9440
G01 X90.7739 Y-71.9679
G01 X90.7739 Y-72.3921
G01 X90.7758 Y-72.4160
G01 X90.8158 Y-72.5536
G01 X90.8877 Y-72.6751
G01 X90.9874 Y-72.7748
G01 X91.1089 Y-72.8467
G01 X91.2465 Y-72.8867
G01 X91.2704 Y-72.8886
G01 X92.4352 Y-72.8886
G01 X92.4482 Y-72.8898
G01 X92.4589 Y-72.8923
G01 X92.5281 Y-72.9126
G01 X92.5367 Y-72.9158
G01 X92.5428 Y-72.9188
G01 X92.5488 Y-72.9222
G01 X92.5545 Y-72.9261
G01 X92.5598 Y-72.9303
G01 X92.5665 Y-72.9366
G01 X92.6168 Y-72.9945
G01 X92.6235 Y-73.0038
G01 X92.6280 Y-73.0118
G01 X92.6317 Y-73.0202
G01 X92.6351 Y-73.0312
G01 X92.6473 Y-73.0871
G01 X92.6488 Y-73.1001
G01 X92.6489 Y-73.3421
G01 X92.6508 Y-73.3660
G01 X92.6908 Y-73.5036
G01 X92.7627 Y-73.6251
G01 X92.8624 Y-73.7248
G01 X92.9839 Y-73.7967
G01 X93.1215 Y-73.8367
G01 X93.1454 Y-73.8386
G01 X94.4446 Y-73.8386
G01 X94.4685 Y-73.8367
G01 X94.6088 Y-73.7960
G01 X94.6173 Y-73.7944
G01 X94.6583 Y-73.7888
G01 X95.1502 Y-73.7886
G01 X95.1610 Y-73.7892
G01 X95.2041 Y-73.7955
G01 X95.3465 Y-73.8367
G01 X95.3704 Y-73.8386
G01 X96.5330 Y-73.8386
G01 X96.5417 Y-73.8390
G01 X96.5504 Y-73.8402
G01 X96.5589 Y-73.8423
G01 X96.6303 Y-73.8634
G01 X96.6367 Y-73.8658
G01 X96.6428 Y-73.8688
G01 X96.6488 Y-73.8722
G01 X96.6545 Y-73.8761
G01 X96.6615 Y-73.8818
G01 X96.6680 Y-73.8883
G01 X96.7168 Y-73.9445
G01 X96.7222 Y-73.9519
G01 X96.7259 Y-73.9578
G01 X96.7290 Y-73.9639
G01 X96.7317 Y-73.9702
G01 X96.7351 Y-73.9812
G01 X96.7468 Y-74.0350
G01 X96.7483 Y-74.0436
G01 X96.7488 Y-74.0501
G01 X96.7489 Y-74.2921
G01 X96.7508 Y-74.3160
G01 X96.7908 Y-74.4536
G01 X96.8627 Y-74.5751
G01 X96.9624 Y-74.6748
G01 X97.0839 Y-74.7467
G01 X97.2215 Y-74.7867
G01 X97.2454 Y-74.7886
G01 X98.5446 Y-74.7886
G01 X98.5685 Y-74.7867
G01 X98.7088 Y-74.7460
G01 X98.7173 Y-74.7444
G01 X98.7519 Y-74.7395
G01 X98.7605 Y-74.7387
G01 X99.5994 Y-74.7386
G01 X99.6124 Y-74.7395
G01 X99.6253 Y-74.7423
G01 X99.6986 Y-74.7641
G01 X99.7068 Y-74.7676
G01 X99.7146 Y-74.7719
G01 X99.7220 Y-74.7769
G01 X99.7288 Y-74.7827
G01 X99.7721 Y-74.8266
G01 X99.7794 Y-74.8354
G01 X99.8449 Y-74.9412
G01 X99.9538 Y-75.0501
G01 X100.0848 Y-75.1309
G01 X100.2316 Y-75.1795
G01 X100.3197 Y-75.1886
G01 X100.9353 Y-75.1885
G01 X101.0234 Y-75.1795
G01 X101.1702 Y-75.1309
G01 X101.3012 Y-75.0501
G01 X101.3889 Y-74.9625
G01 X101.3938 Y-74.9581
G01 X101.4008 Y-74.9529
G01 X101.4083 Y-74.9483
G01 X101.4757 Y-74.9118
G01 X101.4842 Y-74.9085
G01 X101.4930 Y-74.9060
G01 X101.5020 Y-74.9044
G01 X101.5088 Y-74.9037
G01 X101.5202 Y-74.9038
G01 X101.5967 Y-74.9096
G01 X101.6035 Y-74.9108
G01 X101.6124 Y-74.9133
G01 X101.6209 Y-74.9166
G01 X101.6291 Y-74.9208
G01 X101.6774 Y-74.9517
G01 X101.6879 Y-74.9596
G01 X101.7788 Y-75.0501
G01 X101.9098 Y-75.1309
G01 X102.0566 Y-75.1795
G01 X102.1447 Y-75.1886
G01 X102.7603 Y-75.1885
G01 X102.8484 Y-75.1795
G01 X102.9952 Y-75.1309
G01 X103.1262 Y-75.0501
G01 X103.2351 Y-74.9412
G01 X103.3159 Y-74.8102
G01 X103.3645 Y-74.6634
G01 X103.3736 Y-74.5753
G01 X103.3735 Y-73.5847
G01 X103.3645 Y-73.4966
G01 X103.3159 Y-73.3498
G01 X103.2188 Y-73.1920
G01 X103.1929 Y-73.1429
G01 X103.1891 Y-73.1348
G01 X103.1861 Y-73.1264
G01 X103.1839 Y-73.1178
G01 X103.1826 Y-73.1090
G01 X103.1822 Y-73.1000
G01 X103.1876 Y-73.0215
G01 X103.1898 Y-73.0084
G01 X103.1930 Y-72.9979
G01 X103.1965 Y-72.9898
G01 X103.2103 Y-72.9621
G01 X103.3009 Y-72.8152
G01 X103.3495 Y-72.6684
G01 X103.3586 Y-72.5803
G01 X103.3585 Y-71.5397
G01 X103.3495 Y-71.4516
G01 X103.3009 Y-71.3048
G01 X103.2201 Y-71.1738
G01 X103.1318 Y-71.0855
G01 X103.1259 Y-71.0790
G01 X103.1219 Y-71.0738
G01 X103.1161 Y-71.0645
G01 X103.0816 Y-71.0012
G01 X103.0770 Y-70.9909
G01 X103.0733 Y-70.9779
G01 X103.0722 Y-70.9712
G01 X103.0691 Y-70.9426
G01 X103.0686 Y-70.9328
G01 X103.0686 Y-70.1142
G01 X103.0433 Y-70.1104
G01 X103.0107 Y-70.1022
G01 X102.9791 Y-70.0909
G01 X102.9488 Y-70.0766
G01 X102.9200 Y-70.0593
G01 X102.8931 Y-70.0393
G01 X102.8682 Y-70.0168
G01 X102.8486 Y-69.9953
G01 X102.8429 Y-69.9884
G01 X102.8270 Y-69.9668
G01 X102.8107 Y-69.9401
G01 X102.8064 Y-69.9322
G01 X102.7950 Y-69.9079
G01 X102.7925 Y-69.9016
G01 X102.7828 Y-69.8743
G01 X102.7746 Y-69.8417
G01 X102.7697 Y-69.8085
G01 X102.7681 Y-69.7750
G01 X102.7681 Y-68.8250
G01 X102.7697 Y-68.7915
G01 X102.7751 Y-68.7561
G01 X102.7828 Y-68.7257
G01 X102.7925 Y-68.6984
G01 X102.7959 Y-68.6900
G01 X102.8084 Y-68.6638
G01 X102.8257 Y-68.6350
G01 X102.8429 Y-68.6116
G01 X102.8486 Y-68.6047
G01 X102.8666 Y-68.5848
G01 X102.8715 Y-68.5801
G01 X102.8931 Y-68.5607
G01 X102.9182 Y-68.5420
G01 X102.9449 Y-68.5257
G01 X102.9528 Y-68.5214
G01 X102.9791 Y-68.5091
G01 X103.0107 Y-68.4978
G01 X103.0433 Y-68.4896
G01 X103.0685 Y-68.4858
G01 X103.0686 Y-66.5409
G01 X103.0688 Y-66.5343
G01 X103.0698 Y-66.5256
G01 X103.0723 Y-66.5150
G01 X103.0941 Y-66.4416
G01 X103.0986 Y-66.4314
G01 X103.1031 Y-66.4237
G01 X103.1083 Y-66.4165
G01 X103.1142 Y-66.4098
G01 X103.1566 Y-66.3681
G01 X103.1655 Y-66.3609
G01 X103.1989 Y-66.3275
G01 X103.2055 Y-66.3218
G01 X103.2108 Y-66.3179
G01 X103.2183 Y-66.3133
G01 X103.2796 Y-66.2799
G01 X103.2878 Y-66.2759
G01 X103.2964 Y-66.2728
G01 X103.3052 Y-66.2705
G01 X103.3142 Y-66.2691
G01 X103.3234 Y-66.2686
G01 X103.4045 Y-66.2743
G01 X103.4113 Y-66.2754
G01 X103.4180 Y-66.2770
G01 X103.4267 Y-66.2799
G01 X103.4330 Y-66.2826
G01 X103.4430 Y-66.2882
G01 X103.4874 Y-66.3167
G01 X103.4962 Y-66.3231
G01 X103.5027 Y-66.3290
G01 X103.5588 Y-66.3851
G01 X103.6898 Y-66.4659
G01 X103.8366 Y-66.5145
G01 X103.9247 Y-66.5236
G01 X104.5153 Y-66.5235
G01 X104.6034 Y-66.5145
G01 X104.7502 Y-66.4659
G01 X104.8812 Y-66.3851
G01 X104.9901 Y-66.2762
G01 X105.0709 Y-66.1452
G01 X105.1195 Y-65.9984
G01 X105.1286 Y-65.9103
G01 X105.1285 Y-64.8697
G01 X105.1195 Y-64.7816
G01 X105.0709 Y-64.6348
G01 X104.9901 Y-64.5038
G01 X104.9403 Y-64.4539
G01 X104.9345 Y-64.4473
G01 X104.9295 Y-64.4402
G01 X104.8916 Y-64.3712
G01 X104.8863 Y-64.3587
G01 X104.8833 Y-64.3479
G01 X104.8822 Y-64.3412
G01 X104.8791 Y-64.3126
G01 X104.8785 Y-64.3028
G01 X104.8785 Y-63.6546
G01 X104.8790 Y-63.6458
G01 X104.8802 Y-63.6372
G01 X104.8817 Y-63.6308
G01 X104.9041 Y-63.5553
G01 X104.9087 Y-63.5450
G01 X104.9132 Y-63.5373
G01 X104.9184 Y-63.5300
G01 X104.9244 Y-63.5233
G01 X104.9798 Y-63.4740
G01 X104.9889 Y-63.4669
G01 X104.9987 Y-63.4610
G01 X105.0416 Y-63.4404
G01 X105.2470 Y-63.3003
G01 X105.4292 Y-63.1313
G01 X105.5842 Y-62.9369
G01 X105.7085 Y-62.7216
G01 X105.7993 Y-62.4902
G01 X105.8546 Y-62.2479
G01 X105.8732 Y-62.0000
G01 X105.8546 Y-61.7521
G01 X105.7993 Y-61.5098
G01 X105.7085 Y-61.2784
G01 X105.5842 Y-61.0631
G01 X105.4292 Y-60.8687
G01 X105.2470 Y-60.6997
G01 X105.0416 Y-60.5596
G01 X104.8176 Y-60.4518
G01 X104.5801 Y-60.3785
G01 X104.3343 Y-60.3414
G01 X104.0857 Y-60.3414
G01 X103.8399 Y-60.3785
G01 X103.6024 Y-60.4518
G01 X103.3784 Y-60.5596
G01 X103.1730 Y-60.6997
G01 X102.9908 Y-60.8687
G01 X102.8358 Y-61.0631
G01 X102.7115 Y-61.2784
G01 X102.6207 Y-61.5098
G01 X102.5654 Y-61.7521
G01 X102.5468 Y-62.0000
G01 X102.5654 Y-62.2479
G01 X102.6207 Y-62.4902
G01 X102.7115 Y-62.7216
G01 X102.8358 Y-62.9369
G01 X102.9908 Y-63.1313
G01 X103.1730 Y-63.3003
G01 X103.3784 Y-63.4404
G01 X103.4412 Y-63.4706
G01 X103.4524 Y-63.4774
G01 X103.4609 Y-63.4842
G01 X103.5160 Y-63.5342
G01 X103.5221 Y-63.5408
G01 X103.5262 Y-63.5461
G01 X103.5310 Y-63.5537
G01 X103.5351 Y-63.5617
G01 X103.5396 Y-63.5743
G01 X103.5586 Y-63.6414
G01 X103.5607 Y-63.6527
G01 X103.5614 Y-63.6619
G01 X103.5614 Y-64.2938
G01 X103.5608 Y-64.3047
G01 X103.5583 Y-64.3176
G01 X103.5380 Y-64.3867
G01 X103.5350 Y-64.3953
G01 X103.5312 Y-64.4036
G01 X103.5253 Y-64.4134
G01 X103.5197 Y-64.4206
G01 X103.5134 Y-64.4272
G01 X103.4555 Y-64.4775
G01 X103.4482 Y-64.4830
G01 X103.4403 Y-64.4877
G01 X103.4321 Y-64.4916
G01 X103.4256 Y-64.4939
G01 X103.4191 Y-64.4958
G01 X103.4124 Y-64.4972
G01 X103.3387 Y-64.5078
G01 X103.3296 Y-64.5084
G01 X103.3204 Y-64.5082
G01 X103.3136 Y-64.5074
G01 X103.3069 Y-64.5060
G01 X103.3003 Y-64.5042
G01 X103.2939 Y-64.5019
G01 X103.2261 Y-64.4711
G01 X103.2180 Y-64.4669
G01 X103.2104 Y-64.4620
G01 X103.2033 Y-64.4563
G01 X103.1928 Y-64.4465
G01 X103.1662 Y-64.4199
G01 X103.0352 Y-64.3391
G01 X102.8884 Y-64.2905
G01 X102.8003 Y-64.2814
G01 X102.1847 Y-64.2814
G01 X102.0966 Y-64.2905
G01 X101.9498 Y-64.3391
G01 X101.8188 Y-64.4199
G01 X101.7311 Y-64.5075
G01 X101.7245 Y-64.5132
G01 X101.7174 Y-64.5183
G01 X101.6504 Y-64.5551
G01 X101.6422 Y-64.5591
G01 X101.6336 Y-64.5622
G01 X101.6248 Y-64.5645
G01 X101.6158 Y-64.5659
G01 X101.6044 Y-64.5664
G01 X101.5233 Y-64.5604
G01 X101.5142 Y-64.5586
G01 X101.5076 Y-64.5567
G01 X101.5012 Y-64.5543
G01 X101.4949 Y-64.5514
G01 X101.4870 Y-64.5468
G01 X101.4426 Y-64.5183
G01 X101.4321 Y-64.5104
G01 X101.3412 Y-64.4199
G01 X101.2102 Y-64.3391
G01 X101.0634 Y-64.2905
G01 X100.9753 Y-64.2814
G01 X100.3597 Y-64.2814
G01 X100.2716 Y-64.2905
G01 X100.1705 Y-64.3239
G01 X100.1578 Y-64.3272
G01 X100.1447 Y-64.3286
G01 X100.0680 Y-64.3309
G01 X100.0590 Y-64.3301
G01 X100.0500 Y-64.3284
G01 X100.0412 Y-64.3258
G01 X100.0328 Y-64.3224
G01 X100.0247 Y-64.3181
G01 X99.9647 Y-64.2823
G01 X99.9589 Y-64.2786
G01 X99.9535 Y-64.2745
G01 X99.9451 Y-64.2667
G01 X99.9378 Y-64.2580
G01 X99.9316 Y-64.2484
G01 X99.8982 Y-64.1819
G01 X99.8946 Y-64.1735
G01 X99.8917 Y-64.1648
G01 X99.8898 Y-64.1559
G01 X99.8887 Y-64.1468
G01 X99.8886 Y-64.1377
G01 X99.8967 Y-64.0614
G01 X99.8981 Y-64.0526
G01 X99.8997 Y-64.0461
G01 X99.9043 Y-64.0335
G01 X99.9156 Y-64.0112
G01 X99.9645 Y-63.8634
G01 X99.9736 Y-63.7753
G01 X99.9735 Y-63.1847
G01 X99.9645 Y-63.0966
G01 X99.9159 Y-62.9498
G01 X99.8351 Y-62.8188
