(G-CODE GENERATED BY FLATCAM v8.994 - www.flatcam.org - Version Date: 2020/11/7)

(Name: CrystalFilter4thOrder.drl_cnc)
(Type: G-code from Geometry)
(Units: MM)

(Created on Friday, 25 August 2023 at 11:19)

(This preprocessor is used with a motion controller loaded with GRBL firmware.)
(It is configured to be compatible with almost any version of GRBL firmware.)


(TOOLS DIAMETER: )
(Tool: 1 -> Dia: 0.4)

(FEEDRATE Z: )
(Tool: 1 -> Feedrate: 30.0)

(FEEDRATE RAPIDS: )
(Tool: 1 -> Feedrate Rapids: 1500.0)

(Z_CUT: )
(Tool: 1 -> Z_Cut: -1.7)

(Tools Offset: )
(Tool: 1 -> Offset Z: 0.0)

(Z_MOVE: )
(Tool: 1 -> Z_Move: 2.0)

(Z Toolchange: 25.0 mm)
(X,Y Toolchange: 0.0000, 0.0000 mm)
(Z Start: None mm)
(Z End: 0.5 mm)
(X,Y End: None mm)
(Steps per circle: 64)
(Steps per circle: 64)
(Preprocessor Excellon: GRBL_11_no_M6)

(X range:    0.2770 ...   33.5700  mm)
(Y range:  -12.7510 ...   -0.4130  mm)

(Spindle Speed: 12000 RPM)
G21
G90
G17
G94


G01 F30.00

M5             
G00 Z25.0000
G00 X0.0000 Y0.0000                
T1
(MSG, Change to Tool Dia = 0.4000 ||| Total drills for tool T1 = 14)
M0
G00 Z25.0000
        
G01 F30.00
M03 S12000
G4 P1
G00 X0.4770 Y-10.3920
G01 Z-1.7000
G01 Z0
G00 Z2.0000
G00 X4.0330 Y-5.9470
G01 Z-1.7000
G01 Z0
G00 Z2.0000
G00 X0.7310 Y-2.1370
G01 Z-1.7000
G01 Z0
G00 Z2.0000
G00 X15.0820 Y-0.6130
G01 Z-1.7000
G01 Z0
G00 Z2.0000
G00 X24.7340 Y-0.7400
G01 Z-1.7000
G01 Z0
G00 Z2.0000
G00 X31.4650 Y-3.0260
G01 Z-1.7000
G01 Z0
G00 Z2.0000
G00 X27.0200 Y-6.3280
G01 Z-1.7000
G01 Z0
G00 Z2.0000
G00 X33.3700 Y-12.5510
G01 Z-1.7000
G01 Z0
G00 Z2.0000
G00 X24.0990 Y-12.4240
G01 Z-1.7000
G01 Z0
G00 Z2.0000
G00 X22.8290 Y-7.9790
G01 Z-1.7000
G01 Z0
G00 Z2.0000
G00 X17.8760 Y-7.4710
G01 Z-1.7000
G01 Z0
G00 Z2.0000
G00 X12.2880 Y-7.4710
G01 Z-1.7000
G01 Z0
G00 Z2.0000
G00 X8.6050 Y-9.6300
G01 Z-1.7000
G01 Z0
G00 Z2.0000
G00 X6.9540 Y-12.4240
G01 Z-1.7000
G01 Z0
G00 Z2.0000
M05
G00 Z0.50


