(G-CODE GENERATED BY FLATCAM v8.994 - www.flatcam.org - Version Date: 2020/11/7)

(Name: CrystalFilter4thOrder-F_Cu.gbr_iso_combined_cnc)
(Type: G-code from Geometry)
(Units: MM)

(Created on Friday, 25 August 2023 at 11:17)

(This preprocessor is used with a motion controller loaded with GRBL firmware.)
(It is configured to be compatible with almost any version of GRBL firmware.)

(TOOL DIAMETER: 0.35 mm)
(Feedrate_XY: 60.0 mm/min)
(Feedrate_Z: 60.0 mm/min)
(Feedrate rapids 1500.0 mm/min)

(Z_Cut: -0.4665 mm)
(DepthPerCut: 0.8 mm <=>1 passes)
(Z_Move: 2.0 mm)
(Z Start: 5.0 mm)
(Z End: 5.0 mm)
(X,Y End: None mm)
(Steps per circle: 64)
(Steps per circle: 64)
(Preprocessor Geometry: GRBL_11_no_M6)

(X range:   -0.1745 ...   35.1745  mm)
(Y range:  -15.1745 ...    0.1745  mm)

(Spindle Speed: 12000.0 RPM)
G21
G90
G17
G94


G01 F60.00

M5             
G00 Z5.0000
G00 X0.0000 Y0.0000                
T1
(MSG, Change to Tool Dia = 0.3500)
M0
G00 Z5.0000
        
G00 Z2.0000
M03 S12000.0
G4 P1.0
G01 F60.00
G00 X-0.1745 Y-0.1245
G01 F60.00
G01 Z-0.4665
G01 F60.00
G01 X-0.1745 Y-3.8374 F60.00
G01 X-0.1741 Y-3.8487 F60.00
G01 X-0.1716 Y-3.8781 F60.00
G01 X-0.1696 Y-3.8910 F60.00
G01 X-0.1656 Y-3.9079 F60.00
G01 X-0.1599 Y-3.9243 F60.00
G01 X-0.1546 Y-3.9361 F60.00
G01 X-0.1196 Y-4.0065 F60.00
G01 X-0.1152 Y-4.0140 F60.00
G01 X-0.1079 Y-4.0248 F60.00
G01 X-0.0970 Y-4.0383 F60.00
G01 X-0.0879 Y-4.0476 F60.00
G01 X-0.0815 Y-4.0535 F60.00
G01 X-0.0713 Y-4.0617 F60.00
G01 X-0.0642 Y-4.0667 F60.00
G01 X0.0105 Y-4.1116 F60.00
G01 X0.0263 Y-4.1191 F60.00
G01 X0.0385 Y-4.1236 F60.00
G01 X0.0468 Y-4.1261 F60.00
G01 X0.0638 Y-4.1299 F60.00
G01 X0.0810 Y-4.1319 F60.00
G01 X0.0984 Y-4.1323 F60.00
G01 X0.1769 Y-4.1297 F60.00
G01 X0.1941 Y-4.1275 F60.00
G01 X0.2026 Y-4.1257 F60.00
G01 X0.2152 Y-4.1223 F60.00
G01 X0.2235 Y-4.1195 F60.00
G01 X0.2355 Y-4.1145 F60.00
G01 X0.2433 Y-4.1107 F60.00
G01 X0.2547 Y-4.1043 F60.00
G01 X0.3230 Y-4.0577 F60.00
G01 X0.3296 Y-4.0526 F60.00
G01 X0.3391 Y-4.0445 F60.00
G01 X0.3480 Y-4.0357 F60.00
G01 X0.3536 Y-4.0295 F60.00
G01 X0.3774 Y-3.9999 F60.00
G01 X0.4062 Y-3.9587 F60.00
G01 X0.4611 Y-3.9065 F60.00
G01 X0.7736 Y-3.5939 F60.00
G01 X0.7888 Y-3.5772 F60.00
G01 X0.8036 Y-3.5583 F60.00
G01 X0.8416 Y-3.5255 F60.00
G01 X0.8806 Y-3.4869 F60.00
G01 X0.8975 Y-3.4757 F60.00
G01 X0.9098 Y-3.4667 F60.00
G01 X0.9310 Y-3.4490 F60.00
G01 X0.9748 Y-3.4245 F60.00
G01 X1.0208 Y-3.3945 F60.00
G01 X1.0464 Y-3.3840 F60.00
G01 X1.0601 Y-3.3773 F60.00
G01 X1.0778 Y-3.3675 F60.00
G01 X1.1301 Y-3.3508 F60.00
G01 X1.1767 Y-3.3323 F60.00
G01 X1.1967 Y-3.3286 F60.00
G01 X1.2115 Y-3.3252 F60.00
G01 X1.2380 Y-3.3172 F60.00
G01 X1.2926 Y-3.3114 F60.00
G01 X1.3420 Y-3.3026 F60.00
G01 X1.4177 Y-3.3045 F60.00
G01 X1.7646 Y-3.3045 F60.00
G01 X1.7840 Y-3.3039 F60.00
G01 X1.7969 Y-3.3026 F60.00
G01 X1.8097 Y-3.3004 F60.00
G01 X1.8264 Y-3.2960 F60.00
G01 X1.9039 Y-3.2672 F60.00
G01 X1.9153 Y-3.2622 F60.00
G01 X1.9264 Y-3.2563 F60.00
G01 X1.9370 Y-3.2497 F60.00
G01 X1.9484 Y-3.2414 F60.00
G01 X2.0391 Y-3.2076 F60.00
G01 X2.0666 Y-3.2046 F60.00
G01 X2.1060 Y-3.2050 F60.00
G01 X3.5060 Y-3.2050 F60.00
G01 X3.5192 Y-3.2045 F60.00
G01 X3.5445 Y-3.2045 F60.00
G01 X3.5729 Y-3.2076 F60.00
G01 X3.5904 Y-3.2135 F60.00
G01 X3.6206 Y-3.2212 F60.00
G01 X3.6332 Y-3.2240 F60.00
G01 X3.6502 Y-3.2261 F60.00
G01 X3.6674 Y-3.2266 F60.00
G01 X3.6759 Y-3.2263 F60.00
G01 X3.6888 Y-3.2249 F60.00
G01 X3.7579 Y-3.2149 F60.00
G01 X3.7707 Y-3.2126 F60.00
G01 X3.7875 Y-3.2080 F60.00
G01 X3.7997 Y-3.2035 F60.00
G01 X3.8116 Y-3.1981 F60.00
G01 X3.8267 Y-3.1895 F60.00
G01 X3.8374 Y-3.1821 F60.00
G01 X3.8443 Y-3.1768 F60.00
G01 X3.9068 Y-3.1224 F60.00
G01 X3.9159 Y-3.1130 F60.00
G01 X3.9216 Y-3.1064 F60.00
G01 X3.9269 Y-3.0995 F60.00
G01 X3.9342 Y-3.0887 F60.00
G01 X3.9407 Y-3.0774 F60.00
G01 X3.9445 Y-3.0697 F60.00
G01 X3.9480 Y-3.0617 F60.00
G01 X3.9524 Y-3.0494 F60.00
G01 X3.9745 Y-2.9742 F60.00
G01 X3.9773 Y-2.9621 F60.00
G01 X3.9793 Y-2.9497 F60.00
G01 X3.9803 Y-2.9373 F60.00
G01 X3.9805 Y-2.9289 F60.00
G01 X3.9805 Y-1.7915 F60.00
G01 X3.9836 Y-1.7631 F60.00
G01 X4.0174 Y-1.6724 F60.00
G01 X4.0735 Y-1.5975 F60.00
G01 X4.1484 Y-1.5414 F60.00
G01 X4.2391 Y-1.5076 F60.00
G01 X4.2675 Y-1.5045 F60.00
G01 X5.7445 Y-1.5045 F60.00
G01 X5.7729 Y-1.5076 F60.00
G01 X5.8636 Y-1.5414 F60.00
G01 X5.8842 Y-1.5560 F60.00
G01 X5.8953 Y-1.5627 F60.00
G01 X5.9068 Y-1.5686 F60.00
G01 X5.9229 Y-1.5751 F60.00
G01 X6.0062 Y-1.5996 F60.00
G01 X6.0143 Y-1.6013 F60.00
G01 X6.0267 Y-1.6033 F60.00
G01 X6.0433 Y-1.6045 F60.00
G01 X7.1186 Y-1.6045 F60.00
G01 X7.1412 Y-1.6034 F60.00
G01 X7.1650 Y-1.6005 F60.00
G01 X7.2150 Y-1.6042 F60.00
G01 X7.2699 Y-1.6045 F60.00
G01 X7.2898 Y-1.6085 F60.00
G01 X7.3048 Y-1.6108 F60.00
G01 X7.3324 Y-1.6133 F60.00
G01 X7.3620 Y-1.6216 F60.00
G01 X7.3745 Y-1.6243 F60.00
G01 X7.3871 Y-1.6261 F60.00
G01 X7.4041 Y-1.6270 F60.00
G01 X7.4782 Y-1.6257 F60.00
G01 X7.4906 Y-1.6250 F60.00
G01 X7.5030 Y-1.6235 F60.00
G01 X7.5130 Y-1.6215 F60.00
G01 X7.5708 Y-1.6154 F60.00
G01 X7.6202 Y-1.6066 F60.00
G01 X7.6959 Y-1.6085 F60.00
G01 X9.3641 Y-1.6084 F60.00
G01 X9.3731 Y-1.6080 F60.00
G01 X9.3864 Y-1.6065 F60.00
G01 X9.4425 Y-1.5962 F60.00
G01 X9.4507 Y-1.5940 F60.00
G01 X9.4629 Y-1.5901 F60.00
G01 X9.4709 Y-1.5870 F60.00
G01 X9.4825 Y-1.5816 F60.00
G01 X9.4937 Y-1.5753 F60.00
G01 X9.5044 Y-1.5683 F60.00
G01 X9.5638 Y-1.5239 F60.00
G01 X9.5767 Y-1.5133 F60.00
G01 X9.5862 Y-1.5039 F60.00
G01 X9.6644 Y-1.4454 F60.00
G01 X9.7551 Y-1.4116 F60.00
G01 X9.7835 Y-1.4085 F60.00
G01 X11.0605 Y-1.4085 F60.00
G01 X11.0889 Y-1.4116 F60.00
G01 X11.1796 Y-1.4454 F60.00
G01 X11.2545 Y-1.5015 F60.00
G01 X11.3106 Y-1.5764 F60.00
G01 X11.3444 Y-1.6671 F60.00
G01 X11.3474 Y-1.6946 F60.00
G01 X11.3470 Y-1.7340 F60.00
G01 X11.3470 Y-3.1340 F60.00
G01 X11.3475 Y-3.1472 F60.00
G01 X11.3475 Y-3.1725 F60.00
G01 X11.3444 Y-3.2009 F60.00
G01 X11.3385 Y-3.2184 F60.00
G01 X11.3308 Y-3.2486 F60.00
G01 X11.3280 Y-3.2612 F60.00
G01 X11.3259 Y-3.2782 F60.00
G01 X11.3254 Y-3.2868 F60.00
G01 X11.3255 Y-3.2997 F60.00
G01 X11.3271 Y-3.3168 F60.00
G01 X11.3385 Y-3.3945 F60.00
G01 X11.3427 Y-3.4114 F60.00
G01 X11.3469 Y-3.4237 F60.00
G01 X11.3502 Y-3.4317 F60.00
G01 X11.3559 Y-3.4434 F60.00
G01 X11.3602 Y-3.4510 F60.00
G01 X11.3699 Y-3.4654 F60.00
G01 X11.3780 Y-3.4756 F60.00
G01 X11.4238 Y-3.5284 F60.00
G01 X11.4358 Y-3.5410 F60.00
G01 X11.4456 Y-3.5496 F60.00
G01 X11.4525 Y-3.5549 F60.00
G01 X11.4670 Y-3.5645 F60.00
G01 X11.4784 Y-3.5707 F60.00
G01 X11.4863 Y-3.5743 F60.00
G01 X11.5026 Y-3.5804 F60.00
G01 X11.5778 Y-3.6025 F60.00
G01 X11.5940 Y-3.6061 F60.00
G01 X11.6106 Y-3.6081 F60.00
G01 X11.6231 Y-3.6085 F60.00
G01 X12.7605 Y-3.6085 F60.00
G01 X12.7889 Y-3.6116 F60.00
G01 X12.8796 Y-3.6454 F60.00
G01 X12.9578 Y-3.7039 F60.00
G01 X12.9658 Y-3.7119 F60.00
G01 X12.9980 Y-3.7419 F60.00
G01 X13.0111 Y-3.7529 F60.00
G01 X13.0252 Y-3.7626 F60.00
G01 X13.0401 Y-3.7709 F60.00
G01 X13.0518 Y-3.7761 F60.00
G01 X13.0639 Y-3.7805 F60.00
G01 X13.1390 Y-3.8025 F60.00
G01 X13.1471 Y-3.8045 F60.00
G01 X13.1594 Y-3.8067 F60.00
G01 X13.1718 Y-3.8081 F60.00
G01 X13.1802 Y-3.8085 F60.00
G01 X14.1616 Y-3.8085 F60.00
G01 X14.1735 Y-3.8078 F60.00
G01 X14.1815 Y-3.8069 F60.00
G01 X14.2311 Y-3.7988 F60.00
G01 X14.3119 Y-3.7905 F60.00
G01 X15.3441 Y-3.7905 F60.00
G01 X15.4249 Y-3.7988 F60.00
G01 X15.4785 Y-3.8074 F60.00
G01 X15.4904 Y-3.8083 F60.00
G01 X15.4984 Y-3.8085 F60.00
G01 X16.9441 Y-3.8085 F60.00
G01 X16.9633 Y-3.8079 F60.00
G01 X16.9757 Y-3.8067 F60.00
G01 X16.9880 Y-3.8046 F60.00
G01 X17.0041 Y-3.8005 F60.00
G01 X17.0750 Y-3.7753 F60.00
G01 X17.0830 Y-3.7719 F60.00
G01 X17.0923 Y-3.7675 F60.00
G01 X17.1951 Y-3.7292 F60.00
G01 X17.2226 Y-3.7262 F60.00
G01 X17.2620 Y-3.7266 F60.00
G01 X18.6620 Y-3.7266 F60.00
G01 X18.6752 Y-3.7261 F60.00
G01 X18.7005 Y-3.7261 F60.00
G01 X18.7289 Y-3.7292 F60.00
G01 X18.7464 Y-3.7351 F60.00
G01 X18.7766 Y-3.7428 F60.00
G01 X18.7892 Y-3.7456 F60.00
G01 X18.8019 Y-3.7473 F60.00
G01 X18.8191 Y-3.7483 F60.00
G01 X18.8319 Y-3.7479 F60.00
G01 X18.8448 Y-3.7465 F60.00
G01 X18.9182 Y-3.7359 F60.00
G01 X18.9352 Y-3.7321 F60.00
G01 X18.9476 Y-3.7282 F60.00
G01 X18.9637 Y-3.7216 F60.00
G01 X18.9790 Y-3.7134 F60.00
G01 X18.9934 Y-3.7037 F60.00
G01 X19.0036 Y-3.6956 F60.00
G01 X19.0597 Y-3.6469 F60.00
G01 X19.0690 Y-3.6378 F60.00
G01 X19.0803 Y-3.6246 F60.00
G01 X19.0878 Y-3.6140 F60.00
G01 X19.0946 Y-3.6029 F60.00
G01 X19.1005 Y-3.5913 F60.00
G01 X19.1056 Y-3.5792 F60.00
G01 X19.1097 Y-3.5669 F60.00
G01 X19.1305 Y-3.4958 F60.00
G01 X19.1333 Y-3.4837 F60.00
G01 X19.1347 Y-3.4754 F60.00
G01 X19.1361 Y-3.4630 F60.00
G01 X19.1365 Y-3.4505 F60.00
G01 X19.1365 Y-2.3131 F60.00
G01 X19.1396 Y-2.2847 F60.00
G01 X19.1734 Y-2.1940 F60.00
G01 X19.2295 Y-2.1191 F60.00
G01 X19.3044 Y-2.0630 F60.00
G01 X19.3951 Y-2.0292 F60.00
G01 X19.4235 Y-2.0261 F60.00
G01 X20.9005 Y-2.0261 F60.00
G01 X20.9289 Y-2.0292 F60.00
G01 X21.0196 Y-2.0630 F60.00
G01 X21.0402 Y-2.0776 F60.00
G01 X21.0513 Y-2.0843 F60.00
G01 X21.0668 Y-2.0920 F60.00
G01 X21.0789 Y-2.0967 F60.00
G01 X21.1622 Y-2.1212 F60.00
G01 X21.1703 Y-2.1229 F60.00
G01 X21.1827 Y-2.1249 F60.00
G01 X21.1993 Y-2.1261 F60.00
G01 X22.1557 Y-2.1261 F60.00
G01 X22.1833 Y-2.1247 F60.00
G01 X22.2875 Y-2.1141 F60.00
G01 X23.3197 Y-2.1141 F60.00
G01 X23.4203 Y-2.1244 F60.00
G01 X23.4423 Y-2.1259 F60.00
G01 X23.4515 Y-2.1261 F60.00
G01 X24.6412 Y-2.1261 F60.00
G01 X24.6638 Y-2.1250 F60.00
G01 X24.6876 Y-2.1221 F60.00
G01 X24.7343 Y-2.1256 F60.00
G01 X24.7490 Y-2.1261 F60.00
G01 X26.2676 Y-2.1261 F60.00
G01 X26.2870 Y-2.1255 F60.00
G01 X26.2956 Y-2.1247 F60.00
G01 X26.3085 Y-2.1228 F60.00
G01 X26.3211 Y-2.1200 F60.00
G01 X26.3376 Y-2.1147 F60.00
G01 X26.4108 Y-2.0872 F60.00
G01 X26.4258 Y-2.0800 F60.00
G01 X26.4330 Y-2.0758 F60.00
G01 X26.4434 Y-2.0689 F60.00
G01 X26.5300 Y-2.0042 F60.00
G01 X26.6207 Y-1.9704 F60.00
G01 X26.6491 Y-1.9673 F60.00
G01 X27.9261 Y-1.9673 F60.00
G01 X27.9545 Y-1.9704 F60.00
G01 X28.0452 Y-2.0042 F60.00
G01 X28.1201 Y-2.0603 F60.00
G01 X28.1762 Y-2.1352 F60.00
G01 X28.2100 Y-2.2259 F60.00
G01 X28.2130 Y-2.2534 F60.00
G01 X28.2126 Y-2.2928 F60.00
G01 X28.2126 Y-3.6928 F60.00
G01 X28.2131 Y-3.7060 F60.00
G01 X28.2131 Y-3.7313 F60.00
G01 X28.2100 Y-3.7597 F60.00
G01 X28.2041 Y-3.7772 F60.00
G01 X28.1964 Y-3.8074 F60.00
G01 X28.1936 Y-3.8200 F60.00
G01 X28.1915 Y-3.8370 F60.00
G01 X28.1910 Y-3.8542 F60.00
G01 X28.1922 Y-3.8713 F60.00
G01 X28.2027 Y-3.9447 F60.00
G01 X28.2041 Y-3.9533 F60.00
G01 X28.2071 Y-3.9660 F60.00
G01 X28.2125 Y-3.9825 F60.00
G01 X28.2195 Y-3.9984 F60.00
G01 X28.2281 Y-4.0135 F60.00
G01 X28.2381 Y-4.0277 F60.00
G01 X28.2894 Y-4.0872 F60.00
G01 X28.2983 Y-4.0967 F60.00
G01 X28.3046 Y-4.1027 F60.00
G01 X28.3146 Y-4.1111 F60.00
G01 X28.3252 Y-4.1186 F60.00
G01 X28.3326 Y-4.1233 F60.00
G01 X28.3440 Y-4.1295 F60.00
G01 X28.3519 Y-4.1331 F60.00
G01 X28.3682 Y-4.1392 F60.00
G01 X28.4434 Y-4.1613 F60.00
G01 X28.4555 Y-4.1641 F60.00
G01 X28.4720 Y-4.1665 F60.00
G01 X28.4887 Y-4.1673 F60.00
G01 X29.6261 Y-4.1673 F60.00
G01 X29.6545 Y-4.1704 F60.00
G01 X29.7452 Y-4.2042 F60.00
G01 X29.8201 Y-4.2603 F60.00
G01 X29.8762 Y-4.3352 F60.00
G01 X29.9100 Y-4.4259 F60.00
G01 X29.9131 Y-4.4543 F60.00
G01 X29.9131 Y-5.9313 F60.00
G01 X29.9100 Y-5.9597 F60.00
G01 X29.8762 Y-6.0504 F60.00
G01 X29.8065 Y-6.1438 F60.00
G01 X29.7944 Y-6.1620 F60.00
G01 X29.7902 Y-6.1695 F60.00
G01 X29.7846 Y-6.1812 F60.00
G01 X29.7785 Y-6.1974 F60.00
G01 X29.7565 Y-6.2726 F60.00
G01 X29.7545 Y-6.2807 F60.00
G01 X29.7523 Y-6.2930 F60.00
G01 X29.7509 Y-6.3054 F60.00
G01 X29.7505 Y-6.3137 F60.00
G01 X29.7506 Y-9.0629 F60.00
G01 X29.7514 Y-9.0762 F60.00
G01 X29.7525 Y-9.0850 F60.00
G01 X29.7589 Y-9.1265 F60.00
G01 X29.7618 Y-9.1394 F60.00
G01 X29.7789 Y-9.1942 F60.00
G01 X29.7989 Y-9.2453 F60.00
G01 X29.8026 Y-9.2653 F60.00
G01 X29.8060 Y-9.2801 F60.00
G01 X29.8140 Y-9.3066 F60.00
G01 X29.8192 Y-9.3565 F60.00
G01 X29.8286 Y-9.4106 F60.00
G01 X29.8267 Y-9.4863 F60.00
G01 X29.8267 Y-11.2848 F60.00
G01 X29.8159 Y-11.2968 F60.00
G01 X29.8057 Y-11.3106 F60.00
G01 X29.7969 Y-11.3253 F60.00
G01 X29.7895 Y-11.3408 F60.00
G01 X29.7837 Y-11.3570 F60.00
G01 X29.7796 Y-11.3737 F60.00
G01 X29.7770 Y-11.3906 F60.00
G01 X29.7762 Y-11.4078 F60.00
G01 X29.7763 Y-13.6121 F60.00
G01 X29.7775 Y-13.6292 F60.00
G01 X29.7796 Y-13.6419 F60.00
G01 X29.7837 Y-13.6586 F60.00
G01 X29.7895 Y-13.6748 F60.00
G01 X29.7969 Y-13.6903 F60.00
G01 X29.8057 Y-13.7050 F60.00
G01 X29.8159 Y-13.7188 F60.00
G01 X29.8267 Y-13.7308 F60.00
G01 X29.8267 Y-14.5963 F60.00
G01 X29.8237 Y-14.6245 F60.00
G01 X29.7838 Y-14.7304 F60.00
G01 X29.7780 Y-14.7435 F60.00
G01 X29.7740 Y-14.7547 F60.00
G01 X29.7560 Y-14.7988 F60.00
G01 X29.7521 Y-14.8110 F60.00
G01 X29.7500 Y-14.8193 F60.00
G01 X29.7471 Y-14.8360 F60.00
G01 X29.7458 Y-14.8530 F60.00
G01 X29.7458 Y-14.8615 F60.00
G01 X29.7465 Y-14.8743 F60.00
G01 X29.7581 Y-14.9562 F60.00
G01 X29.7619 Y-14.9732 F60.00
G01 X29.7658 Y-14.9856 F60.00
G01 X29.7706 Y-14.9977 F60.00
G01 X29.7763 Y-15.0094 F60.00
G01 X29.7829 Y-15.0207 F60.00
G01 X29.7929 Y-15.0349 F60.00
G01 X29.8471 Y-15.0977 F60.00
G01 X29.8562 Y-15.1070 F60.00
G01 X29.8660 Y-15.1156 F60.00
G01 X29.8764 Y-15.1234 F60.00
G01 X29.8837 Y-15.1282 F60.00
G01 X29.8988 Y-15.1367 F60.00
G01 X29.9107 Y-15.1420 F60.00
G01 X29.9189 Y-15.1451 F60.00
G01 X29.9942 Y-15.1674 F60.00
G01 X30.0063 Y-15.1705 F60.00
G01 X30.0186 Y-15.1727 F60.00
G01 X30.0310 Y-15.1741 F60.00
G01 X30.0435 Y-15.1745 F60.00
G01 X34.8797 Y-15.1745 F60.00
G01 X34.8963 Y-15.1733 F60.00
G01 X34.9086 Y-15.1713 F60.00
G01 X34.9727 Y-15.1572 F60.00
G01 X34.9852 Y-15.1533 F60.00
G01 X34.9974 Y-15.1485 F60.00
G01 X35.0092 Y-15.1428 F60.00
G01 X35.0206 Y-15.1362 F60.00
G01 X35.0314 Y-15.1288 F60.00
G01 X35.0416 Y-15.1205 F60.00
G01 X35.0944 Y-15.0748 F60.00
G01 X35.1070 Y-15.0628 F60.00
G01 X35.1156 Y-15.0530 F60.00
G01 X35.1258 Y-15.0390 F60.00
G01 X35.1347 Y-15.0240 F60.00
G01 X35.1403 Y-15.0123 F60.00
G01 X35.1436 Y-15.0042 F60.00
G01 X35.1477 Y-14.9918 F60.00
G01 X35.1696 Y-14.9168 F60.00
G01 X35.1721 Y-14.9045 F60.00
G01 X35.1733 Y-14.8963 F60.00
G01 X35.1741 Y-14.8880 F60.00
G01 X35.1745 Y-14.8755 F60.00
G01 X35.1745 Y-0.1245 F60.00
G01 X35.1737 Y-0.1079 F60.00
G01 X35.1721 Y-0.0955 F60.00
G01 X35.1583 Y-0.0315 F60.00
G01 X35.1547 Y-0.0189 F60.00
G01 X35.1502 Y-0.0066 F60.00
G01 X35.1448 Y0.0053 F60.00
G01 X35.1385 Y0.0168 F60.00
G01 X35.1313 Y0.0278 F60.00
G01 X35.1234 Y0.0383 F60.00
G01 X35.0748 Y0.0944 F60.00
G01 X35.0659 Y0.1039 F60.00
G01 X35.0530 Y0.1156 F60.00
G01 X35.0390 Y0.1258 F60.00
G01 X35.0240 Y0.1347 F60.00
G01 X35.0123 Y0.1403 F60.00
G01 X35.0001 Y0.1451 F60.00
G01 X34.9918 Y0.1477 F60.00
G01 X34.9168 Y0.1696 F60.00
G01 X34.9086 Y0.1713 F60.00
G01 X34.8963 Y0.1733 F60.00
G01 X34.8838 Y0.1743 F60.00
G01 X34.8755 Y0.1745 F60.00
G01 X0.1245 Y0.1745 F60.00
G01 X0.1079 Y0.1737 F60.00
G01 X0.0955 Y0.1721 F60.00
G01 X0.0358 Y0.1593 F60.00
G01 X0.0189 Y0.1547 F60.00
G01 X0.0107 Y0.1518 F60.00
G01 X-0.0014 Y0.1467 F60.00
G01 X-0.0131 Y0.1407 F60.00
G01 X-0.0206 Y0.1362 F60.00
G01 X-0.0349 Y0.1261 F60.00
G01 X-0.0944 Y0.0748 F60.00
G01 X-0.1039 Y0.0659 F60.00
G01 X-0.1156 Y0.0530 F60.00
G01 X-0.1258 Y0.0390 F60.00
G01 X-0.1347 Y0.0240 F60.00
G01 X-0.1385 Y0.0162 F60.00
G01 X-0.1436 Y0.0042 F60.00
G01 X-0.1477 Y-0.0082 F60.00
G01 X-0.1696 Y-0.0832 F60.00
G01 X-0.1721 Y-0.0955 F60.00
G01 X-0.1733 Y-0.1037 F60.00
G01 X-0.1743 Y-0.1162 F60.00
G01 X-0.1745 Y-0.1245 F60.00
G00 Z2.0000
G00 X4.3060 Y-3.2050
G01 F60.00
G01 Z-0.4665
G01 F60.00
G01 X5.7146 Y-3.2048 F60.00
G01 X5.7274 Y-3.2037 F60.00
G01 X5.7359 Y-3.2024 F60.00
G01 X5.7485 Y-3.1998 F60.00
G01 X5.7609 Y-3.1962 F60.00
G01 X5.7730 Y-3.1917 F60.00
G01 X5.7847 Y-3.1863 F60.00
G01 X5.7923 Y-3.1823 F60.00
G01 X5.8032 Y-3.1755 F60.00
G01 X5.8102 Y-3.1706 F60.00
G01 X5.8203 Y-3.1625 F60.00
G01 X5.8297 Y-3.1537 F60.00
G01 X5.8385 Y-3.1443 F60.00
G01 X5.8440 Y-3.1377 F60.00
G01 X5.8515 Y-3.1272 F60.00
G01 X5.8583 Y-3.1163 F60.00
G01 X5.8640 Y-3.1053 F60.00
G01 X6.9063 Y-3.1053 F60.00
G01 X7.0407 Y-3.2397 F60.00
G01 X7.0407 Y-6.6833 F60.00
G01 X6.6353 Y-7.0887 F60.00
G01 X5.9070 Y-7.0887 F60.00
G01 X5.9013 Y-7.0777 F60.00
G01 X5.8945 Y-7.0668 F60.00
G01 X5.8870 Y-7.0563 F60.00
G01 X5.8787 Y-7.0465 F60.00
G01 X5.8697 Y-7.0373 F60.00
G01 X5.8633 Y-7.0315 F60.00
G01 X5.8532 Y-7.0234 F60.00
G01 X5.8426 Y-7.0162 F60.00
G01 X5.8315 Y-7.0097 F60.00
G01 X5.8199 Y-7.0040 F60.00
G01 X5.8080 Y-6.9992 F60.00
G01 X5.7998 Y-6.9965 F60.00
G01 X5.7873 Y-6.9933 F60.00
G01 X5.7747 Y-6.9909 F60.00
G01 X5.7619 Y-6.9895 F60.00
G01 X5.7533 Y-6.9891 F60.00
G01 X4.3447 Y-6.9891 F60.00
G01 X4.3361 Y-6.9895 F60.00
G01 X4.3233 Y-6.9909 F60.00
G01 X4.3107 Y-6.9933 F60.00
G01 X4.2982 Y-6.9965 F60.00
G01 X4.2860 Y-7.0007 F60.00
G01 X4.2742 Y-7.0058 F60.00
G01 X4.2627 Y-7.0117 F60.00
G01 X4.2554 Y-7.0162 F60.00
G01 X4.2448 Y-7.0234 F60.00
G01 X4.2380 Y-7.0287 F60.00
G01 X4.2283 Y-7.0373 F60.00
G01 X4.2223 Y-7.0433 F60.00
G01 X4.2137 Y-7.0530 F60.00
G01 X4.2084 Y-7.0598 F60.00
G01 X4.2012 Y-7.0704 F60.00
G01 X4.1967 Y-7.0777 F60.00
G01 X4.1908 Y-7.0892 F60.00
G01 X4.1873 Y-7.0970 F60.00
G01 X4.1842 Y-7.1050 F60.00
G01 X4.1803 Y-7.1173 F60.00
G01 X4.1783 Y-7.1257 F60.00
G01 X4.1759 Y-7.1383 F60.00
G01 X4.1748 Y-7.1468 F60.00
G01 X4.1741 Y-7.1597 F60.00
G01 X4.1741 Y-8.3683 F60.00
G01 X4.1748 Y-8.3812 F60.00
G01 X4.1766 Y-8.3939 F60.00
G01 X4.1792 Y-8.4065 F60.00
G01 X4.1828 Y-8.4189 F60.00
G01 X4.1873 Y-8.4310 F60.00
G01 X4.1927 Y-8.4427 F60.00
G01 X4.1989 Y-8.4540 F60.00
G01 X4.2059 Y-8.4648 F60.00
G01 X4.2165 Y-8.4783 F60.00
G01 X4.2253 Y-8.4877 F60.00
G01 X4.2315 Y-8.4937 F60.00
G01 X4.2448 Y-8.5046 F60.00
G01 X4.2554 Y-8.5118 F60.00
G01 X4.2627 Y-8.5163 F60.00
G01 X4.2703 Y-8.5203 F60.00
G01 X4.2820 Y-8.5257 F60.00
G01 X4.2982 Y-8.5315 F60.00
G01 X4.3107 Y-8.5347 F60.00
G01 X4.3191 Y-8.5364 F60.00
G01 X4.3318 Y-8.5382 F60.00
G01 X4.3404 Y-8.5388 F60.00
G01 X5.7533 Y-8.5389 F60.00
G01 X5.7619 Y-8.5385 F60.00
G01 X5.7747 Y-8.5371 F60.00
G01 X5.7873 Y-8.5347 F60.00
G01 X5.7998 Y-8.5315 F60.00
G01 X5.8120 Y-8.5273 F60.00
G01 X5.8199 Y-8.5240 F60.00
G01 X5.8315 Y-8.5183 F60.00
G01 X5.8426 Y-8.5118 F60.00
G01 X5.8532 Y-8.5046 F60.00
G01 X5.8633 Y-8.4965 F60.00
G01 X5.8727 Y-8.4877 F60.00
G01 X5.8787 Y-8.4815 F60.00
G01 X5.8870 Y-8.4717 F60.00
G01 X5.8945 Y-8.4612 F60.00
G01 X5.9013 Y-8.4503 F60.00
G01 X5.9070 Y-8.4393 F60.00
G01 X6.9150 Y-8.4393 F60.00
G01 X6.9769 Y-8.4364 F60.00
G01 X6.9897 Y-8.4349 F60.00
G01 X7.0467 Y-8.4263 F60.00
G01 X7.1027 Y-8.4125 F60.00
G01 X7.1151 Y-8.4089 F60.00
G01 X7.1654 Y-8.3909 F60.00
G01 X7.1774 Y-8.3862 F60.00
G01 X7.2295 Y-8.3615 F60.00
G01 X7.2371 Y-8.3574 F60.00
G01 X7.2585 Y-8.3447 F60.00
G01 X7.2775 Y-8.3514 F60.00
G01 X7.2858 Y-8.3539 F60.00
G01 X7.3137 Y-8.3610 F60.00
G01 X7.3263 Y-8.3636 F60.00
G01 X7.3633 Y-8.3690 F60.00
G01 X7.4007 Y-8.3709 F60.00
G01 X7.9093 Y-8.3709 F60.00
G01 X7.9467 Y-8.3690 F60.00
G01 X7.9795 Y-8.3643 F60.00
G01 X7.9921 Y-8.3619 F60.00
G01 X8.0284 Y-8.3527 F60.00
G01 X8.0637 Y-8.3402 F60.00
G01 X8.0716 Y-8.3370 F60.00
G01 X8.0977 Y-8.3247 F60.00
G01 X8.1128 Y-8.3166 F60.00
G01 X8.1411 Y-8.2994 F60.00
G01 X8.1746 Y-8.2745 F60.00
G01 X8.2055 Y-8.2465 F60.00
G01 X8.2279 Y-8.2221 F60.00
G01 X8.2362 Y-8.2123 F60.00
G01 X8.2534 Y-8.1891 F60.00
G01 X8.2630 Y-8.1749 F60.00
G01 X8.2798 Y-8.1463 F60.00
G01 X8.2976 Y-8.1086 F60.00
G01 X8.3117 Y-8.0694 F60.00
G01 X8.3200 Y-8.0373 F60.00
G01 X8.3233 Y-8.0205 F60.00
G01 X8.3275 Y-7.9919 F60.00
G01 X8.3283 Y-7.9834 F60.00
G01 X8.3300 Y-7.9460 F60.00
G01 X8.3300 Y-7.2427 F60.00
G01 X8.3382 Y-7.2254 F60.00
G01 X8.3414 Y-7.2174 F60.00
G01 X8.3609 Y-7.1631 F60.00
G01 X8.3645 Y-7.1507 F60.00
G01 X8.3774 Y-7.0989 F60.00
G01 X8.3797 Y-7.0863 F60.00
G01 X8.3880 Y-7.0292 F60.00
G01 X8.3912 Y-6.9673 F60.00
G01 X8.3913 Y-3.1093 F60.00
G01 X9.6470 Y-3.1093 F60.00
G01 X9.6471 Y-3.1383 F60.00
G01 X9.6478 Y-3.1512 F60.00
G01 X9.6504 Y-3.1681 F60.00
G01 X9.6545 Y-3.1848 F60.00
G01 X9.6603 Y-3.2010 F60.00
G01 X9.6677 Y-3.2165 F60.00
G01 X9.6765 Y-3.2312 F60.00
G01 X9.6867 Y-3.2450 F60.00
G01 X9.6983 Y-3.2577 F60.00
G01 X9.7110 Y-3.2693 F60.00
G01 X9.7248 Y-3.2795 F60.00
G01 X9.7395 Y-3.2883 F60.00
G01 X9.7550 Y-3.2957 F60.00
G01 X9.7712 Y-3.3015 F60.00
G01 X9.7879 Y-3.3056 F60.00
G01 X9.7963 Y-3.3071 F60.00
G01 X9.8091 Y-3.3085 F60.00
G01 X9.8220 Y-3.3090 F60.00
G01 X11.0263 Y-3.3089 F60.00
G01 X11.0434 Y-3.3077 F60.00
G01 X11.0519 Y-3.3064 F60.00
G01 X11.0645 Y-3.3038 F60.00
G01 X11.0810 Y-3.2988 F60.00
G01 X11.0929 Y-3.2940 F60.00
G01 X11.1007 Y-3.2903 F60.00
G01 X11.1083 Y-3.2863 F60.00
G01 X11.1192 Y-3.2795 F60.00
G01 X11.1297 Y-3.2720 F60.00
G01 X11.1395 Y-3.2637 F60.00
G01 X11.1487 Y-3.2547 F60.00
G01 X11.1573 Y-3.2450 F60.00
G01 X11.1626 Y-3.2382 F60.00
G01 X11.1698 Y-3.2276 F60.00
G01 X11.1763 Y-3.2165 F60.00
G01 X11.1820 Y-3.2049 F60.00
G01 X11.1868 Y-3.1930 F60.00
G01 X11.1895 Y-3.1848 F60.00
G01 X11.1927 Y-3.1723 F60.00
G01 X11.1944 Y-3.1639 F60.00
G01 X11.1962 Y-3.1512 F60.00
G01 X11.1968 Y-3.1426 F60.00
G01 X11.1970 Y-1.7340 F60.00
G01 X11.1968 Y-1.7254 F60.00
G01 X11.1957 Y-1.7126 F60.00
G01 X11.1927 Y-1.6957 F60.00
G01 X11.1895 Y-1.6832 F60.00
G01 X11.1853 Y-1.6710 F60.00
G01 X11.1802 Y-1.6592 F60.00
G01 X11.1721 Y-1.6440 F60.00
G01 X11.1651 Y-1.6332 F60.00
G01 X11.1545 Y-1.6197 F60.00
G01 X11.1457 Y-1.6103 F60.00
G01 X11.1330 Y-1.5987 F60.00
G01 X11.1192 Y-1.5885 F60.00
G01 X11.1083 Y-1.5817 F60.00
G01 X11.0968 Y-1.5758 F60.00
G01 X11.0810 Y-1.5692 F60.00
G01 X11.0645 Y-1.5642 F60.00
G01 X11.0519 Y-1.5616 F60.00
G01 X11.0392 Y-1.5598 F60.00
G01 X11.0220 Y-1.5590 F60.00
G01 X9.8220 Y-1.5590 F60.00
G01 X9.8091 Y-1.5595 F60.00
G01 X9.7963 Y-1.5609 F60.00
G01 X9.7795 Y-1.5642 F60.00
G01 X9.7630 Y-1.5692 F60.00
G01 X9.7472 Y-1.5758 F60.00
G01 X9.7320 Y-1.5839 F60.00
G01 X9.7178 Y-1.5934 F60.00
G01 X9.7045 Y-1.6043 F60.00
G01 X9.6923 Y-1.6165 F60.00
G01 X9.6814 Y-1.6298 F60.00
G01 X9.6719 Y-1.6440 F60.00
G01 X9.6638 Y-1.6592 F60.00
G01 X9.6587 Y-1.6710 F60.00
G01 X9.6533 Y-1.6873 F60.00
G01 X9.6496 Y-1.7041 F60.00
G01 X9.6478 Y-1.7168 F60.00
G01 X9.6471 Y-1.7297 F60.00
G01 X9.6470 Y-1.7587 F60.00
G01 X7.6789 Y-1.7588 F60.00
G01 X7.6170 Y-1.7620 F60.00
G01 X7.5515 Y-1.7717 F60.00
G01 X7.4872 Y-1.7878 F60.00
G01 X7.4401 Y-1.8044 F60.00
G01 X7.3820 Y-1.7838 F60.00
G01 X7.3177 Y-1.7677 F60.00
G01 X7.2522 Y-1.7580 F60.00
G01 X7.1903 Y-1.7548 F60.00
G01 X5.8640 Y-1.7547 F60.00
G01 X5.8583 Y-1.7437 F60.00
G01 X5.8515 Y-1.7328 F60.00
G01 X5.8466 Y-1.7258 F60.00
G01 X5.8385 Y-1.7157 F60.00
G01 X5.8297 Y-1.7063 F60.00
G01 X5.8235 Y-1.7003 F60.00
G01 X5.8137 Y-1.6920 F60.00
G01 X5.8032 Y-1.6845 F60.00
G01 X5.7923 Y-1.6777 F60.00
G01 X5.7847 Y-1.6737 F60.00
G01 X5.7730 Y-1.6683 F60.00
G01 X5.7609 Y-1.6638 F60.00
G01 X5.7485 Y-1.6602 F60.00
G01 X5.7359 Y-1.6576 F60.00
G01 X5.7232 Y-1.6558 F60.00
G01 X5.7146 Y-1.6552 F60.00
G01 X4.3060 Y-1.6550 F60.00
G01 X4.2888 Y-1.6558 F60.00
G01 X4.2761 Y-1.6576 F60.00
G01 X4.2677 Y-1.6593 F60.00
G01 X4.2552 Y-1.6625 F60.00
G01 X4.2430 Y-1.6667 F60.00
G01 X4.2312 Y-1.6718 F60.00
G01 X4.2160 Y-1.6799 F60.00
G01 X4.2052 Y-1.6869 F60.00
G01 X4.1950 Y-1.6947 F60.00
G01 X4.1853 Y-1.7033 F60.00
G01 X4.1735 Y-1.7157 F60.00
G01 X4.1654 Y-1.7258 F60.00
G01 X4.1582 Y-1.7364 F60.00
G01 X4.1517 Y-1.7475 F60.00
G01 X4.1460 Y-1.7591 F60.00
G01 X4.1412 Y-1.7710 F60.00
G01 X4.1373 Y-1.7833 F60.00
G01 X4.1344 Y-1.7959 F60.00
G01 X4.1318 Y-1.8128 F60.00
G01 X4.1310 Y-1.8300 F60.00
G01 X4.1311 Y-3.0343 F60.00
G01 X4.1323 Y-3.0514 F60.00
G01 X4.1353 Y-3.0683 F60.00
G01 X4.1398 Y-3.0849 F60.00
G01 X4.1460 Y-3.1009 F60.00
G01 X4.1537 Y-3.1163 F60.00
G01 X4.1629 Y-3.1308 F60.00
G01 X4.1707 Y-3.1410 F60.00
G01 X4.1823 Y-3.1537 F60.00
G01 X4.1950 Y-3.1653 F60.00
G01 X4.2088 Y-3.1755 F60.00
G01 X4.2235 Y-3.1843 F60.00
G01 X4.2390 Y-3.1917 F60.00
G01 X4.2552 Y-3.1975 F60.00
G01 X4.2719 Y-3.2016 F60.00
G01 X4.2888 Y-3.2042 F60.00
G01 X4.3060 Y-3.2050 F60.00
G00 Z2.0000
G00 X1.8613 Y-5.3545
G01 F60.00
G01 Z-0.4665
G01 F60.00
G01 X1.8613 Y-8.2437 F60.00
G01 X1.8621 Y-8.2561 F60.00
G01 X1.8645 Y-8.2726 F60.00
G01 X1.8786 Y-8.3367 F60.00
G01 X1.8825 Y-8.3492 F60.00
G01 X1.8873 Y-8.3614 F60.00
G01 X1.8930 Y-8.3732 F60.00
G01 X1.8996 Y-8.3846 F60.00
G01 X1.9045 Y-8.3918 F60.00
G01 X1.9124 Y-8.4023 F60.00
G01 X1.9639 Y-8.4617 F60.00
G01 X1.9699 Y-8.4679 F60.00
G01 X1.9795 Y-8.4768 F60.00
G01 X1.9862 Y-8.4823 F60.00
G01 X1.9968 Y-8.4898 F60.00
G01 X2.0118 Y-8.4987 F60.00
G01 X2.0275 Y-8.5060 F60.00
G01 X2.0398 Y-8.5104 F60.00
G01 X2.0666 Y-8.5184 F60.00
G01 X2.0781 Y-8.5240 F60.00
G01 X2.0900 Y-8.5288 F60.00
G01 X2.0982 Y-8.5315 F60.00
G01 X2.1107 Y-8.5347 F60.00
G01 X2.1233 Y-8.5371 F60.00
G01 X2.1361 Y-8.5385 F60.00
G01 X2.1490 Y-8.5390 F60.00
G01 X3.5490 Y-8.5390 F60.00
G01 X3.5622 Y-8.5385 F60.00
G01 X3.5875 Y-8.5385 F60.00
G01 X3.6159 Y-8.5416 F60.00
G01 X3.6334 Y-8.5475 F60.00
G01 X3.6636 Y-8.5552 F60.00
G01 X3.6762 Y-8.5580 F60.00
G01 X3.6932 Y-8.5601 F60.00
G01 X3.7061 Y-8.5607 F60.00
G01 X3.7147 Y-8.5605 F60.00
G01 X3.7275 Y-8.5594 F60.00
G01 X3.8052 Y-8.5483 F60.00
G01 X3.8222 Y-8.5445 F60.00
G01 X3.8387 Y-8.5391 F60.00
G01 X3.8507 Y-8.5340 F60.00
G01 X3.8623 Y-8.5280 F60.00
G01 X3.8733 Y-8.5212 F60.00
G01 X3.8839 Y-8.5135 F60.00
G01 X3.9467 Y-8.4593 F60.00
G01 X3.9560 Y-8.4502 F60.00
G01 X3.9673 Y-8.4370 F60.00
G01 X3.9748 Y-8.4264 F60.00
G01 X3.9816 Y-8.4153 F60.00
G01 X3.9875 Y-8.4037 F60.00
G01 X3.9926 Y-8.3916 F60.00
G01 X3.9967 Y-8.3793 F60.00
G01 X4.0164 Y-8.3122 F60.00
G01 X4.0195 Y-8.3001 F60.00
G01 X4.0217 Y-8.2878 F60.00
G01 X4.0227 Y-8.2796 F60.00
G01 X4.0235 Y-8.2629 F60.00
G01 X4.0235 Y-7.1255 F60.00
G01 X4.0266 Y-7.0971 F60.00
G01 X4.0604 Y-7.0064 F60.00
G01 X4.1165 Y-6.9315 F60.00
G01 X4.1914 Y-6.8754 F60.00
G01 X4.2821 Y-6.8416 F60.00
G01 X4.3105 Y-6.8385 F60.00
G01 X5.7875 Y-6.8385 F60.00
G01 X5.8159 Y-6.8416 F60.00
G01 X5.9066 Y-6.8754 F60.00
G01 X5.9272 Y-6.8900 F60.00
G01 X5.9383 Y-6.8967 F60.00
G01 X5.9498 Y-6.9026 F60.00
G01 X5.9659 Y-6.9091 F60.00
G01 X6.0451 Y-6.9325 F60.00
G01 X6.0532 Y-6.9345 F60.00
G01 X6.0655 Y-6.9367 F60.00
G01 X6.0780 Y-6.9381 F60.00
G01 X6.0904 Y-6.9385 F60.00
G01 X6.4492 Y-6.9385 F60.00
G01 X6.4633 Y-6.9379 F60.00
G01 X6.4943 Y-6.9347 F60.00
G01 X6.5070 Y-6.9328 F60.00
G01 X6.5238 Y-6.9289 F60.00
G01 X6.5400 Y-6.9234 F60.00
G01 X6.5557 Y-6.9163 F60.00
G01 X6.6208 Y-6.8808 F60.00
G01 X6.6315 Y-6.8744 F60.00
G01 X6.6418 Y-6.8673 F60.00
G01 X6.6515 Y-6.8594 F60.00
G01 X6.6606 Y-6.8509 F60.00
G01 X6.8062 Y-6.7053 F60.00
G01 X6.8154 Y-6.6947 F60.00
G01 X6.8347 Y-6.6707 F60.00
G01 X6.8422 Y-6.6602 F60.00
G01 X6.8467 Y-6.6529 F60.00
G01 X6.8547 Y-6.6377 F60.00
G01 X6.8611 Y-6.6217 F60.00
G01 X6.8834 Y-6.5465 F60.00
G01 X6.8865 Y-6.5344 F60.00
G01 X6.8887 Y-6.5221 F60.00
G01 X6.8901 Y-6.5097 F60.00
G01 X6.8905 Y-6.4972 F60.00
G01 X6.8905 Y-3.5545 F60.00
G01 X6.8897 Y-3.5379 F60.00
G01 X6.8873 Y-3.5214 F60.00
G01 X6.8743 Y-3.4615 F60.00
G01 X6.8707 Y-3.4489 F60.00
G01 X6.8678 Y-3.4407 F60.00
G01 X6.8627 Y-3.4286 F60.00
G01 X6.8567 Y-3.4169 F60.00
G01 X6.8498 Y-3.4058 F60.00
G01 X6.8394 Y-3.3917 F60.00
G01 X6.7849 Y-3.3292 F60.00
G01 X6.7723 Y-3.3172 F60.00
G01 X6.7586 Y-3.3066 F60.00
G01 X6.7476 Y-3.2995 F60.00
G01 X6.7361 Y-3.2933 F60.00
G01 X6.7243 Y-3.2880 F60.00
G01 X6.7120 Y-3.2836 F60.00
G01 X6.6328 Y-3.2604 F60.00
G01 X6.6164 Y-3.2573 F60.00
G01 X6.6040 Y-3.2559 F60.00
G01 X6.5957 Y-3.2555 F60.00
G01 X6.0474 Y-3.2555 F60.00
G01 X6.0280 Y-3.2561 F60.00
G01 X6.0194 Y-3.2569 F60.00
G01 X6.0023 Y-3.2596 F60.00
G01 X5.9856 Y-3.2640 F60.00
G01 X5.9081 Y-3.2928 F60.00
G01 X5.8967 Y-3.2978 F60.00
G01 X5.8856 Y-3.3037 F60.00
G01 X5.8750 Y-3.3103 F60.00
G01 X5.8636 Y-3.3186 F60.00
G01 X5.7729 Y-3.3524 F60.00
G01 X5.7454 Y-3.3554 F60.00
G01 X5.7060 Y-3.3550 F60.00
G01 X4.3060 Y-3.3550 F60.00
G01 X4.2928 Y-3.3555 F60.00
G01 X4.2675 Y-3.3555 F60.00
G01 X4.2391 Y-3.3524 F60.00
G01 X4.2216 Y-3.3465 F60.00
G01 X4.1914 Y-3.3388 F60.00
G01 X4.1788 Y-3.3360 F60.00
G01 X4.1661 Y-3.3342 F60.00
G01 X4.1489 Y-3.3333 F60.00
G01 X4.1360 Y-3.3337 F60.00
G01 X4.1275 Y-3.3346 F60.00
G01 X4.0498 Y-3.3457 F60.00
G01 X4.0328 Y-3.3495 F60.00
G01 X4.0163 Y-3.3549 F60.00
G01 X4.0043 Y-3.3600 F60.00
G01 X3.9927 Y-3.3660 F60.00
G01 X3.9781 Y-3.3753 F60.00
G01 X3.9677 Y-3.3832 F60.00
G01 X3.9052 Y-3.4376 F60.00
G01 X3.8932 Y-3.4503 F60.00
G01 X3.8851 Y-3.4605 F60.00
G01 X3.8778 Y-3.4713 F60.00
G01 X3.8713 Y-3.4826 F60.00
G01 X3.8657 Y-3.4943 F60.00
G01 X3.8609 Y-3.5064 F60.00
G01 X3.8386 Y-3.5818 F60.00
G01 X3.8355 Y-3.5939 F60.00
G01 X3.8339 Y-3.6020 F60.00
G01 X3.8319 Y-3.6186 F60.00
G01 X3.8315 Y-3.6311 F60.00
G01 X3.8315 Y-4.7685 F60.00
G01 X3.8284 Y-4.7969 F60.00
G01 X3.7946 Y-4.8876 F60.00
G01 X3.7385 Y-4.9625 F60.00
G01 X3.6636 Y-5.0186 F60.00
G01 X3.5729 Y-5.0524 F60.00
G01 X3.5445 Y-5.0555 F60.00
G01 X2.1603 Y-5.0555 F60.00
G01 X2.1478 Y-5.0559 F60.00
G01 X2.1395 Y-5.0567 F60.00
G01 X2.1231 Y-5.0595 F60.00
G01 X2.0716 Y-5.0707 F60.00
G01 X2.0589 Y-5.0740 F60.00
G01 X2.0506 Y-5.0767 F60.00
G01 X2.0384 Y-5.0815 F60.00
G01 X2.0227 Y-5.0893 F60.00
G01 X2.0116 Y-5.0962 F60.00
G01 X1.9975 Y-5.1066 F60.00
G01 X1.9381 Y-5.1581 F60.00
G01 X1.9259 Y-5.1704 F60.00
G01 X1.9149 Y-5.1839 F60.00
G01 X1.9053 Y-5.1984 F60.00
G01 X1.8973 Y-5.2138 F60.00
G01 X1.8907 Y-5.2299 F60.00
G01 X1.8662 Y-5.3132 F60.00
G01 X1.8645 Y-5.3214 F60.00
G01 X1.8625 Y-5.3337 F60.00
G01 X1.8615 Y-5.3462 F60.00
G01 X1.8613 Y-5.3545 F60.00
G00 Z2.0000
G00 X0.3608 Y-8.8004
G01 F60.00
G01 Z-0.4665
G01 F60.00
G01 X0.3638 Y-8.8580 F60.00
G01 X0.3727 Y-8.9193 F60.00
G01 X0.3754 Y-8.9319 F60.00
G01 X0.3873 Y-8.9795 F60.00
G01 X0.3923 Y-8.9960 F60.00
G01 X0.4120 Y-9.0502 F60.00
G01 X0.4403 Y-9.1101 F60.00
G01 X0.4744 Y-9.1669 F60.00
G01 X0.5085 Y-9.2134 F60.00
G01 X0.5194 Y-9.2267 F60.00
G01 X0.5583 Y-9.2693 F60.00
G01 X1.1425 Y-9.8535 F60.00
G01 X1.1851 Y-9.8924 F60.00
G01 X1.1950 Y-9.9007 F60.00
G01 X1.2378 Y-9.9325 F60.00
G01 X1.2521 Y-9.9420 F60.00
G01 X1.3017 Y-9.9715 F60.00
G01 X1.3537 Y-9.9964 F60.00
G01 X1.3696 Y-10.0029 F60.00
G01 X1.4240 Y-10.0222 F60.00
G01 X1.4883 Y-10.0383 F60.00
G01 X1.5538 Y-10.0480 F60.00
G01 X1.6157 Y-10.0512 F60.00
G01 X1.9740 Y-10.0513 F60.00
G01 X1.9742 Y-10.0726 F60.00
G01 X1.9748 Y-10.0812 F60.00
G01 X1.9766 Y-10.0939 F60.00
G01 X1.9783 Y-10.1023 F60.00
G01 X1.9815 Y-10.1148 F60.00
G01 X1.9857 Y-10.1270 F60.00
G01 X1.9890 Y-10.1349 F60.00
G01 X1.9947 Y-10.1465 F60.00
G01 X1.9989 Y-10.1540 F60.00
G01 X2.0035 Y-10.1612 F60.00
G01 X2.0110 Y-10.1717 F60.00
G01 X2.0193 Y-10.1815 F60.00
G01 X2.0253 Y-10.1877 F60.00
G01 X2.0315 Y-10.1937 F60.00
G01 X2.0413 Y-10.2020 F60.00
G01 X2.0518 Y-10.2095 F60.00
G01 X2.0590 Y-10.2141 F60.00
G01 X2.0742 Y-10.2222 F60.00
G01 X2.0900 Y-10.2288 F60.00
G01 X2.1023 Y-10.2327 F60.00
G01 X2.1107 Y-10.2347 F60.00
G01 X2.1276 Y-10.2377 F60.00
G01 X2.1404 Y-10.2388 F60.00
G01 X2.2147 Y-10.2390 F60.00
G01 X2.2150 Y-14.5354 F60.00
G01 X2.2152 Y-14.5440 F60.00
G01 X2.2163 Y-14.5568 F60.00
G01 X2.2184 Y-14.5695 F60.00
G01 X2.2202 Y-14.5779 F60.00
G01 X2.2225 Y-14.5862 F60.00
G01 X2.2267 Y-14.5984 F60.00
G01 X2.2318 Y-14.6102 F60.00
G01 X2.2357 Y-14.6179 F60.00
G01 X2.2422 Y-14.6290 F60.00
G01 X2.2469 Y-14.6362 F60.00
G01 X2.2547 Y-14.6464 F60.00
G01 X2.2603 Y-14.6529 F60.00
G01 X2.2663 Y-14.6591 F60.00
G01 X2.2757 Y-14.6679 F60.00
G01 X2.2858 Y-14.6760 F60.00
G01 X2.2964 Y-14.6832 F60.00
G01 X2.3037 Y-14.6877 F60.00
G01 X2.3152 Y-14.6936 F60.00
G01 X2.3270 Y-14.6987 F60.00
G01 X2.3392 Y-14.7029 F60.00
G01 X2.3517 Y-14.7061 F60.00
G01 X2.3601 Y-14.7078 F60.00
G01 X2.3728 Y-14.7096 F60.00
G01 X2.3814 Y-14.7102 F60.00
G01 X3.3943 Y-14.7103 F60.00
G01 X3.4029 Y-14.7099 F60.00
G01 X3.4157 Y-14.7085 F60.00
G01 X3.4325 Y-14.7052 F60.00
G01 X3.4408 Y-14.7029 F60.00
G01 X3.4530 Y-14.6987 F60.00
G01 X3.4609 Y-14.6954 F60.00
G01 X3.4725 Y-14.6897 F60.00
G01 X3.4800 Y-14.6855 F60.00
G01 X3.4908 Y-14.6785 F60.00
G01 X3.5010 Y-14.6707 F60.00
G01 X3.5107 Y-14.6621 F60.00
G01 X3.5167 Y-14.6561 F60.00
G01 X3.5253 Y-14.6464 F60.00
G01 X3.5306 Y-14.6396 F60.00
G01 X3.5378 Y-14.6290 F60.00
G01 X3.5443 Y-14.6179 F60.00
G01 X3.5482 Y-14.6102 F60.00
G01 X3.5533 Y-14.5984 F60.00
G01 X3.5575 Y-14.5862 F60.00
G01 X3.5607 Y-14.5737 F60.00
G01 X3.5631 Y-14.5611 F60.00
G01 X3.5642 Y-14.5526 F60.00
G01 X3.5649 Y-14.5397 F60.00
G01 X3.5653 Y-14.0104 F60.00
G01 X3.5653 Y-10.2382 F60.00
G01 X3.5789 Y-10.2364 F60.00
G01 X3.5915 Y-10.2338 F60.00
G01 X3.6080 Y-10.2288 F60.00
G01 X3.6199 Y-10.2240 F60.00
G01 X3.6315 Y-10.2183 F60.00
G01 X3.6462 Y-10.2095 F60.00
G01 X3.6600 Y-10.1993 F60.00
G01 X3.6697 Y-10.1907 F60.00
G01 X3.6787 Y-10.1815 F60.00
G01 X3.6896 Y-10.1682 F60.00
G01 X3.6968 Y-10.1576 F60.00
G01 X3.7053 Y-10.1427 F60.00
G01 X3.7107 Y-10.1310 F60.00
G01 X3.7165 Y-10.1148 F60.00
G01 X3.7197 Y-10.1023 F60.00
G01 X3.7227 Y-10.0854 F60.00
G01 X3.7238 Y-10.0726 F60.00
G01 X3.7240 Y-10.0640 F60.00
G01 X3.7240 Y-8.8640 F60.00
G01 X3.7235 Y-8.8511 F60.00
G01 X3.7214 Y-8.8341 F60.00
G01 X3.7177 Y-8.8173 F60.00
G01 X3.7138 Y-8.8050 F60.00
G01 X3.7090 Y-8.7931 F60.00
G01 X3.7033 Y-8.7815 F60.00
G01 X3.6968 Y-8.7704 F60.00
G01 X3.6870 Y-8.7563 F60.00
G01 X3.6787 Y-8.7465 F60.00
G01 X3.6665 Y-8.7343 F60.00
G01 X3.6567 Y-8.7260 F60.00
G01 X3.6426 Y-8.7162 F60.00
G01 X3.6315 Y-8.7097 F60.00
G01 X3.6160 Y-8.7023 F60.00
G01 X3.5998 Y-8.6965 F60.00
G01 X3.5873 Y-8.6933 F60.00
G01 X3.5747 Y-8.6909 F60.00
G01 X3.5619 Y-8.6895 F60.00
G01 X3.5490 Y-8.6890 F60.00
G01 X2.1490 Y-8.6890 F60.00
G01 X2.1318 Y-8.6898 F60.00
G01 X2.1149 Y-8.6924 F60.00
G01 X2.0982 Y-8.6965 F60.00
G01 X2.0860 Y-8.7007 F60.00
G01 X1.8997 Y-8.7007 F60.00
G01 X1.7111 Y-8.5121 F60.00
G01 X1.7111 Y-4.8053 F60.00
G01 X1.9480 Y-4.8053 F60.00
G01 X1.9537 Y-4.8163 F60.00
G01 X1.9605 Y-4.8272 F60.00
G01 X1.9680 Y-4.8377 F60.00
G01 X1.9763 Y-4.8475 F60.00
G01 X1.9823 Y-4.8537 F60.00
G01 X1.9917 Y-4.8625 F60.00
G01 X2.0018 Y-4.8706 F60.00
G01 X2.0124 Y-4.8778 F60.00
G01 X2.0235 Y-4.8843 F60.00
G01 X2.0351 Y-4.8900 F60.00
G01 X2.0470 Y-4.8948 F60.00
G01 X2.0552 Y-4.8975 F60.00
G01 X2.0677 Y-4.9007 F60.00
G01 X2.0761 Y-4.9024 F60.00
G01 X2.0888 Y-4.9042 F60.00
G01 X2.1017 Y-4.9049 F60.00
G01 X3.5103 Y-4.9049 F60.00
G01 X3.5232 Y-4.9042 F60.00
G01 X3.5359 Y-4.9024 F60.00
G01 X3.5527 Y-4.8987 F60.00
G01 X3.5650 Y-4.8948 F60.00
G01 X3.5769 Y-4.8900 F60.00
G01 X3.5885 Y-4.8843 F60.00
G01 X3.5996 Y-4.8778 F60.00
G01 X3.6102 Y-4.8706 F60.00
G01 X3.6235 Y-4.8597 F60.00
G01 X3.6297 Y-4.8537 F60.00
G01 X3.6385 Y-4.8443 F60.00
G01 X3.6466 Y-4.8342 F60.00
G01 X3.6515 Y-4.8272 F60.00
G01 X3.6603 Y-4.8125 F60.00
G01 X3.6677 Y-4.7970 F60.00
G01 X3.6722 Y-4.7849 F60.00
G01 X3.6747 Y-4.7767 F60.00
G01 X3.6784 Y-4.7599 F60.00
G01 X3.6802 Y-4.7472 F60.00
G01 X3.6808 Y-4.7386 F60.00
G01 X3.6810 Y-3.5300 F60.00
G01 X3.6808 Y-3.5214 F60.00
G01 X3.6797 Y-3.5086 F60.00
G01 X3.6776 Y-3.4959 F60.00
G01 X3.6747 Y-3.4833 F60.00
G01 X3.6722 Y-3.4751 F60.00
G01 X3.6677 Y-3.4630 F60.00
G01 X3.6642 Y-3.4552 F60.00
G01 X3.6583 Y-3.4437 F60.00
G01 X3.6515 Y-3.4328 F60.00
G01 X3.6440 Y-3.4223 F60.00
G01 X3.6385 Y-3.4157 F60.00
G01 X3.6297 Y-3.4063 F60.00
G01 X3.6235 Y-3.4003 F60.00
G01 X3.6137 Y-3.3920 F60.00
G01 X3.6068 Y-3.3869 F60.00
G01 X3.5960 Y-3.3799 F60.00
G01 X3.5885 Y-3.3757 F60.00
G01 X3.5769 Y-3.3700 F60.00
G01 X3.5650 Y-3.3652 F60.00
G01 X3.5568 Y-3.3625 F60.00
G01 X3.5443 Y-3.3593 F60.00
G01 X3.5317 Y-3.3569 F60.00
G01 X3.5189 Y-3.3555 F60.00
G01 X3.5103 Y-3.3551 F60.00
G01 X2.0974 Y-3.3552 F60.00
G01 X2.0888 Y-3.3558 F60.00
G01 X2.0761 Y-3.3576 F60.00
G01 X2.0635 Y-3.3602 F60.00
G01 X2.0511 Y-3.3638 F60.00
G01 X2.0390 Y-3.3683 F60.00
G01 X2.0273 Y-3.3737 F60.00
G01 X2.0160 Y-3.3799 F60.00
G01 X2.0088 Y-3.3845 F60.00
G01 X1.9983 Y-3.3920 F60.00
G01 X1.9885 Y-3.4003 F60.00
G01 X1.9793 Y-3.4093 F60.00
G01 X1.9735 Y-3.4157 F60.00
G01 X1.9680 Y-3.4223 F60.00
G01 X1.9605 Y-3.4328 F60.00
G01 X1.9537 Y-3.4437 F60.00
G01 X1.9480 Y-3.4547 F60.00
G01 X1.4007 Y-3.4548 F60.00
G01 X1.3474 Y-3.4574 F60.00
G01 X1.3303 Y-3.4591 F60.00
G01 X1.2733 Y-3.4677 F60.00
G01 X1.2173 Y-3.4815 F60.00
G01 X1.2008 Y-3.4865 F60.00
G01 X1.1466 Y-3.5062 F60.00
G01 X1.0867 Y-3.5345 F60.00
G01 X1.0299 Y-3.5686 F60.00
G01 X0.9834 Y-3.6027 F60.00
G01 X0.9701 Y-3.6136 F60.00
G01 X0.9275 Y-3.6525 F60.00
G01 X0.5553 Y-4.0248 F60.00
G01 X0.5194 Y-4.0643 F60.00
G01 X0.5085 Y-4.0776 F60.00
G01 X0.4744 Y-4.1241 F60.00
G01 X0.4445 Y-4.1734 F60.00
G01 X0.4364 Y-4.1886 F60.00
G01 X0.4120 Y-4.2408 F60.00
G01 X0.3923 Y-4.2950 F60.00
G01 X0.3873 Y-4.3115 F60.00
G01 X0.3735 Y-4.3675 F60.00
G01 X0.3649 Y-4.4245 F60.00
G01 X0.3632 Y-4.4416 F60.00
G01 X0.3606 Y-4.4949 F60.00
G01 X0.3608 Y-8.8004 F60.00
G00 Z2.0000
G00 X-0.1745 Y-9.4566
G01 F60.00
G01 Z-0.4665
G01 F60.00
G01 X-0.1745 Y-14.8755 F60.00
G01 X-0.1737 Y-14.8921 F60.00
G01 X-0.1713 Y-14.9086 F60.00
G01 X-0.1583 Y-14.9685 F60.00
G01 X-0.1547 Y-14.9811 F60.00
G01 X-0.1518 Y-14.9893 F60.00
G01 X-0.1467 Y-15.0014 F60.00
G01 X-0.1407 Y-15.0131 F60.00
G01 X-0.1313 Y-15.0278 F60.00
G01 X-0.1234 Y-15.0383 F60.00
G01 X-0.0689 Y-15.1008 F60.00
G01 X-0.0563 Y-15.1128 F60.00
G01 X-0.0426 Y-15.1234 F60.00
G01 X-0.0316 Y-15.1305 F60.00
G01 X-0.0201 Y-15.1367 F60.00
G01 X-0.0083 Y-15.1420 F60.00
G01 X0.0040 Y-15.1464 F60.00
G01 X0.0792 Y-15.1685 F60.00
G01 X0.0955 Y-15.1721 F60.00
G01 X0.1120 Y-15.1741 F60.00
G01 X0.1245 Y-15.1745 F60.00
G01 X1.8689 Y-15.1744 F60.00
G01 X1.8863 Y-15.1731 F60.00
G01 X1.9035 Y-15.1701 F60.00
G01 X1.9713 Y-15.1528 F60.00
G01 X1.9875 Y-15.1474 F60.00
G01 X2.0030 Y-15.1404 F60.00
G01 X2.0178 Y-15.1320 F60.00
G01 X2.0317 Y-15.1222 F60.00
G01 X2.0415 Y-15.1139 F60.00
G01 X2.1001 Y-15.0556 F60.00
G01 X2.1114 Y-15.0424 F60.00
G01 X2.1214 Y-15.0282 F60.00
G01 X2.1280 Y-15.0169 F60.00
G01 X2.1336 Y-15.0051 F60.00
G01 X2.1384 Y-14.9930 F60.00
G01 X2.1423 Y-14.9806 F60.00
G01 X2.1601 Y-14.8996 F60.00
G01 X2.1620 Y-14.8867 F60.00
G01 X2.1632 Y-14.8694 F60.00
G01 X2.1626 Y-14.8520 F60.00
G01 X2.1610 Y-14.8391 F60.00
G01 X2.1585 Y-14.8263 F60.00
G01 X2.1536 Y-14.8096 F60.00
G01 X2.1277 Y-14.7400 F60.00
G01 X2.1229 Y-14.7285 F60.00
G01 X2.1193 Y-14.7210 F60.00
G01 X2.1132 Y-14.7101 F60.00
G01 X2.1087 Y-14.7031 F60.00
G01 X2.1014 Y-14.6930 F60.00
G01 X2.0676 Y-14.6023 F60.00
G01 X2.0645 Y-14.5739 F60.00
G01 X2.0645 Y-13.7084 F60.00
G01 X2.0753 Y-13.6964 F60.00
G01 X2.0855 Y-13.6826 F60.00
G01 X2.0943 Y-13.6679 F60.00
G01 X2.1017 Y-13.6524 F60.00
G01 X2.1075 Y-13.6362 F60.00
G01 X2.1116 Y-13.6195 F60.00
G01 X2.1142 Y-13.6026 F60.00
G01 X2.1149 Y-13.5897 F60.00
G01 X2.1150 Y-11.3854 F60.00
G01 X2.1142 Y-11.3682 F60.00
G01 X2.1116 Y-11.3513 F60.00
G01 X2.1075 Y-11.3346 F60.00
G01 X2.1017 Y-11.3184 F60.00
G01 X2.0943 Y-11.3029 F60.00
G01 X2.0855 Y-11.2882 F60.00
G01 X2.0753 Y-11.2744 F60.00
G01 X2.0645 Y-11.2624 F60.00
G01 X2.0644 Y-10.5526 F60.00
G01 X2.0636 Y-10.5392 F60.00
G01 X2.0625 Y-10.5303 F60.00
G01 X2.0531 Y-10.4784 F60.00
G01 X2.0500 Y-10.4660 F60.00
G01 X2.0446 Y-10.4498 F60.00
G01 X2.0395 Y-10.4380 F60.00
G01 X2.0356 Y-10.4304 F60.00
G01 X2.0291 Y-10.4193 F60.00
G01 X2.0243 Y-10.4123 F60.00
G01 X1.9774 Y-10.3496 F60.00
G01 X1.9693 Y-10.3400 F60.00
G01 X1.9636 Y-10.3340 F60.00
G01 X1.9575 Y-10.3283 F60.00
G01 X1.9480 Y-10.3202 F60.00
G01 X1.9061 Y-10.2887 F60.00
G01 X1.8995 Y-10.2828 F60.00
G01 X1.8877 Y-10.2735 F60.00
G01 X1.8788 Y-10.2652 F60.00
G01 X1.8689 Y-10.2571 F60.00
G01 X1.8620 Y-10.2521 F60.00
G01 X1.8511 Y-10.2452 F60.00
G01 X1.8399 Y-10.2391 F60.00
G01 X1.8321 Y-10.2355 F60.00
G01 X1.8161 Y-10.2295 F60.00
G01 X1.7450 Y-10.2086 F60.00
G01 X1.7329 Y-10.2055 F60.00
G01 X1.7206 Y-10.2033 F60.00
G01 X1.7040 Y-10.2017 F60.00
G01 X1.6837 Y-10.2015 F60.00
G01 X1.6648 Y-10.2026 F60.00
G01 X1.6410 Y-10.2055 F60.00
G01 X1.5909 Y-10.2018 F60.00
G01 X1.5361 Y-10.2015 F60.00
G01 X1.5162 Y-10.1975 F60.00
G01 X1.5012 Y-10.1952 F60.00
G01 X1.4736 Y-10.1927 F60.00
G01 X1.4253 Y-10.1790 F60.00
G01 X1.3716 Y-10.1677 F60.00
G01 X1.3461 Y-10.1571 F60.00
G01 X1.3317 Y-10.1522 F60.00
G01 X1.3122 Y-10.1466 F60.00
G01 X1.2634 Y-10.1214 F60.00
G01 X1.2173 Y-10.1015 F60.00
G01 X1.2007 Y-10.0900 F60.00
G01 X1.1877 Y-10.0819 F60.00
G01 X1.1634 Y-10.0688 F60.00
G01 X1.1244 Y-10.0372 F60.00
G01 X1.0795 Y-10.0056 F60.00
G01 X1.0273 Y-9.9507 F60.00
G01 X0.4997 Y-9.4232 F60.00
G01 X0.4830 Y-9.4080 F60.00
G01 X0.4641 Y-9.3932 F60.00
G01 X0.4281 Y-9.3518 F60.00
G01 X0.3927 Y-9.3162 F60.00
G01 X0.3794 Y-9.2963 F60.00
G01 X0.3679 Y-9.2812 F60.00
G01 X0.3485 Y-9.2586 F60.00
G01 X0.3267 Y-9.2365 F60.00
G01 X0.3174 Y-9.2281 F60.00
G01 X0.3074 Y-9.2205 F60.00
G01 X0.2969 Y-9.2135 F60.00
G01 X0.2896 Y-9.2093 F60.00
G01 X0.2784 Y-9.2037 F60.00
G01 X0.2148 Y-9.1747 F60.00
G01 X0.2028 Y-9.1697 F60.00
G01 X0.1904 Y-9.1657 F60.00
G01 X0.1820 Y-9.1635 F60.00
G01 X0.1692 Y-9.1610 F60.00
G01 X0.1563 Y-9.1594 F60.00
G01 X0.1432 Y-9.1589 F60.00
G01 X0.1302 Y-9.1593 F60.00
G01 X0.1215 Y-9.1601 F60.00
G01 X0.0438 Y-9.1713 F60.00
G01 X0.0268 Y-9.1750 F60.00
G01 X0.0103 Y-9.1804 F60.00
G01 X-0.0017 Y-9.1856 F60.00
G01 X-0.0170 Y-9.1937 F60.00
G01 X-0.0279 Y-9.2009 F60.00
G01 X-0.0416 Y-9.2116 F60.00
G01 X-0.0944 Y-9.2573 F60.00
G01 X-0.1039 Y-9.2662 F60.00
G01 X-0.1099 Y-9.2725 F60.00
G01 X-0.1183 Y-9.2825 F60.00
G01 X-0.1258 Y-9.2931 F60.00
G01 X-0.1326 Y-9.3043 F60.00
G01 X-0.1403 Y-9.3199 F60.00
G01 X-0.1451 Y-9.3320 F60.00
G01 X-0.1685 Y-9.4113 F60.00
G01 X-0.1713 Y-9.4235 F60.00
G01 X-0.1733 Y-9.4358 F60.00
G01 X-0.1743 Y-9.4483 F60.00
G01 X-0.1745 Y-9.4566 F60.00
G00 Z2.0000
G00 X3.6195 Y-14.8828
G01 F60.00
G01 Z-0.4665
G01 F60.00
G01 X3.6295 Y-14.9519 F60.00
G01 X3.6318 Y-14.9647 F60.00
G01 X3.6364 Y-14.9815 F60.00
G01 X3.6393 Y-14.9897 F60.00
G01 X3.6444 Y-15.0017 F60.00
G01 X3.6483 Y-15.0094 F60.00
G01 X3.6549 Y-15.0207 F60.00
G01 X3.6649 Y-15.0349 F60.00
G01 X3.7162 Y-15.0944 F60.00
G01 X3.7251 Y-15.1039 F60.00
G01 X3.7380 Y-15.1156 F60.00
G01 X3.7520 Y-15.1258 F60.00
G01 X3.7594 Y-15.1305 F60.00
G01 X3.7709 Y-15.1367 F60.00
G01 X3.7868 Y-15.1436 F60.00
G01 X3.7992 Y-15.1477 F60.00
G01 X3.8742 Y-15.1696 F60.00
G01 X3.8824 Y-15.1713 F60.00
G01 X3.8947 Y-15.1733 F60.00
G01 X3.9072 Y-15.1743 F60.00
G01 X3.9155 Y-15.1745 F60.00
G01 X27.9589 Y-15.1745 F60.00
G01 X27.9764 Y-15.1736 F60.00
G01 X27.9894 Y-15.1718 F60.00
G01 X28.0022 Y-15.1691 F60.00
G01 X28.0698 Y-15.1516 F60.00
G01 X28.0859 Y-15.1458 F60.00
G01 X28.0936 Y-15.1423 F60.00
G01 X28.1050 Y-15.1364 F60.00
G01 X28.1193 Y-15.1273 F60.00
G01 X28.1262 Y-15.1222 F60.00
G01 X28.1359 Y-15.1140 F60.00
G01 X28.1975 Y-15.0524 F60.00
G01 X28.2085 Y-15.0389 F60.00
G01 X28.2181 Y-15.0245 F60.00
G01 X28.2244 Y-15.0130 F60.00
G01 X28.2281 Y-15.0051 F60.00
G01 X28.2342 Y-14.9889 F60.00
G01 X28.2388 Y-14.9721 F60.00
G01 X28.2545 Y-14.8997 F60.00
G01 X28.2564 Y-14.8871 F60.00
G01 X28.2574 Y-14.8745 F60.00
G01 X28.2575 Y-14.8618 F60.00
G01 X28.2563 Y-14.8449 F60.00
G01 X28.2533 Y-14.8282 F60.00
G01 X28.2501 Y-14.8159 F60.00
G01 X28.2249 Y-14.7448 F60.00
G01 X28.2213 Y-14.7362 F60.00
G01 X28.2171 Y-14.7275 F60.00
G01 X28.1788 Y-14.6247 F60.00
G01 X28.1757 Y-14.5963 F60.00
G01 X28.1757 Y-13.7308 F60.00
G01 X28.1865 Y-13.7188 F60.00
G01 X28.1967 Y-13.7050 F60.00
G01 X28.2055 Y-13.6903 F60.00
G01 X28.2129 Y-13.6748 F60.00
G01 X28.2187 Y-13.6586 F60.00
G01 X28.2228 Y-13.6419 F60.00
G01 X28.2249 Y-13.6292 F60.00
G01 X28.2261 Y-13.6121 F60.00
G01 X28.2262 Y-11.4078 F60.00
G01 X28.2254 Y-11.3906 F60.00
G01 X28.2228 Y-11.3737 F60.00
G01 X28.2187 Y-11.3570 F60.00
G01 X28.2129 Y-11.3408 F60.00
G01 X28.2055 Y-11.3253 F60.00
G01 X28.1967 Y-11.3106 F60.00
G01 X28.1865 Y-11.2968 F60.00
G01 X28.1757 Y-11.2848 F60.00
G01 X28.1757 Y-10.7545 F60.00
G01 X28.1753 Y-10.7420 F60.00
G01 X28.1733 Y-10.7255 F60.00
G01 X28.1584 Y-10.6573 F60.00
G01 X28.1530 Y-10.6407 F60.00
G01 X28.1497 Y-10.6326 F60.00
G01 X28.1440 Y-10.6208 F60.00
G01 X28.1350 Y-10.6058 F60.00
G01 X28.1246 Y-10.5917 F60.00
G01 X28.0760 Y-10.5356 F60.00
G01 X28.0640 Y-10.5230 F60.00
G01 X28.0508 Y-10.5117 F60.00
G01 X28.0365 Y-10.5018 F60.00
G01 X28.0213 Y-10.4933 F60.00
G01 X28.0054 Y-10.4864 F60.00
G01 X27.9930 Y-10.4823 F60.00
G01 X27.9180 Y-10.4604 F60.00
G01 X27.9016 Y-10.4573 F60.00
G01 X27.8850 Y-10.4557 F60.00
G01 X27.5699 Y-10.4556 F60.00
G01 X27.5609 Y-10.4560 F60.00
G01 X27.5476 Y-10.4575 F60.00
G01 X27.4999 Y-10.4661 F60.00
G01 X27.4833 Y-10.4700 F60.00
G01 X27.4671 Y-10.4754 F60.00
G01 X27.4553 Y-10.4805 F60.00
G01 X27.4403 Y-10.4887 F60.00
G01 X27.4296 Y-10.4957 F60.00
G01 X27.3669 Y-10.5426 F60.00
G01 X27.3573 Y-10.5507 F60.00
G01 X27.3478 Y-10.5601 F60.00
G01 X27.2696 Y-10.6186 F60.00
G01 X27.1789 Y-10.6524 F60.00
G01 X27.1505 Y-10.6555 F60.00
G01 X25.8735 Y-10.6555 F60.00
G01 X25.8451 Y-10.6524 F60.00
G01 X25.7544 Y-10.6186 F60.00
G01 X25.6795 Y-10.5625 F60.00
G01 X25.6234 Y-10.4876 F60.00
G01 X25.5896 Y-10.3969 F60.00
G01 X25.5866 Y-10.3694 F60.00
G01 X25.5870 Y-10.3300 F60.00
G01 X25.5870 Y-8.9300 F60.00
G01 X25.5865 Y-8.9168 F60.00
G01 X25.5865 Y-8.8915 F60.00
G01 X25.5896 Y-8.8631 F60.00
G01 X25.5955 Y-8.8456 F60.00
G01 X25.6032 Y-8.8154 F60.00
G01 X25.6060 Y-8.8028 F60.00
G01 X25.6081 Y-8.7858 F60.00
G01 X25.6086 Y-8.7686 F60.00
G01 X25.6074 Y-8.7515 F60.00
G01 X25.5969 Y-8.6781 F60.00
G01 X25.5946 Y-8.6653 F60.00
G01 X25.5925 Y-8.6568 F60.00
G01 X25.5871 Y-8.6403 F60.00
G01 X25.5801 Y-8.6244 F60.00
G01 X25.5715 Y-8.6093 F60.00
G01 X25.5615 Y-8.5951 F60.00
G01 X25.5102 Y-8.5356 F60.00
G01 X25.5013 Y-8.5261 F60.00
G01 X25.4950 Y-8.5201 F60.00
G01 X25.4850 Y-8.5117 F60.00
G01 X25.4744 Y-8.5042 F60.00
G01 X25.4670 Y-8.4995 F60.00
G01 X25.4517 Y-8.4915 F60.00
G01 X25.4396 Y-8.4864 F60.00
G01 X25.4314 Y-8.4835 F60.00
G01 X25.3562 Y-8.4615 F60.00
G01 X25.3400 Y-8.4579 F60.00
G01 X25.3276 Y-8.4563 F60.00
G01 X25.3109 Y-8.4555 F60.00
G01 X24.1735 Y-8.4555 F60.00
G01 X24.1451 Y-8.4524 F60.00
G01 X24.0544 Y-8.4186 F60.00
G01 X23.9795 Y-8.3625 F60.00
G01 X23.9234 Y-8.2876 F60.00
G01 X23.8896 Y-8.1969 F60.00
G01 X23.8865 Y-8.1685 F60.00
G01 X23.8865 Y-6.6915 F60.00
G01 X23.8896 Y-6.6631 F60.00
G01 X23.9234 Y-6.5724 F60.00
G01 X23.9759 Y-6.5023 F60.00
G01 X23.9846 Y-6.4899 F60.00
G01 X23.9893 Y-6.4827 F60.00
G01 X23.9958 Y-6.4715 F60.00
G01 X24.0030 Y-6.4558 F60.00
G01 X24.0087 Y-6.4394 F60.00
G01 X24.0295 Y-6.3684 F60.00
G01 X24.0323 Y-6.3562 F60.00
G01 X24.0337 Y-6.3480 F60.00
G01 X24.0353 Y-6.3314 F60.00
G01 X24.0355 Y-4.0719 F60.00
G01 X24.0347 Y-4.0595 F60.00
G01 X24.0323 Y-4.0430 F60.00
G01 X24.0182 Y-3.9789 F60.00
G01 X24.0143 Y-3.9664 F60.00
G01 X24.0095 Y-3.9542 F60.00
G01 X24.0038 Y-3.9424 F60.00
G01 X23.9972 Y-3.9310 F60.00
G01 X23.9898 Y-3.9202 F60.00
G01 X23.9815 Y-3.9100 F60.00
G01 X23.9358 Y-3.8572 F60.00
G01 X23.9238 Y-3.8446 F60.00
G01 X23.9106 Y-3.8333 F60.00
G01 X23.8963 Y-3.8234 F60.00
G01 X23.8811 Y-3.8149 F60.00
G01 X23.8652 Y-3.8080 F60.00
G01 X23.8528 Y-3.8039 F60.00
G01 X23.7778 Y-3.7820 F60.00
G01 X23.7655 Y-3.7795 F60.00
G01 X23.7573 Y-3.7783 F60.00
G01 X23.7490 Y-3.7775 F60.00
G01 X23.7365 Y-3.7771 F60.00
G01 X21.2034 Y-3.7771 F60.00
G01 X21.1840 Y-3.7777 F60.00
G01 X21.1711 Y-3.7790 F60.00
G01 X21.1583 Y-3.7812 F60.00
G01 X21.1416 Y-3.7856 F60.00
G01 X21.0680 Y-3.8129 F60.00
G01 X21.0564 Y-3.8176 F60.00
G01 X21.0453 Y-3.8232 F60.00
G01 X21.0380 Y-3.8274 F60.00
G01 X21.0276 Y-3.8343 F60.00
G01 X21.0196 Y-3.8402 F60.00
G01 X20.9289 Y-3.8740 F60.00
G01 X20.9014 Y-3.8770 F60.00
G01 X20.8620 Y-3.8766 F60.00
G01 X19.4620 Y-3.8766 F60.00
G01 X19.4488 Y-3.8771 F60.00
G01 X19.4235 Y-3.8771 F60.00
G01 X19.3951 Y-3.8740 F60.00
G01 X19.3776 Y-3.8681 F60.00
G01 X19.3474 Y-3.8604 F60.00
G01 X19.3348 Y-3.8576 F60.00
G01 X19.3178 Y-3.8555 F60.00
G01 X19.3049 Y-3.8549 F60.00
G01 X19.2920 Y-3.8553 F60.00
G01 X19.2835 Y-3.8562 F60.00
G01 X19.2101 Y-3.8667 F60.00
G01 X19.1930 Y-3.8700 F60.00
G01 X19.1764 Y-3.8750 F60.00
G01 X19.1643 Y-3.8798 F60.00
G01 X19.1487 Y-3.8876 F60.00
G01 X19.1376 Y-3.8944 F60.00
G01 X19.1271 Y-3.9021 F60.00
G01 X19.0643 Y-3.9563 F60.00
G01 X19.0521 Y-3.9686 F60.00
G01 X19.0411 Y-3.9821 F60.00
G01 X19.0338 Y-3.9929 F60.00
G01 X19.0273 Y-4.0042 F60.00
G01 X19.0217 Y-4.0159 F60.00
G01 X19.0169 Y-4.0280 F60.00
G01 X18.9935 Y-4.1074 F60.00
G01 X18.9907 Y-4.1195 F60.00
G01 X18.9893 Y-4.1278 F60.00
G01 X18.9879 Y-4.1402 F60.00
G01 X18.9875 Y-4.1527 F60.00
G01 X18.9875 Y-5.2901 F60.00
G01 X18.9844 Y-5.3185 F60.00
G01 X18.9506 Y-5.4092 F60.00
G01 X18.8945 Y-5.4841 F60.00
G01 X18.8196 Y-5.5402 F60.00
G01 X18.7289 Y-5.5740 F60.00
G01 X18.7005 Y-5.5771 F60.00
G01 X17.2235 Y-5.5771 F60.00
G01 X17.1951 Y-5.5740 F60.00
G01 X17.1044 Y-5.5402 F60.00
G01 X17.0762 Y-5.5191 F60.00
G01 X17.0567 Y-5.5057 F60.00
G01 X17.0416 Y-5.4973 F60.00
G01 X17.0257 Y-5.4904 F60.00
G01 X17.0134 Y-5.4863 F60.00
G01 X16.9383 Y-5.4644 F60.00
G01 X16.9220 Y-5.4613 F60.00
G01 X16.9137 Y-5.4603 F60.00
G01 X16.9012 Y-5.4595 F60.00
G01 X13.1843 Y-5.4595 F60.00
G01 X13.1709 Y-5.4600 F60.00
G01 X13.1576 Y-5.4615 F60.00
G01 X13.1015 Y-5.4718 F60.00
G01 X13.0933 Y-5.4740 F60.00
G01 X13.0811 Y-5.4779 F60.00
G01 X13.0731 Y-5.4810 F60.00
G01 X13.0615 Y-5.4864 F60.00
G01 X13.0503 Y-5.4927 F60.00
G01 X13.0396 Y-5.4997 F60.00
G01 X12.9802 Y-5.5441 F60.00
G01 X12.9673 Y-5.5547 F60.00
G01 X12.9578 Y-5.5641 F60.00
G01 X12.8796 Y-5.6226 F60.00
G01 X12.7889 Y-5.6564 F60.00
G01 X12.7605 Y-5.6595 F60.00
G01 X11.4835 Y-5.6595 F60.00
G01 X11.4551 Y-5.6564 F60.00
G01 X11.3644 Y-5.6226 F60.00
G01 X11.2895 Y-5.5665 F60.00
G01 X11.2334 Y-5.4916 F60.00
G01 X11.1996 Y-5.4009 F60.00
G01 X11.1966 Y-5.3734 F60.00
G01 X11.1970 Y-5.3340 F60.00
G01 X11.1970 Y-3.9340 F60.00
G01 X11.1965 Y-3.9208 F60.00
G01 X11.1965 Y-3.8955 F60.00
G01 X11.1996 Y-3.8671 F60.00
G01 X11.2055 Y-3.8496 F60.00
G01 X11.2132 Y-3.8194 F60.00
G01 X11.2160 Y-3.8068 F60.00
G01 X11.2181 Y-3.7898 F60.00
G01 X11.2187 Y-3.7769 F60.00
G01 X11.2185 Y-3.7683 F60.00
G01 X11.2169 Y-3.7512 F60.00
G01 X11.2055 Y-3.6735 F60.00
G01 X11.2036 Y-3.6650 F60.00
G01 X11.2000 Y-3.6525 F60.00
G01 X11.1955 Y-3.6403 F60.00
G01 X11.1920 Y-3.6323 F60.00
G01 X11.1881 Y-3.6246 F60.00
G01 X11.1815 Y-3.6133 F60.00
G01 X11.1741 Y-3.6025 F60.00
G01 X11.1688 Y-3.5957 F60.00
G01 X11.1173 Y-3.5363 F60.00
G01 X11.1050 Y-3.5241 F60.00
G01 X11.0915 Y-3.5131 F60.00
G01 X11.0807 Y-3.5058 F60.00
G01 X11.0656 Y-3.4973 F60.00
G01 X11.0496 Y-3.4904 F60.00
G01 X11.0373 Y-3.4863 F60.00
G01 X10.9622 Y-3.4644 F60.00
G01 X10.9458 Y-3.4613 F60.00
G01 X10.9293 Y-3.4597 F60.00
G01 X9.7835 Y-3.4595 F60.00
G01 X9.7551 Y-3.4564 F60.00
G01 X9.6644 Y-3.4226 F60.00
G01 X9.5862 Y-3.3641 F60.00
G01 X9.5782 Y-3.3561 F60.00
G01 X9.5396 Y-3.3204 F60.00
G01 X9.5260 Y-3.3101 F60.00
G01 X9.5115 Y-3.3011 F60.00
G01 X9.4961 Y-3.2935 F60.00
G01 X9.4801 Y-3.2875 F60.00
G01 X9.4090 Y-3.2666 F60.00
G01 X9.3969 Y-3.2635 F60.00
G01 X9.3887 Y-3.2619 F60.00
G01 X9.3763 Y-3.2603 F60.00
G01 X9.3597 Y-3.2595 F60.00
G01 X8.8405 Y-3.2595 F60.00
G01 X8.8280 Y-3.2599 F60.00
G01 X8.8115 Y-3.2619 F60.00
G01 X8.7433 Y-3.2768 F60.00
G01 X8.7267 Y-3.2822 F60.00
G01 X8.7186 Y-3.2855 F60.00
G01 X8.7068 Y-3.2912 F60.00
G01 X8.6918 Y-3.3002 F60.00
G01 X8.6777 Y-3.3106 F60.00
G01 X8.6216 Y-3.3592 F60.00
G01 X8.6090 Y-3.3712 F60.00
G01 X8.5977 Y-3.3844 F60.00
G01 X8.5878 Y-3.3987 F60.00
G01 X8.5813 Y-3.4100 F60.00
G01 X8.5740 Y-3.4257 F60.00
G01 X8.5683 Y-3.4422 F60.00
G01 X8.5475 Y-3.5132 F60.00
G01 X8.5447 Y-3.5254 F60.00
G01 X8.5423 Y-3.5419 F60.00
G01 X8.5415 Y-3.5585 F60.00
G01 X8.5415 Y-6.8956 F60.00
G01 X8.5426 Y-6.9182 F60.00
G01 X8.5455 Y-6.9420 F60.00
G01 X8.5418 Y-6.9920 F60.00
G01 X8.5415 Y-7.0469 F60.00
G01 X8.5375 Y-7.0668 F60.00
G01 X8.5352 Y-7.0818 F60.00
G01 X8.5327 Y-7.1094 F60.00
G01 X8.5180 Y-7.1622 F60.00
G01 X8.5077 Y-7.2114 F60.00
G01 X8.5000 Y-7.2307 F60.00
G01 X8.4951 Y-7.2478 F60.00
G01 X8.4832 Y-7.3054 F60.00
G01 X8.4810 Y-7.3230 F60.00
G01 X8.4805 Y-7.3362 F60.00
G01 X8.4805 Y-7.9871 F60.00
G01 X8.4729 Y-8.0619 F60.00
G01 X8.4301 Y-8.1909 F60.00
G01 X8.3595 Y-8.3054 F60.00
G01 X8.2644 Y-8.4005 F60.00
G01 X8.1499 Y-8.4711 F60.00
G01 X8.0209 Y-8.5139 F60.00
G01 X7.9461 Y-8.5215 F60.00
G01 X7.3639 Y-8.5215 F60.00
G01 X7.3365 Y-8.5189 F60.00
G01 X7.3232 Y-8.5188 F60.00
G01 X7.3143 Y-8.5192 F60.00
G01 X7.2558 Y-8.5251 F60.00
G01 X7.2470 Y-8.5265 F60.00
G01 X7.2340 Y-8.5293 F60.00
G01 X7.2007 Y-8.5396 F60.00
G01 X7.1899 Y-8.5432 F60.00
G01 X7.1433 Y-8.5617 F60.00
G01 X7.1233 Y-8.5654 F60.00
G01 X7.1085 Y-8.5688 F60.00
G01 X7.0820 Y-8.5768 F60.00
G01 X7.0275 Y-8.5826 F60.00
G01 X6.9780 Y-8.5914 F60.00
G01 X6.9023 Y-8.5895 F60.00
G01 X6.0904 Y-8.5895 F60.00
G01 X6.0667 Y-8.5904 F60.00
G01 X6.0496 Y-8.5928 F60.00
G01 X6.0369 Y-8.5956 F60.00
G01 X6.0286 Y-8.5980 F60.00
G01 X5.9550 Y-8.6253 F60.00
G01 X5.9397 Y-8.6318 F60.00
G01 X5.9286 Y-8.6377 F60.00
G01 X5.9180 Y-8.6443 F60.00
G01 X5.9066 Y-8.6526 F60.00
G01 X5.8159 Y-8.6864 F60.00
G01 X5.7884 Y-8.6894 F60.00
G01 X5.7490 Y-8.6890 F60.00
G01 X4.3490 Y-8.6890 F60.00
G01 X4.3358 Y-8.6895 F60.00
G01 X4.3105 Y-8.6895 F60.00
G01 X4.2821 Y-8.6864 F60.00
G01 X4.2646 Y-8.6805 F60.00
G01 X4.2344 Y-8.6728 F60.00
G01 X4.2218 Y-8.6700 F60.00
G01 X4.2091 Y-8.6682 F60.00
G01 X4.2005 Y-8.6676 F60.00
G01 X4.1919 Y-8.6673 F60.00
G01 X4.1790 Y-8.6677 F60.00
G01 X4.1662 Y-8.6691 F60.00
G01 X4.0971 Y-8.6791 F60.00
G01 X4.0800 Y-8.6824 F60.00
G01 X4.0675 Y-8.6860 F60.00
G01 X4.0553 Y-8.6905 F60.00
G01 X4.0434 Y-8.6959 F60.00
G01 X4.0320 Y-8.7022 F60.00
G01 X4.0211 Y-8.7093 F60.00
G01 X4.0107 Y-8.7172 F60.00
G01 X3.9546 Y-8.7658 F60.00
G01 X3.9451 Y-8.7747 F60.00
G01 X3.9362 Y-8.7843 F60.00
G01 X3.9256 Y-8.7980 F60.00
G01 X3.9164 Y-8.8127 F60.00
G01 X3.9087 Y-8.8283 F60.00
G01 X3.9025 Y-8.8446 F60.00
G01 X3.8805 Y-8.9198 F60.00
G01 X3.8777 Y-8.9319 F60.00
G01 X3.8763 Y-8.9402 F60.00
G01 X3.8749 Y-8.9526 F60.00
G01 X3.8745 Y-8.9609 F60.00
G01 X3.8745 Y-10.1025 F60.00
G01 X3.8714 Y-10.1309 F60.00
G01 X3.8376 Y-10.2216 F60.00
G01 X3.7715 Y-10.3102 F60.00
G01 X3.7594 Y-10.3283 F60.00
G01 X3.7552 Y-10.3359 F60.00
G01 X3.7496 Y-10.3476 F60.00
G01 X3.7449 Y-10.3597 F60.00
G01 X3.7423 Y-10.3679 F60.00
G01 X3.7215 Y-10.4390 F60.00
G01 X3.7179 Y-10.4552 F60.00
G01 X3.7163 Y-10.4676 F60.00
G01 X3.7155 Y-10.4843 F60.00
G01 X3.7155 Y-11.2624 F60.00
G01 X3.7047 Y-11.2744 F60.00
G01 X3.6945 Y-11.2882 F60.00
G01 X3.6857 Y-11.3029 F60.00
G01 X3.6800 Y-11.3145 F60.00
G01 X3.6738 Y-11.3305 F60.00
G01 X3.6693 Y-11.3471 F60.00
G01 X3.6663 Y-11.3640 F60.00
G01 X3.6652 Y-11.3768 F60.00
G01 X3.6651 Y-13.5897 F60.00
G01 X3.6663 Y-13.6068 F60.00
G01 X3.6684 Y-13.6195 F60.00
G01 X3.6725 Y-13.6362 F60.00
G01 X3.6783 Y-13.6524 F60.00
G01 X3.6857 Y-13.6679 F60.00
G01 X3.6945 Y-13.6826 F60.00
G01 X3.7047 Y-13.6964 F60.00
G01 X3.7155 Y-13.7084 F60.00
G01 X3.7155 Y-14.5739 F60.00
G01 X3.7124 Y-14.6023 F60.00
G01 X3.6786 Y-14.6930 F60.00
G01 X3.6711 Y-14.7035 F60.00
G01 X3.6664 Y-14.7108 F60.00
G01 X3.6581 Y-14.7262 F60.00
G01 X3.6311 Y-14.7909 F60.00
G01 X3.6253 Y-14.8069 F60.00
G01 X3.6221 Y-14.8193 F60.00
G01 X3.6204 Y-14.8276 F60.00
G01 X3.6183 Y-14.8445 F60.00
G01 X3.6178 Y-14.8615 F60.00
G01 X3.6182 Y-14.8701 F60.00
G01 X3.6195 Y-14.8828 F60.00
G00 Z2.0000
G00 X11.5220 Y-5.5090
G01 F60.00
G01 Z-0.4665
G01 F60.00
G01 X12.7220 Y-5.5090 F60.00
G01 X12.7349 Y-5.5085 F60.00
G01 X12.7477 Y-5.5071 F60.00
G01 X12.7645 Y-5.5038 F60.00
G01 X12.7810 Y-5.4988 F60.00
G01 X12.7968 Y-5.4922 F60.00
G01 X12.8120 Y-5.4841 F60.00
G01 X12.8262 Y-5.4746 F60.00
G01 X12.8395 Y-5.4637 F60.00
G01 X12.8517 Y-5.4515 F60.00
G01 X12.8626 Y-5.4382 F60.00
G01 X12.8721 Y-5.4240 F60.00
G01 X12.8802 Y-5.4088 F60.00
G01 X12.8853 Y-5.3970 F60.00
G01 X12.8907 Y-5.3807 F60.00
G01 X12.8944 Y-5.3639 F60.00
G01 X12.8962 Y-5.3512 F60.00
G01 X12.8969 Y-5.3383 F60.00
G01 X12.8970 Y-5.3093 F60.00
G01 X17.0968 Y-5.3093 F60.00
G01 X17.1003 Y-5.3186 F60.00
G01 X17.1057 Y-5.3303 F60.00
G01 X17.1119 Y-5.3416 F60.00
G01 X17.1189 Y-5.3524 F60.00
G01 X17.1267 Y-5.3626 F60.00
G01 X17.1353 Y-5.3723 F60.00
G01 X17.1445 Y-5.3813 F60.00
G01 X17.1543 Y-5.3896 F60.00
G01 X17.1648 Y-5.3971 F60.00
G01 X17.1757 Y-5.4039 F60.00
G01 X17.1872 Y-5.4098 F60.00
G01 X17.1990 Y-5.4149 F60.00
G01 X17.2112 Y-5.4191 F60.00
G01 X17.2237 Y-5.4223 F60.00
G01 X17.2363 Y-5.4247 F60.00
G01 X17.2491 Y-5.4261 F60.00
G01 X17.2620 Y-5.4266 F60.00
G01 X18.6620 Y-5.4266 F60.00
G01 X18.6792 Y-5.4258 F60.00
G01 X18.6961 Y-5.4232 F60.00
G01 X18.7087 Y-5.4203 F60.00
G01 X18.7250 Y-5.4149 F60.00
G01 X18.7368 Y-5.4098 F60.00
G01 X18.7483 Y-5.4039 F60.00
G01 X18.7592 Y-5.3971 F60.00
G01 X18.7697 Y-5.3896 F60.00
G01 X18.7795 Y-5.3813 F60.00
G01 X18.7917 Y-5.3691 F60.00
G01 X18.8026 Y-5.3558 F60.00
G01 X18.8098 Y-5.3452 F60.00
G01 X18.8163 Y-5.3341 F60.00
G01 X18.8220 Y-5.3225 F60.00
G01 X18.8268 Y-5.3106 F60.00
G01 X18.8307 Y-5.2983 F60.00
G01 X18.8336 Y-5.2857 F60.00
G01 X18.8362 Y-5.2688 F60.00
G01 X18.8370 Y-5.2516 F60.00
G01 X18.8370 Y-4.0516 F60.00
G01 X18.8362 Y-4.0344 F60.00
G01 X18.8336 Y-4.0175 F60.00
G01 X18.8295 Y-4.0008 F60.00
G01 X18.8253 Y-3.9886 F60.00
G01 X18.8183 Y-3.9729 F60.00
G01 X18.8121 Y-3.9616 F60.00
G01 X18.8026 Y-3.9474 F60.00
G01 X18.7945 Y-3.9373 F60.00
G01 X18.7857 Y-3.9279 F60.00
G01 X18.7730 Y-3.9163 F60.00
G01 X18.7628 Y-3.9085 F60.00
G01 X18.7483 Y-3.8993 F60.00
G01 X18.7368 Y-3.8934 F60.00
G01 X18.7210 Y-3.8868 F60.00
G01 X18.7087 Y-3.8829 F60.00
G01 X18.6919 Y-3.8792 F60.00
G01 X18.6749 Y-3.8771 F60.00
G01 X18.6620 Y-3.8766 F60.00
G01 X17.2534 Y-3.8768 F60.00
G01 X17.2448 Y-3.8774 F60.00
G01 X17.2321 Y-3.8792 F60.00
G01 X17.2195 Y-3.8818 F60.00
G01 X17.2112 Y-3.8841 F60.00
G01 X17.1990 Y-3.8883 F60.00
G01 X17.1911 Y-3.8916 F60.00
G01 X17.1833 Y-3.8953 F60.00
G01 X17.1720 Y-3.9015 F60.00
G01 X17.1648 Y-3.9061 F60.00
G01 X17.1543 Y-3.9136 F60.00
G01 X17.1477 Y-3.9191 F60.00
G01 X17.1383 Y-3.9279 F60.00
G01 X17.1323 Y-3.9341 F60.00
G01 X17.1240 Y-3.9439 F60.00
G01 X17.1137 Y-3.9587 F60.00
G01 X15.4245 Y-3.9587 F60.00
G01 X15.3859 Y-3.9492 F60.00
G01 X15.3532 Y-3.9441 F60.00
G01 X15.3404 Y-3.9427 F60.00
G01 X15.3030 Y-3.9410 F60.00
G01 X14.3487 Y-3.9411 F60.00
G01 X14.3113 Y-3.9430 F60.00
G01 X14.2785 Y-3.9477 F60.00
G01 X14.2659 Y-3.9501 F60.00
G01 X14.2315 Y-3.9587 F60.00
G01 X12.8970 Y-3.9587 F60.00
G01 X12.8969 Y-3.9297 F60.00
G01 X12.8962 Y-3.9168 F60.00
G01 X12.8944 Y-3.9041 F60.00
G01 X12.8907 Y-3.8873 F60.00
G01 X12.8853 Y-3.8710 F60.00
G01 X12.8802 Y-3.8592 F60.00
G01 X12.8721 Y-3.8440 F60.00
G01 X12.8626 Y-3.8298 F60.00
G01 X12.8517 Y-3.8165 F60.00
G01 X12.8395 Y-3.8043 F60.00
G01 X12.8262 Y-3.7934 F60.00
G01 X12.8120 Y-3.7839 F60.00
G01 X12.7968 Y-3.7758 F60.00
G01 X12.7810 Y-3.7692 F60.00
G01 X12.7645 Y-3.7642 F60.00
G01 X12.7477 Y-3.7609 F60.00
G01 X12.7349 Y-3.7595 F60.00
G01 X12.7220 Y-3.7590 F60.00
G01 X11.5220 Y-3.7590 F60.00
G01 X11.5048 Y-3.7598 F60.00
G01 X11.4879 Y-3.7624 F60.00
G01 X11.4712 Y-3.7665 F60.00
G01 X11.4590 Y-3.7707 F60.00
G01 X11.4472 Y-3.7758 F60.00
G01 X11.4357 Y-3.7817 F60.00
G01 X11.4212 Y-3.7909 F60.00
G01 X11.4110 Y-3.7987 F60.00
G01 X11.4013 Y-3.8073 F60.00
G01 X11.3923 Y-3.8165 F60.00
G01 X11.3840 Y-3.8263 F60.00
G01 X11.3742 Y-3.8404 F60.00
G01 X11.3677 Y-3.8515 F60.00
G01 X11.3620 Y-3.8631 F60.00
G01 X11.3572 Y-3.8750 F60.00
G01 X11.3533 Y-3.8873 F60.00
G01 X11.3504 Y-3.8999 F60.00
G01 X11.3478 Y-3.9168 F60.00
G01 X11.3470 Y-3.9340 F60.00
G01 X11.3471 Y-5.3383 F60.00
G01 X11.3483 Y-5.3554 F60.00
G01 X11.3513 Y-5.3723 F60.00
G01 X11.3558 Y-5.3889 F60.00
G01 X11.3620 Y-5.4049 F60.00
G01 X11.3697 Y-5.4203 F60.00
G01 X11.3789 Y-5.4348 F60.00
G01 X11.3895 Y-5.4483 F60.00
G01 X11.4013 Y-5.4607 F60.00
G01 X11.4143 Y-5.4720 F60.00
G01 X11.4284 Y-5.4818 F60.00
G01 X11.4433 Y-5.4903 F60.00
G01 X11.4590 Y-5.4973 F60.00
G01 X11.4753 Y-5.5027 F60.00
G01 X11.4879 Y-5.5056 F60.00
G01 X11.5048 Y-5.5082 F60.00
G01 X11.5220 Y-5.5090 F60.00
G00 Z2.0000
G00 X19.4620 Y-3.7266
G01 F60.00
G01 Z-0.4665
G01 F60.00
G01 X20.8620 Y-3.7266 F60.00
G01 X20.8749 Y-3.7261 F60.00
G01 X20.8834 Y-3.7253 F60.00
G01 X20.8961 Y-3.7232 F60.00
G01 X20.9087 Y-3.7203 F60.00
G01 X20.9210 Y-3.7164 F60.00
G01 X20.9329 Y-3.7116 F60.00
G01 X20.9407 Y-3.7079 F60.00
G01 X20.9520 Y-3.7017 F60.00
G01 X20.9592 Y-3.6971 F60.00
G01 X20.9697 Y-3.6896 F60.00
G01 X20.9763 Y-3.6841 F60.00
G01 X20.9857 Y-3.6753 F60.00
G01 X20.9945 Y-3.6659 F60.00
G01 X21.0026 Y-3.6558 F60.00
G01 X21.0075 Y-3.6488 F60.00
G01 X21.0143 Y-3.6379 F60.00
G01 X21.0200 Y-3.6269 F60.00
G01 X24.1857 Y-3.6269 F60.00
G01 X24.1857 Y-6.5570 F60.00
G01 X24.1695 Y-6.5602 F60.00
G01 X24.1571 Y-6.5638 F60.00
G01 X24.1450 Y-6.5683 F60.00
G01 X24.1295 Y-6.5757 F60.00
G01 X24.1184 Y-6.5822 F60.00
G01 X24.1043 Y-6.5920 F60.00
G01 X24.0945 Y-6.6003 F60.00
G01 X24.0853 Y-6.6093 F60.00
G01 X24.0740 Y-6.6223 F60.00
G01 X24.0665 Y-6.6328 F60.00
G01 X24.0577 Y-6.6475 F60.00
G01 X24.0520 Y-6.6591 F60.00
G01 X24.0472 Y-6.6710 F60.00
G01 X24.0422 Y-6.6875 F60.00
G01 X24.0396 Y-6.7001 F60.00
G01 X24.0378 Y-6.7128 F60.00
G01 X24.0370 Y-6.7300 F60.00
G01 X24.0370 Y-8.1300 F60.00
G01 X24.0375 Y-8.1429 F60.00
G01 X24.0383 Y-8.1514 F60.00
G01 X24.0404 Y-8.1641 F60.00
G01 X24.0433 Y-8.1767 F60.00
G01 X24.0472 Y-8.1890 F60.00
G01 X24.0520 Y-8.2009 F60.00
G01 X24.0577 Y-8.2125 F60.00
G01 X24.0642 Y-8.2236 F60.00
G01 X24.0714 Y-8.2342 F60.00
G01 X24.0795 Y-8.2443 F60.00
G01 X24.0883 Y-8.2537 F60.00
G01 X24.0977 Y-8.2625 F60.00
G01 X24.1078 Y-8.2706 F60.00
G01 X24.1184 Y-8.2778 F60.00
G01 X24.1295 Y-8.2843 F60.00
G01 X24.1450 Y-8.2917 F60.00
G01 X24.1571 Y-8.2962 F60.00
G01 X24.1695 Y-8.2998 F60.00
G01 X24.1821 Y-8.3024 F60.00
G01 X24.1948 Y-8.3042 F60.00
G01 X24.2120 Y-8.3050 F60.00
G01 X25.4120 Y-8.3050 F60.00
G01 X25.4249 Y-8.3045 F60.00
G01 X25.4419 Y-8.3024 F60.00
G01 X25.4587 Y-8.2987 F60.00
G01 X25.4710 Y-8.2948 F60.00
G01 X25.4868 Y-8.2882 F60.00
G01 X25.4983 Y-8.2823 F60.00
G01 X25.5128 Y-8.2731 F60.00
G01 X25.5230 Y-8.2653 F60.00
G01 X25.5357 Y-8.2537 F60.00
G01 X25.5445 Y-8.2443 F60.00
G01 X25.5526 Y-8.2342 F60.00
G01 X25.5621 Y-8.2200 F60.00
G01 X25.5702 Y-8.2048 F60.00
G01 X25.5753 Y-8.1930 F60.00
G01 X25.5807 Y-8.1767 F60.00
G01 X25.5836 Y-8.1641 F60.00
G01 X25.5857 Y-8.1514 F60.00
G01 X25.5869 Y-8.1343 F60.00
G01 X25.5869 Y-6.7257 F60.00
G01 X25.5857 Y-6.7086 F60.00
G01 X25.5827 Y-6.6917 F60.00
G01 X25.5782 Y-6.6751 F60.00
G01 X25.5737 Y-6.6630 F60.00
G01 X25.5663 Y-6.6475 F60.00
G01 X25.5575 Y-6.6328 F60.00
G01 X25.5473 Y-6.6190 F60.00
G01 X25.5363 Y-6.6068 F60.00
G01 X25.5363 Y-3.6269 F60.00
G01 X26.5126 Y-3.6269 F60.00
G01 X26.5127 Y-3.6971 F60.00
G01 X26.5134 Y-3.7100 F60.00
G01 X26.5152 Y-3.7227 F60.00
G01 X26.5189 Y-3.7395 F60.00
G01 X26.5214 Y-3.7477 F60.00
G01 X26.5259 Y-3.7598 F60.00
G01 X26.5333 Y-3.7753 F60.00
G01 X26.5421 Y-3.7900 F60.00
G01 X26.5523 Y-3.8038 F60.00
G01 X26.5609 Y-3.8135 F60.00
G01 X26.5669 Y-3.8195 F60.00
G01 X26.5799 Y-3.8308 F60.00
G01 X26.5904 Y-3.8383 F60.00
G01 X26.5976 Y-3.8429 F60.00
G01 X26.6128 Y-3.8510 F60.00
G01 X26.6246 Y-3.8561 F60.00
G01 X26.6327 Y-3.8590 F60.00
G01 X26.6409 Y-3.8615 F60.00
G01 X26.6535 Y-3.8644 F60.00
G01 X26.6704 Y-3.8670 F60.00
G01 X26.6876 Y-3.8678 F60.00
G01 X27.8919 Y-3.8677 F60.00
G01 X27.9048 Y-3.8670 F60.00
G01 X27.9133 Y-3.8659 F60.00
G01 X27.9217 Y-3.8644 F60.00
G01 X27.9343 Y-3.8615 F60.00
G01 X27.9506 Y-3.8561 F60.00
G01 X27.9585 Y-3.8528 F60.00
G01 X27.9701 Y-3.8471 F60.00
G01 X27.9812 Y-3.8406 F60.00
G01 X27.9884 Y-3.8359 F60.00
G01 X27.9953 Y-3.8308 F60.00
G01 X28.0051 Y-3.8225 F60.00
G01 X28.0143 Y-3.8135 F60.00
G01 X28.0229 Y-3.8038 F60.00
G01 X28.0282 Y-3.7970 F60.00
G01 X28.0354 Y-3.7864 F60.00
G01 X28.0419 Y-3.7753 F60.00
G01 X28.0476 Y-3.7637 F60.00
G01 X28.0509 Y-3.7558 F60.00
G01 X28.0551 Y-3.7436 F60.00
G01 X28.0574 Y-3.7353 F60.00
G01 X28.0600 Y-3.7227 F60.00
G01 X28.0613 Y-3.7142 F60.00
G01 X28.0624 Y-3.7014 F60.00
G01 X28.0626 Y-2.2928 F60.00
G01 X28.0621 Y-2.2799 F60.00
G01 X28.0600 Y-2.2629 F60.00
G01 X28.0563 Y-2.2461 F60.00
G01 X28.0524 Y-2.2338 F60.00
G01 X28.0476 Y-2.2219 F60.00
G01 X28.0399 Y-2.2065 F60.00
G01 X28.0307 Y-2.1920 F60.00
G01 X28.0229 Y-2.1818 F60.00
G01 X28.0113 Y-2.1691 F60.00
G01 X28.0019 Y-2.1603 F60.00
G01 X27.9884 Y-2.1497 F60.00
G01 X27.9776 Y-2.1427 F60.00
G01 X27.9624 Y-2.1346 F60.00
G01 X27.9506 Y-2.1295 F60.00
G01 X27.9343 Y-2.1241 F60.00
G01 X27.9175 Y-2.1204 F60.00
G01 X27.9048 Y-2.1186 F60.00
G01 X27.8876 Y-2.1178 F60.00
G01 X26.6876 Y-2.1178 F60.00
G01 X26.6790 Y-2.1180 F60.00
G01 X26.6662 Y-2.1191 F60.00
G01 X26.6493 Y-2.1221 F60.00
G01 X26.6368 Y-2.1253 F60.00
G01 X26.6206 Y-2.1311 F60.00
G01 X26.6089 Y-2.1365 F60.00
G01 X26.5940 Y-2.1450 F60.00
G01 X26.5834 Y-2.1522 F60.00
G01 X26.5701 Y-2.1631 F60.00
G01 X26.5609 Y-2.1721 F60.00
G01 X26.5523 Y-2.1818 F60.00
G01 X26.5421 Y-2.1956 F60.00
G01 X26.5333 Y-2.2103 F60.00
G01 X26.5276 Y-2.2219 F60.00
G01 X26.5228 Y-2.2338 F60.00
G01 X26.5178 Y-2.2503 F60.00
G01 X26.5152 Y-2.2629 F60.00
G01 X26.5134 Y-2.2763 F60.00
G01 X23.3767 Y-2.2763 F60.00
G01 X23.3573 Y-2.2720 F60.00
G01 X23.3245 Y-2.2671 F60.00
G01 X23.3117 Y-2.2660 F60.00
G01 X23.2786 Y-2.2646 F60.00
G01 X22.3286 Y-2.2646 F60.00
G01 X22.2955 Y-2.2660 F60.00
G01 X22.2827 Y-2.2671 F60.00
G01 X22.2499 Y-2.2720 F60.00
G01 X22.2305 Y-2.2763 F60.00
G01 X21.0200 Y-2.2763 F60.00
G01 X21.0143 Y-2.2653 F60.00
G01 X21.0075 Y-2.2544 F60.00
G01 X21.0000 Y-2.2439 F60.00
G01 X20.9945 Y-2.2373 F60.00
G01 X20.9887 Y-2.2309 F60.00
G01 X20.9795 Y-2.2219 F60.00
G01 X20.9697 Y-2.2136 F60.00
G01 X20.9592 Y-2.2061 F60.00
G01 X20.9520 Y-2.2015 F60.00
G01 X20.9407 Y-2.1953 F60.00
G01 X20.9290 Y-2.1899 F60.00
G01 X20.9169 Y-2.1854 F60.00
G01 X20.9045 Y-2.1818 F60.00
G01 X20.8961 Y-2.1800 F60.00
G01 X20.8834 Y-2.1779 F60.00
G01 X20.8706 Y-2.1768 F60.00
G01 X19.4620 Y-2.1766 F60.00
G01 X19.4448 Y-2.1774 F60.00
G01 X19.4321 Y-2.1792 F60.00
G01 X19.4153 Y-2.1829 F60.00
G01 X19.4030 Y-2.1868 F60.00
G01 X19.3872 Y-2.1934 F60.00
G01 X19.3757 Y-2.1993 F60.00
G01 X19.3648 Y-2.2061 F60.00
G01 X19.3543 Y-2.2136 F60.00
G01 X19.3413 Y-2.2249 F60.00
G01 X19.3323 Y-2.2341 F60.00
G01 X19.3214 Y-2.2474 F60.00
G01 X19.3142 Y-2.2580 F60.00
G01 X19.3077 Y-2.2691 F60.00
G01 X19.3020 Y-2.2807 F60.00
G01 X19.2958 Y-2.2967 F60.00
G01 X19.2922 Y-2.3091 F60.00
G01 X19.2896 Y-2.3217 F60.00
G01 X19.2878 Y-2.3344 F60.00
G01 X19.2870 Y-2.3516 F60.00
G01 X19.2871 Y-3.5559 F60.00
G01 X19.2883 Y-3.5730 F60.00
G01 X19.2913 Y-3.5899 F60.00
G01 X19.2958 Y-3.6065 F60.00
G01 X19.3020 Y-3.6225 F60.00
G01 X19.3077 Y-3.6341 F60.00
G01 X19.3165 Y-3.6488 F60.00
G01 X19.3267 Y-3.6626 F60.00
G01 X19.3383 Y-3.6753 F60.00
G01 X19.3510 Y-3.6869 F60.00
G01 X19.3648 Y-3.6971 F60.00
G01 X19.3795 Y-3.7059 F60.00
G01 X19.3950 Y-3.7133 F60.00
G01 X19.4112 Y-3.7191 F60.00
G01 X19.4279 Y-3.7232 F60.00
G01 X19.4448 Y-3.7258 F60.00
G01 X19.4620 Y-3.7266 F60.00
G00 Z2.0000
G00 X25.6893 Y-6.5117
G01 F60.00
G01 Z-0.4665
G01 F60.00
G01 X25.6971 Y-6.5550 F60.00
G01 X25.7000 Y-6.5681 F60.00
G01 X25.7054 Y-6.5851 F60.00
G01 X25.7344 Y-6.6631 F60.00
G01 X25.7374 Y-6.6906 F60.00
G01 X25.7370 Y-6.7300 F60.00
G01 X25.7370 Y-8.1300 F60.00
G01 X25.7375 Y-8.1432 F60.00
G01 X25.7375 Y-8.1685 F60.00
G01 X25.7344 Y-8.1969 F60.00
G01 X25.7299 Y-8.2099 F60.00
G01 X25.7273 Y-8.2189 F60.00
G01 X25.7198 Y-8.2487 F60.00
G01 X25.7173 Y-8.2614 F60.00
G01 X25.7156 Y-8.2785 F60.00
G01 X25.7153 Y-8.2871 F60.00
G01 X25.7157 Y-8.2999 F60.00
G01 X25.7171 Y-8.3128 F60.00
G01 X25.7285 Y-8.3905 F60.00
G01 X25.7304 Y-8.3990 F60.00
G01 X25.7340 Y-8.4115 F60.00
G01 X25.7385 Y-8.4237 F60.00
G01 X25.7420 Y-8.4317 F60.00
G01 X25.7480 Y-8.4433 F60.00
G01 X25.7525 Y-8.4507 F60.00
G01 X25.7625 Y-8.4649 F60.00
G01 X25.8138 Y-8.5244 F60.00
G01 X25.8258 Y-8.5370 F60.00
G01 X25.8390 Y-8.5483 F60.00
G01 X25.8532 Y-8.5582 F60.00
G01 X25.8684 Y-8.5667 F60.00
G01 X25.8844 Y-8.5736 F60.00
G01 X25.8967 Y-8.5777 F60.00
G01 X25.9718 Y-8.5996 F60.00
G01 X25.9882 Y-8.6027 F60.00
G01 X26.0047 Y-8.6043 F60.00
G01 X27.1505 Y-8.6045 F60.00
G01 X27.1789 Y-8.6076 F60.00
G01 X27.2696 Y-8.6414 F60.00
G01 X27.3490 Y-8.7012 F60.00
G01 X27.3880 Y-8.7379 F60.00
G01 X27.3977 Y-8.7463 F60.00
G01 X27.4116 Y-8.7563 F60.00
G01 X27.4263 Y-8.7650 F60.00
G01 X27.4379 Y-8.7705 F60.00
G01 X27.4539 Y-8.7765 F60.00
G01 X27.5250 Y-8.7974 F60.00
G01 X27.5412 Y-8.8013 F60.00
G01 X27.5535 Y-8.8033 F60.00
G01 X27.5618 Y-8.8041 F60.00
G01 X27.5743 Y-8.8045 F60.00
G01 X27.8088 Y-8.8043 F60.00
G01 X27.8213 Y-8.8033 F60.00
G01 X27.8336 Y-8.8013 F60.00
G01 X27.8935 Y-8.7883 F60.00
G01 X27.9061 Y-8.7847 F60.00
G01 X27.9224 Y-8.7785 F60.00
G01 X27.9381 Y-8.7707 F60.00
G01 X27.9528 Y-8.7613 F60.00
G01 X27.9666 Y-8.7505 F60.00
G01 X28.0194 Y-8.7048 F60.00
G01 X28.0320 Y-8.6928 F60.00
G01 X28.0433 Y-8.6796 F60.00
G01 X28.0532 Y-8.6653 F60.00
G01 X28.0617 Y-8.6501 F60.00
G01 X28.0686 Y-8.6342 F60.00
G01 X28.0727 Y-8.6218 F60.00
G01 X28.0946 Y-8.5468 F60.00
G01 X28.0977 Y-8.5304 F60.00
G01 X28.0991 Y-8.5180 F60.00
G01 X28.0995 Y-8.5097 F60.00
G01 X28.0994 Y-6.1013 F60.00
G01 X28.0990 Y-6.0924 F60.00
G01 X28.0975 Y-6.0791 F60.00
G01 X28.0871 Y-6.0226 F60.00
G01 X28.0822 Y-6.0055 F60.00
G01 X28.0652 Y-5.9597 F60.00
G01 X28.0622 Y-5.9322 F60.00
G01 X28.0626 Y-5.8928 F60.00
G01 X28.0626 Y-4.4928 F60.00
G01 X28.0621 Y-4.4796 F60.00
G01 X28.0621 Y-4.4543 F60.00
G01 X28.0652 Y-4.4259 F60.00
G01 X28.0711 Y-4.4084 F60.00
G01 X28.0788 Y-4.3782 F60.00
G01 X28.0816 Y-4.3656 F60.00
G01 X28.0837 Y-4.3486 F60.00
G01 X28.0842 Y-4.3314 F60.00
G01 X28.0835 Y-4.3186 F60.00
G01 X28.0825 Y-4.3100 F60.00
G01 X28.0711 Y-4.2323 F60.00
G01 X28.0669 Y-4.2154 F60.00
G01 X28.0627 Y-4.2031 F60.00
G01 X28.0594 Y-4.1951 F60.00
G01 X28.0557 Y-4.1872 F60.00
G01 X28.0494 Y-4.1758 F60.00
G01 X28.0448 Y-4.1684 F60.00
G01 X28.0371 Y-4.1579 F60.00
G01 X27.9858 Y-4.0984 F60.00
G01 X27.9738 Y-4.0858 F60.00
G01 X27.9606 Y-4.0745 F60.00
G01 X27.9463 Y-4.0646 F60.00
G01 X27.9312 Y-4.0561 F60.00
G01 X27.9152 Y-4.0492 F60.00
G01 X27.9029 Y-4.0451 F60.00
G01 X27.8278 Y-4.0232 F60.00
G01 X27.8114 Y-4.0201 F60.00
G01 X27.7949 Y-4.0185 F60.00
G01 X26.6491 Y-4.0183 F60.00
G01 X26.6207 Y-4.0152 F60.00
G01 X26.5300 Y-3.9814 F60.00
G01 X26.4551 Y-3.9253 F60.00
G01 X26.4311 Y-3.8934 F60.00
G01 X26.4254 Y-3.8865 F60.00
G01 X26.4162 Y-3.8768 F60.00
G01 X26.3743 Y-3.8380 F60.00
G01 X26.3642 Y-3.8301 F60.00
G01 X26.3499 Y-3.8208 F60.00
G01 X26.3348 Y-3.8129 F60.00
G01 X26.3269 Y-3.8095 F60.00
G01 X26.3149 Y-3.8051 F60.00
G01 X26.2397 Y-3.7831 F60.00
G01 X26.2276 Y-3.7803 F60.00
G01 X26.2111 Y-3.7779 F60.00
G01 X26.1944 Y-3.7771 F60.00
G01 X25.9772 Y-3.7773 F60.00
G01 X25.9647 Y-3.7783 F60.00
G01 X25.9524 Y-3.7803 F60.00
G01 X25.8925 Y-3.7933 F60.00
G01 X25.8758 Y-3.7983 F60.00
G01 X25.8596 Y-3.8049 F60.00
G01 X25.8442 Y-3.8131 F60.00
G01 X25.8332 Y-3.8203 F60.00
G01 X25.8194 Y-3.8311 F60.00
G01 X25.7666 Y-3.8768 F60.00
G01 X25.7540 Y-3.8888 F60.00
G01 X25.7427 Y-3.9020 F60.00
G01 X25.7328 Y-3.9163 F60.00
G01 X25.7243 Y-3.9315 F60.00
G01 X25.7174 Y-3.9474 F60.00
G01 X25.7133 Y-3.9598 F60.00
G01 X25.6914 Y-4.0348 F60.00
G01 X25.6889 Y-4.0471 F60.00
G01 X25.6877 Y-4.0553 F60.00
G01 X25.6865 Y-4.0719 F60.00
G01 X25.6865 Y-6.4806 F60.00
G01 X25.6874 Y-6.4984 F60.00
G01 X25.6893 Y-6.5117 F60.00
G00 Z2.0000
G00 X25.7370 Y-8.9300
G01 F60.00
G01 Z-0.4665
G01 F60.00
G01 X25.7372 Y-10.3386 F60.00
G01 X25.7383 Y-10.3514 F60.00
G01 X25.7404 Y-10.3641 F60.00
G01 X25.7433 Y-10.3767 F60.00
G01 X25.7458 Y-10.3849 F60.00
G01 X25.7487 Y-10.3930 F60.00
G01 X25.7538 Y-10.4048 F60.00
G01 X25.7597 Y-10.4163 F60.00
G01 X25.7642 Y-10.4236 F60.00
G01 X25.7689 Y-10.4308 F60.00
G01 X25.7767 Y-10.4410 F60.00
G01 X25.7853 Y-10.4507 F60.00
G01 X25.7945 Y-10.4597 F60.00
G01 X25.8043 Y-10.4680 F60.00
G01 X25.8112 Y-10.4731 F60.00
G01 X25.8184 Y-10.4778 F60.00
G01 X25.8295 Y-10.4843 F60.00
G01 X25.8372 Y-10.4882 F60.00
G01 X25.8490 Y-10.4933 F60.00
G01 X25.8612 Y-10.4975 F60.00
G01 X25.8695 Y-10.4998 F60.00
G01 X25.8863 Y-10.5031 F60.00
G01 X25.8948 Y-10.5042 F60.00
G01 X25.9077 Y-10.5049 F60.00
G01 X27.1120 Y-10.5050 F60.00
G01 X27.1249 Y-10.5045 F60.00
G01 X27.1334 Y-10.5037 F60.00
G01 X27.1461 Y-10.5016 F60.00
G01 X27.1628 Y-10.4975 F60.00
G01 X27.1790 Y-10.4917 F60.00
G01 X27.1945 Y-10.4843 F60.00
G01 X27.2092 Y-10.4755 F60.00
G01 X27.2230 Y-10.4653 F60.00
G01 X27.2357 Y-10.4537 F60.00
G01 X27.2473 Y-10.4410 F60.00
G01 X27.2575 Y-10.4272 F60.00
G01 X27.2663 Y-10.4125 F60.00
G01 X27.2737 Y-10.3970 F60.00
G01 X27.2795 Y-10.3808 F60.00
G01 X27.2836 Y-10.3641 F60.00
G01 X27.2862 Y-10.3472 F60.00
G01 X27.2869 Y-10.3343 F60.00
G01 X27.2870 Y-10.3053 F60.00
G01 X28.3259 Y-10.3053 F60.00
G01 X28.3262 Y-14.5578 F60.00
G01 X28.3267 Y-14.5707 F60.00
G01 X28.3281 Y-14.5835 F60.00
G01 X28.3296 Y-14.5919 F60.00
G01 X28.3325 Y-14.6045 F60.00
G01 X28.3379 Y-14.6208 F60.00
G01 X28.3430 Y-14.6326 F60.00
G01 X28.3489 Y-14.6441 F60.00
G01 X28.3557 Y-14.6550 F60.00
G01 X28.3632 Y-14.6655 F60.00
G01 X28.3715 Y-14.6753 F60.00
G01 X28.3805 Y-14.6845 F60.00
G01 X28.3902 Y-14.6931 F60.00
G01 X28.4004 Y-14.7009 F60.00
G01 X28.4112 Y-14.7079 F60.00
G01 X28.4264 Y-14.7160 F60.00
G01 X28.4382 Y-14.7211 F60.00
G01 X28.4504 Y-14.7253 F60.00
G01 X28.4629 Y-14.7285 F60.00
G01 X28.4755 Y-14.7309 F60.00
G01 X28.4883 Y-14.7323 F60.00
G01 X28.5012 Y-14.7328 F60.00
G01 X29.5055 Y-14.7327 F60.00
G01 X29.5184 Y-14.7320 F60.00
G01 X29.5311 Y-14.7302 F60.00
G01 X29.5437 Y-14.7276 F60.00
G01 X29.5561 Y-14.7240 F60.00
G01 X29.5682 Y-14.7195 F60.00
G01 X29.5799 Y-14.7141 F60.00
G01 X29.5875 Y-14.7101 F60.00
G01 X29.5984 Y-14.7033 F60.00
G01 X29.6089 Y-14.6958 F60.00
G01 X29.6155 Y-14.6903 F60.00
G01 X29.6219 Y-14.6845 F60.00
G01 X29.6309 Y-14.6753 F60.00
G01 X29.6392 Y-14.6655 F60.00
G01 X29.6443 Y-14.6586 F60.00
G01 X29.6513 Y-14.6478 F60.00
G01 X29.6555 Y-14.6403 F60.00
G01 X29.6612 Y-14.6287 F60.00
G01 X29.6645 Y-14.6208 F60.00
G01 X29.6674 Y-14.6127 F60.00
G01 X29.6710 Y-14.6003 F60.00
G01 X29.6728 Y-14.5919 F60.00
G01 X29.6749 Y-14.5792 F60.00
G01 X29.6760 Y-14.5664 F60.00
G01 X29.6762 Y-14.5578 F60.00
G01 X29.6765 Y-9.6525 F60.00
G01 X29.6982 Y-9.5916 F60.00
G01 X29.7143 Y-9.5273 F60.00
G01 X29.7240 Y-9.4618 F60.00
G01 X29.7272 Y-9.3999 F60.00
G01 X29.7273 Y-5.9982 F60.00
G01 X29.7354 Y-5.9864 F60.00
G01 X29.7419 Y-5.9753 F60.00
G01 X29.7476 Y-5.9637 F60.00
G01 X29.7538 Y-5.9477 F60.00
G01 X29.7574 Y-5.9353 F60.00
G01 X29.7600 Y-5.9227 F60.00
G01 X29.7621 Y-5.9057 F60.00
G01 X29.7626 Y-5.8928 F60.00
G01 X29.7624 Y-4.4842 F60.00
G01 X29.7607 Y-4.4671 F60.00
G01 X29.7592 Y-4.4587 F60.00
G01 X29.7563 Y-4.4461 F60.00
G01 X29.7509 Y-4.4298 F60.00
G01 X29.7439 Y-4.4141 F60.00
G01 X29.7354 Y-4.3992 F60.00
G01 X29.7256 Y-4.3851 F60.00
G01 X29.7143 Y-4.3721 F60.00
G01 X29.7019 Y-4.3603 F60.00
G01 X29.6884 Y-4.3497 F60.00
G01 X29.6776 Y-4.3427 F60.00
G01 X29.6624 Y-4.3346 F60.00
G01 X29.6506 Y-4.3295 F60.00
G01 X29.6343 Y-4.3241 F60.00
G01 X29.6217 Y-4.3212 F60.00
G01 X29.6048 Y-4.3186 F60.00
G01 X29.5919 Y-4.3179 F60.00
G01 X28.3790 Y-4.3180 F60.00
G01 X28.3662 Y-4.3191 F60.00
G01 X28.3535 Y-4.3212 F60.00
G01 X28.3409 Y-4.3241 F60.00
G01 X28.3286 Y-4.3280 F60.00
G01 X28.3167 Y-4.3328 F60.00
G01 X28.3051 Y-4.3385 F60.00
G01 X28.2940 Y-4.3450 F60.00
G01 X28.2799 Y-4.3548 F60.00
G01 X28.2701 Y-4.3631 F60.00
G01 X28.2609 Y-4.3721 F60.00
G01 X28.2523 Y-4.3818 F60.00
G01 X28.2421 Y-4.3956 F60.00
G01 X28.2353 Y-4.4065 F60.00
G01 X28.2294 Y-4.4180 F60.00
G01 X28.2243 Y-4.4298 F60.00
G01 X28.2189 Y-4.4461 F60.00
G01 X28.2160 Y-4.4587 F60.00
G01 X28.2139 Y-4.4714 F60.00
G01 X28.2131 Y-4.4799 F60.00
G01 X28.2126 Y-4.4928 F60.00
G01 X28.2126 Y-5.8928 F60.00
G01 X28.2134 Y-5.9100 F60.00
G01 X28.2152 Y-5.9227 F60.00
G01 X28.2189 Y-5.9395 F60.00
G01 X28.2243 Y-5.9558 F60.00
G01 X28.2313 Y-5.9715 F60.00
G01 X28.2375 Y-5.9828 F60.00
G01 X28.2470 Y-5.9970 F60.00
G01 X28.2551 Y-6.0071 F60.00
G01 X28.2669 Y-6.0195 F60.00
G01 X28.2766 Y-6.0281 F60.00
G01 X28.2904 Y-6.0383 F60.00
G01 X28.3013 Y-6.0451 F60.00
G01 X28.3167 Y-6.0528 F60.00
G01 X28.3327 Y-6.0590 F60.00
G01 X28.3451 Y-6.0626 F60.00
G01 X28.3619 Y-6.0659 F60.00
G01 X28.3767 Y-6.0675 F60.00
G01 X28.3767 Y-8.9547 F60.00
G01 X27.2870 Y-8.9547 F60.00
G01 X27.2869 Y-8.9257 F60.00
G01 X27.2862 Y-8.9128 F60.00
G01 X27.2836 Y-8.8959 F60.00
G01 X27.2795 Y-8.8792 F60.00
G01 X27.2737 Y-8.8630 F60.00
G01 X27.2683 Y-8.8513 F60.00
G01 X27.2643 Y-8.8437 F60.00
G01 X27.2551 Y-8.8292 F60.00
G01 X27.2445 Y-8.8157 F60.00
G01 X27.2327 Y-8.8033 F60.00
G01 X27.2263 Y-8.7975 F60.00
G01 X27.2162 Y-8.7894 F60.00
G01 X27.2020 Y-8.7799 F60.00
G01 X27.1945 Y-8.7757 F60.00
G01 X27.1829 Y-8.7700 F60.00
G01 X27.1750 Y-8.7667 F60.00
G01 X27.1628 Y-8.7625 F60.00
G01 X27.1461 Y-8.7584 F60.00
G01 X27.1292 Y-8.7558 F60.00
G01 X27.1120 Y-8.7550 F60.00
G01 X25.9120 Y-8.7550 F60.00
G01 X25.8991 Y-8.7555 F60.00
G01 X25.8906 Y-8.7563 F60.00
G01 X25.8737 Y-8.7593 F60.00
G01 X25.8571 Y-8.7638 F60.00
G01 X25.8450 Y-8.7683 F60.00
G01 X25.8295 Y-8.7757 F60.00
G01 X25.8148 Y-8.7845 F60.00
G01 X25.8043 Y-8.7920 F60.00
G01 X25.7945 Y-8.8003 F60.00
G01 X25.7823 Y-8.8125 F60.00
G01 X25.7714 Y-8.8258 F60.00
G01 X25.7619 Y-8.8400 F60.00
G01 X25.7557 Y-8.8513 F60.00
G01 X25.7487 Y-8.8670 F60.00
G01 X25.7433 Y-8.8833 F60.00
G01 X25.7396 Y-8.9001 F60.00
G01 X25.7375 Y-8.9171 F60.00
G01 X25.7370 Y-8.9300 F60.00
G00 Z2.0000
M05
G00 Z2.0000
G00 Z5.00


