(G-CODE GENERATED BY FLATCAM v8.994 - www.flatcam.org - Version Date: 2020/11/7)

(Name: RF_PA_ONLY-F_Cu.gbr_iso_combined_cnc)
(Type: G-code from Geometry)
(Units: MM)

(Created on Friday, 01 December 2023 at 18:51)

(This preprocessor is used with a motion controller loaded with GRBL firmware.)
(It is configured to be compatible with almost any version of GRBL firmware.)

(TOOL DIAMETER: 0.1839 mm)
(Feedrate_XY: 60.0 mm/min)
(Feedrate_Z: 10.0 mm/min)
(Feedrate rapids 1500.0 mm/min)

(Z_Cut: -0.05 mm)
(DepthPerCut: 0.05 mm <=>1 passes)
(Z_Move: 2.0 mm)
(Z Start: None mm)
(Z End: 15.0 mm)
(X,Y End: None mm)
(Steps per circle: 64)
(Steps per circle: 64)
(Preprocessor Geometry: GRBL_11_no_M6)

(X range:   -0.2570 ...  100.3175  mm)
(Y range:  -60.2570 ...    0.2570  mm)

(Spindle Speed: 12000.0 RPM)
G21
G90
G17
G94


G01 F60.00

M5             
G00 Z15.0000
G00 X0.0000 Y0.0000                
T2
(MSG, Change to Tool Dia = 0.1839)
M0
G00 Z15.0000
        
G00 Z2.0000
M03 S12000.0
G4 P1.0
G01 F60.00
G00 X7.2774 Y-5.2283
G01 F10.00
G01 Z-0.0500
G01 F60.00
G01 X7.2618 Y-5.2813 F60.00
G01 X7.2580 Y-5.2934 F60.00
G01 X7.2511 Y-5.3110 F60.00
G01 X7.2429 Y-5.3283 F60.00
G01 X7.2774 Y-5.2938 F60.00
G01 X7.2774 Y-5.2283 F60.00
G00 Z2.0000
G00 X8.2926 Y-5.1311
G01 F10.00
G01 Z-0.0500
G01 F60.00
G01 X8.3100 Y-5.0720 F60.00
G01 X8.3142 Y-5.0599 F60.00
G01 X8.3190 Y-5.0480 F60.00
G01 X8.3244 Y-5.0364 F60.00
G01 X8.3336 Y-5.0196 F60.00
G01 X8.3439 Y-5.0034 F60.00
G01 X8.3515 Y-4.9931 F60.00
G01 X8.3638 Y-4.9784 F60.00
G01 X8.3771 Y-4.9646 F60.00
G01 X8.3866 Y-4.9560 F60.00
G01 X8.4394 Y-4.9103 F60.00
G01 X8.4493 Y-4.9021 F60.00
G01 X8.4595 Y-4.8945 F60.00
G01 X8.4756 Y-4.8840 F60.00
G01 X8.4867 Y-4.8777 F60.00
G01 X8.4981 Y-4.8720 F60.00
G01 X8.5158 Y-4.8645 F60.00
G01 X8.5339 Y-4.8583 F60.00
G01 X8.5525 Y-4.8534 F60.00
G01 X8.5713 Y-4.8500 F60.00
G01 X8.6405 Y-4.8401 F60.00
G01 X8.6593 Y-4.8381 F60.00
G01 X8.6783 Y-4.8375 F60.00
G01 X8.6909 Y-4.8378 F60.00
G01 X8.7098 Y-4.8395 F60.00
G01 X8.7222 Y-4.8414 F60.00
G01 X8.7407 Y-4.8454 F60.00
G01 X8.7529 Y-4.8488 F60.00
G01 X8.7860 Y-4.8605 F60.00
G01 X8.7741 Y-4.8509 F60.00
G01 X8.7530 Y-4.8319 F60.00
G01 X8.7438 Y-4.8232 F60.00
G01 X8.7351 Y-4.8140 F60.00
G01 X8.7121 Y-4.7881 F60.00
G01 X8.7043 Y-4.7781 F60.00
G01 X8.6838 Y-4.7500 F60.00
G01 X8.6657 Y-4.7204 F60.00
G01 X8.6595 Y-4.7094 F60.00
G01 X8.6444 Y-4.6782 F60.00
G01 X8.6393 Y-4.6666 F60.00
G01 X8.6347 Y-4.6548 F60.00
G01 X8.6250 Y-4.6273 F60.00
G01 X8.6212 Y-4.6146 F60.00
G01 X8.2926 Y-4.6146 F60.00
G01 X8.2926 Y-5.1311 F60.00
G00 Z2.0000
G00 X8.6636 Y-3.4972
G01 F10.00
G01 Z-0.0500
G01 F60.00
G01 X8.6113 Y-3.5439 F60.00
G01 X8.5964 Y-3.5552 F60.00
G01 X8.5806 Y-3.5653 F60.00
G01 X8.5698 Y-3.5715 F60.00
G01 X8.5586 Y-3.5771 F60.00
G01 X8.5472 Y-3.5821 F60.00
G01 X8.5356 Y-3.5866 F60.00
G01 X8.5177 Y-3.5923 F60.00
G01 X8.4879 Y-3.5994 F60.00
G01 X8.6212 Y-3.5994 F60.00
G01 X8.6273 Y-3.5800 F60.00
G01 X8.6393 Y-3.5474 F60.00
G01 X8.6538 Y-3.5159 F60.00
G01 X8.6636 Y-3.4972 F60.00
G00 Z2.0000
G00 X11.6953 Y-2.0201
G01 F10.00
G01 Z-0.0500
G01 F60.00
G01 X11.6972 Y-2.0419 F60.00
G01 X11.6974 Y-2.0480 F60.00
G01 X11.6974 Y-2.4683 F60.00
G01 X11.7065 Y-2.5564 F60.00
G01 X11.7551 Y-2.7032 F60.00
G01 X11.8359 Y-2.8342 F60.00
G01 X11.9448 Y-2.9431 F60.00
G01 X12.0758 Y-3.0239 F60.00
G01 X12.2226 Y-3.0725 F60.00
G01 X12.3107 Y-3.0816 F60.00
G01 X12.3646 Y-3.0816 F60.00
G01 X12.3755 Y-3.0825 F60.00
G01 X12.3883 Y-3.0853 F60.00
G01 X12.4554 Y-3.1050 F60.00
G01 X12.4657 Y-3.1087 F60.00
G01 X12.4755 Y-3.1136 F60.00
G01 X12.4846 Y-3.1196 F60.00
G01 X12.5126 Y-3.1426 F60.00
G01 X12.5191 Y-3.1489 F60.00
G01 X12.5684 Y-3.1835 F60.00
G01 X12.6115 Y-3.2185 F60.00
G01 X12.6353 Y-3.2310 F60.00
G01 X12.6454 Y-3.2370 F60.00
G01 X12.6708 Y-3.2545 F60.00
G01 X12.7260 Y-3.2784 F60.00
G01 X12.7752 Y-3.3041 F60.00
G01 X12.8048 Y-3.3127 F60.00
G01 X12.8158 Y-3.3167 F60.00
G01 X12.8406 Y-3.3274 F60.00
G01 X12.8995 Y-3.3397 F60.00
G01 X12.9529 Y-3.3549 F60.00
G01 X12.9797 Y-3.3570 F60.00
G01 X12.9914 Y-3.3585 F60.00
G01 X13.0216 Y-3.3646 F60.00
G01 X13.0818 Y-3.3648 F60.00
G01 X13.1371 Y-3.3689 F60.00
G01 X13.1639 Y-3.3656 F60.00
G01 X13.1794 Y-3.3646 F60.00
G01 X13.4291 Y-3.3647 F60.00
G01 X13.4379 Y-3.3655 F60.00
G01 X13.4486 Y-3.3677 F60.00
G01 X13.5241 Y-3.3901 F60.00
G01 X13.5344 Y-3.3947 F60.00
G01 X13.5441 Y-3.4005 F60.00
G01 X13.5720 Y-3.4228 F60.00
G01 X13.5775 Y-3.4278 F60.00
G01 X13.6298 Y-3.4801 F60.00
G01 X13.7389 Y-3.5474 F60.00
G01 X13.7495 Y-3.5551 F60.00
G01 X13.7590 Y-3.5642 F60.00
G01 X13.8072 Y-3.6178 F60.00
G01 X13.8139 Y-3.6267 F60.00
G01 X13.8184 Y-3.6343 F60.00
G01 X13.8231 Y-3.6444 F60.00
G01 X13.8265 Y-3.6551 F60.00
G01 X13.8396 Y-3.7130 F60.00
G01 X13.8410 Y-3.7221 F60.00
G01 X13.8414 Y-3.7289 F60.00
G01 X13.8414 Y-4.2330 F60.00
G01 X13.8410 Y-4.2418 F60.00
G01 X13.8398 Y-4.2504 F60.00
G01 X13.8377 Y-4.2589 F60.00
G01 X13.8174 Y-4.3282 F60.00
G01 X13.8143 Y-4.3365 F60.00
G01 X13.8104 Y-4.3444 F60.00
G01 X13.8057 Y-4.3520 F60.00
G01 X13.7938 Y-4.3683 F60.00
G01 X13.6998 Y-4.4853 F60.00
G01 X13.6235 Y-4.6391 F60.00
G01 X13.5816 Y-4.8076 F60.00
G01 X13.5794 Y-4.8395 F60.00
G01 X13.5795 Y-5.7485 F60.00
G01 X13.5816 Y-5.7804 F60.00
G01 X13.6235 Y-5.9489 F60.00
G01 X13.6998 Y-6.1027 F60.00
G01 X13.8074 Y-6.2366 F60.00
G01 X13.9413 Y-6.3442 F60.00
G01 X14.0951 Y-6.4205 F60.00
G01 X14.2636 Y-6.4624 F60.00
G01 X14.2954 Y-6.4645 F60.00
G01 X15.2045 Y-6.4645 F60.00
G01 X15.2364 Y-6.4624 F60.00
G01 X15.4049 Y-6.4205 F60.00
G01 X15.5587 Y-6.3442 F60.00
G01 X15.6926 Y-6.2366 F60.00
G01 X15.8002 Y-6.1027 F60.00
G01 X15.8765 Y-5.9489 F60.00
G01 X15.9184 Y-5.7804 F60.00
G01 X15.9206 Y-5.7485 F60.00
G01 X15.9205 Y-4.8395 F60.00
G01 X15.9184 Y-4.8076 F60.00
G01 X15.9164 Y-4.7969 F60.00
G01 X15.9157 Y-4.7860 F60.00
G01 X15.9188 Y-4.7095 F60.00
G01 X15.9199 Y-4.7004 F60.00
G01 X15.9224 Y-4.6893 F60.00
G01 X15.9255 Y-4.6807 F60.00
G01 X15.9305 Y-4.6704 F60.00
G01 X15.9353 Y-4.6627 F60.00
G01 X15.9755 Y-4.6056 F60.00
G01 X15.9827 Y-4.5967 F60.00
G01 X15.9891 Y-4.5902 F60.00
G01 X15.9962 Y-4.5844 F60.00
G01 X16.0058 Y-4.5783 F60.00
G01 X16.0140 Y-4.5742 F60.00
G01 X16.0849 Y-4.5454 F60.00
G01 X16.0977 Y-4.5419 F60.00
G01 X16.1108 Y-4.5403 F60.00
G01 X16.1279 Y-4.5395 F60.00
G01 X17.0183 Y-4.5395 F60.00
G01 X17.1064 Y-4.5305 F60.00
G01 X17.2532 Y-4.4819 F60.00
G01 X17.3842 Y-4.4011 F60.00
G01 X17.4931 Y-4.2922 F60.00
G01 X17.5739 Y-4.1612 F60.00
G01 X17.6225 Y-4.0144 F60.00
G01 X17.6316 Y-3.9263 F60.00
G01 X17.6315 Y-0.9857 F60.00
G01 X17.6225 Y-0.8976 F60.00
G01 X17.5739 Y-0.7508 F60.00
G01 X17.4931 Y-0.6198 F60.00
G01 X17.3842 Y-0.5109 F60.00
G01 X17.2532 Y-0.4301 F60.00
G01 X17.1064 Y-0.3815 F60.00
G01 X17.0183 Y-0.3724 F60.00
G01 X16.0777 Y-0.3724 F60.00
G01 X15.9896 Y-0.3815 F60.00
G01 X15.8428 Y-0.4301 F60.00
G01 X15.7118 Y-0.5109 F60.00
G01 X15.6029 Y-0.6198 F60.00
G01 X15.5221 Y-0.7508 F60.00
G01 X15.4735 Y-0.8976 F60.00
G01 X15.4644 Y-0.9857 F60.00
G01 X15.4642 Y-1.3381 F60.00
G01 X15.4632 Y-1.3467 F60.00
G01 X15.4613 Y-1.3553 F60.00
G01 X15.4396 Y-1.4288 F60.00
G01 X15.4362 Y-1.4373 F60.00
G01 X15.4308 Y-1.4473 F60.00
G01 X15.4256 Y-1.4548 F60.00
G01 X15.4180 Y-1.4634 F60.00
G01 X15.3602 Y-1.5138 F60.00
G01 X15.3549 Y-1.5181 F60.00
G01 X15.3492 Y-1.5220 F60.00
G01 X15.3432 Y-1.5255 F60.00
G01 X15.3370 Y-1.5285 F60.00
G01 X15.3306 Y-1.5310 F60.00
G01 X15.3240 Y-1.5331 F60.00
G01 X15.2680 Y-1.5453 F60.00
G01 X15.2551 Y-1.5472 F60.00
G01 X14.7827 Y-1.5474 F60.00
G01 X14.6979 Y-1.5453 F60.00
G01 X14.6761 Y-1.5472 F60.00
G01 X14.6700 Y-1.5474 F60.00
G01 X13.7218 Y-1.5474 F60.00
G01 X13.7109 Y-1.5468 F60.00
G01 X13.7001 Y-1.5449 F60.00
G01 X13.6245 Y-1.5226 F60.00
G01 X13.6140 Y-1.5182 F60.00
G01 X13.6041 Y-1.5125 F60.00
G01 X13.5950 Y-1.5057 F60.00
G01 X13.5868 Y-1.4977 F60.00
G01 X13.5395 Y-1.4432 F60.00
G01 X13.5326 Y-1.4341 F60.00
G01 X13.5290 Y-1.4283 F60.00
G01 X13.5258 Y-1.4221 F60.00
G01 X13.5216 Y-1.4115 F60.00
G01 X13.5087 Y-1.3640 F60.00
G01 X13.5072 Y-1.3556 F60.00
G01 X13.5055 Y-1.3396 F60.00
G01 X13.4569 Y-1.1928 F60.00
G01 X13.3761 Y-1.0618 F60.00
G01 X13.2672 Y-0.9529 F60.00
G01 X13.1362 Y-0.8721 F60.00
G01 X12.9894 Y-0.8235 F60.00
G01 X12.9013 Y-0.8144 F60.00
G01 X12.3107 Y-0.8144 F60.00
G01 X12.2226 Y-0.8235 F60.00
G01 X12.0758 Y-0.8721 F60.00
G01 X11.9448 Y-0.9529 F60.00
G01 X11.8359 Y-1.0618 F60.00
G01 X11.7551 Y-1.1928 F60.00
G01 X11.7065 Y-1.3396 F60.00
G01 X11.6974 Y-1.4277 F60.00
G01 X11.6974 Y-1.9353 F60.00
G01 X11.6953 Y-2.0201 F60.00
G00 Z2.0000
G00 X12.0141 Y-1.9553
G01 F10.00
G01 Z-0.0500
G01 F60.00
G01 X12.0141 Y-2.4253 F60.00
G01 X12.0157 Y-2.4565 F60.00
G01 X12.0206 Y-2.4897 F60.00
G01 X12.0288 Y-2.5223 F60.00
G01 X12.0401 Y-2.5539 F60.00
G01 X12.0544 Y-2.5842 F60.00
G01 X12.0717 Y-2.6130 F60.00
G01 X12.0917 Y-2.6399 F60.00
G01 X12.1142 Y-2.6648 F60.00
G01 X12.1391 Y-2.6873 F60.00
G01 X12.1679 Y-2.7086 F60.00
G01 X12.1948 Y-2.7246 F60.00
G01 X12.2210 Y-2.7371 F60.00
G01 X12.2294 Y-2.7405 F60.00
G01 X12.2567 Y-2.7502 F60.00
G01 X12.2849 Y-2.7574 F60.00
G01 X12.2915 Y-2.7588 F60.00
G01 X12.3180 Y-2.7628 F60.00
G01 X12.3270 Y-2.7636 F60.00
G01 X12.3560 Y-2.7649 F60.00
G01 X12.5855 Y-2.7649 F60.00
G01 X12.6985 Y-2.8779 F60.00
G01 X12.7383 Y-2.9138 F60.00
G01 X12.7850 Y-2.9484 F60.00
G01 X12.8348 Y-2.9783 F60.00
G01 X12.8874 Y-3.0031 F60.00
G01 X12.9421 Y-3.0227 F60.00
G01 X12.9963 Y-3.0364 F60.00
G01 X13.0560 Y-3.0453 F60.00
G01 X13.1117 Y-3.0482 F60.00
G01 X13.7109 Y-3.0482 F60.00
G01 X13.7145 Y-3.0614 F60.00
G01 X13.7242 Y-3.0888 F60.00
G01 X13.7384 Y-3.1192 F60.00
G01 X13.7567 Y-3.1500 F60.00
G01 X13.7753 Y-3.1752 F60.00
G01 X13.7992 Y-3.2018 F60.00
G01 X13.8241 Y-3.2243 F60.00
G01 X13.8510 Y-3.2443 F60.00
G01 X13.8778 Y-3.2605 F60.00
G01 X13.9101 Y-3.2759 F60.00
G01 X13.9417 Y-3.2872 F60.00
G01 X13.9743 Y-3.2954 F60.00
G01 X14.0030 Y-3.2998 F60.00
G01 X14.0102 Y-3.3005 F60.00
G01 X14.0387 Y-3.3019 F60.00
G01 X14.1578 Y-3.3019 F60.00
G01 X14.1578 Y-4.4902 F60.00
G01 X14.1441 Y-4.4970 F60.00
G01 X14.1081 Y-4.5185 F60.00
G01 X14.0707 Y-4.5460 F60.00
G01 X14.0346 Y-4.5786 F60.00
G01 X14.0020 Y-4.6147 F60.00
G01 X13.9757 Y-4.6503 F60.00
G01 X13.9541 Y-4.6861 F60.00
G01 X13.9499 Y-4.6941 F60.00
G01 X13.9321 Y-4.7320 F60.00
G01 X13.9178 Y-4.7714 F60.00
G01 X13.9152 Y-4.7801 F60.00
G01 X13.9056 Y-4.8184 F60.00
G01 X13.8983 Y-4.8666 F60.00
G01 X13.8961 Y-4.9130 F60.00
G01 X13.8961 Y-5.6750 F60.00
G01 X13.8980 Y-5.7169 F60.00
G01 X13.8989 Y-5.7258 F60.00
G01 X13.9051 Y-5.7673 F60.00
G01 X13.9164 Y-5.8123 F60.00
G01 X13.9321 Y-5.8560 F60.00
G01 X13.9499 Y-5.8939 F60.00
G01 X13.9541 Y-5.9019 F60.00
G01 X13.9758 Y-5.9378 F60.00
G01 X14.0006 Y-5.9715 F60.00
G01 X14.0064 Y-5.9785 F60.00
G01 X14.0346 Y-6.0094 F60.00
G01 X14.0690 Y-6.0406 F60.00
G01 X14.1062 Y-6.0682 F60.00
G01 X14.1421 Y-6.0899 F60.00
G01 X14.1501 Y-6.0941 F60.00
G01 X14.1901 Y-6.1128 F60.00
G01 X14.2317 Y-6.1276 F60.00
G01 X14.2767 Y-6.1389 F60.00
G01 X14.3226 Y-6.1457 F60.00
G01 X14.3667 Y-6.1479 F60.00
G01 X15.1310 Y-6.1479 F60.00
G01 X15.1774 Y-6.1457 F60.00
G01 X15.2233 Y-6.1389 F60.00
G01 X15.2639 Y-6.1288 F60.00
G01 X15.2726 Y-6.1262 F60.00
G01 X15.3120 Y-6.1119 F60.00
G01 X15.3499 Y-6.0941 F60.00
G01 X15.3579 Y-6.0899 F60.00
G01 X15.3938 Y-6.0682 F60.00
G01 X15.4310 Y-6.0406 F60.00
G01 X15.4622 Y-6.0125 F60.00
G01 X15.4685 Y-6.0062 F60.00
G01 X15.4966 Y-5.9750 F60.00
G01 X15.5216 Y-5.9414 F60.00
G01 X15.5267 Y-5.9339 F60.00
G01 X15.5481 Y-5.8979 F60.00
G01 X15.5688 Y-5.8539 F60.00
G01 X15.5836 Y-5.8123 F60.00
G01 X15.5949 Y-5.7673 F60.00
G01 X15.6017 Y-5.7214 F60.00
G01 X15.6039 Y-5.6773 F60.00
G01 X15.6039 Y-4.9130 F60.00
G01 X15.6017 Y-4.8666 F60.00
G01 X15.5953 Y-4.8230 F60.00
G01 X15.5836 Y-4.7757 F60.00
G01 X15.5696 Y-4.7362 F60.00
G01 X15.5661 Y-4.7279 F60.00
G01 X15.5481 Y-4.6901 F60.00
G01 X15.5267 Y-4.6541 F60.00
G01 X15.5216 Y-4.6466 F60.00
G01 X15.4994 Y-4.6165 F60.00
G01 X15.4936 Y-4.6095 F60.00
G01 X15.4654 Y-4.5786 F60.00
G01 X15.4310 Y-4.5474 F60.00
G01 X15.3918 Y-4.5185 F60.00
G01 X15.3559 Y-4.4970 F60.00
G01 X15.3422 Y-4.4902 F60.00
G01 X15.3422 Y-3.0482 F60.00
G01 X15.7811 Y-3.0482 F60.00
G01 X15.7811 Y-3.8810 F60.00
G01 X15.7827 Y-3.9145 F60.00
G01 X15.7872 Y-3.9455 F60.00
G01 X15.7958 Y-3.9803 F60.00
G01 X15.8055 Y-4.0076 F60.00
G01 X15.8089 Y-4.0160 F60.00
G01 X15.8204 Y-4.0402 F60.00
G01 X15.8237 Y-4.0461 F60.00
G01 X15.8387 Y-4.0710 F60.00
G01 X15.8559 Y-4.0944 F60.00
G01 X15.8616 Y-4.1013 F60.00
G01 X15.8812 Y-4.1228 F60.00
G01 X15.9061 Y-4.1453 F60.00
G01 X15.9330 Y-4.1653 F60.00
G01 X15.9638 Y-4.1836 F60.00
G01 X15.9880 Y-4.1951 F60.00
G01 X15.9964 Y-4.1985 F60.00
G01 X16.0237 Y-4.2082 F60.00
G01 X16.0519 Y-4.2154 F60.00
G01 X16.0607 Y-4.2172 F60.00
G01 X16.0895 Y-4.2213 F60.00
G01 X16.1207 Y-4.2229 F60.00
G01 X16.9730 Y-4.2229 F60.00
G01 X17.0088 Y-4.2211 F60.00
G01 X17.0397 Y-4.2164 F60.00
G01 X17.0679 Y-4.2094 F60.00
G01 X17.0765 Y-4.2068 F60.00
G01 X17.1039 Y-4.1969 F60.00
G01 X17.1302 Y-4.1846 F60.00
G01 X17.1381 Y-4.1803 F60.00
G01 X17.1630 Y-4.1653 F60.00
G01 X17.1864 Y-4.1481 F60.00
G01 X17.1933 Y-4.1424 F60.00
G01 X17.2148 Y-4.1228 F60.00
G01 X17.2344 Y-4.1013 F60.00
G01 X17.2401 Y-4.0944 F60.00
G01 X17.2573 Y-4.0710 F60.00
G01 X17.2723 Y-4.0461 F60.00
G01 X17.2766 Y-4.0382 F60.00
G01 X17.2898 Y-4.0098 F60.00
G01 X17.3002 Y-3.9803 F60.00
G01 X17.3084 Y-3.9477 F60.00
G01 X17.3133 Y-3.9142 F60.00
G01 X17.3149 Y-3.8810 F60.00
G01 X17.3149 Y-1.0310 F60.00
G01 X17.3136 Y-1.0020 F60.00
G01 X17.3128 Y-0.9930 F60.00
G01 X17.3079 Y-0.9621 F60.00
G01 X17.3002 Y-0.9317 F60.00
G01 X17.2905 Y-0.9044 F60.00
G01 X17.2871 Y-0.8960 F60.00
G01 X17.2746 Y-0.8698 F60.00
G01 X17.2597 Y-0.8448 F60.00
G01 X17.2547 Y-0.8373 F60.00
G01 X17.2373 Y-0.8141 F60.00
G01 X17.2179 Y-0.7925 F60.00
G01 X17.2115 Y-0.7861 F60.00
G01 X17.1899 Y-0.7667 F60.00
G01 X17.1630 Y-0.7467 F60.00
G01 X17.1381 Y-0.7317 F60.00
G01 X17.1302 Y-0.7274 F60.00
G01 X17.1018 Y-0.7142 F60.00
G01 X17.0723 Y-0.7038 F60.00
G01 X17.0397 Y-0.6956 F60.00
G01 X17.0065 Y-0.6907 F60.00
G01 X16.9753 Y-0.6891 F60.00
G01 X16.1185 Y-0.6892 F60.00
G01 X16.0895 Y-0.6907 F60.00
G01 X16.0563 Y-0.6956 F60.00
G01 X16.0237 Y-0.7038 F60.00
G01 X15.9964 Y-0.7135 F60.00
G01 X15.9901 Y-0.7160 F60.00
G01 X15.9658 Y-0.7274 F60.00
G01 X15.9579 Y-0.7317 F60.00
G01 X15.9330 Y-0.7467 F60.00
G01 X15.9043 Y-0.7681 F60.00
G01 X15.8812 Y-0.7892 F60.00
G01 X15.8587 Y-0.8141 F60.00
G01 X15.8387 Y-0.8410 F60.00
G01 X15.8214 Y-0.8698 F60.00
G01 X15.8071 Y-0.9001 F60.00
G01 X15.7958 Y-0.9317 F60.00
G01 X15.7876 Y-0.9643 F60.00
G01 X15.7829 Y-0.9952 F60.00
G01 X15.7811 Y-1.0310 F60.00
G01 X15.7811 Y-1.8638 F60.00
G01 X13.3593 Y-1.8638 F60.00
G01 X13.1979 Y-1.7025 F60.00
G01 X13.1978 Y-1.4685 F60.00
G01 X13.1963 Y-1.4395 F60.00
G01 X13.1922 Y-1.4107 F60.00
G01 X13.1904 Y-1.4019 F60.00
G01 X13.1832 Y-1.3737 F60.00
G01 X13.1719 Y-1.3421 F60.00
G01 X13.1596 Y-1.3158 F60.00
G01 X13.1553 Y-1.3079 F60.00
G01 X13.1416 Y-1.2849 F60.00
G01 X13.1377 Y-1.2793 F60.00
G01 X13.1203 Y-1.2561 F60.00
G01 X13.0978 Y-1.2312 F60.00
G01 X13.0729 Y-1.2087 F60.00
G01 X13.0497 Y-1.1913 F60.00
G01 X13.0422 Y-1.1863 F60.00
G01 X13.0172 Y-1.1714 F60.00
G01 X12.9910 Y-1.1589 F60.00
G01 X12.9826 Y-1.1555 F60.00
G01 X12.9553 Y-1.1458 F60.00
G01 X12.9271 Y-1.1386 F60.00
G01 X12.9183 Y-1.1368 F60.00
G01 X12.8895 Y-1.1327 F60.00
G01 X12.8560 Y-1.1311 F60.00
G01 X12.3537 Y-1.1311 F60.00
G01 X12.3225 Y-1.1327 F60.00
G01 X12.2937 Y-1.1368 F60.00
G01 X12.2849 Y-1.1386 F60.00
G01 X12.2567 Y-1.1458 F60.00
G01 X12.2251 Y-1.1571 F60.00
G01 X12.1988 Y-1.1694 F60.00
G01 X12.1909 Y-1.1737 F60.00
G01 X12.1660 Y-1.1887 F60.00
G01 X12.1426 Y-1.2059 F60.00
G01 X12.1357 Y-1.2116 F60.00
G01 X12.1142 Y-1.2312 F60.00
G01 X12.0917 Y-1.2561 F60.00
G01 X12.0717 Y-1.2830 F60.00
G01 X12.0567 Y-1.3079 F60.00
G01 X12.0524 Y-1.3158 F60.00
G01 X12.0401 Y-1.3421 F60.00
G01 X12.0288 Y-1.3737 F60.00
G01 X12.0206 Y-1.4063 F60.00
G01 X12.0157 Y-1.4395 F60.00
G01 X12.0142 Y-1.4685 F60.00
G01 X12.0138 Y-1.9480 F60.00
G01 X12.0141 Y-1.9553 F60.00
G00 Z2.0000
G00 X12.4486 Y-2.9305
G01 F10.00
G01 Z-0.0500
G01 F60.00
G01 X12.5137 Y-2.9499 F60.00
G01 X12.5252 Y-2.9542 F60.00
G01 X12.5365 Y-2.9590 F60.00
G01 X12.5547 Y-2.9682 F60.00
G01 X12.5169 Y-2.9305 F60.00
G01 X12.4486 Y-2.9305 F60.00
G00 Z2.0000
G00 X13.5117 Y-3.2137
G01 F10.00
G01 Z-0.0500
G01 F60.00
G01 X13.5643 Y-3.2292 F60.00
G01 X13.5823 Y-3.2352 F60.00
G01 X13.5940 Y-3.2399 F60.00
G01 X13.6055 Y-3.2452 F60.00
G01 X13.6167 Y-3.2510 F60.00
G01 X13.6325 Y-3.2606 F60.00
G01 X13.6191 Y-3.2419 F60.00
G01 X13.6018 Y-3.2137 F60.00
G01 X13.5117 Y-3.2137 F60.00
G00 Z2.0000
G00 X13.8639 Y-3.4353
G01 F10.00
G01 Z-0.0500
G01 F60.00
G01 X13.8779 Y-3.4490 F60.00
G01 X13.9329 Y-3.5101 F60.00
G01 X13.9445 Y-3.5248 F60.00
G01 X13.9551 Y-3.5402 F60.00
G01 X13.9615 Y-3.5509 F60.00
G01 X13.9673 Y-3.5619 F60.00
G01 X13.9727 Y-3.5732 F60.00
G01 X13.9775 Y-3.5848 F60.00
G01 X13.9817 Y-3.5965 F60.00
G01 X13.9853 Y-3.6084 F60.00
G01 X13.9923 Y-3.6378 F60.00
G01 X13.9923 Y-3.4651 F60.00
G01 X13.9545 Y-3.4599 F60.00
G01 X13.9358 Y-3.4564 F60.00
G01 X13.8937 Y-3.4456 F60.00
G01 X13.8639 Y-3.4353 F60.00
G00 Z2.0000
G00 X13.9923 Y-4.3200
G01 F10.00
G01 Z-0.0500
G01 F60.00
G01 X13.9768 Y-4.3728 F60.00
G01 X13.9709 Y-4.3904 F60.00
G01 X13.9637 Y-4.4076 F60.00
G01 X13.9583 Y-4.4188 F60.00
G01 X13.9523 Y-4.4296 F60.00
G01 X13.9689 Y-4.4155 F60.00
G01 X13.9923 Y-4.3981 F60.00
G01 X13.9923 Y-4.3200 F60.00
G00 Z2.0000
G00 X15.7509 Y-4.7621
G01 F10.00
G01 Z-0.0500
G01 F60.00
G01 X15.7537 Y-4.6985 F60.00
G01 X15.7556 Y-4.6794 F60.00
G01 X15.7578 Y-4.6668 F60.00
G01 X15.7621 Y-4.6481 F60.00
G01 X15.7658 Y-4.6359 F60.00
G01 X15.7700 Y-4.6238 F60.00
G01 X15.7749 Y-4.6120 F60.00
G01 X15.7803 Y-4.6004 F60.00
G01 X15.7863 Y-4.5891 F60.00
G01 X15.7929 Y-4.5781 F60.00
G01 X15.8000 Y-4.5675 F60.00
G01 X15.8402 Y-4.5103 F60.00
G01 X15.8478 Y-4.5001 F60.00
G01 X15.8559 Y-4.4902 F60.00
G01 X15.8645 Y-4.4807 F60.00
G01 X15.8782 Y-4.4674 F60.00
G01 X15.8879 Y-4.4590 F60.00
G01 X15.8980 Y-4.4512 F60.00
G01 X15.9085 Y-4.4439 F60.00
G01 X15.9194 Y-4.4371 F60.00
G01 X15.9362 Y-4.4279 F60.00
G01 X15.9537 Y-4.4200 F60.00
G01 X16.0241 Y-4.3914 F60.00
G01 X16.0358 Y-4.3873 F60.00
G01 X16.0507 Y-4.3830 F60.00
G01 X16.0302 Y-4.3799 F60.00
G01 X16.0178 Y-4.3774 F60.00
G01 X15.9818 Y-4.3684 F60.00
G01 X15.9637 Y-4.3626 F60.00
G01 X15.9288 Y-4.3498 F60.00
G01 X15.8894 Y-4.3314 F60.00
G01 X15.8728 Y-4.3223 F60.00
G01 X15.8411 Y-4.3029 F60.00
G01 X15.8110 Y-4.2810 F60.00
G01 X15.7962 Y-4.2692 F60.00
G01 X15.7642 Y-4.2398 F60.00
G01 X15.7390 Y-4.2125 F60.00
G01 X15.7268 Y-4.1980 F60.00
G01 X15.7046 Y-4.1681 F60.00
G01 X15.6943 Y-4.1523 F60.00
G01 X15.6755 Y-4.1202 F60.00
G01 X15.6593 Y-4.0867 F60.00
G01 X15.6518 Y-4.0693 F60.00
G01 X15.6393 Y-4.0343 F60.00
G01 X15.6356 Y-4.0222 F60.00
G01 X15.6281 Y-3.9923 F60.00
G01 X15.6253 Y-3.9800 F60.00
G01 X15.6231 Y-3.9675 F60.00
G01 X15.6187 Y-3.9370 F60.00
G01 X15.6171 Y-3.9181 F60.00
G01 X15.6155 Y-3.8810 F60.00
G01 X15.6155 Y-3.2137 F60.00
G01 X15.5077 Y-3.2137 F60.00
G01 X15.5077 Y-4.3981 F60.00
G01 X15.5311 Y-4.4155 F60.00
G01 X15.5409 Y-4.4235 F60.00
G01 X15.5733 Y-4.4528 F60.00
G01 X15.5869 Y-4.4661 F60.00
G01 X15.6163 Y-4.4984 F60.00
G01 X15.6245 Y-4.5080 F60.00
G01 X15.6546 Y-4.5480 F60.00
G01 X15.6619 Y-4.5583 F60.00
G01 X15.6686 Y-4.5690 F60.00
G01 X15.6941 Y-4.6120 F60.00
G01 X15.6998 Y-4.6233 F60.00
G01 X15.7184 Y-4.6629 F60.00
G01 X15.7254 Y-4.6805 F60.00
G01 X15.7401 Y-4.7216 F60.00
G01 X15.7437 Y-4.7337 F60.00
G01 X15.7509 Y-4.7621 F60.00
G00 Z2.0000
G00 X15.6155 Y-1.4176
G01 F10.00
G01 Z-0.0500
G01 F60.00
G01 X15.5998 Y-1.4711 F60.00
G01 X15.5959 Y-1.4833 F60.00
G01 X15.5890 Y-1.5011 F60.00
G01 X15.5836 Y-1.5127 F60.00
G01 X15.5744 Y-1.5296 F60.00
G01 X15.5641 Y-1.5457 F60.00
G01 X15.5525 Y-1.5610 F60.00
G01 X15.5399 Y-1.5754 F60.00
G01 X15.5262 Y-1.5889 F60.00
G01 X15.4686 Y-1.6389 F60.00
G01 X15.4536 Y-1.6510 F60.00
G01 X15.4377 Y-1.6619 F60.00
G01 X15.4266 Y-1.6685 F60.00
G01 X15.4153 Y-1.6745 F60.00
G01 X15.4036 Y-1.6800 F60.00
G01 X15.3917 Y-1.6849 F60.00
G01 X15.3796 Y-1.6892 F60.00
G01 X15.3672 Y-1.6928 F60.00
G01 X15.3436 Y-1.6983 F60.00
G01 X15.6155 Y-1.6983 F60.00
G01 X15.6155 Y-1.4176 F60.00
G00 Z2.0000
G00 X13.6348 Y-1.6983
G01 F10.00
G01 Z-0.0500
G01 F60.00
G01 X13.5761 Y-1.6810 F60.00
G01 X13.5640 Y-1.6768 F60.00
G01 X13.5464 Y-1.6693 F60.00
G01 X13.5293 Y-1.6606 F60.00
G01 X13.5129 Y-1.6507 F60.00
G01 X13.4973 Y-1.6395 F60.00
G01 X13.4826 Y-1.6272 F60.00
G01 X13.4733 Y-1.6184 F60.00
G01 X13.4602 Y-1.6044 F60.00
G01 X13.4103 Y-1.5467 F60.00
G01 X13.3986 Y-1.5314 F60.00
G01 X13.3881 Y-1.5153 F60.00
G01 X13.3788 Y-1.4984 F60.00
G01 X13.3709 Y-1.4808 F60.00
G01 X13.3663 Y-1.4689 F60.00
G01 X13.3631 Y-1.4592 F60.00
G01 X13.3635 Y-1.4730 F60.00
G01 X13.3635 Y-1.6339 F60.00
G01 X13.4279 Y-1.6983 F60.00
G01 X13.6348 Y-1.6983 F60.00
G00 Z2.0000
G00 X13.2872 Y-8.7623
G01 F10.00
G01 Z-0.0500
G01 F60.00
G01 X13.2342 Y-8.7467 F60.00
G01 X13.2162 Y-8.7407 F60.00
G01 X13.2045 Y-8.7359 F60.00
G01 X13.1930 Y-8.7306 F60.00
G01 X13.1818 Y-8.7247 F60.00
G01 X13.1732 Y-8.7197 F60.00
G01 X13.1797 Y-8.7295 F60.00
G01 X13.1862 Y-8.7403 F60.00
G01 X13.1922 Y-8.7514 F60.00
G01 X13.1973 Y-8.7623 F60.00
G01 X13.2872 Y-8.7623 F60.00
G00 Z2.0000
G00 X13.0541 Y-10.1672
G01 F10.00
G01 Z-0.0500
G01 F60.00
G01 X13.0541 Y-10.1122 F60.00
G01 X14.0235 Y-10.1122 F60.00
G01 X14.0126 Y-10.1245 F60.00
G01 X13.9855 Y-10.1615 F60.00
G01 X13.9632 Y-10.1989 F60.00
G01 X13.9445 Y-10.2382 F60.00
G01 X13.9296 Y-10.2792 F60.00
G01 X13.9270 Y-10.2878 F60.00
G01 X13.9170 Y-10.3279 F60.00
G01 X13.9103 Y-10.3732 F60.00
G01 X13.9081 Y-10.4190 F60.00
G01 X13.9081 Y-11.1690 F60.00
G01 X13.9103 Y-11.2148 F60.00
G01 X13.9175 Y-11.2623 F60.00
G01 X13.9281 Y-11.3044 F60.00
G01 X13.9420 Y-11.3435 F60.00
G01 X13.9454 Y-11.3518 F60.00
G01 X13.9612 Y-11.3851 F60.00
G01 X13.9654 Y-11.3930 F60.00
G01 X13.9867 Y-11.4284 F60.00
G01 X14.0140 Y-11.4652 F60.00
G01 X14.0448 Y-11.4992 F60.00
G01 X14.0770 Y-11.5285 F60.00
G01 X14.1156 Y-11.5573 F60.00
G01 X14.1510 Y-11.5786 F60.00
G01 X14.1589 Y-11.5828 F60.00
G01 X14.1984 Y-11.6012 F60.00
G01 X14.2395 Y-11.6158 F60.00
G01 X14.2817 Y-11.6265 F60.00
G01 X14.3270 Y-11.6335 F60.00
G01 X14.3556 Y-11.6351 F60.00
G01 X14.3556 Y-11.9920 F60.00
G01 X14.3366 Y-12.0011 F60.00
G01 X14.3097 Y-12.0171 F60.00
G01 X14.2791 Y-12.0398 F60.00
G01 X14.2560 Y-12.0609 F60.00
G01 X14.2364 Y-12.0824 F60.00
G01 X14.2307 Y-12.0893 F60.00
G01 X14.2148 Y-12.1109 F60.00
G01 X14.1962 Y-12.1415 F60.00
G01 X14.1837 Y-12.1677 F60.00
G01 X14.1803 Y-12.1761 F60.00
G01 X14.1706 Y-12.2034 F60.00
G01 X14.1634 Y-12.2316 F60.00
G01 X14.1616 Y-12.2404 F60.00
G01 X14.1573 Y-12.2714 F60.00
G01 X14.1559 Y-12.3027 F60.00
G01 X14.1559 Y-12.8277 F60.00
G01 X14.1575 Y-12.8612 F60.00
G01 X14.1616 Y-12.8900 F60.00
G01 X14.1634 Y-12.8988 F60.00
G01 X14.1706 Y-12.9270 F60.00
G01 X14.1819 Y-12.9586 F60.00
G01 X14.1962 Y-12.9889 F60.00
G01 X14.2111 Y-13.0139 F60.00
G01 X14.2161 Y-13.0214 F60.00
G01 X14.2349 Y-13.0464 F60.00
G01 X14.2560 Y-13.0695 F60.00
G01 X14.2775 Y-13.0891 F60.00
G01 X14.2844 Y-13.0948 F60.00
G01 X14.3078 Y-13.1120 F60.00
G01 X14.3327 Y-13.1270 F60.00
G01 X14.3386 Y-13.1303 F60.00
G01 X14.3628 Y-13.1418 F60.00
G01 X14.3712 Y-13.1452 F60.00
G01 X14.3985 Y-13.1549 F60.00
G01 X14.4311 Y-13.1631 F60.00
G01 X14.4646 Y-13.1680 F60.00
G01 X14.4955 Y-13.1696 F60.00
G01 X15.3978 Y-13.1696 F60.00
G01 X15.4291 Y-13.1682 F60.00
G01 X15.4601 Y-13.1639 F60.00
G01 X15.4689 Y-13.1621 F60.00
G01 X15.4971 Y-13.1549 F60.00
G01 X15.5287 Y-13.1436 F60.00
G01 X15.5590 Y-13.1293 F60.00
G01 X15.5840 Y-13.1144 F60.00
G01 X15.5915 Y-13.1094 F60.00
G01 X15.6165 Y-13.0906 F60.00
G01 X15.6396 Y-13.0695 F60.00
G01 X15.6621 Y-13.0446 F60.00
G01 X15.6821 Y-13.0177 F60.00
G01 X15.6971 Y-12.9928 F60.00
G01 X15.7014 Y-12.9849 F60.00
G01 X15.7128 Y-12.9606 F60.00
G01 X15.7153 Y-12.9543 F60.00
G01 X15.7257 Y-12.9248 F60.00
G01 X15.7322 Y-12.8988 F60.00
G01 X15.7340 Y-12.8900 F60.00
G01 X15.7381 Y-12.8609 F60.00
G01 X15.7397 Y-12.8277 F60.00
G01 X15.7397 Y-12.3027 F60.00
G01 X15.7381 Y-12.2692 F60.00
G01 X15.7340 Y-12.2404 F60.00
G01 X15.7322 Y-12.2316 F60.00
G01 X15.7250 Y-12.2034 F60.00
G01 X15.7153 Y-12.1761 F60.00
G01 X15.7119 Y-12.1677 F60.00
G01 X15.6994 Y-12.1415 F60.00
G01 X15.6834 Y-12.1146 F60.00
G01 X15.6649 Y-12.0893 F60.00
G01 X15.6592 Y-12.0824 F60.00
G01 X15.6396 Y-12.0609 F60.00
G01 X15.6165 Y-12.0398 F60.00
G01 X15.5859 Y-12.0171 F60.00
G01 X15.5590 Y-12.0011 F60.00
G01 X15.5400 Y-11.9920 F60.00
G01 X15.5400 Y-11.3826 F60.00
G01 X15.5564 Y-11.3477 F60.00
G01 X15.5704 Y-11.3088 F60.00
G01 X15.5730 Y-11.3002 F60.00
G01 X15.5820 Y-11.2645 F60.00
G01 X15.5837 Y-11.2557 F60.00
G01 X15.5897 Y-11.2148 F60.00
G01 X15.5919 Y-11.1713 F60.00
G01 X15.5919 Y-10.4190 F60.00
G01 X15.5895 Y-10.3710 F60.00
G01 X15.5837 Y-10.3323 F60.00
G01 X15.5820 Y-10.3235 F60.00
G01 X15.5718 Y-10.2835 F60.00
G01 X15.5580 Y-10.2445 F60.00
G01 X15.5546 Y-10.2362 F60.00
G01 X15.5368 Y-10.1989 F60.00
G01 X15.5133 Y-10.1596 F60.00
G01 X15.4887 Y-10.1263 F60.00
G01 X15.4830 Y-10.1194 F60.00
G01 X15.4552 Y-10.0888 F60.00
G01 X15.4246 Y-10.0610 F60.00
G01 X15.4177 Y-10.0553 F60.00
G01 X15.3844 Y-10.0307 F60.00
G01 X15.3490 Y-10.0094 F60.00
G01 X15.3422 Y-10.0057 F60.00
G01 X15.3422 Y-9.9277 F60.00
G01 X15.3393 Y-9.8720 F60.00
G01 X15.3308 Y-9.8145 F60.00
G01 X15.3167 Y-9.7581 F60.00
G01 X15.2971 Y-9.7034 F60.00
G01 X15.2723 Y-9.6508 F60.00
G01 X15.2424 Y-9.6010 F60.00
G01 X15.2063 Y-9.5526 F60.00
G01 X15.1687 Y-9.5113 F60.00
G01 X14.7587 Y-9.1013 F60.00
G01 X14.7157 Y-9.0622 F60.00
G01 X14.6690 Y-9.0276 F60.00
G01 X14.6231 Y-9.0000 F60.00
G01 X14.6151 Y-8.9957 F60.00
G01 X14.5666 Y-8.9729 F60.00
G01 X14.5162 Y-8.9547 F60.00
G01 X14.5076 Y-8.9521 F60.00
G01 X14.4577 Y-8.9396 F60.00
G01 X14.3980 Y-8.9307 F60.00
G01 X14.3400 Y-8.9278 F60.00
G01 X13.0541 Y-8.9278 F60.00
G01 X13.0541 Y-8.8672 F60.00
G01 X13.0535 Y-8.8559 F60.00
G01 X13.0519 Y-8.8471 F60.00
G01 X13.0495 Y-8.8384 F60.00
G01 X13.0463 Y-8.8299 F60.00
G01 X13.0422 Y-8.8219 F60.00
G01 X13.0361 Y-8.8124 F60.00
G01 X13.0288 Y-8.8038 F60.00
G01 X13.0205 Y-8.7961 F60.00
G01 X13.0095 Y-8.7883 F60.00
G01 X12.9995 Y-8.7831 F60.00
G01 X12.9889 Y-8.7792 F60.00
G01 X12.9779 Y-8.7766 F60.00
G01 X12.9667 Y-8.7754 F60.00
G01 X12.0599 Y-8.7753 F60.00
G01 X12.0509 Y-8.7759 F60.00
G01 X12.0443 Y-8.7770 F60.00
G01 X12.0312 Y-8.7806 F60.00
G01 X12.0249 Y-8.7831 F60.00
G01 X12.0169 Y-8.7872 F60.00
G01 X12.0056 Y-8.7947 F60.00
G01 X11.9988 Y-8.8006 F60.00
G01 X11.9911 Y-8.8089 F60.00
G01 X11.9845 Y-8.8180 F60.00
G01 X11.9791 Y-8.8279 F60.00
G01 X11.9749 Y-8.8384 F60.00
G01 X11.9725 Y-8.8471 F60.00
G01 X11.9709 Y-8.8559 F60.00
G01 X11.9703 Y-8.8672 F60.00
G01 X11.9703 Y-10.1695 F60.00
G01 X11.9709 Y-10.1785 F60.00
G01 X11.9720 Y-10.1851 F60.00
G01 X11.9756 Y-10.1982 F60.00
G01 X11.9781 Y-10.2045 F60.00
G01 X11.9822 Y-10.2125 F60.00
G01 X11.9897 Y-10.2238 F60.00
G01 X11.9972 Y-10.2322 F60.00
G01 X12.0039 Y-10.2383 F60.00
G01 X12.0111 Y-10.2437 F60.00
G01 X12.0209 Y-10.2493 F60.00
G01 X12.0291 Y-10.2530 F60.00
G01 X12.0399 Y-10.2564 F60.00
G01 X12.0509 Y-10.2585 F60.00
G01 X12.0599 Y-10.2591 F60.00
G01 X12.9667 Y-10.2590 F60.00
G01 X12.9757 Y-10.2582 F60.00
G01 X12.9845 Y-10.2564 F60.00
G01 X12.9932 Y-10.2538 F60.00
G01 X12.9995 Y-10.2513 F60.00
G01 X13.0075 Y-10.2472 F60.00
G01 X13.0151 Y-10.2424 F60.00
G01 X13.0223 Y-10.2368 F60.00
G01 X13.0288 Y-10.2306 F60.00
G01 X13.0347 Y-10.2238 F60.00
G01 X13.0399 Y-10.2164 F60.00
G01 X13.0443 Y-10.2085 F60.00
G01 X13.0480 Y-10.2003 F60.00
G01 X13.0508 Y-10.1917 F60.00
G01 X13.0528 Y-10.1829 F60.00
G01 X13.0539 Y-10.1740 F60.00
G01 X13.0541 Y-10.1672 F60.00
G00 Z2.0000
G00 X13.1705 Y-10.3185
G01 F10.00
G01 Z-0.0500
G01 F60.00
G01 X13.1854 Y-10.3110 F60.00
G01 X13.1967 Y-10.3062 F60.00
G01 X13.2731 Y-10.2777 F60.00
G01 X13.1947 Y-10.2777 F60.00
G01 X13.1893 Y-10.2886 F60.00
G01 X13.1830 Y-10.2996 F60.00
G01 X13.1763 Y-10.3102 F60.00
G01 X13.1705 Y-10.3185 F60.00
G00 Z2.0000
G00 X13.4625 Y-10.2777
G01 F10.00
G01 Z-0.0500
G01 F60.00
G01 X13.5151 Y-10.2932 F60.00
G01 X13.5273 Y-10.2971 F60.00
G01 X13.5392 Y-10.3016 F60.00
G01 X13.5567 Y-10.3094 F60.00
G01 X13.5680 Y-10.3154 F60.00
G01 X13.5790 Y-10.3219 F60.00
G01 X13.5949 Y-10.3327 F60.00
G01 X13.6099 Y-10.3446 F60.00
G01 X13.6240 Y-10.3576 F60.00
G01 X13.6371 Y-10.3716 F60.00
G01 X13.6870 Y-10.4293 F60.00
G01 X13.6987 Y-10.4446 F60.00
G01 X13.7092 Y-10.4608 F60.00
G01 X13.7156 Y-10.4720 F60.00
G01 X13.7213 Y-10.4835 F60.00
G01 X13.7289 Y-10.5013 F60.00
G01 X13.7332 Y-10.5134 F60.00
G01 X13.7368 Y-10.5258 F60.00
G01 X13.7425 Y-10.5505 F60.00
G01 X13.7425 Y-10.4190 F60.00
G01 X13.7447 Y-10.3696 F60.00
G01 X13.7463 Y-10.3507 F60.00
G01 X13.7525 Y-10.3081 F60.00
G01 X13.7547 Y-10.2956 F60.00
G01 X13.7589 Y-10.2777 F60.00
G01 X13.4625 Y-10.2777 F60.00
G00 Z2.0000
G00 X14.0036 Y-11.6804
G01 F10.00
G01 Z-0.0500
G01 F60.00
G01 X14.0414 Y-11.7348 F60.00
G01 X14.0482 Y-11.7457 F60.00
G01 X14.0544 Y-11.7568 F60.00
G01 X14.0627 Y-11.7741 F60.00
G01 X14.0696 Y-11.7920 F60.00
G01 X14.0753 Y-11.8103 F60.00
G01 X14.0783 Y-11.8228 F60.00
G01 X14.0816 Y-11.8417 F60.00
G01 X14.0835 Y-11.8607 F60.00
G01 X14.0864 Y-11.9369 F60.00
G01 X14.0865 Y-11.9495 F60.00
G01 X14.0856 Y-11.9682 F60.00
G01 X14.0833 Y-11.9869 F60.00
G01 X14.0797 Y-12.0053 F60.00
G01 X14.0753 Y-12.0217 F60.00
G01 X14.0831 Y-12.0104 F60.00
G01 X14.1055 Y-11.9808 F60.00
G01 X14.1346 Y-11.9484 F60.00
G01 X14.1435 Y-11.9395 F60.00
G01 X14.1710 Y-11.9145 F60.00
G01 X14.1808 Y-11.9065 F60.00
G01 X14.1901 Y-11.8995 F60.00
G01 X14.1901 Y-11.7738 F60.00
G01 X14.1448 Y-11.7579 F60.00
G01 X14.1330 Y-11.7533 F60.00
G01 X14.1214 Y-11.7482 F60.00
G01 X14.0825 Y-11.7297 F60.00
G01 X14.0659 Y-11.7206 F60.00
G01 X14.0289 Y-11.6983 F60.00
G01 X14.0184 Y-11.6913 F60.00
G01 X14.0036 Y-11.6804 F60.00
G00 Z2.0000
G00 X15.7520 Y-11.9394
G01 F10.00
G01 Z-0.0500
G01 F60.00
G01 X15.7252 Y-11.8902 F60.00
G01 X15.7194 Y-11.8790 F60.00
G01 X15.7118 Y-11.8616 F60.00
G01 X15.7055 Y-11.8440 F60.00
G01 X15.7055 Y-11.8995 F60.00
G01 X15.7148 Y-11.9065 F60.00
G01 X15.7246 Y-11.9145 F60.00
G01 X15.7520 Y-11.9394 F60.00
G00 Z2.0000
G00 X15.6821 Y-13.7074
G01 F10.00
G01 Z-0.0500
G01 F60.00
G01 X15.6709 Y-13.6888 F60.00
G01 X15.6344 Y-13.6218 F60.00
G01 X15.6288 Y-13.6103 F60.00
G01 X15.6216 Y-13.5925 F60.00
G01 X15.6157 Y-13.5743 F60.00
G01 X15.6125 Y-13.5619 F60.00
G01 X15.6099 Y-13.5494 F60.00
G01 X15.6080 Y-13.5367 F60.00
G01 X15.6067 Y-13.5240 F60.00
G01 X15.6059 Y-13.5049 F60.00
G01 X15.6066 Y-13.4857 F60.00
G01 X15.6115 Y-13.4160 F60.00
G01 X15.6128 Y-13.4032 F60.00
G01 X15.6158 Y-13.3841 F60.00
G01 X15.6187 Y-13.3716 F60.00
G01 X15.6221 Y-13.3592 F60.00
G01 X15.6262 Y-13.3470 F60.00
G01 X15.6308 Y-13.3350 F60.00
G01 X15.6361 Y-13.3232 F60.00
G01 X15.6419 Y-13.3118 F60.00
G01 X15.6518 Y-13.2952 F60.00
G01 X15.6821 Y-13.2480 F60.00
G01 X15.6691 Y-13.2564 F60.00
G01 X15.6480 Y-13.2690 F60.00
G01 X15.6314 Y-13.2781 F60.00
G01 X15.5920 Y-13.2965 F60.00
G01 X15.5571 Y-13.3093 F60.00
G01 X15.5390 Y-13.3151 F60.00
G01 X15.4968 Y-13.3254 F60.00
G01 X15.4601 Y-13.3312 F60.00
G01 X15.4412 Y-13.3333 F60.00
G01 X15.3978 Y-13.3352 F60.00
G01 X14.4915 Y-13.3351 F60.00
G01 X14.4489 Y-13.3328 F60.00
G01 X14.4355 Y-13.3312 F60.00
G01 X14.3988 Y-13.3254 F60.00
G01 X14.3865 Y-13.3226 F60.00
G01 X14.3505 Y-13.3133 F60.00
G01 X14.3154 Y-13.3011 F60.00
G01 X14.3036 Y-13.2965 F60.00
G01 X14.2921 Y-13.2914 F60.00
G01 X14.2642 Y-13.2781 F60.00
G01 X14.2530 Y-13.2722 F60.00
G01 X14.2159 Y-13.2496 F60.00
G01 X14.1858 Y-13.2277 F60.00
G01 X14.1759 Y-13.2200 F60.00
G01 X14.1663 Y-13.2117 F60.00
G01 X14.1390 Y-13.1865 F60.00
G01 X14.1138 Y-13.1592 F60.00
G01 X14.1055 Y-13.1496 F60.00
G01 X14.0978 Y-13.1397 F60.00
G01 X14.0759 Y-13.1096 F60.00
G01 X14.0565 Y-13.0779 F60.00
G01 X14.0503 Y-13.0669 F60.00
G01 X14.0446 Y-13.0556 F60.00
G01 X14.0315 Y-13.0277 F60.00
G01 X14.0266 Y-13.0160 F60.00
G01 X14.0122 Y-12.9750 F60.00
G01 X14.0029 Y-12.9390 F60.00
G01 X14.0001 Y-12.9267 F60.00
G01 X13.9979 Y-12.9142 F60.00
G01 X13.9928 Y-12.8774 F60.00
G01 X13.9904 Y-12.8340 F60.00
G01 X13.9903 Y-12.3357 F60.00
G01 X13.9860 Y-12.3472 F60.00
G01 X13.9596 Y-12.4119 F60.00
G01 X13.9544 Y-12.4236 F60.00
G01 X13.9487 Y-12.4351 F60.00
G01 X13.9425 Y-12.4462 F60.00
G01 X13.9321 Y-12.4623 F60.00
G01 X13.9245 Y-12.4726 F60.00
G01 X13.9164 Y-12.4825 F60.00
G01 X13.9033 Y-12.4966 F60.00
G01 X13.8941 Y-12.5054 F60.00
G01 X13.8844 Y-12.5138 F60.00
G01 X13.8691 Y-12.5253 F60.00
G01 X13.8120 Y-12.5655 F60.00
G01 X13.8013 Y-12.5726 F60.00
G01 X13.7903 Y-12.5791 F60.00
G01 X13.7790 Y-12.5851 F60.00
G01 X13.7675 Y-12.5906 F60.00
G01 X13.7556 Y-12.5954 F60.00
G01 X13.7436 Y-12.5997 F60.00
G01 X13.7313 Y-12.6033 F60.00
G01 X13.7189 Y-12.6063 F60.00
G01 X13.7000 Y-12.6097 F60.00
G01 X13.6809 Y-12.6117 F60.00
G01 X13.6047 Y-12.6149 F60.00
G01 X13.5908 Y-12.6151 F60.00
G01 X13.6286 Y-12.6333 F60.00
G01 X13.6396 Y-12.6395 F60.00
G01 X13.6713 Y-12.6589 F60.00
G01 X13.7014 Y-12.6808 F60.00
G01 X13.7113 Y-12.6885 F60.00
G01 X13.7437 Y-12.7176 F60.00
G01 X13.7526 Y-12.7265 F60.00
G01 X13.7734 Y-12.7493 F60.00
G01 X13.7817 Y-12.7589 F60.00
G01 X13.7894 Y-12.7688 F60.00
G01 X13.8078 Y-12.7937 F60.00
G01 X13.8148 Y-12.8042 F60.00
G01 X13.8339 Y-12.8360 F60.00
G01 X13.8398 Y-12.8472 F60.00
G01 X13.8582 Y-12.8866 F60.00
G01 X13.8710 Y-12.9215 F60.00
G01 X13.8750 Y-12.9335 F60.00
G01 X13.8843 Y-12.9695 F60.00
G01 X13.8871 Y-12.9818 F60.00
G01 X13.8929 Y-13.0185 F60.00
G01 X13.8950 Y-13.0374 F60.00
G01 X13.8968 Y-13.0745 F60.00
G01 X13.8969 Y-13.2417 F60.00
G01 X14.2877 Y-13.6325 F60.00
G01 X14.3876 Y-13.6325 F60.00
G01 X14.4050 Y-13.6288 F60.00
G01 X14.4418 Y-13.6234 F60.00
G01 X14.4607 Y-13.6218 F60.00
G01 X14.4978 Y-13.6202 F60.00
G01 X15.3978 Y-13.6202 F60.00
G01 X15.4349 Y-13.6218 F60.00
G01 X15.4538 Y-13.6234 F60.00
G01 X15.4968 Y-13.6300 F60.00
G01 X15.5390 Y-13.6403 F60.00
G01 X15.5571 Y-13.6461 F60.00
G01 X15.5920 Y-13.6589 F60.00
G01 X15.6314 Y-13.6773 F60.00
G01 X15.6480 Y-13.6864 F60.00
G01 X15.6691 Y-13.6990 F60.00
G01 X15.6821 Y-13.7074 F60.00
G00 Z2.0000
G00 X17.1314 Y-15.9033
G01 F10.00
G01 Z-0.0500
G01 F60.00
G01 X17.1405 Y-15.9914 F60.00
G01 X17.1891 Y-16.1382 F60.00
G01 X17.2699 Y-16.2692 F60.00
G01 X17.3788 Y-16.3781 F60.00
G01 X17.5098 Y-16.4589 F60.00
G01 X17.6566 Y-16.5075 F60.00
G01 X17.7447 Y-16.5166 F60.00
G01 X20.6853 Y-16.5165 F60.00
G01 X20.7734 Y-16.5075 F60.00
G01 X20.9202 Y-16.4589 F60.00
G01 X21.0512 Y-16.3781 F60.00
G01 X21.1601 Y-16.2692 F60.00
G01 X21.2409 Y-16.1382 F60.00
G01 X21.2895 Y-15.9914 F60.00
G01 X21.2986 Y-15.9033 F60.00
G01 X21.2985 Y-15.0877 F60.00
G01 X21.2895 Y-14.9996 F60.00
G01 X21.2409 Y-14.8528 F60.00
G01 X21.1601 Y-14.7218 F60.00
G01 X21.0795 Y-14.6412 F60.00
G01 X21.0736 Y-14.6347 F60.00
G01 X21.0696 Y-14.6295 F60.00
G01 X21.0638 Y-14.6202 F60.00
G01 X21.0304 Y-14.5589 F60.00
G01 X21.0264 Y-14.5507 F60.00
G01 X21.0233 Y-14.5421 F60.00
G01 X21.0210 Y-14.5333 F60.00
G01 X21.0196 Y-14.5243 F60.00
G01 X21.0192 Y-14.5174 F60.00
G01 X21.0193 Y-14.5083 F60.00
G01 X21.0243 Y-14.4386 F60.00
G01 X21.0259 Y-14.4273 F60.00
G01 X21.0288 Y-14.4163 F60.00
G01 X21.0330 Y-14.4057 F60.00
G01 X21.0385 Y-14.3957 F60.00
G01 X21.0871 Y-14.3305 F60.00
G01 X21.0950 Y-14.3222 F60.00
G01 X21.1001 Y-14.3177 F60.00
G01 X21.1056 Y-14.3136 F60.00
G01 X21.1154 Y-14.3077 F60.00
G01 X21.1258 Y-14.3031 F60.00
G01 X21.1934 Y-14.2779 F60.00
G01 X21.2021 Y-14.2754 F60.00
G01 X21.2133 Y-14.2734 F60.00
G01 X21.2322 Y-14.2726 F60.00
G01 X22.1685 Y-14.2726 F60.00
G01 X22.1772 Y-14.2730 F60.00
G01 X22.1837 Y-14.2738 F60.00
G01 X22.1923 Y-14.2757 F60.00
G01 X22.2679 Y-14.2981 F60.00
G01 X22.2763 Y-14.3018 F60.00
G01 X22.2843 Y-14.3062 F60.00
G01 X22.2936 Y-14.3129 F60.00
G01 X22.3004 Y-14.3190 F60.00
G01 X22.3523 Y-14.3785 F60.00
G01 X22.3577 Y-14.3859 F60.00
G01 X22.3625 Y-14.3938 F60.00
G01 X22.3664 Y-14.4021 F60.00
G01 X22.3701 Y-14.4130 F60.00
G01 X22.3835 Y-14.4754 F60.00
G01 X22.3844 Y-14.4885 F60.00
G01 X22.3844 Y-15.8033 F60.00
G01 X22.3850 Y-15.8201 F60.00
G01 X22.3866 Y-15.8450 F60.00
G01 X22.3883 Y-15.8617 F60.00
G01 X22.4059 Y-15.9959 F60.00
G01 X22.4125 Y-16.0289 F60.00
G01 X22.4296 Y-16.0926 F60.00
G01 X22.4404 Y-16.1245 F60.00
G01 X22.4580 Y-16.1670 F60.00
G01 X22.4611 Y-16.1755 F60.00
G01 X22.4632 Y-16.1843 F60.00
G01 X22.4731 Y-16.2339 F60.00
G01 X22.4744 Y-16.2474 F60.00
G01 X22.4744 Y-16.3331 F60.00
G01 X22.4797 Y-16.3906 F60.00
G01 X22.5246 Y-16.5349 F60.00
G01 X22.6021 Y-16.6630 F60.00
G01 X22.7080 Y-16.7689 F60.00
G01 X22.8361 Y-16.8464 F60.00
G01 X22.9804 Y-16.8913 F60.00
G01 X23.0379 Y-16.8966 F60.00
G01 X27.8381 Y-16.8965 F60.00
G01 X27.8956 Y-16.8913 F60.00
G01 X28.0399 Y-16.8464 F60.00
G01 X28.1869 Y-16.7577 F60.00
G01 X28.2098 Y-16.7462 F60.00
G01 X28.3060 Y-16.7063 F60.00
G01 X28.3361 Y-16.6914 F60.00
G01 X28.3933 Y-16.6584 F60.00
G01 X28.4213 Y-16.6397 F60.00
G01 X28.5256 Y-16.5597 F60.00
G01 X28.5508 Y-16.5375 F60.00
G01 X28.5975 Y-16.4908 F60.00
G01 X28.6230 Y-16.4618 F60.00
G01 X28.6295 Y-16.4555 F60.00
G01 X28.6384 Y-16.4485 F60.00
G01 X28.6474 Y-16.4430 F60.00
G01 X28.7005 Y-16.4067 F60.00
G01 X28.7087 Y-16.4025 F60.00
G01 X28.7171 Y-16.3992 F60.00
G01 X28.7259 Y-16.3966 F60.00
G01 X28.7349 Y-16.3950 F60.00
G01 X28.7440 Y-16.3943 F60.00
G01 X28.8207 Y-16.3921 F60.00
G01 X28.8298 Y-16.3930 F60.00
G01 X28.8387 Y-16.3947 F60.00
G01 X28.8475 Y-16.3973 F60.00
G01 X28.8580 Y-16.4018 F60.00
G01 X28.9258 Y-16.4422 F60.00
G01 X28.9315 Y-16.4461 F60.00
G01 X28.9385 Y-16.4519 F60.00
G01 X28.9434 Y-16.4567 F60.00
G01 X28.9479 Y-16.4619 F60.00
G01 X28.9534 Y-16.4692 F60.00
G01 X28.9569 Y-16.4751 F60.00
G01 X28.9910 Y-16.5438 F60.00
G01 X28.9952 Y-16.5544 F60.00
G01 X28.9980 Y-16.5655 F60.00
G01 X28.9990 Y-16.5723 F60.00
G01 X29.0011 Y-16.5960 F60.00
G01 X29.0014 Y-16.6040 F60.00
G01 X29.0014 Y-16.6957 F60.00
G01 X29.0101 Y-16.7803 F60.00
G01 X29.0569 Y-16.9216 F60.00
G01 X29.1346 Y-17.0476 F60.00
G01 X29.2394 Y-17.1523 F60.00
G01 X29.3654 Y-17.2301 F60.00
G01 X29.5067 Y-17.2769 F60.00
G01 X29.5913 Y-17.2856 F60.00
G01 X30.4287 Y-17.2855 F60.00
G01 X30.5133 Y-17.2769 F60.00
G01 X30.6546 Y-17.2301 F60.00
G01 X30.7806 Y-17.1524 F60.00
G01 X30.8854 Y-17.0476 F60.00
G01 X30.9631 Y-16.9216 F60.00
G01 X31.0099 Y-16.7803 F60.00
G01 X31.0186 Y-16.6957 F60.00
G01 X31.0185 Y-16.1583 F60.00
G01 X31.0099 Y-16.0737 F60.00
G01 X30.9631 Y-15.9324 F60.00
G01 X30.8854 Y-15.8064 F60.00
G01 X30.8501 Y-15.7710 F60.00
G01 X30.8445 Y-15.7642 F60.00
G01 X30.8396 Y-15.7570 F60.00
G01 X30.8009 Y-15.6857 F60.00
G01 X30.7975 Y-15.6772 F60.00
G01 X30.7950 Y-15.6684 F60.00
G01 X30.7934 Y-15.6594 F60.00
G01 X30.7927 Y-15.6503 F60.00
G01 X30.7929 Y-15.6412 F60.00
G01 X30.7981 Y-15.5693 F60.00
G01 X30.7998 Y-15.5585 F60.00
G01 X30.8035 Y-15.5458 F60.00
G01 X30.8070 Y-15.5377 F60.00
G01 X30.8209 Y-15.5099 F60.00
G01 X30.9104 Y-15.3647 F60.00
G01 X30.9590 Y-15.2179 F60.00
G01 X30.9681 Y-15.1298 F60.00
G01 X30.9680 Y-14.5142 F60.00
G01 X30.9590 Y-14.4261 F60.00
G01 X30.9104 Y-14.2793 F60.00
G01 X30.8296 Y-14.1483 F60.00
G01 X30.8104 Y-14.1287 F60.00
G01 X30.8050 Y-14.1218 F60.00
G01 X30.8003 Y-14.1145 F60.00
G01 X30.7657 Y-14.0513 F60.00
G01 X30.7617 Y-14.0430 F60.00
G01 X30.7586 Y-14.0345 F60.00
G01 X30.7563 Y-14.0256 F60.00
G01 X30.7549 Y-14.0166 F60.00
G01 X30.7544 Y-14.0075 F60.00
G01 X30.7601 Y-13.9265 F60.00
G01 X30.7611 Y-13.9200 F60.00
G01 X30.7632 Y-13.9114 F60.00
G01 X30.7653 Y-13.9051 F60.00
G01 X30.7689 Y-13.8969 F60.00
G01 X30.7756 Y-13.8855 F60.00
G01 X30.8180 Y-13.8268 F60.00
G01 X30.8240 Y-13.8201 F60.00
G01 X30.8288 Y-13.8154 F60.00
G01 X30.8490 Y-13.7990 F60.00
G01 X30.9524 Y-13.6704 F60.00
G01 X31.0257 Y-13.5226 F60.00
G01 X31.0660 Y-13.3607 F60.00
G01 X31.0681 Y-13.3303 F60.00
G01 X31.0681 Y-12.6637 F60.00
G01 X31.0660 Y-12.6333 F60.00
G01 X31.0257 Y-12.4714 F60.00
G01 X30.9524 Y-12.3236 F60.00
G01 X30.8490 Y-12.1950 F60.00
G01 X30.7204 Y-12.0916 F60.00
G01 X30.5726 Y-12.0183 F60.00
G01 X30.4107 Y-11.9780 F60.00
G01 X30.3803 Y-11.9759 F60.00
G01 X29.3387 Y-11.9759 F60.00
G01 X29.3083 Y-11.9780 F60.00
G01 X29.2898 Y-11.9826 F60.00
G01 X29.2832 Y-11.9838 F60.00
G01 X29.2511 Y-11.9878 F60.00
G01 X29.2421 Y-11.9884 F60.00
G01 X28.9593 Y-11.9884 F60.00
G01 X28.9462 Y-11.9875 F60.00
G01 X28.9334 Y-11.9847 F60.00
G01 X28.8641 Y-11.9644 F60.00
G01 X28.8535 Y-11.9602 F60.00
G01 X28.8435 Y-11.9548 F60.00
G01 X28.8342 Y-11.9481 F60.00
G01 X28.8258 Y-11.9404 F60.00
G01 X28.7770 Y-11.8842 F60.00
G01 X28.7701 Y-11.8752 F60.00
G01 X28.7643 Y-11.8653 F60.00
G01 X28.7598 Y-11.8548 F60.00
G01 X28.7572 Y-11.8461 F60.00
G01 X28.7555 Y-11.8371 F60.00
G01 X28.7452 Y-11.7657 F60.00
G01 X28.7446 Y-11.7565 F60.00
G01 X28.7447 Y-11.7496 F60.00
G01 X28.7454 Y-11.7428 F60.00
G01 X28.7465 Y-11.7360 F60.00
G01 X28.7537 Y-11.7065 F60.00
G01 X28.7995 Y-11.5679 F60.00
G01 X28.8086 Y-11.4798 F60.00
G01 X28.8085 Y-11.0011 F60.00
G01 X28.8090 Y-10.9923 F60.00
G01 X28.8102 Y-10.9837 F60.00
G01 X28.8123 Y-10.9752 F60.00
G01 X28.8334 Y-10.9038 F60.00
G01 X28.8378 Y-10.8933 F60.00
G01 X28.8410 Y-10.8872 F60.00
G01 X28.8447 Y-10.8815 F60.00
G01 X28.8503 Y-10.8742 F60.00
G01 X28.8583 Y-10.8661 F60.00
G01 X28.9128 Y-10.8188 F60.00
G01 X28.9218 Y-10.8119 F60.00
G01 X28.9277 Y-10.8083 F60.00
G01 X28.9338 Y-10.8051 F60.00
G01 X28.9401 Y-10.8024 F60.00
G01 X28.9465 Y-10.8002 F60.00
G01 X28.9576 Y-10.7976 F60.00
G01 X29.0291 Y-10.7873 F60.00
G01 X29.0426 Y-10.7864 F60.00
G01 X29.0538 Y-10.7871 F60.00
G01 X29.0649 Y-10.7892 F60.00
G01 X29.0953 Y-10.7971 F60.00
G01 X29.1138 Y-10.8039 F60.00
G01 X29.1571 Y-10.8086 F60.00
G01 X30.8429 Y-10.8085 F60.00
G01 X30.8862 Y-10.8039 F60.00
G01 X30.9978 Y-10.7623 F60.00
G01 X31.0919 Y-10.6919 F60.00
G01 X31.1623 Y-10.5978 F60.00
G01 X31.2039 Y-10.4862 F60.00
G01 X31.2086 Y-10.4429 F60.00
G01 X31.2085 Y-8.3571 F60.00
G01 X31.2039 Y-8.3138 F60.00
G01 X31.1623 Y-8.2022 F60.00
G01 X31.0919 Y-8.1081 F60.00
G01 X30.9978 Y-8.0377 F60.00
G01 X30.8862 Y-7.9961 F60.00
G01 X30.8430 Y-7.9915 F60.00
G01 X29.1571 Y-7.9914 F60.00
G01 X29.1138 Y-7.9961 F60.00
G01 X29.0022 Y-8.0377 F60.00
G01 X28.9081 Y-8.1081 F60.00
G01 X28.8377 Y-8.2022 F60.00
G01 X28.7961 Y-8.3138 F60.00
G01 X28.7915 Y-8.3571 F60.00
G01 X28.7912 Y-8.3761 F60.00
G01 X28.7893 Y-8.3891 F60.00
G01 X28.7674 Y-8.4647 F60.00
G01 X28.7642 Y-8.4732 F60.00
G01 X28.7601 Y-8.4814 F60.00
G01 X28.7565 Y-8.4873 F60.00
G01 X28.7526 Y-8.4928 F60.00
G01 X28.7482 Y-8.4981 F60.00
G01 X28.7434 Y-8.5030 F60.00
G01 X28.6855 Y-8.5533 F60.00
G01 X28.6782 Y-8.5588 F60.00
G01 X28.6703 Y-8.5635 F60.00
G01 X28.6621 Y-8.5674 F60.00
G01 X28.6513 Y-8.5710 F60.00
G01 X28.6401 Y-8.5734 F60.00
G01 X28.5687 Y-8.5836 F60.00
G01 X28.5552 Y-8.5842 F60.00
G01 X28.5418 Y-8.5828 F60.00
G01 X28.5287 Y-8.5795 F60.00
G01 X28.4769 Y-8.5607 F60.00
G01 X28.4662 Y-8.5557 F60.00
G01 X28.4552 Y-8.5491 F60.00
G01 X28.3084 Y-8.5005 F60.00
G01 X28.2203 Y-8.4914 F60.00
G01 X27.1797 Y-8.4914 F60.00
G01 X27.0916 Y-8.5005 F60.00
G01 X26.9448 Y-8.5491 F60.00
G01 X26.8740 Y-8.5927 F60.00
G01 X26.8662 Y-8.5968 F60.00
G01 X26.8581 Y-8.6001 F60.00
G01 X26.7800 Y-8.6216 F60.00
G01 X26.7733 Y-8.6228 F60.00
G01 X26.7642 Y-8.6236 F60.00
G01 X26.7551 Y-8.6236 F60.00
G01 X26.7483 Y-8.6229 F60.00
G01 X26.7415 Y-8.6218 F60.00
G01 X26.7349 Y-8.6202 F60.00
G01 X26.6638 Y-8.5979 F60.00
G01 X26.6574 Y-8.5954 F60.00
G01 X26.6512 Y-8.5925 F60.00
G01 X26.6453 Y-8.5891 F60.00
G01 X26.6396 Y-8.5853 F60.00
G01 X26.6308 Y-8.5781 F60.00
G01 X26.6244 Y-8.5715 F60.00
G01 X26.5768 Y-8.5144 F60.00
G01 X26.5727 Y-8.5089 F60.00
G01 X26.5680 Y-8.5012 F60.00
G01 X26.5641 Y-8.4931 F60.00
G01 X26.5610 Y-8.4847 F60.00
G01 X26.5587 Y-8.4759 F60.00
G01 X26.5480 Y-8.4242 F60.00
G01 X26.5470 Y-8.4172 F60.00
G01 X26.5466 Y-8.4102 F60.00
G01 X26.5465 Y-7.9922 F60.00
G01 X26.5375 Y-7.9041 F60.00
G01 X26.4889 Y-7.7573 F60.00
G01 X26.4081 Y-7.6263 F60.00
G01 X26.2992 Y-7.5174 F60.00
G01 X26.1682 Y-7.4366 F60.00
G01 X26.0214 Y-7.3880 F60.00
G01 X25.9333 Y-7.3789 F60.00
G01 X24.9427 Y-7.3789 F60.00
G01 X24.8546 Y-7.3880 F60.00
G01 X24.7078 Y-7.4366 F60.00
G01 X24.5768 Y-7.5174 F60.00
G01 X24.4679 Y-7.6263 F60.00
G01 X24.3871 Y-7.7573 F60.00
G01 X24.3385 Y-7.9041 F60.00
G01 X24.3294 Y-7.9922 F60.00
G01 X24.3294 Y-8.6078 F60.00
G01 X24.3385 Y-8.6959 F60.00
G01 X24.3871 Y-8.8427 F60.00
G01 X24.4325 Y-8.9164 F60.00
G01 X24.4366 Y-8.9242 F60.00
G01 X24.4399 Y-8.9323 F60.00
G01 X24.4614 Y-9.0104 F60.00
G01 X24.4629 Y-9.0194 F60.00
G01 X24.4634 Y-9.0262 F60.00
G01 X24.4635 Y-9.0331 F60.00
G01 X24.4628 Y-9.0422 F60.00
G01 X24.4616 Y-9.0489 F60.00
G01 X24.4600 Y-9.0556 F60.00
G01 X24.4377 Y-9.1266 F60.00
G01 X24.4334 Y-9.1370 F60.00
G01 X24.4279 Y-9.1468 F60.00
G01 X24.4197 Y-9.1576 F60.00
G01 X24.3904 Y-9.1893 F60.00
G01 X24.3806 Y-9.1981 F60.00
G01 X24.2679 Y-9.3108 F60.00
G01 X24.1871 Y-9.4418 F60.00
G01 X24.1589 Y-9.5269 F60.00
G01 X24.1564 Y-9.5331 F60.00
G01 X24.1525 Y-9.5411 F60.00
G01 X24.1478 Y-9.5487 F60.00
G01 X24.1080 Y-9.6061 F60.00
G01 X24.1039 Y-9.6116 F60.00
G01 X24.0978 Y-9.6184 F60.00
G01 X24.0911 Y-9.6246 F60.00
G01 X24.0837 Y-9.6300 F60.00
G01 X24.0759 Y-9.6347 F60.00
G01 X24.0677 Y-9.6387 F60.00
G01 X23.9969 Y-9.6678 F60.00
G01 X23.9905 Y-9.6697 F60.00
G01 X23.9817 Y-9.6715 F60.00
G01 X23.9683 Y-9.6725 F60.00
G01 X23.9183 Y-9.6694 F60.00
G01 X23.9068 Y-9.6679 F60.00
G01 X23.7364 Y-9.6256 F60.00
G01 X23.7045 Y-9.6234 F60.00
G01 X22.7955 Y-9.6235 F60.00
G01 X22.7636 Y-9.6256 F60.00
G01 X22.5951 Y-9.6675 F60.00
G01 X22.4413 Y-9.7438 F60.00
G01 X22.3074 Y-9.8514 F60.00
G01 X22.1998 Y-9.9853 F60.00
G01 X22.1235 Y-10.1391 F60.00
G01 X22.0816 Y-10.3076 F60.00
G01 X22.0794 Y-10.3395 F60.00
G01 X22.0795 Y-11.2485 F60.00
G01 X22.0816 Y-11.2804 F60.00
G01 X22.1251 Y-11.4555 F60.00
G01 X22.1269 Y-11.4663 F60.00
G01 X22.1273 Y-11.4772 F60.00
G01 X22.1240 Y-11.5538 F60.00
G01 X22.1232 Y-11.5606 F60.00
G01 X22.1218 Y-11.5673 F60.00
G01 X22.1199 Y-11.5739 F60.00
G01 X22.1175 Y-11.5803 F60.00
G01 X22.1137 Y-11.5886 F60.00
G01 X22.1090 Y-11.5964 F60.00
G01 X22.0661 Y-11.6573 F60.00
G01 X22.0619 Y-11.6626 F60.00
G01 X22.0572 Y-11.6676 F60.00
G01 X22.0522 Y-11.6723 F60.00
G01 X22.0468 Y-11.6766 F60.00
G01 X22.0372 Y-11.6827 F60.00
G01 X22.0290 Y-11.6868 F60.00
G01 X21.9602 Y-11.7148 F60.00
G01 X21.9475 Y-11.7186 F60.00
G01 X21.9344 Y-11.7206 F60.00
G01 X21.9151 Y-11.7214 F60.00
G01 X21.2347 Y-11.7214 F60.00
G01 X21.2179 Y-11.7220 F60.00
G01 X21.1930 Y-11.7236 F60.00
G01 X21.1763 Y-11.7253 F60.00
G01 X21.0421 Y-11.7429 F60.00
G01 X21.0091 Y-11.7495 F60.00
G01 X20.9775 Y-11.7577 F60.00
G01 X20.9382 Y-11.7629 F60.00
G01 X20.9286 Y-11.7634 F60.00
G01 X20.7942 Y-11.7634 F60.00
G01 X20.7638 Y-11.7655 F60.00
G01 X20.6019 Y-11.8058 F60.00
G01 X20.4541 Y-11.8791 F60.00
G01 X20.3255 Y-11.9825 F60.00
G01 X20.2660 Y-12.0564 F60.00
G01 X20.2601 Y-12.0628 F60.00
G01 X20.2535 Y-12.0686 F60.00
G01 X20.1909 Y-12.1124 F60.00
G01 X20.1832 Y-12.1173 F60.00
G01 X20.1750 Y-12.1213 F60.00
G01 X20.1665 Y-12.1245 F60.00
G01 X20.1576 Y-12.1269 F60.00
G01 X20.1486 Y-12.1284 F60.00
G01 X20.1418 Y-12.1289 F60.00
G01 X20.0653 Y-12.1315 F60.00
G01 X20.0565 Y-12.1307 F60.00
G01 X20.0500 Y-12.1296 F60.00
G01 X20.0414 Y-12.1274 F60.00
G01 X20.0331 Y-12.1244 F60.00
G01 X20.0231 Y-12.1195 F60.00
G01 X19.9660 Y-12.0870 F60.00
G01 X19.9550 Y-12.0797 F60.00
G01 X19.9464 Y-12.0721 F60.00
G01 X19.8762 Y-12.0019 F60.00
G01 X19.7452 Y-11.9211 F60.00
G01 X19.5984 Y-11.8725 F60.00
G01 X19.5103 Y-11.8634 F60.00
G01 X18.9197 Y-11.8634 F60.00
G01 X18.8316 Y-11.8725 F60.00
G01 X18.6848 Y-11.9211 F60.00
G01 X18.5538 Y-12.0019 F60.00
G01 X18.4449 Y-12.1108 F60.00
G01 X18.3641 Y-12.2418 F60.00
G01 X18.3155 Y-12.3886 F60.00
G01 X18.3064 Y-12.4767 F60.00
G01 X18.3064 Y-14.2607 F60.00
G01 X18.3055 Y-14.2716 F60.00
G01 X18.3033 Y-14.2823 F60.00
G01 X18.2816 Y-14.3558 F60.00
G01 X18.2792 Y-14.3622 F60.00
G01 X18.2762 Y-14.3683 F60.00
G01 X18.2703 Y-14.3781 F60.00
G01 X18.2632 Y-14.3870 F60.00
G01 X18.2550 Y-14.3950 F60.00
G01 X18.2022 Y-14.4408 F60.00
G01 X18.1950 Y-14.4464 F60.00
G01 X18.1872 Y-14.4514 F60.00
G01 X18.1790 Y-14.4555 F60.00
G01 X18.1704 Y-14.4587 F60.00
G01 X18.1616 Y-14.4611 F60.00
G01 X18.1079 Y-14.4728 F60.00
G01 X18.0949 Y-14.4743 F60.00
G01 X17.7447 Y-14.4744 F60.00
G01 X17.6566 Y-14.4835 F60.00
G01 X17.5098 Y-14.5321 F60.00
G01 X17.3788 Y-14.6129 F60.00
G01 X17.2699 Y-14.7218 F60.00
G01 X17.1891 Y-14.8528 F60.00
G01 X17.1405 Y-14.9996 F60.00
G01 X17.1314 Y-15.0877 F60.00
G01 X17.1314 Y-15.9033 F60.00
G00 Z2.0000
G00 X17.7610 Y-16.1986
G01 F10.00
G01 Z-0.0500
G01 F60.00
G01 X17.7900 Y-16.1999 F60.00
G01 X20.6400 Y-16.1999 F60.00
G01 X20.6713 Y-16.1985 F60.00
G01 X20.7023 Y-16.1942 F60.00
G01 X20.7111 Y-16.1924 F60.00
G01 X20.7393 Y-16.1852 F60.00
G01 X20.7666 Y-16.1755 F60.00
G01 X20.7750 Y-16.1721 F60.00
G01 X20.8012 Y-16.1596 F60.00
G01 X20.8262 Y-16.1447 F60.00
G01 X20.8337 Y-16.1397 F60.00
G01 X20.8569 Y-16.1223 F60.00
G01 X20.8785 Y-16.1029 F60.00
G01 X20.8849 Y-16.0965 F60.00
G01 X20.9043 Y-16.0749 F60.00
G01 X20.9217 Y-16.0517 F60.00
G01 X20.9267 Y-16.0442 F60.00
G01 X20.9416 Y-16.0192 F60.00
G01 X20.9541 Y-15.9930 F60.00
G01 X20.9575 Y-15.9846 F60.00
G01 X20.9672 Y-15.9573 F60.00
G01 X20.9754 Y-15.9247 F60.00
G01 X20.9803 Y-15.8912 F60.00
G01 X20.9819 Y-15.8603 F60.00
G01 X20.9819 Y-15.1330 F60.00
G01 X20.9805 Y-15.1017 F60.00
G01 X20.9754 Y-15.0663 F60.00
G01 X20.9684 Y-15.0381 F60.00
G01 X20.9658 Y-15.0295 F60.00
G01 X20.9568 Y-15.0042 F60.00
G01 X20.9541 Y-14.9980 F60.00
G01 X20.9416 Y-14.9718 F60.00
G01 X20.9243 Y-14.9430 F60.00
G01 X20.9043 Y-14.9161 F60.00
G01 X20.8834 Y-14.8928 F60.00
G01 X20.8569 Y-14.8687 F60.00
G01 X20.8337 Y-14.8513 F60.00
G01 X20.8281 Y-14.8474 F60.00
G01 X20.8051 Y-14.8337 F60.00
G01 X20.7972 Y-14.8294 F60.00
G01 X20.7709 Y-14.8171 F60.00
G01 X20.7393 Y-14.8058 F60.00
G01 X20.7067 Y-14.7976 F60.00
G01 X20.6735 Y-14.7927 F60.00
G01 X20.6400 Y-14.7911 F60.00
G01 X19.8072 Y-14.7911 F60.00
G01 X19.8069 Y-12.5220 F60.00
G01 X19.8055 Y-12.4907 F60.00
G01 X19.8012 Y-12.4597 F60.00
G01 X19.7994 Y-12.4509 F60.00
G01 X19.7922 Y-12.4227 F60.00
G01 X19.7825 Y-12.3954 F60.00
G01 X19.7791 Y-12.3870 F60.00
G01 X19.7666 Y-12.3608 F60.00
G01 X19.7517 Y-12.3358 F60.00
G01 X19.7467 Y-12.3283 F60.00
G01 X19.7293 Y-12.3051 F60.00
G01 X19.7099 Y-12.2835 F60.00
G01 X19.7035 Y-12.2771 F60.00
G01 X19.6819 Y-12.2577 F60.00
G01 X19.6587 Y-12.2403 F60.00
G01 X19.6512 Y-12.2353 F60.00
G01 X19.6262 Y-12.2204 F60.00
G01 X19.6000 Y-12.2079 F60.00
G01 X19.5916 Y-12.2045 F60.00
G01 X19.5643 Y-12.1948 F60.00
G01 X19.5317 Y-12.1866 F60.00
G01 X19.4985 Y-12.1817 F60.00
G01 X19.4673 Y-12.1801 F60.00
G01 X18.9650 Y-12.1801 F60.00
G01 X18.9315 Y-12.1817 F60.00
G01 X18.8983 Y-12.1866 F60.00
G01 X18.8701 Y-12.1936 F60.00
G01 X18.8615 Y-12.1962 F60.00
G01 X18.8341 Y-12.2061 F60.00
G01 X18.8078 Y-12.2184 F60.00
G01 X18.7999 Y-12.2227 F60.00
G01 X18.7750 Y-12.2377 F60.00
G01 X18.7481 Y-12.2577 F60.00
G01 X18.7232 Y-12.2802 F60.00
G01 X18.7036 Y-12.3017 F60.00
G01 X18.6979 Y-12.3086 F60.00
G01 X18.6807 Y-12.3320 F60.00
G01 X18.6657 Y-12.3569 F60.00
G01 X18.6624 Y-12.3628 F60.00
G01 X18.6509 Y-12.3870 F60.00
G01 X18.6475 Y-12.3954 F60.00
G01 X18.6378 Y-12.4227 F60.00
G01 X18.6296 Y-12.4553 F60.00
G01 X18.6247 Y-12.4885 F60.00
G01 X18.6231 Y-12.5220 F60.00
G01 X18.6228 Y-14.7911 F60.00
G01 X17.7900 Y-14.7911 F60.00
G01 X17.7565 Y-14.7927 F60.00
G01 X17.7211 Y-14.7981 F60.00
G01 X17.6907 Y-14.8058 F60.00
G01 X17.6634 Y-14.8155 F60.00
G01 X17.6550 Y-14.8189 F60.00
G01 X17.6288 Y-14.8314 F60.00
G01 X17.6000 Y-14.8487 F60.00
G01 X17.5766 Y-14.8659 F60.00
G01 X17.5697 Y-14.8716 F60.00
G01 X17.5482 Y-14.8912 F60.00
G01 X17.5286 Y-14.9127 F60.00
G01 X17.5229 Y-14.9196 F60.00
G01 X17.5057 Y-14.9430 F60.00
G01 X17.4884 Y-14.9718 F60.00
G01 X17.4759 Y-14.9980 F60.00
G01 X17.4725 Y-15.0064 F60.00
G01 X17.4628 Y-15.0337 F60.00
G01 X17.4551 Y-15.0641 F60.00
G01 X17.4497 Y-15.0995 F60.00
G01 X17.4481 Y-15.1330 F60.00
G01 X17.4481 Y-15.8580 F60.00
G01 X17.4494 Y-15.8870 F60.00
G01 X17.4502 Y-15.8960 F60.00
G01 X17.4546 Y-15.9247 F60.00
G01 X17.4621 Y-15.9551 F60.00
G01 X17.4725 Y-15.9846 F60.00
G01 X17.4759 Y-15.9930 F60.00
G01 X17.4884 Y-16.0192 F60.00
G01 X17.5057 Y-16.0480 F60.00
G01 X17.5229 Y-16.0714 F60.00
G01 X17.5286 Y-16.0783 F60.00
G01 X17.5482 Y-16.0998 F60.00
G01 X17.5731 Y-16.1223 F60.00
G01 X17.6000 Y-16.1423 F60.00
G01 X17.6249 Y-16.1573 F60.00
G01 X17.6328 Y-16.1616 F60.00
G01 X17.6591 Y-16.1739 F60.00
G01 X17.6907 Y-16.1852 F60.00
G01 X17.7189 Y-16.1924 F60.00
G01 X17.7255 Y-16.1938 F60.00
G01 X17.7520 Y-16.1978 F60.00
G01 X17.7610 Y-16.1986 F60.00
G00 Z2.0000
G00 X18.4573 Y-14.3455
G01 F10.00
G01 Z-0.0500
G01 F60.00
G01 X18.4418 Y-14.3981 F60.00
G01 X18.4379 Y-14.4103 F60.00
G01 X18.4334 Y-14.4222 F60.00
G01 X18.4256 Y-14.4397 F60.00
G01 X18.4164 Y-14.4566 F60.00
G01 X18.4061 Y-14.4727 F60.00
G01 X18.3945 Y-14.4880 F60.00
G01 X18.3862 Y-14.4977 F60.00
G01 X18.3774 Y-14.5070 F60.00
G01 X18.3634 Y-14.5201 F60.00
G01 X18.3057 Y-14.5700 F60.00
G01 X18.2904 Y-14.5817 F60.00
G01 X18.2742 Y-14.5922 F60.00
G01 X18.2630 Y-14.5986 F60.00
G01 X18.2515 Y-14.6043 F60.00
G01 X18.2337 Y-14.6119 F60.00
G01 X18.2216 Y-14.6162 F60.00
G01 X18.2092 Y-14.6198 F60.00
G01 X18.1845 Y-14.6255 F60.00
G01 X18.4573 Y-14.6255 F60.00
G01 X18.4573 Y-14.3455 F60.00
G00 Z2.0000
G00 X20.9278 Y-14.7151
G01 F10.00
G01 Z-0.0500
G01 F60.00
G01 X20.9186 Y-14.6996 F60.00
G01 X20.8851 Y-14.6382 F60.00
G01 X20.8765 Y-14.6211 F60.00
G01 X20.8693 Y-14.6033 F60.00
G01 X20.8652 Y-14.5912 F60.00
G01 X20.8602 Y-14.5727 F60.00
G01 X20.8566 Y-14.5539 F60.00
G01 X20.8544 Y-14.5348 F60.00
G01 X20.8537 Y-14.5221 F60.00
G01 X20.8537 Y-14.5093 F60.00
G01 X20.8543 Y-14.4965 F60.00
G01 X20.8598 Y-14.4204 F60.00
G01 X20.8623 Y-14.4014 F60.00
G01 X20.8648 Y-14.3889 F60.00
G01 X20.8697 Y-14.3703 F60.00
G01 X20.8737 Y-14.3582 F60.00
G01 X20.8809 Y-14.3404 F60.00
G01 X20.8893 Y-14.3232 F60.00
G01 X20.8990 Y-14.3066 F60.00
G01 X20.9062 Y-14.2960 F60.00
G01 X20.9518 Y-14.2349 F60.00
G01 X20.9597 Y-14.2249 F60.00
G01 X20.9725 Y-14.2106 F60.00
G01 X20.9863 Y-14.1973 F60.00
G01 X20.9961 Y-14.1890 F60.00
G01 X21.0114 Y-14.1775 F60.00
G01 X21.0276 Y-14.1672 F60.00
G01 X21.0445 Y-14.1581 F60.00
G01 X21.0561 Y-14.1528 F60.00
G01 X21.0679 Y-14.1480 F60.00
G01 X21.1394 Y-14.1214 F60.00
G01 X21.1515 Y-14.1176 F60.00
G01 X21.1638 Y-14.1143 F60.00
G01 X21.1825 Y-14.1106 F60.00
G01 X21.1952 Y-14.1089 F60.00
G01 X21.2078 Y-14.1078 F60.00
G01 X21.2322 Y-14.1070 F60.00
G01 X22.1685 Y-14.1070 F60.00
G01 X22.1808 Y-14.1073 F60.00
G01 X22.1930 Y-14.1082 F60.00
G01 X22.2051 Y-14.1097 F60.00
G01 X22.2172 Y-14.1117 F60.00
G01 X22.2292 Y-14.1143 F60.00
G01 X22.3081 Y-14.1372 F60.00
G01 X22.3263 Y-14.1432 F60.00
G01 X22.3381 Y-14.1480 F60.00
G01 X22.3497 Y-14.1534 F60.00
G01 X22.3610 Y-14.1594 F60.00
G01 X22.3720 Y-14.1659 F60.00
G01 X22.3827 Y-14.1729 F60.00
G01 X22.3930 Y-14.1805 F60.00
G01 X22.4029 Y-14.1886 F60.00
G01 X22.4124 Y-14.1971 F60.00
G01 X22.4215 Y-14.2061 F60.00
G01 X22.4301 Y-14.2156 F60.00
G01 X22.4759 Y-14.2684 F60.00
G01 X22.4840 Y-14.2783 F60.00
G01 X22.4917 Y-14.2886 F60.00
G01 X22.4989 Y-14.2993 F60.00
G01 X22.5055 Y-14.3104 F60.00
G01 X22.5115 Y-14.3217 F60.00
G01 X22.5170 Y-14.3334 F60.00
G01 X22.5219 Y-14.3453 F60.00
G01 X22.5262 Y-14.3574 F60.00
G01 X22.5298 Y-14.3698 F60.00
G01 X22.5329 Y-14.3823 F60.00
G01 X22.5453 Y-14.4398 F60.00
G01 X22.5473 Y-14.4519 F60.00
G01 X22.5488 Y-14.4640 F60.00
G01 X22.5497 Y-14.4762 F60.00
G01 X22.5500 Y-14.4885 F60.00
G01 X22.5500 Y-15.8006 F60.00
G01 X22.5503 Y-15.8120 F60.00
G01 X22.5527 Y-15.8428 F60.00
G01 X22.5693 Y-15.9689 F60.00
G01 X22.5738 Y-15.9913 F60.00
G01 X22.5881 Y-16.0446 F60.00
G01 X22.5954 Y-16.0662 F60.00
G01 X22.6133 Y-16.1096 F60.00
G01 X22.6194 Y-16.1275 F60.00
G01 X22.6243 Y-16.1458 F60.00
G01 X22.6362 Y-16.2056 F60.00
G01 X22.6387 Y-16.2244 F60.00
G01 X22.6396 Y-16.2370 F60.00
G01 X22.6400 Y-16.2497 F60.00
G01 X22.6400 Y-16.3256 F60.00
G01 X22.6429 Y-16.3581 F60.00
G01 X22.6767 Y-16.4665 F60.00
G01 X22.7333 Y-16.5602 F60.00
G01 X22.8108 Y-16.6377 F60.00
G01 X22.9045 Y-16.6943 F60.00
G01 X23.0129 Y-16.7281 F60.00
G01 X23.0454 Y-16.7310 F60.00
G01 X27.8306 Y-16.7310 F60.00
G01 X27.8631 Y-16.7281 F60.00
G01 X27.9715 Y-16.6943 F60.00
G01 X28.0972 Y-16.6183 F60.00
G01 X28.1142 Y-16.6089 F60.00
G01 X28.1426 Y-16.5949 F60.00
G01 X28.2376 Y-16.5555 F60.00
G01 X28.2581 Y-16.5454 F60.00
G01 X28.3058 Y-16.5178 F60.00
G01 X28.3248 Y-16.5051 F60.00
G01 X28.4205 Y-16.4317 F60.00
G01 X28.4376 Y-16.4166 F60.00
G01 X28.4766 Y-16.3776 F60.00
G01 X28.5015 Y-16.3495 F60.00
G01 X28.5107 Y-16.3400 F60.00
G01 X28.5204 Y-16.3310 F60.00
G01 X28.5306 Y-16.3225 F60.00
G01 X28.5411 Y-16.3145 F60.00
G01 X28.6028 Y-16.2728 F60.00
G01 X28.6189 Y-16.2628 F60.00
G01 X28.6356 Y-16.2540 F60.00
G01 X28.6529 Y-16.2465 F60.00
G01 X28.6647 Y-16.2422 F60.00
G01 X28.6828 Y-16.2368 F60.00
G01 X28.7013 Y-16.2328 F60.00
G01 X28.7200 Y-16.2301 F60.00
G01 X28.7388 Y-16.2288 F60.00
G01 X28.8087 Y-16.2267 F60.00
G01 X28.8278 Y-16.2268 F60.00
G01 X28.8406 Y-16.2276 F60.00
G01 X28.8533 Y-16.2291 F60.00
G01 X28.8722 Y-16.2326 F60.00
G01 X28.8846 Y-16.2356 F60.00
G01 X28.8968 Y-16.2393 F60.00
G01 X28.9148 Y-16.2460 F60.00
G01 X28.9265 Y-16.2511 F60.00
G01 X28.9379 Y-16.2569 F60.00
G01 X28.9491 Y-16.2632 F60.00
G01 X29.0090 Y-16.2991 F60.00
G01 X29.0198 Y-16.3059 F60.00
G01 X29.0302 Y-16.3133 F60.00
G01 X29.0403 Y-16.3212 F60.00
G01 X29.0500 Y-16.3295 F60.00
G01 X29.0592 Y-16.3384 F60.00
G01 X29.0680 Y-16.3477 F60.00
G01 X29.0763 Y-16.3574 F60.00
G01 X29.0841 Y-16.3675 F60.00
G01 X29.0914 Y-16.3780 F60.00
G01 X29.0982 Y-16.3888 F60.00
G01 X29.1045 Y-16.4000 F60.00
G01 X29.1384 Y-16.4683 F60.00
G01 X29.1462 Y-16.4858 F60.00
G01 X29.1525 Y-16.5032 F60.00
G01 X29.1526 Y-16.1957 F60.00
G01 X29.1543 Y-16.1610 F60.00
G01 X29.1556 Y-16.1484 F60.00
G01 X29.1607 Y-16.1141 F60.00
G01 X29.1631 Y-16.1017 F60.00
G01 X29.1733 Y-16.0619 F60.00
G01 X29.1847 Y-16.0292 F60.00
G01 X29.1893 Y-16.0174 F60.00
G01 X29.1944 Y-16.0058 F60.00
G01 X29.2095 Y-15.9746 F60.00
G01 X29.2157 Y-15.9636 F60.00
G01 X29.2338 Y-15.9340 F60.00
G01 X29.2543 Y-15.9059 F60.00
G01 X29.2621 Y-15.8959 F60.00
G01 X29.2894 Y-15.8654 F60.00
G01 X29.2984 Y-15.8564 F60.00
G01 X29.3241 Y-15.8331 F60.00
G01 X29.3339 Y-15.8251 F60.00
G01 X29.3519 Y-15.8116 F60.00
G01 X29.3519 Y-15.5886 F60.00
G01 X29.3105 Y-15.5822 F60.00
G01 X29.2744 Y-15.5735 F60.00
G01 X29.2562 Y-15.5682 F60.00
G01 X29.2153 Y-15.5533 F60.00
G01 X29.1759 Y-15.5349 F60.00
G01 X29.1593 Y-15.5258 F60.00
G01 X29.1276 Y-15.5064 F60.00
G01 X29.0975 Y-15.4845 F60.00
G01 X29.0876 Y-15.4768 F60.00
G01 X29.0780 Y-15.4685 F60.00
G01 X29.0507 Y-15.4433 F60.00
G01 X29.0255 Y-15.4160 F60.00
G01 X29.0133 Y-15.4015 F60.00
G01 X28.9876 Y-15.3664 F60.00
G01 X28.9650 Y-15.3293 F60.00
G01 X28.9563 Y-15.3124 F60.00
G01 X28.9407 Y-15.2787 F60.00
G01 X28.9258 Y-15.2378 F60.00
G01 X28.9221 Y-15.2257 F60.00
G01 X28.9146 Y-15.1958 F60.00
G01 X28.9106 Y-15.1773 F60.00
G01 X28.9045 Y-15.1342 F60.00
G01 X28.9021 Y-15.0908 F60.00
G01 X28.9021 Y-14.5532 F60.00
G01 X28.9039 Y-14.5161 F60.00
G01 X28.9052 Y-14.5035 F60.00
G01 X28.9106 Y-14.4667 F60.00
G01 X28.9131 Y-14.4543 F60.00
G01 X28.9221 Y-14.4183 F60.00
G01 X28.9258 Y-14.4062 F60.00
G01 X28.9383 Y-14.3712 F60.00
G01 X28.9432 Y-14.3595 F60.00
G01 X28.9620 Y-14.3203 F60.00
G01 X28.9808 Y-14.2882 F60.00
G01 X28.9911 Y-14.2724 F60.00
G01 X29.0172 Y-14.2376 F60.00
G01 X29.0463 Y-14.2052 F60.00
G01 X29.0598 Y-14.1920 F60.00
G01 X29.0876 Y-14.1672 F60.00
G01 X29.1172 Y-14.1448 F60.00
G01 X29.1329 Y-14.1341 F60.00
G01 X29.1703 Y-14.1120 F60.00
G01 X29.2038 Y-14.0958 F60.00
G01 X29.2212 Y-14.0883 F60.00
G01 X29.2622 Y-14.0739 F60.00
G01 X29.2982 Y-14.0646 F60.00
G01 X29.3167 Y-14.0606 F60.00
G01 X29.3598 Y-14.0545 F60.00
G01 X29.3969 Y-14.0524 F60.00
G01 X29.4095 Y-14.0520 F60.00
G01 X30.3095 Y-14.0520 F60.00
G01 X30.3221 Y-14.0524 F60.00
G01 X30.3592 Y-14.0545 F60.00
G01 X30.3960 Y-14.0596 F60.00
G01 X30.4085 Y-14.0618 F60.00
G01 X30.4446 Y-14.0705 F60.00
G01 X30.4568 Y-14.0739 F60.00
G01 X30.4688 Y-14.0779 F60.00
G01 X30.4978 Y-14.0883 F60.00
G01 X30.5095 Y-14.0932 F60.00
G01 X30.5487 Y-14.1120 F60.00
G01 X30.5861 Y-14.1341 F60.00
G01 X30.5966 Y-14.1411 F60.00
G01 X30.6265 Y-14.1633 F60.00
G01 X30.6363 Y-14.1713 F60.00
G01 X30.6488 Y-14.1826 F60.00
G01 X30.6174 Y-14.1249 F60.00
G01 X30.6119 Y-14.1134 F60.00
G01 X30.6069 Y-14.1016 F60.00
G01 X30.6005 Y-14.0836 F60.00
G01 X30.5970 Y-14.0712 F60.00
G01 X30.5942 Y-14.0588 F60.00
G01 X30.5910 Y-14.0399 F60.00
G01 X30.5893 Y-14.0208 F60.00
G01 X30.5890 Y-14.0016 F60.00
G01 X30.5896 Y-13.9888 F60.00
G01 X30.5946 Y-13.9191 F60.00
G01 X30.5958 Y-13.9068 F60.00
G01 X30.5975 Y-13.8945 F60.00
G01 X30.5999 Y-13.8823 F60.00
G01 X30.6045 Y-13.8643 F60.00
G01 X30.6105 Y-13.8467 F60.00
G01 X30.6151 Y-13.8352 F60.00
G01 X30.6231 Y-13.8184 F60.00
G01 X30.6291 Y-13.8076 F60.00
G01 X30.6391 Y-13.7919 F60.00
G01 X30.6811 Y-13.7335 F60.00
G01 X30.6927 Y-13.7186 F60.00
G01 X30.7054 Y-13.7046 F60.00
G01 X30.7190 Y-13.6916 F60.00
G01 X30.7313 Y-13.6813 F60.00
G01 X30.8121 Y-13.5808 F60.00
G01 X30.8694 Y-13.4652 F60.00
G01 X30.9019 Y-13.3349 F60.00
G01 X30.9025 Y-13.3247 F60.00
G01 X30.9025 Y-12.6693 F60.00
G01 X30.9019 Y-12.6591 F60.00
G01 X30.8694 Y-12.5288 F60.00
G01 X30.8121 Y-12.4132 F60.00
G01 X30.7313 Y-12.3127 F60.00
G01 X30.6308 Y-12.2319 F60.00
G01 X30.5152 Y-12.1746 F60.00
G01 X30.3849 Y-12.1421 F60.00
G01 X30.3747 Y-12.1415 F60.00
G01 X29.3443 Y-12.1415 F60.00
G01 X29.3341 Y-12.1421 F60.00
G01 X29.3197 Y-12.1454 F60.00
G01 X29.3011 Y-12.1484 F60.00
G01 X29.2649 Y-12.1527 F60.00
G01 X29.2462 Y-12.1539 F60.00
G01 X28.9531 Y-12.1539 F60.00
G01 X28.9348 Y-12.1528 F60.00
G01 X28.9226 Y-12.1513 F60.00
G01 X28.9105 Y-12.1493 F60.00
G01 X28.8986 Y-12.1467 F60.00
G01 X28.8197 Y-12.1238 F60.00
G01 X28.8075 Y-12.1199 F60.00
G01 X28.7955 Y-12.1154 F60.00
G01 X28.7838 Y-12.1103 F60.00
G01 X28.7724 Y-12.1047 F60.00
G01 X28.7612 Y-12.0984 F60.00
G01 X28.7503 Y-12.0917 F60.00
G01 X28.7399 Y-12.0843 F60.00
G01 X28.7297 Y-12.0765 F60.00
G01 X28.7200 Y-12.0682 F60.00
G01 X28.7107 Y-12.0594 F60.00
G01 X28.6976 Y-12.0454 F60.00
G01 X28.6519 Y-11.9926 F60.00
G01 X28.6438 Y-11.9827 F60.00
G01 X28.6361 Y-11.9725 F60.00
G01 X28.6290 Y-11.9619 F60.00
G01 X28.6224 Y-11.9509 F60.00
G01 X28.6164 Y-11.9396 F60.00
G01 X28.6110 Y-11.9280 F60.00
G01 X28.6039 Y-11.9102 F60.00
G01 X28.5999 Y-11.8981 F60.00
G01 X28.5951 Y-11.8795 F60.00
G01 X28.5916 Y-11.8607 F60.00
G01 X28.5808 Y-11.7851 F60.00
G01 X28.5797 Y-11.7723 F60.00
G01 X28.5791 Y-11.7595 F60.00
G01 X28.5795 Y-11.7402 F60.00
G01 X28.5805 Y-11.7274 F60.00
G01 X28.5822 Y-11.7147 F60.00
G01 X28.5867 Y-11.6923 F60.00
G01 X28.5719 Y-11.7164 F60.00
G01 X28.5462 Y-11.7515 F60.00
G01 X28.5382 Y-11.7613 F60.00
G01 X28.5132 Y-11.7888 F60.00
G01 X28.4997 Y-11.8020 F60.00
G01 X28.4719 Y-11.8268 F60.00
G01 X28.4423 Y-11.8492 F60.00
G01 X28.4266 Y-11.8599 F60.00
G01 X28.3948 Y-11.8790 F60.00
G01 X28.3779 Y-11.8877 F60.00
G01 X28.3442 Y-11.9033 F60.00
G01 X28.3033 Y-11.9182 F60.00
G01 X28.2851 Y-11.9235 F60.00
G01 X28.2490 Y-11.9322 F60.00
G01 X28.2123 Y-11.9380 F60.00
G01 X28.1934 Y-11.9401 F60.00
G01 X28.1500 Y-11.9420 F60.00
G01 X27.2500 Y-11.9420 F60.00
G01 X27.2374 Y-11.9416 F60.00
G01 X27.2011 Y-11.9396 F60.00
G01 X27.1877 Y-11.9380 F60.00
G01 X27.1510 Y-11.9322 F60.00
G01 X27.1149 Y-11.9235 F60.00
G01 X27.1027 Y-11.9201 F60.00
G01 X27.0907 Y-11.9161 F60.00
G01 X27.0617 Y-11.9057 F60.00
G01 X27.0500 Y-11.9008 F60.00
G01 X27.0108 Y-11.8820 F60.00
G01 X26.9998 Y-11.8758 F60.00
G01 X26.9681 Y-11.8564 F60.00
G01 X26.9380 Y-11.8345 F60.00
G01 X26.9281 Y-11.8268 F60.00
G01 X26.9003 Y-11.8020 F60.00
G01 X26.8912 Y-11.7933 F60.00
G01 X26.8825 Y-11.7842 F60.00
G01 X26.8618 Y-11.7613 F60.00
G01 X26.8538 Y-11.7515 F60.00
G01 X26.8281 Y-11.7164 F60.00
G01 X26.8087 Y-11.6847 F60.00
G01 X26.8025 Y-11.6737 F60.00
G01 X26.7968 Y-11.6624 F60.00
G01 X26.7812 Y-11.6287 F60.00
G01 X26.7684 Y-11.5938 F60.00
G01 X26.7644 Y-11.5818 F60.00
G01 X26.7610 Y-11.5696 F60.00
G01 X26.7536 Y-11.5397 F60.00
G01 X26.7511 Y-11.5273 F60.00
G01 X26.7450 Y-11.4842 F60.00
G01 X26.7429 Y-11.4471 F60.00
G01 X26.7425 Y-11.4345 F60.00
G01 X26.7425 Y-10.9095 F60.00
G01 X26.7444 Y-10.8661 F60.00
G01 X26.7457 Y-10.8535 F60.00
G01 X26.7501 Y-10.8230 F60.00
G01 X26.7536 Y-10.8043 F60.00
G01 X26.7644 Y-10.7622 F60.00
G01 X26.7766 Y-10.7271 F60.00
G01 X26.7837 Y-10.7095 F60.00
G01 X26.8025 Y-10.6703 F60.00
G01 X26.8213 Y-10.6382 F60.00
G01 X26.8316 Y-10.6224 F60.00
G01 X26.8577 Y-10.5876 F60.00
G01 X26.8825 Y-10.5598 F60.00
G01 X26.8957 Y-10.5463 F60.00
G01 X26.9281 Y-10.5172 F60.00
G01 X26.9577 Y-10.4948 F60.00
G01 X26.9734 Y-10.4841 F60.00
G01 X27.0108 Y-10.4620 F60.00
G01 X27.0423 Y-10.4467 F60.00
G01 X27.0423 Y-10.1233 F60.00
G01 X27.0308 Y-10.1188 F60.00
G01 X27.0193 Y-10.1137 F60.00
G01 X26.9914 Y-10.1004 F60.00
G01 X26.9802 Y-10.0945 F60.00
G01 X26.9431 Y-10.0719 F60.00
G01 X26.9080 Y-10.0462 F60.00
G01 X26.8935 Y-10.0340 F60.00
G01 X26.8707 Y-10.0132 F60.00
G01 X26.8618 Y-10.0043 F60.00
G01 X26.8327 Y-9.9719 F60.00
G01 X26.8066 Y-9.9371 F60.00
G01 X26.7996 Y-9.9266 F60.00
G01 X26.7837 Y-9.9002 F60.00
G01 X26.7775 Y-9.8892 F60.00
G01 X26.7718 Y-9.8779 F60.00
G01 X26.7562 Y-9.8442 F60.00
G01 X26.7516 Y-9.8324 F60.00
G01 X26.7394 Y-9.7973 F60.00
G01 X26.7286 Y-9.7552 F60.00
G01 X26.7251 Y-9.7365 F60.00
G01 X26.7200 Y-9.6997 F60.00
G01 X26.7179 Y-9.6626 F60.00
G01 X26.7175 Y-9.6500 F60.00
G01 X26.7176 Y-9.1437 F60.00
G01 X26.7200 Y-9.1003 F60.00
G01 X26.7251 Y-9.0635 F60.00
G01 X26.7273 Y-9.0510 F60.00
G01 X26.7301 Y-9.0387 F60.00
G01 X26.7394 Y-9.0027 F60.00
G01 X26.7538 Y-8.9617 F60.00
G01 X26.7587 Y-8.9500 F60.00
G01 X26.7718 Y-8.9221 F60.00
G01 X26.7775 Y-8.9108 F60.00
G01 X26.7837 Y-8.8998 F60.00
G01 X26.8031 Y-8.8681 F60.00
G01 X26.8250 Y-8.8380 F60.00
G01 X26.8327 Y-8.8281 F60.00
G01 X26.8410 Y-8.8185 F60.00
G01 X26.8662 Y-8.7912 F60.00
G01 X26.8753 Y-8.7825 F60.00
G01 X26.8999 Y-8.7604 F60.00
G01 X26.8282 Y-8.7801 F60.00
G01 X26.8095 Y-8.7845 F60.00
G01 X26.7905 Y-8.7874 F60.00
G01 X26.7778 Y-8.7886 F60.00
G01 X26.7586 Y-8.7892 F60.00
G01 X26.7459 Y-8.7888 F60.00
G01 X26.7331 Y-8.7878 F60.00
G01 X26.7141 Y-8.7851 F60.00
G01 X26.7016 Y-8.7825 F60.00
G01 X26.6892 Y-8.7793 F60.00
G01 X26.6104 Y-8.7545 F60.00
G01 X26.5925 Y-8.7476 F60.00
G01 X26.5751 Y-8.7395 F60.00
G01 X26.5584 Y-8.7300 F60.00
G01 X26.5425 Y-8.7193 F60.00
G01 X26.5274 Y-8.7075 F60.00
G01 X26.5132 Y-8.6946 F60.00
G01 X26.5043 Y-8.6854 F60.00
G01 X26.4959 Y-8.6758 F60.00
G01 X26.4511 Y-8.6222 F60.00
G01 X26.4433 Y-8.6123 F60.00
G01 X26.4359 Y-8.6020 F60.00
G01 X26.4258 Y-8.5860 F60.00
G01 X26.4198 Y-8.5749 F60.00
G01 X26.4143 Y-8.5635 F60.00
G01 X26.4071 Y-8.5460 F60.00
G01 X26.4030 Y-8.5340 F60.00
G01 X26.3996 Y-8.5219 F60.00
G01 X26.3955 Y-8.5037 F60.00
G01 X26.3954 Y-8.5688 F60.00
G01 X26.3930 Y-8.6122 F60.00
G01 X26.3879 Y-8.6490 F60.00
G01 X26.3857 Y-8.6615 F60.00
G01 X26.3829 Y-8.6738 F60.00
G01 X26.3736 Y-8.7098 F60.00
G01 X26.3696 Y-8.7218 F60.00
G01 X26.3568 Y-8.7567 F60.00
G01 X26.3412 Y-8.7904 F60.00
G01 X26.3355 Y-8.8017 F60.00
G01 X26.3293 Y-8.8127 F60.00
G01 X26.3099 Y-8.8444 F60.00
G01 X26.2842 Y-8.8795 F60.00
G01 X26.2762 Y-8.8893 F60.00
G01 X26.2512 Y-8.9168 F60.00
G01 X26.2423 Y-8.9257 F60.00
G01 X26.2148 Y-8.9507 F60.00
G01 X26.2050 Y-8.9587 F60.00
G01 X26.1751 Y-8.9809 F60.00
G01 X26.1646 Y-8.9879 F60.00
G01 X26.1328 Y-9.0070 F60.00
G01 X26.1216 Y-9.0129 F60.00
G01 X26.0880 Y-9.0288 F60.00
G01 X26.0763 Y-9.0337 F60.00
G01 X26.0413 Y-9.0462 F60.00
G01 X26.0292 Y-9.0499 F60.00
G01 X25.9932 Y-9.0589 F60.00
G01 X25.9808 Y-9.0614 F60.00
G01 X25.9456 Y-9.0666 F60.00
G01 X25.9456 Y-9.2145 F60.00
G01 X26.0880 Y-9.2145 F60.00
G01 X26.1006 Y-9.2149 F60.00
G01 X26.1377 Y-9.2170 F60.00
G01 X26.1745 Y-9.2221 F60.00
G01 X26.1870 Y-9.2243 F60.00
G01 X26.1993 Y-9.2271 F60.00
G01 X26.2353 Y-9.2364 F60.00
G01 X26.2704 Y-9.2486 F60.00
G01 X26.2822 Y-9.2532 F60.00
G01 X26.3159 Y-9.2688 F60.00
G01 X26.3272 Y-9.2745 F60.00
G01 X26.3646 Y-9.2966 F60.00
G01 X26.3751 Y-9.3036 F60.00
G01 X26.4050 Y-9.3258 F60.00
G01 X26.4148 Y-9.3338 F60.00
G01 X26.4423 Y-9.3588 F60.00
G01 X26.4512 Y-9.3677 F60.00
G01 X26.4762 Y-9.3952 F60.00
G01 X26.4842 Y-9.4050 F60.00
G01 X26.5064 Y-9.4349 F60.00
G01 X26.5134 Y-9.4454 F60.00
G01 X26.5325 Y-9.4772 F60.00
G01 X26.5384 Y-9.4884 F60.00
G01 X26.5543 Y-9.5220 F60.00
G01 X26.5592 Y-9.5337 F60.00
G01 X26.5717 Y-9.5687 F60.00
G01 X26.5754 Y-9.5808 F60.00
G01 X26.5844 Y-9.6168 F60.00
G01 X26.5879 Y-9.6355 F60.00
G01 X26.5930 Y-9.6723 F60.00
G01 X26.5951 Y-9.7094 F60.00
G01 X26.5955 Y-9.7220 F60.00
G01 X26.5954 Y-10.3783 F60.00
G01 X26.5930 Y-10.4217 F60.00
G01 X26.5879 Y-10.4585 F60.00
G01 X26.5857 Y-10.4710 F60.00
G01 X26.5829 Y-10.4833 F60.00
G01 X26.5736 Y-10.5193 F60.00
G01 X26.5614 Y-10.5544 F60.00
G01 X26.5543 Y-10.5720 F60.00
G01 X26.5384 Y-10.6056 F60.00
G01 X26.5325 Y-10.6168 F60.00
G01 X26.5134 Y-10.6486 F60.00
G01 X26.5027 Y-10.6643 F60.00
G01 X26.4842 Y-10.6890 F60.00
G01 X26.4720 Y-10.7035 F60.00
G01 X26.4468 Y-10.7308 F60.00
G01 X26.4195 Y-10.7560 F60.00
G01 X26.4050 Y-10.7682 F60.00
G01 X26.3751 Y-10.7904 F60.00
G01 X26.3646 Y-10.7974 F60.00
G01 X26.3328 Y-10.8165 F60.00
G01 X26.3159 Y-10.8252 F60.00
G01 X26.2822 Y-10.8408 F60.00
G01 X26.2704 Y-10.8454 F60.00
G01 X26.2353 Y-10.8576 F60.00
G01 X26.1993 Y-10.8669 F60.00
G01 X26.1870 Y-10.8697 F60.00
G01 X26.1503 Y-10.8755 F60.00
G01 X26.1314 Y-10.8776 F60.00
G01 X26.0880 Y-10.8795 F60.00
G01 X25.3234 Y-10.8795 F60.00
G01 X25.0499 Y-11.1529 F60.00
G01 X25.0183 Y-11.1819 F60.00
G01 X25.0082 Y-11.1902 F60.00
G01 X24.9833 Y-11.2088 F60.00
G01 X24.9730 Y-11.2160 F60.00
G01 X24.9623 Y-11.2228 F60.00
G01 X24.9358 Y-11.2386 F60.00
G01 X24.9247 Y-11.2446 F60.00
G01 X24.8911 Y-11.2605 F60.00
G01 X24.8794 Y-11.2653 F60.00
G01 X24.8383 Y-11.2797 F60.00
G01 X24.7962 Y-11.2905 F60.00
G01 X24.7838 Y-11.2930 F60.00
G01 X24.7533 Y-11.2976 F60.00
G01 X24.7408 Y-11.2991 F60.00
G01 X24.7281 Y-11.3001 F60.00
G01 X24.6910 Y-11.3016 F60.00
G01 X24.2568 Y-11.3016 F60.00
G01 X24.2453 Y-11.3482 F60.00
G01 X24.2420 Y-11.3603 F60.00
G01 X24.2254 Y-11.4075 F60.00
G01 X24.2184 Y-11.4251 F60.00
G01 X24.1998 Y-11.4647 F60.00
G01 X24.1941 Y-11.4760 F60.00
G01 X24.1878 Y-11.4870 F60.00
G01 X24.1619 Y-11.5297 F60.00
G01 X24.1323 Y-11.5701 F60.00
G01 X24.1205 Y-11.5849 F60.00
G01 X24.0912 Y-11.6173 F60.00
G01 X24.0825 Y-11.6265 F60.00
G01 X24.0733 Y-11.6352 F60.00
G01 X24.0360 Y-11.6685 F60.00
G01 X23.9960 Y-11.6986 F60.00
G01 X23.9804 Y-11.7093 F60.00
G01 X23.9430 Y-11.7318 F60.00
G01 X23.9320 Y-11.7381 F60.00
G01 X23.9207 Y-11.7438 F60.00
G01 X23.8811 Y-11.7624 F60.00
G01 X23.8635 Y-11.7694 F60.00
G01 X23.8163 Y-11.7860 F60.00
G01 X23.8042 Y-11.7893 F60.00
G01 X23.7617 Y-11.7999 F60.00
G01 X23.7431 Y-11.8034 F60.00
G01 X23.6936 Y-11.8104 F60.00
G01 X23.6810 Y-11.8113 F60.00
G01 X23.6373 Y-11.8134 F60.00
G01 X22.8690 Y-11.8135 F60.00
G01 X22.8564 Y-11.8131 F60.00
G01 X22.8064 Y-11.8104 F60.00
G01 X22.7939 Y-11.8088 F60.00
G01 X22.7507 Y-11.8023 F60.00
G01 X22.7321 Y-11.7984 F60.00
G01 X22.6897 Y-11.7877 F60.00
G01 X22.6717 Y-11.7820 F60.00
G01 X22.6247 Y-11.7649 F60.00
G01 X22.5793 Y-11.7438 F60.00
G01 X22.5625 Y-11.7350 F60.00
G01 X22.5250 Y-11.7126 F60.00
G01 X22.5143 Y-11.7059 F60.00
G01 X22.4739 Y-11.6763 F60.00
G01 X22.4640 Y-11.6685 F60.00
G01 X22.4544 Y-11.6603 F60.00
G01 X22.4175 Y-11.6265 F60.00
G01 X22.3837 Y-11.5896 F60.00
G01 X22.3715 Y-11.5751 F60.00
G01 X22.3454 Y-11.5400 F60.00
G01 X22.3347 Y-11.5244 F60.00
G01 X22.3090 Y-11.4815 F60.00
G01 X22.3030 Y-11.4704 F60.00
G01 X22.2911 Y-11.4452 F60.00
G01 X22.2921 Y-11.4557 F60.00
G01 X22.2927 Y-11.4679 F60.00
G01 X22.2926 Y-11.4863 F60.00
G01 X22.2894 Y-11.5625 F60.00
G01 X22.2874 Y-11.5816 F60.00
G01 X22.2853 Y-11.5942 F60.00
G01 X22.2825 Y-11.6067 F60.00
G01 X22.2792 Y-11.6191 F60.00
G01 X22.2752 Y-11.6312 F60.00
G01 X22.2706 Y-11.6432 F60.00
G01 X22.2655 Y-11.6549 F60.00
G01 X22.2598 Y-11.6663 F60.00
G01 X22.2535 Y-11.6774 F60.00
G01 X22.2467 Y-11.6882 F60.00
G01 X22.2029 Y-11.7507 F60.00
G01 X22.1912 Y-11.7659 F60.00
G01 X22.1829 Y-11.7756 F60.00
G01 X22.1695 Y-11.7893 F60.00
G01 X22.1600 Y-11.7979 F60.00
G01 X22.1501 Y-11.8060 F60.00
G01 X22.1398 Y-11.8135 F60.00
G01 X22.1291 Y-11.8206 F60.00
G01 X22.1125 Y-11.8302 F60.00
G01 X22.1011 Y-11.8359 F60.00
G01 X22.0893 Y-11.8410 F60.00
G01 X22.0246 Y-11.8673 F60.00
G01 X22.0072 Y-11.8737 F60.00
G01 X21.9894 Y-11.8788 F60.00
G01 X21.9773 Y-11.8815 F60.00
G01 X21.9651 Y-11.8836 F60.00
G01 X21.9467 Y-11.8856 F60.00
G01 X21.9216 Y-11.8869 F60.00
G01 X21.2374 Y-11.8870 F60.00
G01 X21.2260 Y-11.8873 F60.00
G01 X21.1952 Y-11.8897 F60.00
G01 X21.0691 Y-11.9063 F60.00
G01 X21.0467 Y-11.9108 F60.00
G01 X21.0208 Y-11.9176 F60.00
G01 X21.0076 Y-11.9204 F60.00
G01 X20.9943 Y-11.9225 F60.00
G01 X20.9555 Y-11.9275 F60.00
G01 X20.9421 Y-11.9286 F60.00
G01 X20.9286 Y-11.9290 F60.00
G01 X20.7998 Y-11.9290 F60.00
G01 X20.7896 Y-11.9296 F60.00
G01 X20.6593 Y-11.9621 F60.00
G01 X20.5437 Y-12.0194 F60.00
G01 X20.4432 Y-12.1002 F60.00
G01 X20.3964 Y-12.1584 F60.00
G01 X20.3885 Y-12.1677 F60.00
G01 X20.3802 Y-12.1767 F60.00
G01 X20.3714 Y-12.1853 F60.00
G01 X20.3575 Y-12.1973 F60.00
G01 X20.3428 Y-12.2084 F60.00
G01 X20.2855 Y-12.2483 F60.00
G01 X20.2694 Y-12.2586 F60.00
G01 X20.2582 Y-12.2649 F60.00
G01 X20.2467 Y-12.2705 F60.00
G01 X20.2291 Y-12.2780 F60.00
G01 X20.2170 Y-12.2822 F60.00
G01 X20.1985 Y-12.2873 F60.00
G01 X20.1860 Y-12.2900 F60.00
G01 X20.1734 Y-12.2921 F60.00
G01 X20.1543 Y-12.2940 F60.00
G01 X20.0781 Y-12.2968 F60.00
G01 X20.0657 Y-12.2970 F60.00
G01 X20.0471 Y-12.2961 F60.00
G01 X20.0286 Y-12.2939 F60.00
G01 X20.0104 Y-12.2904 F60.00
G01 X19.9984 Y-12.2873 F60.00
G01 X19.9807 Y-12.2815 F60.00
G01 X19.9634 Y-12.2746 F60.00
G01 X19.9522 Y-12.2692 F60.00
G01 X19.9413 Y-12.2634 F60.00
G01 X19.8776 Y-12.2270 F60.00
G01 X19.8869 Y-12.2401 F60.00
G01 X19.8937 Y-12.2507 F60.00
G01 X19.9095 Y-12.2772 F60.00
G01 X19.9154 Y-12.2884 F60.00
G01 X19.9338 Y-12.3278 F60.00
G01 X19.9487 Y-12.3687 F60.00
G01 X19.9524 Y-12.3808 F60.00
G01 X19.9599 Y-12.4107 F60.00
G01 X19.9639 Y-12.4292 F60.00
G01 X19.9700 Y-12.4723 F60.00
G01 X19.9721 Y-12.5094 F60.00
G01 X19.9725 Y-12.5220 F60.00
G01 X19.9727 Y-12.9970 F60.00
G01 X19.9727 Y-14.6255 F60.00
G01 X20.6400 Y-14.6255 F60.00
G01 X20.6771 Y-14.6271 F60.00
G01 X20.6897 Y-14.6280 F60.00
G01 X20.7328 Y-14.6341 F60.00
G01 X20.7513 Y-14.6381 F60.00
G01 X20.7873 Y-14.6474 F60.00
G01 X20.8224 Y-14.6596 F60.00
G01 X20.8400 Y-14.6667 F60.00
G01 X20.8792 Y-14.6855 F60.00
G01 X20.9113 Y-14.7043 F60.00
G01 X20.9278 Y-14.7151 F60.00
G00 Z2.0000
G00 X20.5231 Y-12.5220
G01 F10.00
G01 Z-0.0500
G01 F60.00
G01 X20.5231 Y-13.4720 F60.00
G01 X20.5244 Y-13.5010 F60.00
G01 X20.5252 Y-13.5100 F60.00
G01 X20.5292 Y-13.5365 F60.00
G01 X20.5306 Y-13.5431 F60.00
G01 X20.5378 Y-13.5713 F60.00
G01 X20.5475 Y-13.5986 F60.00
G01 X20.5509 Y-13.6070 F60.00
G01 X20.5634 Y-13.6332 F60.00
G01 X20.5807 Y-13.6620 F60.00
G01 X20.6007 Y-13.6889 F60.00
G01 X20.6201 Y-13.7105 F60.00
G01 X20.6265 Y-13.7169 F60.00
G01 X20.6481 Y-13.7363 F60.00
G01 X20.6713 Y-13.7537 F60.00
G01 X20.6788 Y-13.7587 F60.00
G01 X20.7018 Y-13.7725 F60.00
G01 X20.7341 Y-13.7879 F60.00
G01 X20.7657 Y-13.7992 F60.00
G01 X20.7983 Y-13.8074 F60.00
G01 X20.8270 Y-13.8118 F60.00
G01 X20.8360 Y-13.8126 F60.00
G01 X20.8650 Y-13.8139 F60.00
G01 X21.0431 Y-13.8139 F60.00
G01 X21.0661 Y-13.8232 F60.00
G01 X21.1020 Y-13.8329 F60.00
G01 X21.1090 Y-13.8345 F60.00
G01 X21.2230 Y-13.8496 F60.00
G01 X21.2391 Y-13.8509 F60.00
G01 X22.8061 Y-13.8509 F60.00
G01 X22.8061 Y-15.7949 F60.00
G01 X22.8071 Y-15.8130 F60.00
G01 X22.8221 Y-15.9266 F60.00
G01 X22.8241 Y-15.9360 F60.00
G01 X22.8331 Y-15.9696 F60.00
G01 X22.8363 Y-15.9787 F60.00
G01 X22.8747 Y-16.0713 F60.00
G01 X22.8779 Y-16.0778 F60.00
G01 X22.8911 Y-16.1006 F60.00
G01 X22.8911 Y-16.2800 F60.00
G01 X22.8917 Y-16.2951 F60.00
G01 X22.8923 Y-16.3018 F60.00
G01 X22.8941 Y-16.3146 F60.00
G01 X22.8959 Y-16.3234 F60.00
G01 X22.8996 Y-16.3379 F60.00
G01 X22.9063 Y-16.3565 F60.00
G01 X22.9136 Y-16.3723 F60.00
G01 X22.9169 Y-16.3782 F60.00
G01 X22.9247 Y-16.3911 F60.00
G01 X22.9364 Y-16.4068 F60.00
G01 X22.9480 Y-16.4198 F60.00
G01 X22.9529 Y-16.4245 F60.00
G01 X22.9642 Y-16.4346 F60.00
G01 X22.9762 Y-16.4437 F60.00
G01 X22.9818 Y-16.4475 F60.00
G01 X22.9967 Y-16.4563 F60.00
G01 X23.0124 Y-16.4638 F60.00
G01 X23.0187 Y-16.4664 F60.00
G01 X23.0330 Y-16.4713 F60.00
G01 X23.0498 Y-16.4756 F60.00
G01 X23.0736 Y-16.4792 F60.00
G01 X23.0910 Y-16.4799 F60.00
G01 X27.7850 Y-16.4799 F60.00
G01 X27.8046 Y-16.4790 F60.00
G01 X27.8240 Y-16.4761 F60.00
G01 X27.8429 Y-16.4714 F60.00
G01 X27.8615 Y-16.4647 F60.00
G01 X27.8793 Y-16.4563 F60.00
G01 X27.8923 Y-16.4487 F60.00
G01 X27.8979 Y-16.4450 F60.00
G01 X27.9083 Y-16.4373 F60.00
G01 X27.9153 Y-16.4316 F60.00
G01 X27.9264 Y-16.4214 F60.00
G01 X27.9396 Y-16.4068 F60.00
G01 X27.9513 Y-16.3911 F60.00
G01 X27.9589 Y-16.3786 F60.00
G01 X27.9913 Y-16.3740 F60.00
G01 X28.0319 Y-16.3632 F60.00
G01 X28.0387 Y-16.3607 F60.00
G01 X28.1335 Y-16.3213 F60.00
G01 X28.1679 Y-16.3017 F60.00
G01 X28.1760 Y-16.2965 F60.00
G01 X28.2556 Y-16.2354 F60.00
G01 X28.2629 Y-16.2292 F60.00
G01 X28.2892 Y-16.2029 F60.00
G01 X28.2954 Y-16.1956 F60.00
G01 X28.3564 Y-16.1161 F60.00
G01 X28.3613 Y-16.1086 F60.00
G01 X28.3779 Y-16.0799 F60.00
G01 X28.3832 Y-16.0691 F60.00
G01 X28.4216 Y-15.9764 F60.00
G01 X28.4245 Y-15.9673 F60.00
G01 X28.4340 Y-15.9313 F60.00
G01 X28.4353 Y-15.9242 F60.00
G01 X28.4496 Y-15.8150 F60.00
G01 X28.4509 Y-15.7949 F60.00
G01 X28.4509 Y-13.5892 F60.00
G01 X29.3197 Y-13.5892 F60.00
G01 X29.3428 Y-13.5949 F60.00
G01 X29.3715 Y-13.5993 F60.00
G01 X29.3805 Y-13.6001 F60.00
G01 X29.4095 Y-13.6014 F60.00
G01 X30.3095 Y-13.6014 F60.00
G01 X30.3385 Y-13.6001 F60.00
G01 X30.3475 Y-13.5993 F60.00
G01 X30.3762 Y-13.5949 F60.00
G01 X30.4088 Y-13.5867 F60.00
G01 X30.4404 Y-13.5754 F60.00
G01 X30.4667 Y-13.5631 F60.00
G01 X30.4746 Y-13.5588 F60.00
G01 X30.4976 Y-13.5451 F60.00
G01 X30.5032 Y-13.5412 F60.00
G01 X30.5264 Y-13.5238 F60.00
G01 X30.5513 Y-13.5013 F60.00
G01 X30.5738 Y-13.4764 F60.00
G01 X30.5938 Y-13.4495 F60.00
G01 X30.6111 Y-13.4207 F60.00
G01 X30.6236 Y-13.3945 F60.00
G01 X30.6263 Y-13.3883 F60.00
G01 X30.6353 Y-13.3630 F60.00
G01 X30.6379 Y-13.3544 F60.00
G01 X30.6449 Y-13.3262 F60.00
G01 X30.6493 Y-13.2975 F60.00
G01 X30.6500 Y-13.2903 F60.00
G01 X30.6514 Y-13.2595 F60.00
G01 X30.6514 Y-12.7345 F60.00
G01 X30.6498 Y-12.7010 F60.00
G01 X30.6457 Y-12.6722 F60.00
G01 X30.6439 Y-12.6634 F60.00
G01 X30.6374 Y-12.6374 F60.00
G01 X30.6353 Y-12.6310 F60.00
G01 X30.6254 Y-12.6036 F60.00
G01 X30.6131 Y-12.5773 F60.00
G01 X30.6088 Y-12.5694 F60.00
G01 X30.5938 Y-12.5445 F60.00
G01 X30.5738 Y-12.5176 F60.00
G01 X30.5513 Y-12.4927 F60.00
G01 X30.5298 Y-12.4731 F60.00
G01 X30.5229 Y-12.4674 F60.00
G01 X30.4995 Y-12.4502 F60.00
G01 X30.4746 Y-12.4352 F60.00
G01 X30.4667 Y-12.4309 F60.00
G01 X30.4404 Y-12.4186 F60.00
G01 X30.4088 Y-12.4073 F60.00
G01 X30.3762 Y-12.3991 F60.00
G01 X30.3430 Y-12.3942 F60.00
G01 X30.3095 Y-12.3926 F60.00
G01 X29.4072 Y-12.3926 F60.00
G01 X29.3805 Y-12.3939 F60.00
G01 X29.3715 Y-12.3947 F60.00
G01 X29.3428 Y-12.3991 F60.00
G01 X29.3197 Y-12.4048 F60.00
G01 X28.3464 Y-12.4048 F60.00
G01 X28.2939 Y-12.3365 F60.00
G01 X28.2875 Y-12.3294 F60.00
G01 X28.2646 Y-12.3065 F60.00
G01 X28.2556 Y-12.2986 F60.00
G01 X28.1760 Y-12.2375 F60.00
G01 X28.1679 Y-12.2323 F60.00
G01 X28.1379 Y-12.2150 F60.00
G01 X28.1317 Y-12.2119 F60.00
G01 X28.1218 Y-12.2079 F60.00
G01 X28.1087 Y-12.2043 F60.00
G01 X28.0613 Y-12.1948 F60.00
G01 X28.0501 Y-12.1933 F60.00
G01 X27.1792 Y-12.1931 F60.00
G01 X27.1488 Y-12.1910 F60.00
G01 X26.9773 Y-12.1485 F60.00
G01 X26.9408 Y-12.1437 F60.00
G01 X26.9296 Y-12.1431 F60.00
G01 X21.2391 Y-12.1431 F60.00
G01 X21.2230 Y-12.1444 F60.00
G01 X21.1090 Y-12.1595 F60.00
G01 X21.1020 Y-12.1611 F60.00
G01 X21.0661 Y-12.1708 F60.00
G01 X21.0431 Y-12.1801 F60.00
G01 X20.8650 Y-12.1801 F60.00
G01 X20.8360 Y-12.1814 F60.00
G01 X20.8270 Y-12.1822 F60.00
G01 X20.7983 Y-12.1866 F60.00
G01 X20.7657 Y-12.1948 F60.00
G01 X20.7341 Y-12.2061 F60.00
G01 X20.7038 Y-12.2204 F60.00
G01 X20.6750 Y-12.2377 F60.00
G01 X20.6516 Y-12.2549 F60.00
G01 X20.6447 Y-12.2606 F60.00
G01 X20.6232 Y-12.2802 F60.00
G01 X20.6036 Y-12.3017 F60.00
G01 X20.5979 Y-12.3086 F60.00
G01 X20.5807 Y-12.3320 F60.00
G01 X20.5657 Y-12.3569 F60.00
G01 X20.5614 Y-12.3648 F60.00
G01 X20.5491 Y-12.3911 F60.00
G01 X20.5392 Y-12.4185 F60.00
G01 X20.5366 Y-12.4271 F60.00
G01 X20.5296 Y-12.4553 F60.00
G01 X20.5252 Y-12.4840 F60.00
G01 X20.5244 Y-12.4930 F60.00
G01 X20.5231 Y-12.5220 F60.00
G00 Z2.0000
G00 X20.3575 Y-12.5220
G01 F10.00
G01 Z-0.0500
G01 F60.00
G01 X20.3575 Y-13.4720 F60.00
G01 X20.3579 Y-13.4846 F60.00
G01 X20.3600 Y-13.5217 F60.00
G01 X20.3661 Y-13.5648 F60.00
G01 X20.3701 Y-13.5833 F60.00
G01 X20.3794 Y-13.6193 F60.00
G01 X20.3916 Y-13.6544 F60.00
G01 X20.3962 Y-13.6662 F60.00
G01 X20.4118 Y-13.6999 F60.00
G01 X20.4175 Y-13.7112 F60.00
G01 X20.4237 Y-13.7222 F60.00
G01 X20.4431 Y-13.7539 F60.00
G01 X20.4650 Y-13.7840 F60.00
G01 X20.4727 Y-13.7939 F60.00
G01 X20.4810 Y-13.8035 F60.00
G01 X20.5062 Y-13.8308 F60.00
G01 X20.5335 Y-13.8560 F60.00
G01 X20.5431 Y-13.8643 F60.00
G01 X20.5530 Y-13.8720 F60.00
G01 X20.5831 Y-13.8939 F60.00
G01 X20.6148 Y-13.9133 F60.00
G01 X20.6258 Y-13.9195 F60.00
G01 X20.6371 Y-13.9252 F60.00
G01 X20.6708 Y-13.9408 F60.00
G01 X20.6826 Y-13.9454 F60.00
G01 X20.7177 Y-13.9576 F60.00
G01 X20.7537 Y-13.9669 F60.00
G01 X20.7660 Y-13.9697 F60.00
G01 X20.8094 Y-13.9764 F60.00
G01 X20.8229 Y-13.9777 F60.00
G01 X20.8524 Y-13.9791 F60.00
G01 X20.8650 Y-13.9795 F60.00
G01 X21.0117 Y-13.9795 F60.00
G01 X21.0279 Y-13.9844 F60.00
G01 X21.0591 Y-13.9928 F60.00
G01 X21.0722 Y-13.9959 F60.00
G01 X21.0855 Y-13.9984 F60.00
G01 X21.2014 Y-14.0137 F60.00
G01 X21.2262 Y-14.0159 F60.00
G01 X21.2431 Y-14.0165 F60.00
G01 X22.6405 Y-14.0165 F60.00
G01 X22.6405 Y-15.7949 F60.00
G01 X22.6411 Y-15.8118 F60.00
G01 X22.6426 Y-15.8311 F60.00
G01 X22.6586 Y-15.9525 F60.00
G01 X22.6611 Y-15.9658 F60.00
G01 X22.6642 Y-15.9789 F60.00
G01 X22.6744 Y-16.0166 F60.00
G01 X22.6786 Y-16.0294 F60.00
G01 X22.6834 Y-16.0420 F60.00
G01 X22.7255 Y-16.1430 F60.00
G01 X22.7256 Y-16.2863 F60.00
G01 X22.7268 Y-16.3095 F60.00
G01 X22.7288 Y-16.3284 F60.00
G01 X22.7314 Y-16.3451 F60.00
G01 X22.7339 Y-16.3575 F60.00
G01 X22.7394 Y-16.3798 F60.00
G01 X22.7429 Y-16.3914 F60.00
G01 X22.7510 Y-16.4140 F60.00
G01 X22.7558 Y-16.4257 F60.00
G01 X22.7658 Y-16.4467 F60.00
G01 X22.7717 Y-16.4578 F60.00
G01 X22.7871 Y-16.4830 F60.00
G01 X22.8007 Y-16.5019 F60.00
G01 X22.8126 Y-16.5167 F60.00
G01 X22.8282 Y-16.5339 F60.00
G01 X22.8417 Y-16.5471 F60.00
G01 X22.8592 Y-16.5625 F60.00
G01 X22.8776 Y-16.5766 F60.00
G01 X22.8933 Y-16.5873 F60.00
G01 X22.9132 Y-16.5993 F60.00
G01 X22.9300 Y-16.6080 F60.00
G01 X22.9511 Y-16.6176 F60.00
G01 X22.9789 Y-16.6278 F60.00
G01 X22.9971 Y-16.6331 F60.00
G01 X23.0197 Y-16.6384 F60.00
G01 X23.0426 Y-16.6422 F60.00
G01 X23.0615 Y-16.6442 F60.00
G01 X23.0910 Y-16.6455 F60.00
G01 X27.7850 Y-16.6455 F60.00
G01 X27.7976 Y-16.6451 F60.00
G01 X27.8208 Y-16.6437 F60.00
G01 X27.8438 Y-16.6406 F60.00
G01 X27.8563 Y-16.6384 F60.00
G01 X27.8686 Y-16.6357 F60.00
G01 X27.8906 Y-16.6299 F60.00
G01 X27.9131 Y-16.6222 F60.00
G01 X27.9307 Y-16.6152 F60.00
G01 X27.9517 Y-16.6052 F60.00
G01 X27.9628 Y-16.5993 F60.00
G01 X27.9827 Y-16.5873 F60.00
G01 X27.9932 Y-16.5803 F60.00
G01 X28.0119 Y-16.5665 F60.00
G01 X28.0217 Y-16.5584 F60.00
G01 X28.0389 Y-16.5428 F60.00
G01 X28.0522 Y-16.5292 F60.00
G01 X28.0766 Y-16.5226 F60.00
G01 X28.0958 Y-16.5161 F60.00
G01 X28.1924 Y-16.4761 F60.00
G01 X28.2048 Y-16.4706 F60.00
G01 X28.2168 Y-16.4645 F60.00
G01 X28.2565 Y-16.4416 F60.00
G01 X28.2678 Y-16.4343 F60.00
G01 X28.2787 Y-16.4263 F60.00
G01 X28.3563 Y-16.3667 F60.00
G01 X28.3668 Y-16.3583 F60.00
G01 X28.3768 Y-16.3492 F60.00
G01 X28.4092 Y-16.3168 F60.00
G01 X28.4183 Y-16.3068 F60.00
G01 X28.4267 Y-16.2963 F60.00
G01 X28.4863 Y-16.2187 F60.00
G01 X28.4937 Y-16.2085 F60.00
G01 X28.5039 Y-16.1927 F60.00
G01 X28.5212 Y-16.1626 F60.00
G01 X28.5277 Y-16.1508 F60.00
G01 X28.5335 Y-16.1386 F60.00
G01 X28.5761 Y-16.0358 F60.00
G01 X28.5826 Y-16.0166 F60.00
G01 X28.5944 Y-15.9723 F60.00
G01 X28.5972 Y-15.9591 F60.00
G01 X28.5993 Y-15.9458 F60.00
G01 X28.6137 Y-15.8366 F60.00
G01 X28.6154 Y-15.8199 F60.00
G01 X28.6165 Y-15.7949 F60.00
G01 X28.6165 Y-13.7547 F60.00
G01 X29.2993 Y-13.7547 F60.00
G01 X29.3167 Y-13.7584 F60.00
G01 X29.3539 Y-13.7639 F60.00
G01 X29.3724 Y-13.7654 F60.00
G01 X29.4095 Y-13.7670 F60.00
G01 X30.3095 Y-13.7670 F60.00
G01 X30.3221 Y-13.7666 F60.00
G01 X30.3592 Y-13.7645 F60.00
G01 X30.3960 Y-13.7594 F60.00
G01 X30.4085 Y-13.7572 F60.00
G01 X30.4208 Y-13.7544 F60.00
G01 X30.4568 Y-13.7451 F60.00
G01 X30.4978 Y-13.7307 F60.00
G01 X30.5095 Y-13.7258 F60.00
G01 X30.5374 Y-13.7127 F60.00
G01 X30.5487 Y-13.7070 F60.00
G01 X30.5597 Y-13.7008 F60.00
G01 X30.5914 Y-13.6814 F60.00
G01 X30.6215 Y-13.6595 F60.00
G01 X30.6314 Y-13.6518 F60.00
G01 X30.6410 Y-13.6435 F60.00
G01 X30.6683 Y-13.6183 F60.00
G01 X30.6935 Y-13.5910 F60.00
G01 X30.7018 Y-13.5814 F60.00
G01 X30.7095 Y-13.5715 F60.00
G01 X30.7279 Y-13.5466 F60.00
G01 X30.7349 Y-13.5361 F60.00
G01 X30.7570 Y-13.4987 F60.00
G01 X30.7627 Y-13.4874 F60.00
G01 X30.7783 Y-13.4537 F60.00
G01 X30.7911 Y-13.4188 F60.00
G01 X30.7951 Y-13.4068 F60.00
G01 X30.8044 Y-13.3708 F60.00
G01 X30.8072 Y-13.3585 F60.00
G01 X30.8094 Y-13.3460 F60.00
G01 X30.8139 Y-13.3151 F60.00
G01 X30.8152 Y-13.3016 F60.00
G01 X30.8170 Y-13.2595 F60.00
G01 X30.8169 Y-12.7282 F60.00
G01 X30.8145 Y-12.6848 F60.00
G01 X30.8094 Y-12.6480 F60.00
G01 X30.8059 Y-12.6293 F60.00
G01 X30.7951 Y-12.5872 F60.00
G01 X30.7911 Y-12.5752 F60.00
G01 X30.7783 Y-12.5403 F60.00
G01 X30.7627 Y-12.5066 F60.00
G01 X30.7540 Y-12.4897 F60.00
G01 X30.7349 Y-12.4579 F60.00
G01 X30.7279 Y-12.4474 F60.00
G01 X30.7057 Y-12.4175 F60.00
G01 X30.6935 Y-12.4030 F60.00
G01 X30.6727 Y-12.3802 F60.00
G01 X30.6638 Y-12.3713 F60.00
G01 X30.6363 Y-12.3463 F60.00
G01 X30.6215 Y-12.3345 F60.00
G01 X30.5914 Y-12.3126 F60.00
G01 X30.5597 Y-12.2932 F60.00
G01 X30.5431 Y-12.2841 F60.00
G01 X30.5152 Y-12.2708 F60.00
G01 X30.4978 Y-12.2633 F60.00
G01 X30.4628 Y-12.2508 F60.00
G01 X30.4507 Y-12.2471 F60.00
G01 X30.4147 Y-12.2381 F60.00
G01 X30.4023 Y-12.2356 F60.00
G01 X30.3655 Y-12.2302 F60.00
G01 X30.3529 Y-12.2289 F60.00
G01 X30.3158 Y-12.2271 F60.00
G01 X29.4095 Y-12.2270 F60.00
G01 X29.3724 Y-12.2286 F60.00
G01 X29.3535 Y-12.2302 F60.00
G01 X29.3167 Y-12.2356 F60.00
G01 X29.2993 Y-12.2393 F60.00
G01 X28.4280 Y-12.2393 F60.00
G01 X28.4183 Y-12.2272 F60.00
G01 X28.4045 Y-12.2123 F60.00
G01 X28.3768 Y-12.1848 F60.00
G01 X28.3616 Y-12.1714 F60.00
G01 X28.2733 Y-12.1036 F60.00
G01 X28.2565 Y-12.0924 F60.00
G01 X28.2227 Y-12.0728 F60.00
G01 X28.2055 Y-12.0637 F60.00
G01 X28.1937 Y-12.0584 F60.00
G01 X28.1775 Y-12.0520 F60.00
G01 X28.1595 Y-12.0463 F60.00
G01 X28.1410 Y-12.0419 F60.00
G01 X28.0874 Y-12.0313 F60.00
G01 X28.0748 Y-12.0295 F60.00
G01 X28.0623 Y-12.0282 F60.00
G01 X28.0433 Y-12.0275 F60.00
G01 X27.1848 Y-12.0275 F60.00
G01 X27.1746 Y-12.0268 F60.00
G01 X27.0216 Y-11.9888 F60.00
G01 X27.0094 Y-11.9861 F60.00
G01 X26.9908 Y-11.9831 F60.00
G01 X26.9546 Y-11.9788 F60.00
G01 X26.9421 Y-11.9778 F60.00
G01 X26.9296 Y-11.9775 F60.00
G01 X21.2431 Y-11.9775 F60.00
G01 X21.2263 Y-11.9781 F60.00
G01 X21.2014 Y-11.9803 F60.00
G01 X21.0855 Y-11.9956 F60.00
G01 X21.0722 Y-11.9981 F60.00
G01 X21.0591 Y-12.0012 F60.00
G01 X21.0279 Y-12.0096 F60.00
G01 X21.0117 Y-12.0145 F60.00
G01 X20.8587 Y-12.0146 F60.00
G01 X20.8153 Y-12.0170 F60.00
G01 X20.7722 Y-12.0231 F60.00
G01 X20.7598 Y-12.0256 F60.00
G01 X20.7238 Y-12.0346 F60.00
G01 X20.7117 Y-12.0383 F60.00
G01 X20.6767 Y-12.0508 F60.00
G01 X20.6650 Y-12.0557 F60.00
G01 X20.6314 Y-12.0716 F60.00
G01 X20.6202 Y-12.0775 F60.00
G01 X20.5884 Y-12.0966 F60.00
G01 X20.5727 Y-12.1073 F60.00
G01 X20.5431 Y-12.1297 F60.00
G01 X20.5107 Y-12.1588 F60.00
G01 X20.4975 Y-12.1723 F60.00
G01 X20.4727 Y-12.2001 F60.00
G01 X20.4503 Y-12.2297 F60.00
G01 X20.4396 Y-12.2454 F60.00
G01 X20.4175 Y-12.2828 F60.00
G01 X20.3987 Y-12.3220 F60.00
G01 X20.3916 Y-12.3396 F60.00
G01 X20.3794 Y-12.3747 F60.00
G01 X20.3701 Y-12.4107 F60.00
G01 X20.3661 Y-12.4292 F60.00
G01 X20.3607 Y-12.4660 F60.00
G01 X20.3591 Y-12.4849 F60.00
G01 X20.3575 Y-12.5220 F60.00
G00 Z2.0000
G00 X22.3961 Y-10.4130
G01 F10.00
G01 Z-0.0500
G01 F60.00
G01 X22.3961 Y-11.1773 F60.00
G01 X22.3983 Y-11.2214 F60.00
G01 X22.4044 Y-11.2628 F60.00
G01 X22.4061 Y-11.2717 F60.00
G01 X22.4152 Y-11.3079 F60.00
G01 X22.4178 Y-11.3166 F60.00
G01 X22.4321 Y-11.3560 F60.00
G01 X22.4499 Y-11.3939 F60.00
G01 X22.4541 Y-11.4019 F60.00
G01 X22.4758 Y-11.4378 F60.00
G01 X22.5006 Y-11.4715 F60.00
G01 X22.5064 Y-11.4785 F60.00
G01 X22.5346 Y-11.5094 F60.00
G01 X22.5690 Y-11.5406 F60.00
G01 X22.6062 Y-11.5682 F60.00
G01 X22.6421 Y-11.5899 F60.00
G01 X22.6501 Y-11.5941 F60.00
G01 X22.6880 Y-11.6119 F60.00
G01 X22.7317 Y-11.6276 F60.00
G01 X22.7723 Y-11.6379 F60.00
G01 X22.7812 Y-11.6396 F60.00
G01 X22.8249 Y-11.6459 F60.00
G01 X22.8690 Y-11.6479 F60.00
G01 X23.6333 Y-11.6479 F60.00
G01 X23.6729 Y-11.6460 F60.00
G01 X23.6818 Y-11.6451 F60.00
G01 X23.7233 Y-11.6389 F60.00
G01 X23.7661 Y-11.6282 F60.00
G01 X23.8120 Y-11.6119 F60.00
G01 X23.8499 Y-11.5941 F60.00
G01 X23.8579 Y-11.5899 F60.00
G01 X23.8899 Y-11.5707 F60.00
G01 X23.8974 Y-11.5656 F60.00
G01 X23.9310 Y-11.5406 F60.00
G01 X23.9654 Y-11.5094 F60.00
G01 X23.9966 Y-11.4750 F60.00
G01 X24.0230 Y-11.4396 F60.00
G01 X24.0459 Y-11.4019 F60.00
G01 X24.0501 Y-11.3939 F60.00
G01 X24.0679 Y-11.3560 F60.00
G01 X24.0842 Y-11.3101 F60.00
G01 X24.0949 Y-11.2673 F60.00
G01 X24.1014 Y-11.2236 F60.00
G01 X24.1039 Y-11.1773 F60.00
G01 X24.1039 Y-11.1361 F60.00
G01 X24.6933 Y-11.1360 F60.00
G01 X24.7245 Y-11.1344 F60.00
G01 X24.7577 Y-11.1295 F60.00
G01 X24.7903 Y-11.1213 F60.00
G01 X24.8177 Y-11.1117 F60.00
G01 X24.8260 Y-11.1082 F60.00
G01 X24.8523 Y-11.0957 F60.00
G01 X24.8792 Y-11.0797 F60.00
G01 X24.9081 Y-11.0583 F60.00
G01 X24.9296 Y-11.0390 F60.00
G01 X25.2548 Y-10.7139 F60.00
G01 X26.0880 Y-10.7139 F60.00
G01 X26.1170 Y-10.7126 F60.00
G01 X26.1260 Y-10.7118 F60.00
G01 X26.1547 Y-10.7074 F60.00
G01 X26.1829 Y-10.7004 F60.00
G01 X26.1915 Y-10.6978 F60.00
G01 X26.2189 Y-10.6879 F60.00
G01 X26.2452 Y-10.6756 F60.00
G01 X26.2531 Y-10.6713 F60.00
G01 X26.2780 Y-10.6563 F60.00
G01 X26.3049 Y-10.6363 F60.00
G01 X26.3298 Y-10.6138 F60.00
G01 X26.3523 Y-10.5889 F60.00
G01 X26.3697 Y-10.5657 F60.00
G01 X26.3747 Y-10.5582 F60.00
G01 X26.3885 Y-10.5352 F60.00
G01 X26.3916 Y-10.5292 F60.00
G01 X26.4039 Y-10.5029 F60.00
G01 X26.4138 Y-10.4755 F60.00
G01 X26.4164 Y-10.4669 F60.00
G01 X26.4234 Y-10.4387 F60.00
G01 X26.4281 Y-10.4078 F60.00
G01 X26.4299 Y-10.3720 F60.00
G01 X26.4299 Y-9.7197 F60.00
G01 X26.4283 Y-9.6885 F60.00
G01 X26.4234 Y-9.6553 F60.00
G01 X26.4152 Y-9.6227 F60.00
G01 X26.4048 Y-9.5932 F60.00
G01 X26.3896 Y-9.5608 F60.00
G01 X26.3723 Y-9.5320 F60.00
G01 X26.3523 Y-9.5051 F60.00
G01 X26.3329 Y-9.4835 F60.00
G01 X26.3265 Y-9.4771 F60.00
G01 X26.3067 Y-9.4591 F60.00
G01 X26.3014 Y-9.4549 F60.00
G01 X26.2780 Y-9.4377 F60.00
G01 X26.2531 Y-9.4227 F60.00
G01 X26.2452 Y-9.4184 F60.00
G01 X26.2189 Y-9.4061 F60.00
G01 X26.1894 Y-9.3955 F60.00
G01 X26.1591 Y-9.3876 F60.00
G01 X26.1503 Y-9.3858 F60.00
G01 X26.1215 Y-9.3817 F60.00
G01 X26.0925 Y-9.3802 F60.00
G01 X25.7801 Y-9.3801 F60.00
G01 X25.7801 Y-8.9044 F60.00
G01 X25.8903 Y-8.9044 F60.00
G01 X25.9215 Y-8.9028 F60.00
G01 X25.9503 Y-8.8987 F60.00
G01 X25.9591 Y-8.8969 F60.00
G01 X25.9851 Y-8.8904 F60.00
G01 X25.9915 Y-8.8883 F60.00
G01 X26.0189 Y-8.8784 F60.00
G01 X26.0512 Y-8.8630 F60.00
G01 X26.0780 Y-8.8468 F60.00
G01 X26.1049 Y-8.8268 F60.00
G01 X26.1298 Y-8.8043 F60.00
G01 X26.1523 Y-8.7794 F60.00
G01 X26.1723 Y-8.7525 F60.00
G01 X26.1896 Y-8.7237 F60.00
G01 X26.2039 Y-8.6934 F60.00
G01 X26.2138 Y-8.6660 F60.00
G01 X26.2164 Y-8.6574 F60.00
G01 X26.2234 Y-8.6292 F60.00
G01 X26.2278 Y-8.6005 F60.00
G01 X26.2286 Y-8.5915 F60.00
G01 X26.2299 Y-8.5648 F60.00
G01 X26.2299 Y-8.0375 F60.00
G01 X26.2286 Y-8.0085 F60.00
G01 X26.2278 Y-7.9995 F60.00
G01 X26.2234 Y-7.9708 F60.00
G01 X26.2164 Y-7.9426 F60.00
G01 X26.2138 Y-7.9340 F60.00
G01 X26.2039 Y-7.9066 F60.00
G01 X26.1916 Y-7.8803 F60.00
G01 X26.1873 Y-7.8724 F60.00
G01 X26.1723 Y-7.8475 F60.00
G01 X26.1523 Y-7.8206 F60.00
G01 X26.1298 Y-7.7957 F60.00
G01 X26.1049 Y-7.7732 F60.00
G01 X26.0817 Y-7.7558 F60.00
G01 X26.0742 Y-7.7508 F60.00
G01 X26.0512 Y-7.7370 F60.00
G01 X26.0452 Y-7.7339 F60.00
G01 X26.0189 Y-7.7216 F60.00
G01 X25.9915 Y-7.7117 F60.00
G01 X25.9829 Y-7.7091 F60.00
G01 X25.9547 Y-7.7021 F60.00
G01 X25.9238 Y-7.6974 F60.00
G01 X25.8880 Y-7.6956 F60.00
G01 X24.9880 Y-7.6956 F60.00
G01 X24.9545 Y-7.6972 F60.00
G01 X24.9257 Y-7.7013 F60.00
G01 X24.9169 Y-7.7031 F60.00
G01 X24.8887 Y-7.7103 F60.00
G01 X24.8614 Y-7.7200 F60.00
G01 X24.8530 Y-7.7234 F60.00
G01 X24.8268 Y-7.7359 F60.00
G01 X24.7980 Y-7.7532 F60.00
G01 X24.7746 Y-7.7704 F60.00
G01 X24.7677 Y-7.7761 F60.00
G01 X24.7462 Y-7.7957 F60.00
G01 X24.7266 Y-7.8172 F60.00
G01 X24.7209 Y-7.8241 F60.00
G01 X24.7037 Y-7.8475 F60.00
G01 X24.6887 Y-7.8724 F60.00
G01 X24.6844 Y-7.8803 F60.00
G01 X24.6721 Y-7.9066 F60.00
G01 X24.6622 Y-7.9340 F60.00
G01 X24.6596 Y-7.9426 F60.00
G01 X24.6526 Y-7.9708 F60.00
G01 X24.6482 Y-7.9995 F60.00
G01 X24.6474 Y-8.0085 F60.00
G01 X24.6461 Y-8.0375 F60.00
G01 X24.6461 Y-8.5648 F60.00
G01 X24.6474 Y-8.5915 F60.00
G01 X24.6482 Y-8.6005 F60.00
G01 X24.6526 Y-8.6292 F60.00
G01 X24.6596 Y-8.6574 F60.00
G01 X24.6622 Y-8.6660 F60.00
G01 X24.6721 Y-8.6934 F60.00
G01 X24.6864 Y-8.7237 F60.00
G01 X24.7037 Y-8.7525 F60.00
G01 X24.7237 Y-8.7794 F60.00
G01 X24.7462 Y-8.8043 F60.00
G01 X24.7711 Y-8.8268 F60.00
G01 X24.7980 Y-8.8468 F60.00
G01 X24.8248 Y-8.8630 F60.00
G01 X24.8571 Y-8.8784 F60.00
G01 X24.8845 Y-8.8883 F60.00
G01 X24.8909 Y-8.8904 F60.00
G01 X24.9169 Y-8.8969 F60.00
G01 X24.9257 Y-8.8987 F60.00
G01 X24.9548 Y-8.9028 F60.00
G01 X24.9857 Y-8.9044 F60.00
G01 X25.0959 Y-8.9044 F60.00
G01 X25.0959 Y-9.3801 F60.00
G01 X24.7857 Y-9.3801 F60.00
G01 X24.7545 Y-9.3817 F60.00
G01 X24.7257 Y-9.3858 F60.00
G01 X24.7169 Y-9.3876 F60.00
G01 X24.6887 Y-9.3948 F60.00
G01 X24.6571 Y-9.4061 F60.00
G01 X24.6268 Y-9.4204 F60.00
G01 X24.5980 Y-9.4377 F60.00
G01 X24.5711 Y-9.4577 F60.00
G01 X24.5462 Y-9.4802 F60.00
G01 X24.5237 Y-9.5051 F60.00
G01 X24.5037 Y-9.5320 F60.00
G01 X24.4887 Y-9.5569 F60.00
G01 X24.4844 Y-9.5648 F60.00
G01 X24.4721 Y-9.5911 F60.00
G01 X24.4622 Y-9.6185 F60.00
G01 X24.4596 Y-9.6271 F60.00
G01 X24.4526 Y-9.6553 F60.00
G01 X24.4482 Y-9.6840 F60.00
G01 X24.4474 Y-9.6930 F60.00
G01 X24.4461 Y-9.7197 F60.00
G01 X24.4461 Y-10.3743 F60.00
G01 X24.4479 Y-10.4078 F60.00
G01 X24.4522 Y-10.4365 F60.00
G01 X24.4558 Y-10.4519 F60.00
G01 X24.1039 Y-10.4519 F60.00
G01 X24.1039 Y-10.4107 F60.00
G01 X24.1019 Y-10.3689 F60.00
G01 X24.0956 Y-10.3252 F60.00
G01 X24.0939 Y-10.3163 F60.00
G01 X24.0836 Y-10.2757 F60.00
G01 X24.0696 Y-10.2362 F60.00
G01 X24.0661 Y-10.2279 F60.00
G01 X24.0481 Y-10.1901 F60.00
G01 X24.0242 Y-10.1502 F60.00
G01 X23.9966 Y-10.1130 F60.00
G01 X23.9685 Y-10.0818 F60.00
G01 X23.9622 Y-10.0755 F60.00
G01 X23.9310 Y-10.0474 F60.00
G01 X23.8937 Y-10.0197 F60.00
G01 X23.8539 Y-9.9959 F60.00
G01 X23.8120 Y-9.9761 F60.00
G01 X23.7685 Y-9.9605 F60.00
G01 X23.7235 Y-9.9492 F60.00
G01 X23.6774 Y-9.9423 F60.00
G01 X23.6333 Y-9.9401 F60.00
G01 X22.8645 Y-9.9402 F60.00
G01 X22.8226 Y-9.9423 F60.00
G01 X22.7767 Y-9.9491 F60.00
G01 X22.7317 Y-9.9604 F60.00
G01 X22.6901 Y-9.9752 F60.00
G01 X22.6501 Y-9.9939 F60.00
G01 X22.6421 Y-9.9981 F60.00
G01 X22.6062 Y-10.0198 F60.00
G01 X22.5690 Y-10.0474 F60.00
G01 X22.5346 Y-10.0786 F60.00
G01 X22.5064 Y-10.1095 F60.00
G01 X22.5006 Y-10.1165 F60.00
G01 X22.4757 Y-10.1503 F60.00
G01 X22.4541 Y-10.1861 F60.00
G01 X22.4499 Y-10.1941 F60.00
G01 X22.4321 Y-10.2320 F60.00
G01 X22.4165 Y-10.2755 F60.00
G01 X22.4061 Y-10.3163 F60.00
G01 X22.4044 Y-10.3252 F60.00
G01 X22.3983 Y-10.3666 F60.00
G01 X22.3961 Y-10.4130 F60.00
G00 Z2.0000
G00 X24.2879 Y-9.6367
G01 F10.00
G01 Z-0.0500
G01 F60.00
G01 X24.2404 Y-9.7055 F60.00
G01 X24.2285 Y-9.7206 F60.00
G01 X24.2200 Y-9.7301 F60.00
G01 X24.2110 Y-9.7392 F60.00
G01 X24.2015 Y-9.7479 F60.00
G01 X24.1866 Y-9.7599 F60.00
G01 X24.1709 Y-9.7708 F60.00
G01 X24.1599 Y-9.7774 F60.00
G01 X24.1486 Y-9.7835 F60.00
G01 X24.1312 Y-9.7915 F60.00
G01 X24.0609 Y-9.8206 F60.00
G01 X24.0432 Y-9.8268 F60.00
G01 X24.0311 Y-9.8302 F60.00
G01 X24.0189 Y-9.8329 F60.00
G01 X24.0066 Y-9.8351 F60.00
G01 X23.9942 Y-9.8367 F60.00
G01 X23.9817 Y-9.8377 F60.00
G01 X23.9692 Y-9.8380 F60.00
G01 X23.9505 Y-9.8375 F60.00
G01 X23.8985 Y-9.8338 F60.00
G01 X23.9320 Y-9.8499 F60.00
G01 X23.9430 Y-9.8562 F60.00
G01 X23.9803 Y-9.8786 F60.00
G01 X23.9960 Y-9.8894 F60.00
G01 X24.0311 Y-9.9155 F60.00
G01 X24.0456 Y-9.9277 F60.00
G01 X24.0825 Y-9.9615 F60.00
G01 X24.1163 Y-9.9984 F60.00
G01 X24.1285 Y-10.0129 F60.00
G01 X24.1583 Y-10.0531 F60.00
G01 X24.1686 Y-10.0690 F60.00
G01 X24.1941 Y-10.1120 F60.00
G01 X24.2157 Y-10.1571 F60.00
G01 X24.2232 Y-10.1745 F60.00
G01 X24.2401 Y-10.2216 F60.00
G01 X24.2453 Y-10.2398 F60.00
G01 X24.2568 Y-10.2864 F60.00
G01 X24.2805 Y-10.2864 F60.00
G01 X24.2805 Y-9.7220 F60.00
G01 X24.2809 Y-9.7094 F60.00
G01 X24.2830 Y-9.6723 F60.00
G01 X24.2879 Y-9.6367 F60.00
G00 Z2.0000
G00 X24.5999 Y-8.8894
G01 F10.00
G01 Z-0.0500
G01 F60.00
G01 X24.6215 Y-8.9685 F60.00
G01 X24.6243 Y-8.9810 F60.00
G01 X24.6264 Y-8.9936 F60.00
G01 X24.6284 Y-9.0126 F60.00
G01 X24.6290 Y-9.0318 F60.00
G01 X24.6282 Y-9.0510 F60.00
G01 X24.6269 Y-9.0637 F60.00
G01 X24.6249 Y-9.0763 F60.00
G01 X24.6223 Y-9.0888 F60.00
G01 X24.6191 Y-9.1012 F60.00
G01 X24.5963 Y-9.1740 F60.00
G01 X24.5900 Y-9.1918 F60.00
G01 X24.5823 Y-9.2092 F60.00
G01 X24.5766 Y-9.2204 F60.00
G01 X24.5702 Y-9.2313 F60.00
G01 X24.5597 Y-9.2471 F60.00
G01 X24.5521 Y-9.2572 F60.00
G01 X24.5440 Y-9.2669 F60.00
G01 X24.5234 Y-9.2893 F60.00
G01 X24.5432 Y-9.2775 F60.00
G01 X24.5544 Y-9.2716 F60.00
G01 X24.5880 Y-9.2557 F60.00
G01 X24.5997 Y-9.2508 F60.00
G01 X24.6347 Y-9.2383 F60.00
G01 X24.6468 Y-9.2346 F60.00
G01 X24.6828 Y-9.2256 F60.00
G01 X24.6952 Y-9.2231 F60.00
G01 X24.7383 Y-9.2170 F60.00
G01 X24.7817 Y-9.2146 F60.00
G01 X24.9304 Y-9.2145 F60.00
G01 X24.9304 Y-9.0666 F60.00
G01 X24.8890 Y-9.0602 F60.00
G01 X24.8767 Y-9.0574 F60.00
G01 X24.8407 Y-9.0481 F60.00
G01 X24.8056 Y-9.0359 F60.00
G01 X24.7938 Y-9.0313 F60.00
G01 X24.7601 Y-9.0157 F60.00
G01 X24.7488 Y-9.0100 F60.00
G01 X24.7378 Y-9.0038 F60.00
G01 X24.7061 Y-8.9844 F60.00
G01 X24.6760 Y-8.9625 F60.00
G01 X24.6661 Y-8.9548 F60.00
G01 X24.6565 Y-8.9465 F60.00
G01 X24.6292 Y-8.9213 F60.00
G01 X24.5999 Y-8.8894 F60.00
G00 Z2.0000
G00 X27.1960 Y-9.9906
G01 F10.00
G01 Z-0.0500
G01 F60.00
G01 X27.2078 Y-9.9912 F60.00
G01 X27.2078 Y-10.5704 F60.00
G01 X27.1833 Y-10.5741 F60.00
G01 X27.1507 Y-10.5823 F60.00
G01 X27.1191 Y-10.5936 F60.00
G01 X27.0928 Y-10.6059 F60.00
G01 X27.0849 Y-10.6102 F60.00
G01 X27.0619 Y-10.6239 F60.00
G01 X27.0563 Y-10.6278 F60.00
G01 X27.0331 Y-10.6452 F60.00
G01 X27.0082 Y-10.6677 F60.00
G01 X26.9857 Y-10.6926 F60.00
G01 X26.9683 Y-10.7158 F60.00
G01 X26.9644 Y-10.7214 F60.00
G01 X26.9507 Y-10.7444 F60.00
G01 X26.9464 Y-10.7523 F60.00
G01 X26.9341 Y-10.7786 F60.00
G01 X26.9228 Y-10.8102 F60.00
G01 X26.9146 Y-10.8428 F60.00
G01 X26.9102 Y-10.8715 F60.00
G01 X26.9094 Y-10.8805 F60.00
G01 X26.9081 Y-10.9095 F60.00
G01 X26.9081 Y-11.4345 F60.00
G01 X26.9095 Y-11.4658 F60.00
G01 X26.9146 Y-11.5012 F60.00
G01 X26.9216 Y-11.5294 F60.00
G01 X26.9242 Y-11.5380 F60.00
G01 X26.9341 Y-11.5654 F60.00
G01 X26.9464 Y-11.5917 F60.00
G01 X26.9507 Y-11.5996 F60.00
G01 X26.9644 Y-11.6226 F60.00
G01 X26.9857 Y-11.6514 F60.00
G01 X27.0082 Y-11.6763 F60.00
G01 X27.0331 Y-11.6988 F60.00
G01 X27.0563 Y-11.7162 F60.00
G01 X27.0638 Y-11.7212 F60.00
G01 X27.0868 Y-11.7350 F60.00
G01 X27.0928 Y-11.7381 F60.00
G01 X27.1191 Y-11.7504 F60.00
