(G-CODE GENERATED BY FLATCAM v8.994 - www.flatcam.org - Version Date: 2020/11/7)

(Name: RF_PA_ONLY.drl_cnc)
(Type: G-code from Geometry)
(Units: MM)

(Created on Friday, 01 December 2023 at 19:43)

(This preprocessor is used with a motion controller loaded with GRBL firmware.)
(It is configured to be compatible with almost any version of GRBL firmware.)


(TOOLS DIAMETER: )
(Tool: 1 -> Dia: 0.4)
(Tool: 2 -> Dia: 0.8)
(Tool: 3 -> Dia: 1.0)
(Tool: 4 -> Dia: 1.1)
(Tool: 5 -> Dia: 1.3)
(Tool: 6 -> Dia: 1.7)
(Tool: 7 -> Dia: 1.9)
(Tool: 8 -> Dia: 3.2)
(Tool: 9 -> Dia: 3.5)

(FEEDRATE Z: )
(Tool: 1 -> Feedrate: 30.0)
(Tool: 2 -> Feedrate: 30.0)
(Tool: 3 -> Feedrate: 30.0)
(Tool: 4 -> Feedrate: 30.0)
(Tool: 5 -> Feedrate: 30.0)
(Tool: 6 -> Feedrate: 30.0)
(Tool: 7 -> Feedrate: 30.0)
(Tool: 8 -> Feedrate: 30.0)
(Tool: 9 -> Feedrate: 30.0)

(FEEDRATE RAPIDS: )
(Tool: 1 -> Feedrate Rapids: 1500)
(Tool: 2 -> Feedrate Rapids: 1500)
(Tool: 3 -> Feedrate Rapids: 1500)
(Tool: 4 -> Feedrate Rapids: 1500)
(Tool: 5 -> Feedrate Rapids: 1500)
(Tool: 6 -> Feedrate Rapids: 1500)
(Tool: 7 -> Feedrate Rapids: 1500)
(Tool: 8 -> Feedrate Rapids: 1500)
(Tool: 9 -> Feedrate Rapids: 1500)

(Z_CUT: )
(Tool: 1 -> Z_Cut: -1.8)
(Tool: 2 -> Z_Cut: -1.8)
(Tool: 3 -> Z_Cut: -1.8)
(Tool: 4 -> Z_Cut: -1.8)
(Tool: 5 -> Z_Cut: -1.8)
(Tool: 6 -> Z_Cut: -1.8)
(Tool: 7 -> Z_Cut: -1.8)
(Tool: 8 -> Z_Cut: -1.8)
(Tool: 9 -> Z_Cut: -1.8)

(Tools Offset: )
(Tool: 1 -> Offset Z: 0.0)

(Z_MOVE: )
(Tool: 1 -> Z_Move: 2)
(Tool: 2 -> Z_Move: 2)
(Tool: 3 -> Z_Move: 2)
(Tool: 4 -> Z_Move: 2)
(Tool: 5 -> Z_Move: 2)
(Tool: 6 -> Z_Move: 2)
(Tool: 7 -> Z_Move: 2)
(Tool: 8 -> Z_Move: 2)
(Tool: 9 -> Z_Move: 2)

(Z Toolchange: 25.0 mm)
(X,Y Toolchange: 0.0000, 0.0000 mm)
(Z Start: None mm)
(Z End: 0.5 mm)
(X,Y End: None mm)
(Steps per circle: 64)
(Steps per circle: 64)
(Preprocessor Excellon: GRBL_11_no_M6)

(X range:    1.0350 ...   99.2000  mm)
(Y range:  -59.4000 ...   -0.3000  mm)

(Spindle Speed: 12000 RPM)
G21
G90
G17
G94


G01 F30.00

M5             
G00 Z25.0000
G00 X0.0000 Y0.0000                
T1
(MSG, Change to Tool Dia = 0.4000 ||| Total drills for tool T1 = 104)
M0
G00 Z25.0000
        
G01 F30.00
M03 S12000
G00 X2.5900 Y-12.3800
G01 Z-1.8000
G01 Z0
G00 Z2.0000
G00 X7.5000 Y-24.5000
G01 Z-1.8000
G01 Z0
G00 Z2.0000
G00 X7.5000 Y-31.0000
G01 Z-1.8000
G01 Z0
G00 Z2.0000
G00 X7.5000 Y-36.0000
G01 Z-1.8000
G01 Z0
G00 Z2.0000
G00 X7.5000 Y-42.5000
G01 Z-1.8000
G01 Z0
G00 Z2.0000
G00 X15.5000 Y-39.5000
G01 Z-1.8000
G01 Z0
G00 Z2.0000
G00 X15.5000 Y-42.5000
G01 Z-1.8000
G01 Z0
G00 Z2.0000
G00 X15.5000 Y-45.0000
G01 Z-1.8000
G01 Z0
G00 Z2.0000
G00 X15.5000 Y-47.5000
G01 Z-1.8000
G01 Z0
G00 Z2.0000
G00 X18.5000 Y-52.0000
G01 Z-1.8000
G01 Z0
G00 Z2.0000
G00 X15.5000 Y-52.0000
G01 Z-1.8000
G01 Z0
G00 Z2.0000
G00 X7.5000 Y-52.0000
G01 Z-1.8000
G01 Z0
G00 Z2.0000
G00 X7.5000 Y-59.0000
G01 Z-1.8000
G01 Z0
G00 Z2.0000
G00 X14.5000 Y-59.0000
G01 Z-1.8000
G01 Z0
G00 Z2.0000
G00 X24.0000 Y-55.0000
G01 Z-1.8000
G01 Z0
G00 Z2.0000
G00 X24.0000 Y-52.0000
G01 Z-1.8000
G01 Z0
G00 Z2.0000
G00 X27.0000 Y-52.0000
G01 Z-1.8000
G01 Z0
G00 Z2.0000
G00 X30.0000 Y-55.0000
G01 Z-1.8000
G01 Z0
G00 Z2.0000
G00 X30.0000 Y-52.0000
G01 Z-1.8000
G01 Z0
G00 Z2.0000
G00 X28.5000 Y-47.5000
G01 Z-1.8000
G01 Z0
G00 Z2.0000
G00 X32.0000 Y-45.0000
G01 Z-1.8000
G01 Z0
G00 Z2.0000
G00 X41.5000 Y-48.0000
G01 Z-1.8000
G01 Z0
G00 Z2.0000
G00 X40.0000 Y-50.5000
G01 Z-1.8000
G01 Z0
G00 Z2.0000
G00 X39.0000 Y-50.5000
G01 Z-1.8000
G01 Z0
G00 Z2.0000
G00 X37.5000 Y-55.0000
G01 Z-1.8000
G01 Z0
G00 Z2.0000
G00 X42.0000 Y-55.0000
G01 Z-1.8000
G01 Z0
G00 Z2.0000
G00 X47.0000 Y-55.0000
G01 Z-1.8000
G01 Z0
G00 Z2.0000
G00 X48.5000 Y-45.5000
G01 Z-1.8000
G01 Z0
G00 Z2.0000
G00 X50.5000 Y-45.5000
G01 Z-1.8000
G01 Z0
G00 Z2.0000
G00 X58.5000 Y-44.5000
G01 Z-1.8000
G01 Z0
G00 Z2.0000
G00 X65.5000 Y-44.5000
G01 Z-1.8000
G01 Z0
G00 Z2.0000
G00 X71.5000 Y-44.5000
G01 Z-1.8000
G01 Z0
G00 Z2.0000
G00 X87.5000 Y-22.5000
G01 Z-1.8000
G01 Z0
G00 Z2.0000
G00 X90.0400 Y-21.2700
G01 Z-1.8000
G01 Z0
G00 Z2.0000
G00 X91.5000 Y-22.5000
G01 Z-1.8000
G01 Z0
G00 Z2.0000
G00 X93.0000 Y-22.5000
G01 Z-1.8000
G01 Z0
G00 Z2.0000
G00 X94.5000 Y-22.5000
G01 Z-1.8000
G01 Z0
G00 Z2.0000
G00 X96.0000 Y-22.5000
G01 Z-1.8000
G01 Z0
G00 Z2.0000
G00 X97.5000 Y-22.5000
G01 Z-1.8000
G01 Z0
G00 Z2.0000
G00 X99.0000 Y-22.5000
G01 Z-1.8000
G01 Z0
G00 Z2.0000
G00 X99.0000 Y-28.0000
G01 Z-1.8000
G01 Z0
G00 Z2.0000
G00 X93.5000 Y-21.2700
G01 Z-1.8000
G01 Z0
G00 Z2.0000
G00 X91.2700 Y-12.1500
G01 Z-1.8000
G01 Z0
G00 Z2.0000
G00 X89.3500 Y-12.1400
G01 Z-1.8000
G01 Z0
G00 Z2.0000
G00 X92.0000 Y-10.0000
G01 Z-1.8000
G01 Z0
G00 Z2.0000
G00 X92.0000 Y-7.0000
G01 Z-1.8000
G01 Z0
G00 Z2.0000
G00 X92.0000 Y-4.0000
G01 Z-1.8000
G01 Z0
G00 Z2.0000
G00 X92.0000 Y-1.0000
G01 Z-1.8000
G01 Z0
G00 Z2.0000
G00 X87.5000 Y-3.5000
G01 Z-1.8000
G01 Z0
G00 Z2.0000
G00 X83.5000 Y-3.5000
G01 Z-1.8000
G01 Z0
G00 Z2.0000
G00 X81.0000 Y-1.0000
G01 Z-1.8000
G01 Z0
G00 Z2.0000
G00 X78.5000 Y-9.5000
G01 Z-1.8000
G01 Z0
G00 Z2.0000
G00 X72.2800 Y-11.1900
G01 Z-1.8000
G01 Z0
G00 Z2.0000
G00 X72.2900 Y-9.1300
G01 Z-1.8000
G01 Z0
G00 Z2.0000
G00 X68.5000 Y-7.0000
G01 Z-1.8000
G01 Z0
G00 Z2.0000
G00 X68.4900 Y-4.6200
G01 Z-1.8000
G01 Z0
G00 Z2.0000
G00 X62.5000 Y-11.0000
G01 Z-1.8000
G01 Z0
G00 Z2.0000
G00 X48.5000 Y-10.0000
G01 Z-1.8000
G01 Z0
G00 Z2.0000
G00 X42.5000 Y-9.5000
G01 Z-1.8000
G01 Z0
G00 Z2.0000
G00 X36.5000 Y-9.0000
G01 Z-1.8000
G01 Z0
G00 Z2.0000
G00 X41.0000 Y-12.0000
G01 Z-1.8000
G01 Z0
G00 Z2.0000
G00 X43.7260 Y-16.2990
G01 Z-1.8000
G01 Z0
G00 Z2.0000
G00 X46.5000 Y-17.0000
G01 Z-1.8000
G01 Z0
G00 Z2.0000
G00 X41.5000 Y-23.0000
G01 Z-1.8000
G01 Z0
G00 Z2.0000
G00 X41.5000 Y-25.5000
G01 Z-1.8000
G01 Z0
G00 Z2.0000
G00 X41.5000 Y-28.0000
G01 Z-1.8000
G01 Z0
G00 Z2.0000
G00 X41.5000 Y-30.5000
G01 Z-1.8000
G01 Z0
G00 Z2.0000
G00 X41.5000 Y-33.0000
G01 Z-1.8000
G01 Z0
G00 Z2.0000
G00 X41.5000 Y-35.0000
G01 Z-1.8000
G01 Z0
G00 Z2.0000
G00 X41.5000 Y-37.5000
G01 Z-1.8000
G01 Z0
G00 Z2.0000
G00 X43.7260 Y-38.0160
G01 Z-1.8000
G01 Z0
G00 Z2.0000
G00 X46.5000 Y-34.0000
G01 Z-1.8000
G01 Z0
G00 Z2.0000
G00 X46.5000 Y-30.0000
G01 Z-1.8000
G01 Z0
G00 Z2.0000
G00 X52.0000 Y-26.0000
G01 Z-1.8000
G01 Z0
G00 Z2.0000
G00 X52.0000 Y-37.0000
G01 Z-1.8000
G01 Z0
G00 Z2.0000
G00 X46.5000 Y-39.5000
G01 Z-1.8000
G01 Z0
G00 Z2.0000
G00 X41.5000 Y-44.0000
G01 Z-1.8000
G01 Z0
G00 Z2.0000
G00 X36.0000 Y-42.5000
G01 Z-1.8000
G01 Z0
G00 Z2.0000
G00 X34.0000 Y-42.5000
G01 Z-1.8000
G01 Z0
G00 Z2.0000
G00 X32.0000 Y-42.5000
G01 Z-1.8000
G01 Z0
G00 Z2.0000
G00 X28.5000 Y-45.0000
G01 Z-1.8000
G01 Z0
G00 Z2.0000
G00 X24.0000 Y-47.5000
G01 Z-1.8000
G01 Z0
G00 Z2.0000
G00 X24.0000 Y-45.0000
G01 Z-1.8000
G01 Z0
G00 Z2.0000
G00 X19.2150 Y-18.4580
G01 Z-1.8000
G01 Z0
G00 Z2.0000
G00 X17.5000 Y-13.0000
G01 Z-1.8000
G01 Z0
G00 Z2.0000
G00 X19.5000 Y-8.5000
G01 Z-1.8000
G01 Z0
G00 Z2.0000
G00 X22.0000 Y-8.5000
G01 Z-1.8000
G01 Z0
G00 Z2.0000
G00 X22.0000 Y-5.5000
G01 Z-1.8000
G01 Z0
G00 Z2.0000
G00 X24.5000 Y-5.5000
G01 Z-1.8000
G01 Z0
G00 Z2.0000
G00 X33.5000 Y-0.5000
G01 Z-1.8000
G01 Z0
G00 Z2.0000
G00 X25.5000 Y-0.5000
G01 Z-1.8000
G01 Z0
G00 Z2.0000
G00 X19.0000 Y-1.0000
G01 Z-1.8000
G01 Z0
G00 Z2.0000
G00 X19.5000 Y-5.5000
G01 Z-1.8000
G01 Z0
G00 Z2.0000
G00 X16.5000 Y-5.5000
G01 Z-1.8000
G01 Z0
G00 Z2.0000
G00 X16.5000 Y-8.5000
G01 Z-1.8000
G01 Z0
G00 Z2.0000
G00 X14.1350 Y-8.0440
G01 Z-1.8000
G01 Z0
G00 Z2.0000
G00 X12.6110 Y-11.4980
G01 Z-1.8000
G01 Z0
G00 Z2.0000
G00 X10.9600 Y-7.1550
G01 Z-1.8000
G01 Z0
G00 Z2.0000
G00 X12.6110 Y-5.7580
G01 Z-1.8000
G01 Z0
G00 Z2.0000
G00 X10.9600 Y-4.1070
G01 Z-1.8000
G01 Z0
G00 Z2.0000
G00 X9.0000 Y-1.0000
G01 Z-1.8000
G01 Z0
G00 Z2.0000
G00 X9.3090 Y-5.7580
G01 Z-1.8000
G01 Z0
G00 Z2.0000
G00 X7.9120 Y-7.2820
G01 Z-1.8000
G01 Z0
G00 Z2.0000
G00 X7.9120 Y-8.5520
G01 Z-1.8000
G01 Z0
G00 Z2.0000
M05
G00 Z0.50


