(G-CODE GENERATED BY FLATCAM v8.994 - www.flatcam.org - Version Date: 2020/11/7)

(Name: RF_PA_ONLY.drl_cnc)
(Type: G-code from Geometry)
(Units: MM)

(Created on Saturday, 02 December 2023 at 14:09)

(This preprocessor is used with a motion controller loaded with GRBL firmware.)
(It is configured to be compatible with almost any version of GRBL firmware.)


(TOOLS DIAMETER: )
(Tool: 1 -> Dia: 0.4)
(Tool: 2 -> Dia: 0.8)
(Tool: 3 -> Dia: 1.0)
(Tool: 4 -> Dia: 1.1)
(Tool: 5 -> Dia: 1.3)
(Tool: 6 -> Dia: 1.7)
(Tool: 7 -> Dia: 1.9)
(Tool: 8 -> Dia: 3.2)
(Tool: 9 -> Dia: 3.5)

(FEEDRATE Z: )
(Tool: 1 -> Feedrate: 30.0)
(Tool: 2 -> Feedrate: 30.0)
(Tool: 3 -> Feedrate: 30.0)
(Tool: 4 -> Feedrate: 30.0)
(Tool: 5 -> Feedrate: 30.0)
(Tool: 6 -> Feedrate: 30.0)
(Tool: 7 -> Feedrate: 30.0)
(Tool: 8 -> Feedrate: 30.0)
(Tool: 9 -> Feedrate: 30.0)

(FEEDRATE RAPIDS: )
(Tool: 1 -> Feedrate Rapids: 1500)
(Tool: 2 -> Feedrate Rapids: 1500)
(Tool: 3 -> Feedrate Rapids: 1500)
(Tool: 4 -> Feedrate Rapids: 1500)
(Tool: 5 -> Feedrate Rapids: 1500)
(Tool: 6 -> Feedrate Rapids: 1500)
(Tool: 7 -> Feedrate Rapids: 1500)
(Tool: 8 -> Feedrate Rapids: 1500)
(Tool: 9 -> Feedrate Rapids: 1500)

(Z_CUT: )
(Tool: 1 -> Z_Cut: -1.8)
(Tool: 2 -> Z_Cut: -1.8)
(Tool: 3 -> Z_Cut: -1.8)
(Tool: 4 -> Z_Cut: -1.8)
(Tool: 5 -> Z_Cut: -1.8)
(Tool: 6 -> Z_Cut: -1.8)
(Tool: 7 -> Z_Cut: -1.8)
(Tool: 8 -> Z_Cut: -1.8)
(Tool: 9 -> Z_Cut: -1.8)

(Tools Offset: )
(Tool: 6 -> Offset Z: 0.0)

(Z_MOVE: )
(Tool: 1 -> Z_Move: 2)
(Tool: 2 -> Z_Move: 2)
(Tool: 3 -> Z_Move: 2)
(Tool: 4 -> Z_Move: 2)
(Tool: 5 -> Z_Move: 2)
(Tool: 6 -> Z_Move: 2)
(Tool: 7 -> Z_Move: 2)
(Tool: 8 -> Z_Move: 2)
(Tool: 9 -> Z_Move: 2)

(Z Toolchange: 25.0 mm)
(X,Y Toolchange: 0.0000, 0.0000 mm)
(Z Start: 10 mm)
(Z End: 25.0 mm)
(X,Y End: None mm)
(Steps per circle: 64)
(Steps per circle: 64)
(Preprocessor Excellon: GRBL_11_no_M6)

(X range:    1.0350 ...   99.2000  mm)
(Y range:  -59.4000 ...   -0.3000  mm)

(Spindle Speed: 12000 RPM)
G21
G90
G17
G94


G01 F30.00

M5             
G00 Z25.0000
G00 X0.0000 Y0.0000                
T6
(MSG, Change to Tool Dia = 1.7000 ||| Total drills for tool T6 = 53)
M0
G00 Z25.0000
        
G01 F30.00
M03 S12000
G00 X55.8000 Y-22.0500
G01 Z-1.8000
G01 Z0
G00 Z2.0000
G00 X55.8000 Y-22.7300
G01 Z-1.8000
G01 Z0
G00 Z2.0000
G00 X55.8000 Y-23.4100
G01 Z-1.8000
G01 Z0
G00 Z2.0000
G00 X55.8000 Y-24.0900
G01 Z-1.8000
G01 Z0
G00 Z2.0000
G00 X55.8000 Y-24.7700
G01 Z-1.8000
G01 Z0
G00 Z2.0000
G00 X55.8000 Y-25.4500
G01 Z-1.8000
G01 Z0
G00 Z2.0000
G00 X55.8000 Y-26.1300
G01 Z-1.8000
G01 Z0
G00 Z2.0000
G00 X55.8000 Y-26.8100
G01 Z-1.8000
G01 Z0
G00 Z2.0000
G00 X55.8000 Y-27.4900
G01 Z-1.8000
G01 Z0
G00 Z2.0000
G00 X55.8000 Y-28.1700
G01 Z-1.8000
G01 Z0
G00 Z2.0000
G00 X55.8000 Y-28.8500
G01 Z-1.8000
G01 Z0
G00 Z2.0000
G00 X55.8000 Y-29.5300
G01 Z-1.8000
G01 Z0
G00 Z2.0000
G00 X55.8000 Y-30.2100
G01 Z-1.8000
G01 Z0
G00 Z2.0000
G00 X55.8000 Y-32.0500
G01 Z-1.8000
G01 Z0
G00 Z2.0000
G00 X55.8000 Y-32.7300
G01 Z-1.8000
G01 Z0
G00 Z2.0000
G00 X55.8000 Y-33.4100
G01 Z-1.8000
G01 Z0
G00 Z2.0000
G00 X55.8000 Y-34.0900
G01 Z-1.8000
G01 Z0
G00 Z2.0000
G00 X55.8000 Y-34.7700
G01 Z-1.8000
G01 Z0
G00 Z2.0000
G00 X55.8000 Y-35.4500
G01 Z-1.8000
G01 Z0
G00 Z2.0000
G00 X55.8000 Y-36.1300
G01 Z-1.8000
G01 Z0
G00 Z2.0000
G00 X55.8000 Y-36.8100
G01 Z-1.8000
G01 Z0
G00 Z2.0000
G00 X55.8000 Y-37.4900
G01 Z-1.8000
G01 Z0
G00 Z2.0000
G00 X55.8000 Y-38.1700
G01 Z-1.8000
G01 Z0
G00 Z2.0000
G00 X55.8000 Y-38.8500
G01 Z-1.8000
G01 Z0
G00 Z2.0000
G00 X55.8000 Y-39.5300
G01 Z-1.8000
G01 Z0
G00 Z2.0000
G00 X55.8000 Y-40.2100
G01 Z-1.8000
G01 Z0
G00 Z2.0000
G00 X83.8000 Y-39.7300
G01 Z-1.8000
G01 Z0
G00 Z2.0000
G00 X83.8000 Y-39.0500
G01 Z-1.8000
G01 Z0
G00 Z2.0000
G00 X83.8000 Y-38.3700
G01 Z-1.8000
G01 Z0
G00 Z2.0000
G00 X83.8000 Y-37.6900
G01 Z-1.8000
G01 Z0
G00 Z2.0000
G00 X83.8000 Y-37.0100
G01 Z-1.8000
G01 Z0
G00 Z2.0000
G00 X83.8000 Y-36.3300
G01 Z-1.8000
G01 Z0
G00 Z2.0000
G00 X83.8000 Y-35.6500
G01 Z-1.8000
G01 Z0
G00 Z2.0000
G00 X83.8000 Y-34.9700
G01 Z-1.8000
G01 Z0
G00 Z2.0000
G00 X83.8000 Y-34.2900
G01 Z-1.8000
G01 Z0
G00 Z2.0000
G00 X83.8000 Y-33.6100
G01 Z-1.8000
G01 Z0
G00 Z2.0000
G00 X83.8000 Y-32.9300
G01 Z-1.8000
G01 Z0
G00 Z2.0000
G00 X83.8000 Y-32.2500
G01 Z-1.8000
G01 Z0
G00 Z2.0000
G00 X83.8000 Y-31.5700
G01 Z-1.8000
G01 Z0
G00 Z2.0000
G00 X83.8000 Y-30.8900
G01 Z-1.8000
G01 Z0
G00 Z2.0000
G00 X83.8000 Y-30.2100
G01 Z-1.8000
G01 Z0
G00 Z2.0000
G00 X83.8000 Y-29.5300
G01 Z-1.8000
G01 Z0
G00 Z2.0000
G00 X83.8000 Y-28.8500
G01 Z-1.8000
G01 Z0
G00 Z2.0000
G00 X83.8000 Y-28.1700
G01 Z-1.8000
G01 Z0
G00 Z2.0000
G00 X83.8000 Y-27.4900
G01 Z-1.8000
G01 Z0
G00 Z2.0000
G00 X83.8000 Y-26.8100
G01 Z-1.8000
G01 Z0
G00 Z2.0000
G00 X83.8000 Y-26.1300
G01 Z-1.8000
G01 Z0
G00 Z2.0000
G00 X83.8000 Y-25.4500
G01 Z-1.8000
G01 Z0
G00 Z2.0000
G00 X83.8000 Y-24.7700
G01 Z-1.8000
G01 Z0
G00 Z2.0000
G00 X83.8000 Y-24.0900
G01 Z-1.8000
G01 Z0
G00 Z2.0000
G00 X83.8000 Y-23.4100
G01 Z-1.8000
G01 Z0
G00 Z2.0000
G00 X83.8000 Y-22.7300
G01 Z-1.8000
G01 Z0
G00 Z2.0000
G00 X83.8000 Y-22.0500
G01 Z-1.8000
G01 Z0
G00 Z2.0000
M05
G00 Z25.00


