(G-CODE GENERATED BY FLATCAM v8.994 - www.flatcam.org - Version Date: 2020/11/7)

(Name: CrystalFilterLarge-F_Cu.gbr_iso_combined_cnc)
(Type: G-code from Geometry)
(Units: MM)

(Created on Sunday, 22 October 2023 at 19:46)

(This preprocessor is used with a motion controller loaded with GRBL firmware.)
(It is configured to be compatible with almost any version of GRBL firmware.)

(TOOL DIAMETER: 0.2176 mm)
(Feedrate_XY: 60.0 mm/min)
(Feedrate_Z: 60.0 mm/min)
(Feedrate rapids 1500.0 mm/min)

(Z_Cut: -0.0499 mm)
(DepthPerCut: 0.8 mm <=>1 passes)
(Z_Move: 2.0 mm)
(Z Start: None mm)
(Z End: 15.0 mm)
(X,Y End: None mm)
(Steps per circle: 64)
(Steps per circle: 64)
(Preprocessor Geometry: GRBL_11_no_M6)

(X range:   -0.1083 ...   72.1083  mm)
(Y range:  -20.1083 ...    0.1083  mm)

(Spindle Speed: 5000.0 RPM)
G21
G90
G17
G94


G01 F60.00

M5             
G00 Z15.0000
G00 X0.0000 Y0.0000                
T3
(MSG, Change to Tool Dia = 0.2176)
M0
G00 Z15.0000
        
G00 Z2.0000
M03 S5000.0
G4 P1.0
G01 F60.00
G00 X0.2589 Y-5.1976
G01 F60.00
G01 Z-0.0499
G01 F60.00
G01 X0.2695 Y-5.2045 F60.00
G01 X0.2780 Y-5.2112 F60.00
G01 X0.2857 Y-5.2188 F60.00
G01 X0.2926 Y-5.2271 F60.00
G01 X0.2972 Y-5.2337 F60.00
G01 X0.3364 Y-5.2947 F60.00
G01 X0.3414 Y-5.3039 F60.00
G01 X0.3446 Y-5.3111 F60.00
G01 X0.3472 Y-5.3185 F60.00
G01 X0.3493 Y-5.3261 F60.00
G01 X0.3554 Y-5.3580 F60.00
G01 X0.3595 Y-5.4011 F60.00
G01 X0.4117 Y-5.5961 F60.00
G01 X0.4970 Y-5.7791 F60.00
G01 X0.6128 Y-5.9444 F60.00
G01 X0.7556 Y-6.0872 F60.00
G01 X0.9209 Y-6.2030 F60.00
G01 X1.1039 Y-6.2883 F60.00
G01 X1.2989 Y-6.3405 F60.00
G01 X1.5000 Y-6.3581 F60.00
G01 X1.7011 Y-6.3405 F60.00
G01 X1.8961 Y-6.2883 F60.00
G01 X1.9131 Y-6.2806 F60.00
G01 X1.9255 Y-6.2767 F60.00
G01 X1.9356 Y-6.2747 F60.00
G01 X2.0047 Y-6.2642 F60.00
G01 X2.0154 Y-6.2631 F60.00
G01 X2.0263 Y-6.2631 F60.00
G01 X2.0370 Y-6.2641 F60.00
G01 X2.0476 Y-6.2663 F60.00
G01 X2.0579 Y-6.2694 F60.00
G01 X2.0654 Y-6.2724 F60.00
G01 X2.1292 Y-6.3010 F60.00
G01 X2.1389 Y-6.3059 F60.00
G01 X2.1459 Y-6.3102 F60.00
G01 X2.1524 Y-6.3151 F60.00
G01 X2.1690 Y-6.3300 F60.00
G01 X3.4605 Y-7.6216 F60.00
G01 X3.5162 Y-7.6801 F60.00
G01 X3.5608 Y-7.7113 F60.00
G01 X3.6068 Y-7.7484 F60.00
G01 X3.6334 Y-7.7626 F60.00
G01 X3.6440 Y-7.7691 F60.00
G01 X3.6650 Y-7.7837 F60.00
G01 X3.7192 Y-7.8072 F60.00
G01 X3.7675 Y-7.8323 F60.00
G01 X3.7965 Y-7.8409 F60.00
G01 X3.8082 Y-7.8451 F60.00
G01 X3.8317 Y-7.8552 F60.00
G01 X3.8895 Y-7.8673 F60.00
G01 X3.9419 Y-7.8822 F60.00
G01 X3.9720 Y-7.8848 F60.00
G01 X3.9843 Y-7.8866 F60.00
G01 X4.0093 Y-7.8917 F60.00
G01 X4.0684 Y-7.8920 F60.00
G01 X4.1227 Y-7.8960 F60.00
G01 X4.1481 Y-7.8928 F60.00
G01 X4.1674 Y-7.8917 F60.00
G01 X6.8342 Y-7.8917 F60.00
G01 X6.8471 Y-7.8925 F60.00
G01 X6.8599 Y-7.8948 F60.00
G01 X6.9319 Y-7.9158 F60.00
G01 X6.9395 Y-7.9183 F60.00
G01 X6.9469 Y-7.9214 F60.00
G01 X6.9540 Y-7.9250 F60.00
G01 X6.9609 Y-7.9292 F60.00
G01 X6.9674 Y-7.9338 F60.00
G01 X6.9902 Y-7.9521 F60.00
G01 X6.9988 Y-7.9599 F60.00
G01 X8.9649 Y-9.9259 F60.00
G01 X8.9719 Y-9.9336 F60.00
G01 X8.9766 Y-9.9398 F60.00
G01 X8.9822 Y-9.9485 F60.00
G01 X9.0193 Y-10.0167 F60.00
G01 X9.0225 Y-10.0240 F60.00
G01 X9.0252 Y-10.0314 F60.00
G01 X9.0279 Y-10.0416 F60.00
G01 X9.0292 Y-10.0494 F60.00
G01 X9.0324 Y-10.0945 F60.00
G01 X9.0325 Y-10.1054 F60.00
G01 X9.0219 Y-10.2280 F60.00
G01 X9.0393 Y-10.4270 F60.00
G01 X9.0911 Y-10.6200 F60.00
G01 X9.1755 Y-10.8010 F60.00
G01 X9.2901 Y-10.9647 F60.00
G01 X9.4313 Y-11.1059 F60.00
G01 X9.5950 Y-11.2205 F60.00
G01 X9.7760 Y-11.3049 F60.00
G01 X9.9690 Y-11.3567 F60.00
G01 X10.1680 Y-11.3741 F60.00
G01 X10.3670 Y-11.3567 F60.00
G01 X10.5600 Y-11.3049 F60.00
G01 X10.7410 Y-11.2205 F60.00
G01 X10.8270 Y-11.1603 F60.00
G01 X10.8336 Y-11.1563 F60.00
G01 X10.8405 Y-11.1527 F60.00
G01 X10.8525 Y-11.1478 F60.00
G01 X10.9214 Y-11.1247 F60.00
G01 X10.9348 Y-11.1214 F60.00
G01 X10.9486 Y-11.1199 F60.00
G01 X15.0926 Y-11.1197 F60.00
G01 X15.1055 Y-11.1205 F60.00
G01 X15.1132 Y-11.1217 F60.00
G01 X15.1207 Y-11.1234 F60.00
G01 X15.1929 Y-11.1446 F60.00
G01 X15.2058 Y-11.1497 F60.00
G01 X15.2156 Y-11.1549 F60.00
G01 X15.2243 Y-11.1606 F60.00
G01 X15.3100 Y-11.2205 F60.00
G01 X15.4910 Y-11.3049 F60.00
G01 X15.6840 Y-11.3567 F60.00
G01 X15.8830 Y-11.3741 F60.00
G01 X16.0820 Y-11.3567 F60.00
G01 X16.2750 Y-11.3049 F60.00
G01 X16.4560 Y-11.2205 F60.00
G01 X16.6197 Y-11.1059 F60.00
G01 X16.7609 Y-10.9647 F60.00
G01 X16.8755 Y-10.8010 F60.00
G01 X16.9599 Y-10.6200 F60.00
G01 X17.0117 Y-10.4270 F60.00
G01 X17.0131 Y-10.4106 F60.00
G01 X17.0291 Y-10.2280 F60.00
G01 X17.0117 Y-10.0290 F60.00
G01 X16.9599 Y-9.8360 F60.00
G01 X16.8755 Y-9.6550 F60.00
G01 X16.7609 Y-9.4913 F60.00
G01 X16.6197 Y-9.3501 F60.00
G01 X16.4560 Y-9.2355 F60.00
G01 X16.2750 Y-9.1511 F60.00
G01 X16.0820 Y-9.0993 F60.00
G01 X15.8830 Y-9.0819 F60.00
G01 X15.6840 Y-9.0993 F60.00
G01 X15.4910 Y-9.1511 F60.00
G01 X15.3100 Y-9.2355 F60.00
G01 X15.2240 Y-9.2957 F60.00
G01 X15.2174 Y-9.2997 F60.00
G01 X15.2105 Y-9.3033 F60.00
G01 X15.1985 Y-9.3082 F60.00
G01 X15.1296 Y-9.3313 F60.00
G01 X15.1162 Y-9.3346 F60.00
G01 X15.1024 Y-9.3361 F60.00
G01 X10.9938 Y-9.3363 F60.00
G01 X10.9809 Y-9.3355 F60.00
G01 X10.9732 Y-9.3343 F60.00
G01 X10.9656 Y-9.3326 F60.00
G01 X10.8961 Y-9.3122 F60.00
G01 X10.8835 Y-9.3077 F60.00
G01 X10.8716 Y-9.3016 F60.00
G01 X10.8627 Y-9.2957 F60.00
G01 X10.8377 Y-9.2758 F60.00
G01 X10.8291 Y-9.2680 F60.00
G01 X10.8196 Y-9.2580 F60.00
G01 X10.7855 Y-9.2184 F60.00
G01 X10.7653 Y-9.2027 F60.00
G01 X10.7509 Y-9.1898 F60.00
G01 X7.9395 Y-6.3785 F60.00
G01 X7.8838 Y-6.3199 F60.00
G01 X7.8392 Y-6.2888 F60.00
G01 X7.7932 Y-6.2516 F60.00
G01 X7.7666 Y-6.2374 F60.00
G01 X7.7560 Y-6.2309 F60.00
G01 X7.7350 Y-6.2163 F60.00
G01 X7.6850 Y-6.1948 F60.00
G01 X7.6325 Y-6.1676 F60.00
G01 X7.6079 Y-6.1606 F60.00
G01 X7.5961 Y-6.1565 F60.00
G01 X7.5683 Y-6.1448 F60.00
G01 X7.5105 Y-6.1327 F60.00
G01 X7.4581 Y-6.1178 F60.00
G01 X7.4326 Y-6.1158 F60.00
G01 X7.4203 Y-6.1142 F60.00
G01 X7.3907 Y-6.1083 F60.00
G01 X7.3363 Y-6.1082 F60.00
G01 X7.2773 Y-6.1040 F60.00
G01 X7.2519 Y-6.1072 F60.00
G01 X7.2326 Y-6.1083 F60.00
G01 X4.5658 Y-6.1083 F60.00
G01 X4.5529 Y-6.1075 F60.00
G01 X4.5401 Y-6.1052 F60.00
G01 X4.4630 Y-6.0826 F60.00
G01 X4.4555 Y-6.0797 F60.00
G01 X4.4483 Y-6.0762 F60.00
G01 X4.4369 Y-6.0693 F60.00
G01 X4.4098 Y-6.0479 F60.00
G01 X4.4012 Y-6.0401 F60.00
G01 X2.9395 Y-4.5785 F60.00
G01 X2.8838 Y-4.5199 F60.00
G01 X2.8392 Y-4.4888 F60.00
G01 X2.7932 Y-4.4516 F60.00
G01 X2.7666 Y-4.4374 F60.00
G01 X2.7560 Y-4.4309 F60.00
G01 X2.7350 Y-4.4163 F60.00
G01 X2.6850 Y-4.3948 F60.00
G01 X2.6325 Y-4.3676 F60.00
G01 X2.6079 Y-4.3606 F60.00
G01 X2.5961 Y-4.3565 F60.00
G01 X2.5683 Y-4.3448 F60.00
G01 X2.5105 Y-4.3327 F60.00
G01 X2.4581 Y-4.3178 F60.00
G01 X2.4326 Y-4.3158 F60.00
G01 X2.4203 Y-4.3142 F60.00
G01 X2.3907 Y-4.3083 F60.00
G01 X2.3363 Y-4.3082 F60.00
G01 X2.2872 Y-4.3047 F60.00
G01 X2.2741 Y-4.3026 F60.00
G01 X2.2615 Y-4.2989 F60.00
G01 X2.1997 Y-4.2768 F60.00
G01 X2.1876 Y-4.2716 F60.00
G01 X2.1806 Y-4.2678 F60.00
G01 X2.1740 Y-4.2635 F60.00
G01 X2.0791 Y-4.1970 F60.00
G01 X1.8961 Y-4.1117 F60.00
G01 X1.7011 Y-4.0595 F60.00
G01 X1.5000 Y-4.0419 F60.00
G01 X1.2989 Y-4.0595 F60.00
G01 X1.1039 Y-4.1117 F60.00
G01 X0.9209 Y-4.1970 F60.00
G01 X0.7556 Y-4.3128 F60.00
G01 X0.6128 Y-4.4556 F60.00
G01 X0.4970 Y-4.6209 F60.00
G01 X0.4117 Y-4.8039 F60.00
G01 X0.3595 Y-4.9989 F60.00
G01 X0.3562 Y-5.0366 F60.00
G01 X0.3550 Y-5.0443 F60.00
G01 X0.3533 Y-5.0519 F60.00
G01 X0.3494 Y-5.0642 F60.00
G01 X0.3229 Y-5.1317 F60.00
G01 X0.3182 Y-5.1415 F60.00
G01 X0.3141 Y-5.1485 F60.00
G01 X0.3078 Y-5.1572 F60.00
G01 X0.3007 Y-5.1654 F60.00
G01 X0.2948 Y-5.1710 F60.00
G01 X0.2886 Y-5.1761 F60.00
G01 X0.2589 Y-5.1976 F60.00
G00 Z2.0000
G00 X2.0837 Y-5.8450
G01 F60.00
G01 Z-0.0499
G01 F60.00
G01 X3.6712 Y-7.4325 F60.00
G01 X3.7136 Y-7.4708 F60.00
G01 X3.7573 Y-7.5033 F60.00
G01 X3.7661 Y-7.5093 F60.00
G01 X3.8082 Y-7.5345 F60.00
G01 X3.8177 Y-7.5395 F60.00
G01 X3.8669 Y-7.5627 F60.00
G01 X3.9181 Y-7.5811 F60.00
G01 X3.9283 Y-7.5842 F60.00
G01 X3.9760 Y-7.5962 F60.00
G01 X3.9864 Y-7.5983 F60.00
G01 X4.0403 Y-7.6061 F60.00
G01 X4.1000 Y-7.6091 F60.00
G01 X7.0477 Y-7.6091 F60.00
G01 X9.3648 Y-9.9262 F60.00
G01 X9.3462 Y-9.9787 F60.00
G01 X9.3269 Y-10.0552 F60.00
G01 X9.3248 Y-10.0657 F60.00
G01 X9.3136 Y-10.1412 F60.00
G01 X9.3129 Y-10.1491 F60.00
G01 X9.3092 Y-10.2280 F60.00
G01 X9.3131 Y-10.3095 F60.00
G01 X9.3140 Y-10.3175 F60.00
G01 X9.3257 Y-10.3955 F60.00
G01 X9.3462 Y-10.4773 F60.00
G01 X9.3746 Y-10.5566 F60.00
G01 X9.4094 Y-10.6305 F60.00
G01 X9.4132 Y-10.6375 F60.00
G01 X9.4539 Y-10.7051 F60.00
G01 X9.5041 Y-10.7728 F60.00
G01 X9.5607 Y-10.8353 F60.00
G01 X9.6232 Y-10.8919 F60.00
G01 X9.6909 Y-10.9421 F60.00
G01 X9.7632 Y-10.9854 F60.00
G01 X9.8394 Y-11.0214 F60.00
G01 X9.9162 Y-11.0490 F60.00
G01 X9.9239 Y-11.0512 F60.00
G01 X9.9952 Y-11.0691 F60.00
G01 X10.0057 Y-11.0712 F60.00
G01 X10.0838 Y-11.0827 F60.00
G01 X10.1627 Y-11.0867 F60.00
G01 X10.1733 Y-11.0867 F60.00
G01 X10.2522 Y-11.0827 F60.00
G01 X10.3303 Y-11.0712 F60.00
G01 X10.3408 Y-11.0691 F60.00
G01 X10.4173 Y-11.0498 F60.00
G01 X10.4917 Y-11.0233 F60.00
G01 X10.5015 Y-11.0193 F60.00
G01 X10.5728 Y-10.9854 F60.00
G01 X10.6406 Y-10.9449 F60.00
G01 X10.6495 Y-10.9390 F60.00
G01 X10.7128 Y-10.8919 F60.00
G01 X10.7734 Y-10.8371 F60.00
G01 X15.2776 Y-10.8371 F60.00
G01 X15.3382 Y-10.8919 F60.00
G01 X15.4059 Y-10.9421 F60.00
G01 X15.4782 Y-10.9854 F60.00
G01 X15.5495 Y-11.0193 F60.00
G01 X15.5593 Y-11.0233 F60.00
G01 X15.6337 Y-11.0498 F60.00
G01 X15.7102 Y-11.0691 F60.00
G01 X15.7207 Y-11.0712 F60.00
G01 X15.7935 Y-11.0820 F60.00
G01 X15.8041 Y-11.0831 F60.00
G01 X15.8830 Y-11.0868 F60.00
G01 X15.9645 Y-11.0829 F60.00
G01 X15.9725 Y-11.0820 F60.00
G01 X16.0453 Y-11.0712 F60.00
G01 X16.0558 Y-11.0691 F60.00
G01 X16.1323 Y-11.0498 F60.00
G01 X16.2116 Y-11.0214 F60.00
G01 X16.2831 Y-10.9878 F60.00
G01 X16.2925 Y-10.9828 F60.00
G01 X16.3601 Y-10.9421 F60.00
G01 X16.4278 Y-10.8919 F60.00
G01 X16.4864 Y-10.8389 F60.00
G01 X16.4939 Y-10.8314 F60.00
G01 X16.5469 Y-10.7728 F60.00
G01 X16.5971 Y-10.7051 F60.00
G01 X16.6378 Y-10.6375 F60.00
G01 X16.6428 Y-10.6281 F60.00
G01 X16.6764 Y-10.5566 F60.00
G01 X16.7040 Y-10.4798 F60.00
G01 X16.7062 Y-10.4721 F60.00
G01 X16.7253 Y-10.3955 F60.00
G01 X16.7377 Y-10.3122 F60.00
G01 X16.7418 Y-10.2280 F60.00
G01 X16.7381 Y-10.1491 F60.00
G01 X16.7370 Y-10.1385 F60.00
G01 X16.7262 Y-10.0657 F60.00
G01 X16.7241 Y-10.0552 F60.00
G01 X16.7048 Y-9.9787 F60.00
G01 X16.6783 Y-9.9043 F60.00
G01 X16.6743 Y-9.8945 F60.00
G01 X16.6404 Y-9.8232 F60.00
G01 X16.5971 Y-9.7509 F60.00
G01 X16.5469 Y-9.6832 F60.00
G01 X16.4903 Y-9.6207 F60.00
G01 X16.4278 Y-9.5641 F60.00
G01 X16.3645 Y-9.5170 F60.00
G01 X16.3556 Y-9.5111 F60.00
G01 X16.2878 Y-9.4706 F60.00
G01 X16.2165 Y-9.4367 F60.00
G01 X16.2067 Y-9.4327 F60.00
G01 X16.1323 Y-9.4062 F60.00
G01 X16.0558 Y-9.3869 F60.00
G01 X16.0453 Y-9.3848 F60.00
G01 X15.9725 Y-9.3740 F60.00
G01 X15.9619 Y-9.3729 F60.00
G01 X15.8830 Y-9.3692 F60.00
G01 X15.7988 Y-9.3733 F60.00
G01 X15.7155 Y-9.3857 F60.00
G01 X15.6389 Y-9.4048 F60.00
G01 X15.6286 Y-9.4079 F60.00
G01 X15.5544 Y-9.4346 F60.00
G01 X15.4829 Y-9.4682 F60.00
G01 X15.4735 Y-9.4732 F60.00
G01 X15.4104 Y-9.5111 F60.00
G01 X15.4015 Y-9.5170 F60.00
G01 X15.3382 Y-9.5641 F60.00
G01 X15.2776 Y-9.6189 F60.00
G01 X10.7734 Y-9.6189 F60.00
G01 X10.7149 Y-9.5659 F60.00
G01 X10.6810 Y-9.5404 F60.00
G01 X10.6729 Y-9.5274 F60.00
G01 X10.6405 Y-9.4837 F60.00
G01 X10.6353 Y-9.4776 F60.00
G01 X10.5987 Y-9.4373 F60.00
G01 X7.7307 Y-6.5693 F60.00
G01 X7.6864 Y-6.5292 F60.00
G01 X7.6427 Y-6.4967 F60.00
G01 X7.6339 Y-6.4907 F60.00
G01 X7.5918 Y-6.4655 F60.00
G01 X7.5847 Y-6.4616 F60.00
G01 X7.5380 Y-6.4395 F60.00
G01 X7.5281 Y-6.4354 F60.00
G01 X7.4768 Y-6.4172 F60.00
G01 X7.4240 Y-6.4038 F60.00
G01 X7.4136 Y-6.4017 F60.00
G01 X7.3597 Y-6.3939 F60.00
G01 X7.3027 Y-6.3910 F60.00
G01 X4.3523 Y-6.3909 F60.00
G01 X2.7307 Y-4.7693 F60.00
G01 X2.6904 Y-4.7327 F60.00
G01 X2.6822 Y-4.7259 F60.00
G01 X2.6384 Y-4.6936 F60.00
G01 X2.5871 Y-4.6629 F60.00
G01 X2.5331 Y-4.6373 F60.00
G01 X2.4819 Y-4.6189 F60.00
G01 X2.4717 Y-4.6158 F60.00
G01 X2.4240 Y-4.6038 F60.00
G01 X2.4136 Y-4.6017 F60.00
G01 X2.3597 Y-4.5939 F60.00
G01 X2.3053 Y-4.5911 F60.00
G01 X2.1220 Y-4.5909 F60.00
G01 X2.1119 Y-4.5806 F60.00
G01 X2.0565 Y-4.5304 F60.00
G01 X2.0482 Y-4.5236 F60.00
G01 X1.9838 Y-4.4760 F60.00
G01 X1.9151 Y-4.4347 F60.00
G01 X1.9057 Y-4.4296 F60.00
G01 X1.8332 Y-4.3955 F60.00
G01 X1.7528 Y-4.3667 F60.00
G01 X1.6699 Y-4.3459 F60.00
G01 X1.5907 Y-4.3340 F60.00
G01 X1.5827 Y-4.3332 F60.00
G01 X1.5000 Y-4.3292 F60.00
G01 X1.4146 Y-4.3334 F60.00
G01 X1.3301 Y-4.3459 F60.00
G01 X1.2472 Y-4.3667 F60.00
G01 X1.1668 Y-4.3955 F60.00
G01 X1.0895 Y-4.4320 F60.00
G01 X1.0162 Y-4.4760 F60.00
G01 X0.9518 Y-4.5236 F60.00
G01 X0.9455 Y-4.5286 F60.00
G01 X0.8843 Y-4.5843 F60.00
G01 X0.8269 Y-4.6476 F60.00
G01 X0.7760 Y-4.7162 F60.00
G01 X0.7320 Y-4.7895 F60.00
G01 X0.6955 Y-4.8668 F60.00
G01 X0.6667 Y-4.9472 F60.00
G01 X0.6459 Y-5.0301 F60.00
G01 X0.6334 Y-5.1146 F60.00
G01 X0.6292 Y-5.2000 F60.00
G01 X0.6334 Y-5.2854 F60.00
G01 X0.6459 Y-5.3699 F60.00
G01 X0.6667 Y-5.4528 F60.00
G01 X0.6955 Y-5.5332 F60.00
G01 X0.7320 Y-5.6105 F60.00
G01 X0.7760 Y-5.6838 F60.00
G01 X0.8236 Y-5.7482 F60.00
G01 X0.8286 Y-5.7545 F60.00
G01 X0.8843 Y-5.8157 F60.00
G01 X0.9476 Y-5.8731 F60.00
G01 X1.0162 Y-5.9240 F60.00
G01 X1.0895 Y-5.9680 F60.00
G01 X1.1668 Y-6.0045 F60.00
G01 X1.2472 Y-6.0333 F60.00
G01 X1.3301 Y-6.0541 F60.00
G01 X1.4093 Y-6.0660 F60.00
G01 X1.4173 Y-6.0668 F60.00
G01 X1.5000 Y-6.0708 F60.00
G01 X1.5854 Y-6.0666 F60.00
G01 X1.6699 Y-6.0541 F60.00
G01 X1.7476 Y-6.0347 F60.00
G01 X1.7553 Y-6.0325 F60.00
G01 X1.8332 Y-6.0045 F60.00
G01 X1.9057 Y-5.9704 F60.00
G01 X1.9128 Y-5.9667 F60.00
G01 X1.9793 Y-5.9269 F60.00
G01 X1.9860 Y-5.9225 F60.00
G01 X2.0503 Y-5.8748 F60.00
G01 X2.0837 Y-5.8450 F60.00
G00 Z2.0000
G00 X9.0219 Y-5.3280
G01 F60.00
G01 Z-0.0499
G01 F60.00
G01 X9.0393 Y-5.5270 F60.00
G01 X9.0911 Y-5.7200 F60.00
G01 X9.1755 Y-5.9010 F60.00
G01 X9.2901 Y-6.0647 F60.00
G01 X9.4313 Y-6.2059 F60.00
G01 X9.5950 Y-6.3205 F60.00
G01 X9.7760 Y-6.4049 F60.00
G01 X9.9690 Y-6.4567 F60.00
G01 X10.1680 Y-6.4741 F60.00
G01 X10.3670 Y-6.4567 F60.00
G01 X10.5600 Y-6.4049 F60.00
G01 X10.7410 Y-6.3205 F60.00
G01 X10.8270 Y-6.2603 F60.00
G01 X10.8336 Y-6.2563 F60.00
G01 X10.8405 Y-6.2527 F60.00
G01 X10.8525 Y-6.2478 F60.00
G01 X10.9214 Y-6.2247 F60.00
G01 X10.9294 Y-6.2225 F60.00
G01 X10.9375 Y-6.2210 F60.00
G01 X10.9513 Y-6.2198 F60.00
G01 X15.0978 Y-6.2198 F60.00
G01 X15.1106 Y-6.2212 F60.00
G01 X15.1207 Y-6.2234 F60.00
G01 X15.1929 Y-6.2446 F60.00
G01 X15.2058 Y-6.2497 F60.00
G01 X15.2156 Y-6.2549 F60.00
G01 X15.2243 Y-6.2606 F60.00
G01 X15.3100 Y-6.3205 F60.00
G01 X15.4910 Y-6.4049 F60.00
G01 X15.6840 Y-6.4567 F60.00
G01 X15.8830 Y-6.4741 F60.00
G01 X16.0820 Y-6.4567 F60.00
G01 X16.2750 Y-6.4049 F60.00
G01 X16.4560 Y-6.3205 F60.00
G01 X16.5260 Y-6.2715 F60.00
G01 X16.5326 Y-6.2675 F60.00
G01 X16.5395 Y-6.2639 F60.00
G01 X16.5515 Y-6.2590 F60.00
G01 X16.6204 Y-6.2359 F60.00
G01 X16.6338 Y-6.2326 F60.00
G01 X16.6476 Y-6.2311 F60.00
G01 X20.7522 Y-6.2309 F60.00
G01 X20.7651 Y-6.2317 F60.00
G01 X20.7728 Y-6.2329 F60.00
G01 X20.7803 Y-6.2346 F60.00
G01 X20.8525 Y-6.2558 F60.00
G01 X20.8603 Y-6.2586 F60.00
G01 X20.8679 Y-6.2621 F60.00
G01 X20.8752 Y-6.2661 F60.00
G01 X20.8857 Y-6.2730 F60.00
G01 X21.0250 Y-6.3705 F60.00
G01 X21.2060 Y-6.4549 F60.00
G01 X21.3990 Y-6.5067 F60.00
G01 X21.5980 Y-6.5241 F60.00
G01 X21.7970 Y-6.5067 F60.00
G01 X21.9900 Y-6.4549 F60.00
G01 X22.1710 Y-6.3705 F60.00
G01 X22.3347 Y-6.2559 F60.00
G01 X22.4759 Y-6.1147 F60.00
G01 X22.5905 Y-5.9510 F60.00
G01 X22.6749 Y-5.7700 F60.00
G01 X22.7267 Y-5.5770 F60.00
G01 X22.7441 Y-5.3780 F60.00
G01 X22.7267 Y-5.1790 F60.00
G01 X22.6749 Y-4.9860 F60.00
G01 X22.5905 Y-4.8050 F60.00
G01 X22.4759 Y-4.6413 F60.00
G01 X22.3347 Y-4.5001 F60.00
G01 X22.1710 Y-4.3855 F60.00
G01 X21.9900 Y-4.3011 F60.00
G01 X21.7970 Y-4.2493 F60.00
G01 X21.5980 Y-4.2319 F60.00
G01 X21.3990 Y-4.2493 F60.00
G01 X21.2060 Y-4.3011 F60.00
G01 X21.0250 Y-4.3855 F60.00
G01 X20.9944 Y-4.4069 F60.00
G01 X20.9855 Y-4.4122 F60.00
G01 X20.9785 Y-4.4156 F60.00
G01 X20.9689 Y-4.4194 F60.00
G01 X20.9000 Y-4.4425 F60.00
G01 X20.8866 Y-4.4458 F60.00
G01 X20.8728 Y-4.4473 F60.00
G01 X16.6894 Y-4.4475 F60.00
G01 X16.6765 Y-4.4467 F60.00
G01 X16.6688 Y-4.4455 F60.00
G01 X16.6613 Y-4.4438 F60.00
G01 X16.5891 Y-4.4226 F60.00
G01 X16.5762 Y-4.4175 F60.00
G01 X16.5664 Y-4.4123 F60.00
G01 X16.5577 Y-4.4066 F60.00
G01 X16.4560 Y-4.3355 F60.00
G01 X16.2750 Y-4.2511 F60.00
G01 X16.0820 Y-4.1993 F60.00
G01 X15.8830 Y-4.1819 F60.00
G01 X15.6840 Y-4.1993 F60.00
G01 X15.4910 Y-4.2511 F60.00
G01 X15.3100 Y-4.3355 F60.00
G01 X15.2240 Y-4.3957 F60.00
G01 X15.2174 Y-4.3997 F60.00
G01 X15.2105 Y-4.4033 F60.00
G01 X15.1985 Y-4.4082 F60.00
G01 X15.1270 Y-4.4321 F60.00
G01 X15.1189 Y-4.4341 F60.00
G01 X15.1107 Y-4.4354 F60.00
G01 X15.1024 Y-4.4361 F60.00
G01 X15.0926 Y-4.4363 F60.00
G01 X10.9532 Y-4.4362 F60.00
G01 X10.9404 Y-4.4348 F60.00
G01 X10.9303 Y-4.4326 F60.00
G01 X10.8581 Y-4.4114 F60.00
G01 X10.8452 Y-4.4063 F60.00
G01 X10.8354 Y-4.4011 F60.00
G01 X10.8267 Y-4.3954 F60.00
G01 X10.7410 Y-4.3355 F60.00
G01 X10.5600 Y-4.2511 F60.00
G01 X10.3670 Y-4.1993 F60.00
G01 X10.1680 Y-4.1819 F60.00
G01 X9.9690 Y-4.1993 F60.00
G01 X9.7760 Y-4.2511 F60.00
G01 X9.5950 Y-4.3355 F60.00
G01 X9.4313 Y-4.4501 F60.00
G01 X9.2901 Y-4.5913 F60.00
G01 X9.1755 Y-4.7550 F60.00
G01 X9.0911 Y-4.9360 F60.00
G01 X9.0393 Y-5.1290 F60.00
G01 X9.0219 Y-5.3280 F60.00
G00 Z2.0000
G00 X10.7734 Y-5.9371
G01 F60.00
G01 Z-0.0499
G01 F60.00
G01 X15.2776 Y-5.9371 F60.00
G01 X15.3382 Y-5.9919 F60.00
G01 X15.4059 Y-6.0421 F60.00
G01 X15.4782 Y-6.0854 F60.00
G01 X15.5544 Y-6.1214 F60.00
G01 X15.6337 Y-6.1498 F60.00
G01 X15.7155 Y-6.1703 F60.00
G01 X15.7988 Y-6.1827 F60.00
G01 X15.8830 Y-6.1868 F60.00
G01 X15.9672 Y-6.1827 F60.00
G01 X16.0505 Y-6.1703 F60.00
G01 X16.1323 Y-6.1498 F60.00
G01 X16.2116 Y-6.1214 F60.00
G01 X16.2878 Y-6.0854 F60.00
G01 X16.3601 Y-6.0421 F60.00
G01 X16.4278 Y-5.9919 F60.00
G01 X16.4761 Y-5.9483 F60.00
G01 X20.9570 Y-5.9483 F60.00
G01 X20.9907 Y-5.9853 F60.00
G01 X21.0511 Y-6.0401 F60.00
G01 X21.0574 Y-6.0451 F60.00
G01 X21.1187 Y-6.0906 F60.00
G01 X21.1254 Y-6.0949 F60.00
G01 X21.1932 Y-6.1354 F60.00
G01 X21.2645 Y-6.1693 F60.00
G01 X21.2718 Y-6.1724 F60.00
G01 X21.3487 Y-6.1998 F60.00
G01 X21.4252 Y-6.2191 F60.00
G01 X21.4357 Y-6.2212 F60.00
G01 X21.5138 Y-6.2327 F60.00
G01 X21.5927 Y-6.2367 F60.00
G01 X21.6033 Y-6.2367 F60.00
G01 X21.6769 Y-6.2331 F60.00
G01 X21.6875 Y-6.2320 F60.00
G01 X21.7655 Y-6.2203 F60.00
G01 X21.8473 Y-6.1998 F60.00
G01 X21.9266 Y-6.1714 F60.00
G01 X22.0028 Y-6.1354 F60.00
G01 X22.0751 Y-6.0921 F60.00
G01 X22.1428 Y-6.0419 F60.00
G01 X22.2053 Y-5.9853 F60.00
G01 X22.2619 Y-5.9228 F60.00
G01 X22.3121 Y-5.8551 F60.00
G01 X22.3554 Y-5.7828 F60.00
G01 X22.3914 Y-5.7066 F60.00
G01 X22.4198 Y-5.6273 F60.00
G01 X22.4403 Y-5.5455 F60.00
G01 X22.4527 Y-5.4622 F60.00
G01 X22.4568 Y-5.3780 F60.00
G01 X22.4531 Y-5.2991 F60.00
G01 X22.4520 Y-5.2885 F60.00
G01 X22.4403 Y-5.2105 F60.00
G01 X22.4198 Y-5.1287 F60.00
G01 X22.3914 Y-5.0494 F60.00
G01 X22.3578 Y-4.9779 F60.00
G01 X22.3528 Y-4.9685 F60.00
G01 X22.3149 Y-4.9054 F60.00
G01 X22.3090 Y-4.8965 F60.00
G01 X22.2619 Y-4.8332 F60.00
G01 X22.2089 Y-4.7746 F60.00
G01 X22.2014 Y-4.7671 F60.00
G01 X22.1428 Y-4.7141 F60.00
G01 X22.0751 Y-4.6639 F60.00
G01 X22.0028 Y-4.6206 F60.00
G01 X21.9266 Y-4.5846 F60.00
G01 X21.8473 Y-4.5562 F60.00
G01 X21.7655 Y-4.5357 F60.00
G01 X21.6822 Y-4.5233 F60.00
G01 X21.6033 Y-4.5193 F60.00
G01 X21.5927 Y-4.5193 F60.00
G01 X21.5138 Y-4.5233 F60.00
G01 X21.4305 Y-4.5357 F60.00
G01 X21.3487 Y-4.5562 F60.00
G01 X21.2743 Y-4.5827 F60.00
G01 X21.2645 Y-4.5867 F60.00
G01 X21.1932 Y-4.6206 F60.00
G01 X21.1231 Y-4.6625 F60.00
G01 X21.1165 Y-4.6670 F60.00
G01 X21.0553 Y-4.7125 F60.00
G01 X21.0353 Y-4.7301 F60.00
G01 X16.4990 Y-4.7301 F60.00
G01 X16.4921 Y-4.7226 F60.00
G01 X16.4864 Y-4.7171 F60.00
G01 X16.4278 Y-4.6641 F60.00
G01 X16.3601 Y-4.6139 F60.00
G01 X16.2878 Y-4.5706 F60.00
G01 X16.2116 Y-4.5346 F60.00
G01 X16.1323 Y-4.5062 F60.00
G01 X16.0505 Y-4.4857 F60.00
G01 X15.9672 Y-4.4733 F60.00
G01 X15.8830 Y-4.4692 F60.00
G01 X15.7988 Y-4.4733 F60.00
G01 X15.7155 Y-4.4857 F60.00
G01 X15.6337 Y-4.5062 F60.00
G01 X15.5544 Y-4.5346 F60.00
G01 X15.4782 Y-4.5706 F60.00
G01 X15.4059 Y-4.6139 F60.00
G01 X15.3382 Y-4.6641 F60.00
G01 X15.2776 Y-4.7189 F60.00
G01 X10.7734 Y-4.7189 F60.00
G01 X10.7128 Y-4.6641 F60.00
G01 X10.6451 Y-4.6139 F60.00
G01 X10.5728 Y-4.5706 F60.00
G01 X10.4966 Y-4.5346 F60.00
G01 X10.4173 Y-4.5062 F60.00
G01 X10.3355 Y-4.4857 F60.00
G01 X10.2522 Y-4.4733 F60.00
G01 X10.1733 Y-4.4693 F60.00
G01 X10.1653 Y-4.4692 F60.00
G01 X10.0838 Y-4.4733 F60.00
G01 X10.0005 Y-4.4857 F60.00
G01 X9.9187 Y-4.5062 F60.00
G01 X9.8394 Y-4.5346 F60.00
G01 X9.7632 Y-4.5706 F60.00
G01 X9.6909 Y-4.6139 F60.00
G01 X9.6232 Y-4.6641 F60.00
G01 X9.5607 Y-4.7207 F60.00
G01 X9.5041 Y-4.7832 F60.00
G01 X9.4539 Y-4.8509 F60.00
G01 X9.4106 Y-4.9232 F60.00
G01 X9.3746 Y-4.9994 F60.00
G01 X9.3462 Y-5.0787 F60.00
G01 X9.3257 Y-5.1605 F60.00
G01 X9.3133 Y-5.2438 F60.00
G01 X9.3092 Y-5.3280 F60.00
G01 X9.3133 Y-5.4122 F60.00
G01 X9.3257 Y-5.4955 F60.00
G01 X9.3462 Y-5.5773 F60.00
G01 X9.3746 Y-5.6566 F60.00
G01 X9.4106 Y-5.7328 F60.00
G01 X9.4539 Y-5.8051 F60.00
G01 X9.5041 Y-5.8728 F60.00
G01 X9.5607 Y-5.9353 F60.00
G01 X9.6232 Y-5.9919 F60.00
G01 X9.6909 Y-6.0421 F60.00
G01 X9.7632 Y-6.0854 F60.00
G01 X9.8394 Y-6.1214 F60.00
G01 X9.9187 Y-6.1498 F60.00
G01 X10.0005 Y-6.1703 F60.00
G01 X10.0838 Y-6.1827 F60.00
G01 X10.1680 Y-6.1868 F60.00
G01 X10.2522 Y-6.1827 F60.00
G01 X10.3355 Y-6.1703 F60.00
G01 X10.4173 Y-6.1498 F60.00
G01 X10.4966 Y-6.1214 F60.00
G01 X10.5728 Y-6.0854 F60.00
G01 X10.6451 Y-6.0421 F60.00
G01 X10.7128 Y-5.9919 F60.00
G01 X10.7734 Y-5.9371 F60.00
G00 Z2.0000
G00 X20.4519 Y-10.2780
G01 F60.00
G01 Z-0.0499
G01 F60.00
G01 X20.4693 Y-10.4770 F60.00
G01 X20.5211 Y-10.6700 F60.00
G01 X20.6055 Y-10.8510 F60.00
G01 X20.7201 Y-11.0147 F60.00
G01 X20.8613 Y-11.1559 F60.00
G01 X21.0250 Y-11.2705 F60.00
G01 X21.2060 Y-11.3549 F60.00
G01 X21.3990 Y-11.4067 F60.00
G01 X21.5980 Y-11.4241 F60.00
G01 X21.7970 Y-11.4067 F60.00
G01 X21.9900 Y-11.3549 F60.00
G01 X22.1710 Y-11.2705 F60.00
G01 X22.2709 Y-11.2006 F60.00
G01 X22.2774 Y-11.1964 F60.00
G01 X22.2865 Y-11.1915 F60.00
G01 X22.2985 Y-11.1866 F60.00
G01 X22.3700 Y-11.1627 F60.00
G01 X22.3781 Y-11.1607 F60.00
G01 X22.3863 Y-11.1594 F60.00
G01 X22.4022 Y-11.1585 F60.00
G01 X26.5832 Y-11.1586 F60.00
G01 X26.5960 Y-11.1600 F60.00
G01 X26.6062 Y-11.1622 F60.00
G01 X26.6757 Y-11.1826 F60.00
G01 X26.6887 Y-11.1873 F60.00
G01 X26.6962 Y-11.1909 F60.00
G01 X26.7033 Y-11.1951 F60.00
G01 X26.7400 Y-11.2205 F60.00
G01 X26.9210 Y-11.3049 F60.00
G01 X27.1140 Y-11.3567 F60.00
G01 X27.3130 Y-11.3741 F60.00
G01 X27.5120 Y-11.3567 F60.00
G01 X27.7050 Y-11.3049 F60.00
G01 X27.8860 Y-11.2205 F60.00
G01 X28.0497 Y-11.1059 F60.00
G01 X28.1909 Y-10.9647 F60.00
G01 X28.3055 Y-10.8010 F60.00
G01 X28.3899 Y-10.6200 F60.00
G01 X28.4417 Y-10.4270 F60.00
G01 X28.4591 Y-10.2280 F60.00
G01 X28.4417 Y-10.0290 F60.00
G01 X28.3899 Y-9.8360 F60.00
G01 X28.3055 Y-9.6550 F60.00
G01 X28.1909 Y-9.4913 F60.00
G01 X28.0497 Y-9.3501 F60.00
G01 X27.8860 Y-9.2355 F60.00
G01 X27.7050 Y-9.1511 F60.00
G01 X27.5120 Y-9.0993 F60.00
G01 X27.3130 Y-9.0819 F60.00
G01 X27.1140 Y-9.0993 F60.00
G01 X26.9210 Y-9.1511 F60.00
G01 X26.7400 Y-9.2355 F60.00
G01 X26.6007 Y-9.3330 F60.00
G01 X26.5942 Y-9.3372 F60.00
G01 X26.5874 Y-9.3410 F60.00
G01 X26.5803 Y-9.3442 F60.00
G01 X26.5731 Y-9.3470 F60.00
G01 X26.5016 Y-9.3709 F60.00
G01 X26.4935 Y-9.3729 F60.00
G01 X26.4853 Y-9.3742 F60.00
G01 X26.4693 Y-9.3751 F60.00
G01 X22.3672 Y-9.3750 F60.00
G01 X22.3544 Y-9.3736 F60.00
G01 X22.3443 Y-9.3714 F60.00
G01 X22.2721 Y-9.3502 F60.00
G01 X22.2592 Y-9.3451 F60.00
G01 X22.2494 Y-9.3399 F60.00
G01 X22.2407 Y-9.3342 F60.00
G01 X22.1710 Y-9.2855 F60.00
G01 X21.9900 Y-9.2011 F60.00
G01 X21.7970 Y-9.1493 F60.00
G01 X21.5980 Y-9.1319 F60.00
G01 X21.3990 Y-9.1493 F60.00
G01 X21.2060 Y-9.2011 F60.00
G01 X21.0250 Y-9.2855 F60.00
G01 X20.8613 Y-9.4001 F60.00
G01 X20.7201 Y-9.5413 F60.00
G01 X20.6055 Y-9.7050 F60.00
G01 X20.5211 Y-9.8860 F60.00
G01 X20.4693 Y-10.0790 F60.00
G01 X20.4519 Y-10.2780 F60.00
G00 Z2.0000
G00 X22.1911 Y-9.6577
G01 F60.00
G01 Z-0.0499
G01 F60.00
G01 X22.1428 Y-9.6141 F60.00
G01 X22.0751 Y-9.5639 F60.00
G01 X22.0028 Y-9.5206 F60.00
G01 X21.9266 Y-9.4846 F60.00
G01 X21.8473 Y-9.4562 F60.00
G01 X21.7655 Y-9.4357 F60.00
G01 X21.6822 Y-9.4233 F60.00
G01 X21.5980 Y-9.4192 F60.00
G01 X21.5138 Y-9.4233 F60.00
G01 X21.4305 Y-9.4357 F60.00
G01 X21.3487 Y-9.4562 F60.00
G01 X21.2694 Y-9.4846 F60.00
G01 X21.1932 Y-9.5206 F60.00
G01 X21.1209 Y-9.5639 F60.00
G01 X21.0532 Y-9.6141 F60.00
G01 X20.9907 Y-9.6707 F60.00
G01 X20.9341 Y-9.7332 F60.00
G01 X20.8839 Y-9.8009 F60.00
G01 X20.8406 Y-9.8732 F60.00
G01 X20.8046 Y-9.9494 F60.00
G01 X20.7762 Y-10.0287 F60.00
G01 X20.7557 Y-10.1105 F60.00
G01 X20.7433 Y-10.1938 F60.00
G01 X20.7392 Y-10.2780 F60.00
G01 X20.7433 Y-10.3622 F60.00
G01 X20.7557 Y-10.4455 F60.00
G01 X20.7762 Y-10.5273 F60.00
G01 X20.8046 Y-10.6066 F60.00
G01 X20.8406 Y-10.6828 F60.00
G01 X20.8839 Y-10.7551 F60.00
G01 X20.9341 Y-10.8228 F60.00
G01 X20.9907 Y-10.8853 F60.00
G01 X21.0532 Y-10.9419 F60.00
G01 X21.1209 Y-10.9921 F60.00
G01 X21.1932 Y-11.0354 F60.00
G01 X21.2694 Y-11.0714 F60.00
G01 X21.3487 Y-11.0998 F60.00
G01 X21.4305 Y-11.1203 F60.00
G01 X21.5138 Y-11.1327 F60.00
G01 X21.5953 Y-11.1368 F60.00
G01 X21.6033 Y-11.1367 F60.00
G01 X21.6822 Y-11.1327 F60.00
G01 X21.7655 Y-11.1203 F60.00
G01 X21.8473 Y-11.0998 F60.00
G01 X21.9266 Y-11.0714 F60.00
G01 X22.0028 Y-11.0354 F60.00
G01 X22.0751 Y-10.9921 F60.00
G01 X22.1428 Y-10.9419 F60.00
G01 X22.2014 Y-10.8889 F60.00
G01 X22.2071 Y-10.8834 F60.00
G01 X22.2140 Y-10.8759 F60.00
G01 X26.7503 Y-10.8759 F60.00
G01 X26.7703 Y-10.8935 F60.00
G01 X26.8337 Y-10.9406 F60.00
G01 X26.8404 Y-10.9449 F60.00
G01 X26.9058 Y-10.9841 F60.00
G01 X26.9129 Y-10.9878 F60.00
G01 X26.9844 Y-11.0214 F60.00
G01 X27.0612 Y-11.0490 F60.00
G01 X27.0689 Y-11.0512 F60.00
G01 X27.1455 Y-11.0703 F60.00
G01 X27.2288 Y-11.0827 F60.00
G01 X27.3130 Y-11.0868 F60.00
G01 X27.3945 Y-11.0829 F60.00
G01 X27.4025 Y-11.0820 F60.00
G01 X27.4805 Y-11.0703 F60.00
G01 X27.5571 Y-11.0512 F60.00
G01 X27.5674 Y-11.0481 F60.00
G01 X27.6367 Y-11.0233 F60.00
G01 X27.6465 Y-11.0193 F60.00
G01 X27.7178 Y-10.9854 F60.00
G01 X27.7901 Y-10.9421 F60.00
G01 X27.8578 Y-10.8919 F60.00
G01 X27.9203 Y-10.8353 F60.00
G01 X27.9769 Y-10.7728 F60.00
G01 X28.0271 Y-10.7051 F60.00
G01 X28.0704 Y-10.6328 F60.00
G01 X28.1043 Y-10.5615 F60.00
G01 X28.1083 Y-10.5517 F60.00
G01 X28.1331 Y-10.4824 F60.00
G01 X28.1362 Y-10.4721 F60.00
G01 X28.1553 Y-10.3955 F60.00
G01 X28.1677 Y-10.3122 F60.00
G01 X28.1718 Y-10.2280 F60.00
G01 X28.1677 Y-10.1438 F60.00
G01 X28.1553 Y-10.0605 F60.00
G01 X28.1348 Y-9.9787 F60.00
G01 X28.1064 Y-9.8994 F60.00
G01 X28.0704 Y-9.8232 F60.00
G01 X28.0271 Y-9.7509 F60.00
G01 X27.9769 Y-9.6832 F60.00
G01 X27.9203 Y-9.6207 F60.00
G01 X27.8578 Y-9.5641 F60.00
G01 X27.7901 Y-9.5139 F60.00
G01 X27.7178 Y-9.4706 F60.00
G01 X27.6416 Y-9.4346 F60.00
G01 X27.5623 Y-9.4062 F60.00
G01 X27.4805 Y-9.3857 F60.00
G01 X27.3972 Y-9.3733 F60.00
G01 X27.3130 Y-9.3692 F60.00
G01 X27.2341 Y-9.3729 F60.00
G01 X27.2235 Y-9.3740 F60.00
G01 X27.1455 Y-9.3857 F60.00
G01 X27.0689 Y-9.4048 F60.00
G01 X27.0586 Y-9.4079 F60.00
G01 X26.9868 Y-9.4336 F60.00
G01 X26.9795 Y-9.4367 F60.00
G01 X26.9082 Y-9.4706 F60.00
G01 X26.8404 Y-9.5111 F60.00
G01 X26.8337 Y-9.5154 F60.00
G01 X26.7724 Y-9.5609 F60.00
G01 X26.7661 Y-9.5659 F60.00
G01 X26.7057 Y-9.6207 F60.00
G01 X26.6720 Y-9.6577 F60.00
G01 X22.1911 Y-9.6577 F60.00
G00 Z2.0000
G00 X26.1669 Y-5.3280
G01 F60.00
G01 Z-0.0499
G01 F60.00
G01 X26.1843 Y-5.5270 F60.00
G01 X26.2361 Y-5.7200 F60.00
G01 X26.3205 Y-5.9010 F60.00
G01 X26.4351 Y-6.0647 F60.00
G01 X26.5763 Y-6.2059 F60.00
G01 X26.7400 Y-6.3205 F60.00
G01 X26.9210 Y-6.4049 F60.00
G01 X27.1140 Y-6.4567 F60.00
G01 X27.3130 Y-6.4741 F60.00
G01 X27.5120 Y-6.4567 F60.00
G01 X27.7050 Y-6.4049 F60.00
G01 X27.8860 Y-6.3205 F60.00
G01 X27.9902 Y-6.2476 F60.00
G01 X27.9967 Y-6.2434 F60.00
G01 X28.0058 Y-6.2385 F60.00
G01 X28.0178 Y-6.2336 F60.00
G01 X28.0866 Y-6.2105 F60.00
G01 X28.1001 Y-6.2072 F60.00
G01 X28.1138 Y-6.2057 F60.00
G01 X32.1459 Y-6.2055 F60.00
G01 X32.1588 Y-6.2063 F60.00
G01 X32.1665 Y-6.2075 F60.00
G01 X32.1741 Y-6.2092 F60.00
G01 X32.2462 Y-6.2304 F60.00
G01 X32.2540 Y-6.2332 F60.00
G01 X32.2616 Y-6.2367 F60.00
G01 X32.2689 Y-6.2407 F60.00
G01 X32.2794 Y-6.2476 F60.00
G01 X32.4550 Y-6.3705 F60.00
G01 X32.6360 Y-6.4549 F60.00
G01 X32.8290 Y-6.5067 F60.00
G01 X33.0280 Y-6.5241 F60.00
G01 X33.2270 Y-6.5067 F60.00
G01 X33.4200 Y-6.4549 F60.00
G01 X33.6010 Y-6.3705 F60.00
G01 X33.7647 Y-6.2559 F60.00
G01 X33.9059 Y-6.1147 F60.00
G01 X34.0205 Y-5.9510 F60.00
G01 X34.1049 Y-5.7700 F60.00
G01 X34.1567 Y-5.5770 F60.00
G01 X34.1741 Y-5.3780 F60.00
G01 X34.1567 Y-5.1790 F60.00
G01 X34.1049 Y-4.9860 F60.00
G01 X34.0205 Y-4.8050 F60.00
G01 X33.9059 Y-4.6413 F60.00
G01 X33.7647 Y-4.5001 F60.00
G01 X33.6010 Y-4.3855 F60.00
G01 X33.4200 Y-4.3011 F60.00
G01 X33.2270 Y-4.2493 F60.00
G01 X33.0280 Y-4.2319 F60.00
G01 X32.8290 Y-4.2493 F60.00
G01 X32.6360 Y-4.3011 F60.00
G01 X32.4507 Y-4.3875 F60.00
G01 X32.4430 Y-4.3916 F60.00
G01 X32.4357 Y-4.3948 F60.00
G01 X32.4255 Y-4.3982 F60.00
G01 X32.4157 Y-4.4005 F60.00
G01 X32.3637 Y-4.4179 F60.00
G01 X32.3529 Y-4.4204 F60.00
G01 X32.3391 Y-4.4219 F60.00
G01 X28.0831 Y-4.4221 F60.00
G01 X28.0702 Y-4.4213 F60.00
G01 X28.0625 Y-4.4201 F60.00
G01 X28.0550 Y-4.4184 F60.00
G01 X27.9854 Y-4.3980 F60.00
G01 X27.9724 Y-4.3933 F60.00
G01 X27.9625 Y-4.3883 F60.00
G01 X27.9555 Y-4.3840 F60.00
G01 X27.8860 Y-4.3355 F60.00
G01 X27.7050 Y-4.2511 F60.00
G01 X27.5120 Y-4.1993 F60.00
G01 X27.3130 Y-4.1819 F60.00
G01 X27.1140 Y-4.1993 F60.00
G01 X26.9210 Y-4.2511 F60.00
G01 X26.7400 Y-4.3355 F60.00
G01 X26.5763 Y-4.4501 F60.00
G01 X26.4351 Y-4.5913 F60.00
G01 X26.3205 Y-4.7550 F60.00
G01 X26.2361 Y-4.9360 F60.00
G01 X26.1843 Y-5.1290 F60.00
G01 X26.1669 Y-5.3280 F60.00
G00 Z2.0000
G00 X27.9028 Y-4.7047
G01 F60.00
G01 Z-0.0499
G01 F60.00
G01 X27.8578 Y-4.6641 F60.00
G01 X27.7945 Y-4.6170 F60.00
G01 X27.7879 Y-4.6125 F60.00
G01 X27.7178 Y-4.5706 F60.00
G01 X27.6465 Y-4.5367 F60.00
G01 X27.6392 Y-4.5336 F60.00
G01 X27.5623 Y-4.5062 F60.00
G01 X27.4805 Y-4.4857 F60.00
G01 X27.3972 Y-4.4733 F60.00
G01 X27.3183 Y-4.4693 F60.00
G01 X27.3103 Y-4.4692 F60.00
G01 X27.2288 Y-4.4733 F60.00
G01 X27.1455 Y-4.4857 F60.00
G01 X27.0637 Y-4.5062 F60.00
G01 X26.9844 Y-4.5346 F60.00
G01 X26.9082 Y-4.5706 F60.00
G01 X26.8359 Y-4.6139 F60.00
G01 X26.7682 Y-4.6641 F60.00
G01 X26.7096 Y-4.7171 F60.00
G01 X26.7039 Y-4.7226 F60.00
G01 X26.6491 Y-4.7832 F60.00
G01 X26.5989 Y-4.8509 F60.00
G01 X26.5556 Y-4.9232 F60.00
G01 X26.5196 Y-4.9994 F60.00
G01 X26.4912 Y-5.0787 F60.00
G01 X26.4707 Y-5.1605 F60.00
G01 X26.4583 Y-5.2438 F60.00
G01 X26.4542 Y-5.3280 F60.00
G01 X26.4583 Y-5.4122 F60.00
G01 X26.4707 Y-5.4955 F60.00
G01 X26.4912 Y-5.5773 F60.00
G01 X26.5196 Y-5.6566 F60.00
G01 X26.5556 Y-5.7328 F60.00
G01 X26.5989 Y-5.8051 F60.00
G01 X26.6491 Y-5.8728 F60.00
G01 X26.7021 Y-5.9314 F60.00
G01 X26.7076 Y-5.9371 F60.00
G01 X26.7682 Y-5.9919 F60.00
G01 X26.8359 Y-6.0421 F60.00
G01 X26.9082 Y-6.0854 F60.00
G01 X26.9844 Y-6.1214 F60.00
G01 X27.0637 Y-6.1498 F60.00
G01 X27.1455 Y-6.1703 F60.00
G01 X27.2288 Y-6.1827 F60.00
G01 X27.3130 Y-6.1868 F60.00
G01 X27.3972 Y-6.1827 F60.00
G01 X27.4805 Y-6.1703 F60.00
G01 X27.5623 Y-6.1498 F60.00
G01 X27.6416 Y-6.1214 F60.00
G01 X27.7178 Y-6.0854 F60.00
G01 X27.7901 Y-6.0421 F60.00
G01 X27.8536 Y-5.9951 F60.00
G01 X27.8599 Y-5.9901 F60.00
G01 X27.9184 Y-5.9371 F60.00
G01 X27.9317 Y-5.9229 F60.00
G01 X32.3642 Y-5.9229 F60.00
G01 X32.4171 Y-5.9814 F60.00
G01 X32.4246 Y-5.9889 F60.00
G01 X32.4832 Y-6.0419 F60.00
G01 X32.5465 Y-6.0890 F60.00
G01 X32.5554 Y-6.0949 F60.00
G01 X32.6232 Y-6.1354 F60.00
G01 X32.6994 Y-6.1714 F60.00
G01 X32.7787 Y-6.1998 F60.00
G01 X32.8552 Y-6.2191 F60.00
G01 X32.8657 Y-6.2212 F60.00
G01 X32.9438 Y-6.2327 F60.00
G01 X33.0227 Y-6.2367 F60.00
G01 X33.0333 Y-6.2367 F60.00
G01 X33.1095 Y-6.2329 F60.00
G01 X33.1175 Y-6.2320 F60.00
G01 X33.1955 Y-6.2203 F60.00
G01 X33.2721 Y-6.2012 F60.00
G01 X33.2824 Y-6.1981 F60.00
G01 X33.3517 Y-6.1733 F60.00
G01 X33.3615 Y-6.1693 F60.00
G01 X33.4328 Y-6.1354 F60.00
G01 X33.5051 Y-6.0921 F60.00
G01 X33.5728 Y-6.0419 F60.00
G01 X33.6353 Y-5.9853 F60.00
G01 X33.6919 Y-5.9228 F60.00
G01 X33.7390 Y-5.8595 F60.00
G01 X33.7449 Y-5.8506 F60.00
G01 X33.7828 Y-5.7875 F60.00
G01 X33.7878 Y-5.7781 F60.00
G01 X33.8214 Y-5.7066 F60.00
G01 X33.8498 Y-5.6273 F60.00
G01 X33.8703 Y-5.5455 F60.00
G01 X33.8824 Y-5.4648 F60.00
G01 X33.8831 Y-5.4569 F60.00
G01 X33.8868 Y-5.3780 F60.00
G01 X33.8827 Y-5.2938 F60.00
G01 X33.8703 Y-5.2105 F60.00
G01 X33.8498 Y-5.1287 F60.00
G01 X33.8214 Y-5.0494 F60.00
G01 X33.7854 Y-4.9732 F60.00
G01 X33.7421 Y-4.9009 F60.00
G01 X33.6919 Y-4.8332 F60.00
G01 X33.6353 Y-4.7707 F60.00
G01 X33.5728 Y-4.7141 F60.00
G01 X33.5051 Y-4.6639 F60.00
G01 X33.4328 Y-4.6206 F60.00
G01 X33.3566 Y-4.5846 F60.00
G01 X33.2773 Y-4.5562 F60.00
G01 X33.1955 Y-4.5357 F60.00
G01 X33.1148 Y-4.5236 F60.00
G01 X33.1069 Y-4.5229 F60.00
G01 X33.0280 Y-4.5192 F60.00
G01 X32.9438 Y-4.5233 F60.00
G01 X32.8605 Y-4.5357 F60.00
G01 X32.7787 Y-4.5562 F60.00
G01 X32.6994 Y-4.5846 F60.00
G01 X32.6232 Y-4.6206 F60.00
G01 X32.5509 Y-4.6639 F60.00
G01 X32.4956 Y-4.7047 F60.00
G01 X27.9028 Y-4.7047 F60.00
G00 Z2.0000
G00 X31.8819 Y-10.2780
G01 F60.00
G01 Z-0.0499
G01 F60.00
G01 X31.8993 Y-10.4770 F60.00
G01 X31.9511 Y-10.6700 F60.00
G01 X32.0355 Y-10.8510 F60.00
G01 X32.1501 Y-11.0147 F60.00
G01 X32.2913 Y-11.1559 F60.00
G01 X32.4550 Y-11.2705 F60.00
G01 X32.6360 Y-11.3549 F60.00
G01 X32.8290 Y-11.4067 F60.00
G01 X33.0280 Y-11.4241 F60.00
G01 X33.2270 Y-11.4067 F60.00
G01 X33.4200 Y-11.3549 F60.00
G01 X33.6010 Y-11.2705 F60.00
G01 X33.6813 Y-11.2143 F60.00
G01 X33.6879 Y-11.2103 F60.00
G01 X33.6948 Y-11.2067 F60.00
G01 X33.7068 Y-11.2018 F60.00
G01 X33.7783 Y-11.1779 F60.00
G01 X33.7864 Y-11.1759 F60.00
G01 X33.7946 Y-11.1746 F60.00
G01 X33.8105 Y-11.1737 F60.00
G01 X38.0323 Y-11.1737 F60.00
G01 X38.0452 Y-11.1748 F60.00
G01 X38.0579 Y-11.1774 F60.00
G01 X38.1274 Y-11.1978 F60.00
G01 X38.1378 Y-11.2014 F60.00
G01 X38.1454 Y-11.2049 F60.00
G01 X38.1527 Y-11.2089 F60.00
G01 X38.1700 Y-11.2205 F60.00
G01 X38.3510 Y-11.3049 F60.00
G01 X38.5440 Y-11.3567 F60.00
G01 X38.7430 Y-11.3741 F60.00
G01 X38.9420 Y-11.3567 F60.00
G01 X39.1350 Y-11.3049 F60.00
G01 X39.3160 Y-11.2205 F60.00
G01 X39.4797 Y-11.1059 F60.00
G01 X39.6209 Y-10.9647 F60.00
G01 X39.7355 Y-10.8010 F60.00
G01 X39.8199 Y-10.6200 F60.00
G01 X39.8717 Y-10.4270 F60.00
G01 X39.8891 Y-10.2280 F60.00
G01 X39.8717 Y-10.0290 F60.00
G01 X39.8199 Y-9.8360 F60.00
G01 X39.7355 Y-9.6550 F60.00
G01 X39.6209 Y-9.4913 F60.00
G01 X39.4797 Y-9.3501 F60.00
G01 X39.3160 Y-9.2355 F60.00
G01 X39.1350 Y-9.1511 F60.00
G01 X38.9420 Y-9.0993 F60.00
G01 X38.7430 Y-9.0819 F60.00
G01 X38.5440 Y-9.0993 F60.00
G01 X38.3510 Y-9.1511 F60.00
G01 X38.1700 Y-9.2355 F60.00
G01 X38.0090 Y-9.3482 F60.00
G01 X38.0025 Y-9.3524 F60.00
G01 X37.9957 Y-9.3562 F60.00
G01 X37.9886 Y-9.3594 F60.00
G01 X37.9814 Y-9.3622 F60.00
G01 X37.9099 Y-9.3861 F60.00
G01 X37.9018 Y-9.3881 F60.00
G01 X37.8936 Y-9.3894 F60.00
G01 X37.8776 Y-9.3903 F60.00
G01 X33.8190 Y-9.3902 F60.00
G01 X33.8086 Y-9.3892 F60.00
G01 X33.7960 Y-9.3866 F60.00
G01 X33.7238 Y-9.3654 F60.00
G01 X33.7109 Y-9.3603 F60.00
G01 X33.7011 Y-9.3551 F60.00
G01 X33.6924 Y-9.3494 F60.00
G01 X33.6010 Y-9.2855 F60.00
G01 X33.4200 Y-9.2011 F60.00
G01 X33.2270 Y-9.1493 F60.00
G01 X33.0280 Y-9.1319 F60.00
G01 X32.8290 Y-9.1493 F60.00
G01 X32.6360 Y-9.2011 F60.00
G01 X32.4550 Y-9.2855 F60.00
G01 X32.2913 Y-9.4001 F60.00
G01 X32.1501 Y-9.5413 F60.00
G01 X32.0355 Y-9.7050 F60.00
G01 X31.9511 Y-9.8860 F60.00
G01 X31.8993 Y-10.0790 F60.00
G01 X31.8819 Y-10.2780 F60.00
G00 Z2.0000
G00 X33.6291 Y-10.8911
G01 F60.00
G01 Z-0.0499
G01 F60.00
G01 X38.1972 Y-10.8911 F60.00
G01 X38.2659 Y-10.9421 F60.00
G01 X38.3382 Y-10.9854 F60.00
G01 X38.4144 Y-11.0214 F60.00
G01 X38.4937 Y-11.0498 F60.00
G01 X38.5755 Y-11.0703 F60.00
G01 X38.6588 Y-11.0827 F60.00
G01 X38.7430 Y-11.0868 F60.00
G01 X38.8219 Y-11.0831 F60.00
G01 X38.8298 Y-11.0824 F60.00
G01 X38.9105 Y-11.0703 F60.00
G01 X38.9923 Y-11.0498 F60.00
G01 X39.0716 Y-11.0214 F60.00
G01 X39.1478 Y-10.9854 F60.00
G01 X39.2201 Y-10.9421 F60.00
G01 X39.2878 Y-10.8919 F60.00
G01 X39.3503 Y-10.8353 F60.00
G01 X39.4069 Y-10.7728 F60.00
G01 X39.4571 Y-10.7051 F60.00
G01 X39.5004 Y-10.6328 F60.00
G01 X39.5364 Y-10.5566 F60.00
G01 X39.5648 Y-10.4773 F60.00
G01 X39.5853 Y-10.3955 F60.00
G01 X39.5977 Y-10.3122 F60.00
G01 X39.6018 Y-10.2280 F60.00
G01 X39.5981 Y-10.1491 F60.00
G01 X39.5974 Y-10.1412 F60.00
G01 X39.5853 Y-10.0605 F60.00
G01 X39.5648 Y-9.9787 F60.00
G01 X39.5364 Y-9.8994 F60.00
G01 X39.5028 Y-9.8279 F60.00
G01 X39.4978 Y-9.8185 F60.00
G01 X39.4599 Y-9.7554 F60.00
G01 X39.4540 Y-9.7465 F60.00
G01 X39.4069 Y-9.6832 F60.00
G01 X39.3503 Y-9.6207 F60.00
G01 X39.2878 Y-9.5641 F60.00
G01 X39.2201 Y-9.5139 F60.00
G01 X39.1478 Y-9.4706 F60.00
G01 X39.0765 Y-9.4367 F60.00
G01 X39.0667 Y-9.4327 F60.00
G01 X38.9974 Y-9.4079 F60.00
G01 X38.9871 Y-9.4048 F60.00
G01 X38.9105 Y-9.3857 F60.00
G01 X38.8325 Y-9.3740 F60.00
G01 X38.8245 Y-9.3731 F60.00
G01 X38.7483 Y-9.3693 F60.00
G01 X38.7377 Y-9.3693 F60.00
G01 X38.6588 Y-9.3733 F60.00
G01 X38.5807 Y-9.3848 F60.00
G01 X38.5702 Y-9.3869 F60.00
G01 X38.4937 Y-9.4062 F60.00
G01 X38.4144 Y-9.4346 F60.00
G01 X38.3382 Y-9.4706 F60.00
G01 X38.2704 Y-9.5111 F60.00
G01 X38.2615 Y-9.5170 F60.00
G01 X38.2024 Y-9.5609 F60.00
G01 X38.1941 Y-9.5676 F60.00
G01 X38.1357 Y-9.6207 F60.00
G01 X38.0882 Y-9.6729 F60.00
G01 X33.6374 Y-9.6729 F60.00
G01 X33.6314 Y-9.6671 F60.00
G01 X33.5728 Y-9.6141 F60.00
G01 X33.5051 Y-9.5639 F60.00
G01 X33.4328 Y-9.5206 F60.00
G01 X33.3566 Y-9.4846 F60.00
G01 X33.2773 Y-9.4562 F60.00
G01 X33.1955 Y-9.4357 F60.00
G01 X33.1122 Y-9.4233 F60.00
G01 X33.0280 Y-9.4192 F60.00
G01 X32.9438 Y-9.4233 F60.00
G01 X32.8605 Y-9.4357 F60.00
G01 X32.7787 Y-9.4562 F60.00
G01 X32.6994 Y-9.4846 F60.00
G01 X32.6232 Y-9.5206 F60.00
G01 X32.5509 Y-9.5639 F60.00
G01 X32.4832 Y-9.6141 F60.00
G01 X32.4207 Y-9.6707 F60.00
G01 X32.3641 Y-9.7332 F60.00
G01 X32.3139 Y-9.8009 F60.00
G01 X32.2706 Y-9.8732 F60.00
G01 X32.2346 Y-9.9494 F60.00
G01 X32.2062 Y-10.0287 F60.00
G01 X32.1857 Y-10.1105 F60.00
G01 X32.1733 Y-10.1938 F60.00
G01 X32.1692 Y-10.2780 F60.00
G01 X32.1733 Y-10.3622 F60.00
G01 X32.1857 Y-10.4455 F60.00
G01 X32.2062 Y-10.5273 F60.00
G01 X32.2346 Y-10.6066 F60.00
G01 X32.2706 Y-10.6828 F60.00
G01 X32.3139 Y-10.7551 F60.00
G01 X32.3641 Y-10.8228 F60.00
G01 X32.4207 Y-10.8853 F60.00
G01 X32.4832 Y-10.9419 F60.00
G01 X32.5509 Y-10.9921 F60.00
G01 X32.6232 Y-11.0354 F60.00
G01 X32.6994 Y-11.0714 F60.00
G01 X32.7787 Y-11.0998 F60.00
G01 X32.8605 Y-11.1203 F60.00
G01 X32.9438 Y-11.1327 F60.00
G01 X33.0280 Y-11.1368 F60.00
G01 X33.1122 Y-11.1327 F60.00
G01 X33.1955 Y-11.1203 F60.00
G01 X33.2773 Y-11.0998 F60.00
G01 X33.3566 Y-11.0714 F60.00
G01 X33.4328 Y-11.0354 F60.00
G01 X33.5051 Y-10.9921 F60.00
G01 X33.5728 Y-10.9419 F60.00
G01 X33.6291 Y-10.8911 F60.00
G00 Z2.0000
G00 X37.5969 Y-5.3280
G01 F60.00
G01 Z-0.0499
G01 F60.00
G01 X37.6143 Y-5.5270 F60.00
G01 X37.6661 Y-5.7200 F60.00
G01 X37.7505 Y-5.9010 F60.00
G01 X37.8651 Y-6.0647 F60.00
G01 X38.0063 Y-6.2059 F60.00
G01 X38.1700 Y-6.3205 F60.00
G01 X38.3510 Y-6.4049 F60.00
G01 X38.5440 Y-6.4567 F60.00
G01 X38.7430 Y-6.4741 F60.00
G01 X38.9420 Y-6.4567 F60.00
G01 X39.1350 Y-6.4049 F60.00
G01 X39.3160 Y-6.3205 F60.00
G01 X39.4020 Y-6.2603 F60.00
G01 X39.4086 Y-6.2563 F60.00
G01 X39.4155 Y-6.2527 F60.00
G01 X39.4275 Y-6.2478 F60.00
G01 X39.4964 Y-6.2247 F60.00
G01 X39.5098 Y-6.2214 F60.00
G01 X39.5236 Y-6.2199 F60.00
G01 X40.9500 Y-6.2197 F60.00
G01 X40.9673 Y-6.2206 F60.00
G01 X41.0683 Y-6.2309 F60.00
G01 X42.1073 Y-6.2309 F60.00
G01 X42.2082 Y-6.2206 F60.00
G01 X42.2256 Y-6.2197 F60.00
G01 X43.5962 Y-6.2197 F60.00
G01 X43.6091 Y-6.2205 F60.00
G01 X43.6168 Y-6.2217 F60.00
G01 X43.6243 Y-6.2234 F60.00
G01 X43.6965 Y-6.2446 F60.00
G01 X43.7043 Y-6.2474 F60.00
G01 X43.7119 Y-6.2509 F60.00
G01 X43.7191 Y-6.2549 F60.00
G01 X43.7297 Y-6.2618 F60.00
G01 X43.8850 Y-6.3705 F60.00
G01 X44.0660 Y-6.4549 F60.00
G01 X44.2590 Y-6.5067 F60.00
G01 X44.4580 Y-6.5241 F60.00
G01 X44.6570 Y-6.5067 F60.00
G01 X44.8500 Y-6.4549 F60.00
G01 X45.0310 Y-6.3705 F60.00
G01 X45.1947 Y-6.2559 F60.00
G01 X45.3359 Y-6.1147 F60.00
G01 X45.4505 Y-5.9510 F60.00
G01 X45.5349 Y-5.7700 F60.00
G01 X45.5867 Y-5.5770 F60.00
G01 X45.6041 Y-5.3780 F60.00
G01 X45.5867 Y-5.1790 F60.00
G01 X45.5349 Y-4.9860 F60.00
G01 X45.4505 Y-4.8050 F60.00
G01 X45.3359 Y-4.6413 F60.00
G01 X45.1947 Y-4.5001 F60.00
G01 X45.0310 Y-4.3855 F60.00
G01 X44.8500 Y-4.3011 F60.00
G01 X44.6570 Y-4.2493 F60.00
G01 X44.4580 Y-4.2319 F60.00
G01 X44.2590 Y-4.2493 F60.00
G01 X44.0660 Y-4.3011 F60.00
G01 X43.8850 Y-4.3855 F60.00
G01 X43.8660 Y-4.3984 F60.00
G01 X43.8592 Y-4.4022 F60.00
G01 X43.8521 Y-4.4054 F60.00
G01 X43.8449 Y-4.4082 F60.00
G01 X43.7760 Y-4.4313 F60.00
G01 X43.7626 Y-4.4346 F60.00
G01 X43.7488 Y-4.4361 F60.00
G01 X39.5334 Y-4.4363 F60.00
G01 X39.5257 Y-4.4360 F60.00
G01 X39.5179 Y-4.4352 F60.00
G01 X39.5053 Y-4.4326 F60.00
G01 X39.4331 Y-4.4114 F60.00
G01 X39.4202 Y-4.4063 F60.00
G01 X39.4104 Y-4.4011 F60.00
G01 X39.4017 Y-4.3954 F60.00
G01 X39.3160 Y-4.3355 F60.00
G01 X39.1350 Y-4.2511 F60.00
G01 X38.9420 Y-4.1993 F60.00
G01 X38.7430 Y-4.1819 F60.00
G01 X38.5440 Y-4.1993 F60.00
G01 X38.3510 Y-4.2511 F60.00
G01 X38.1700 Y-4.3355 F60.00
G01 X38.0063 Y-4.4501 F60.00
G01 X37.8651 Y-4.5913 F60.00
G01 X37.7505 Y-4.7550 F60.00
G01 X37.6661 Y-4.9360 F60.00
G01 X37.6143 Y-5.1290 F60.00
G01 X37.5969 Y-5.3280 F60.00
G00 Z2.0000
G00 X39.3484 Y-5.9371
G01 F60.00
G01 Z-0.0499
G01 F60.00
G01 X41.0268 Y-5.9372 F60.00
G01 X41.0454 Y-5.9416 F60.00
G01 X41.0750 Y-5.9460 F60.00
G01 X41.0830 Y-5.9467 F60.00
G01 X41.1128 Y-5.9480 F60.00
G01 X42.0628 Y-5.9480 F60.00
G01 X42.0926 Y-5.9467 F60.00
G01 X42.1006 Y-5.9460 F60.00
G01 X42.1302 Y-5.9416 F60.00
G01 X42.1495 Y-5.9371 F60.00
G01 X43.8069 Y-5.9371 F60.00
G01 X43.8507 Y-5.9853 F60.00
G01 X43.9091 Y-6.0384 F60.00
G01 X43.9174 Y-6.0451 F60.00
G01 X43.9765 Y-6.0890 F60.00
G01 X43.9854 Y-6.0949 F60.00
G01 X44.0532 Y-6.1354 F60.00
G01 X44.1294 Y-6.1714 F60.00
G01 X44.2087 Y-6.1998 F60.00
G01 X44.2852 Y-6.2191 F60.00
G01 X44.2957 Y-6.2212 F60.00
G01 X44.3738 Y-6.2327 F60.00
G01 X44.4527 Y-6.2367 F60.00
G01 X44.4633 Y-6.2367 F60.00
G01 X44.5422 Y-6.2327 F60.00
G01 X44.6255 Y-6.2203 F60.00
G01 X44.7073 Y-6.1998 F60.00
G01 X44.7866 Y-6.1714 F60.00
G01 X44.8628 Y-6.1354 F60.00
G01 X44.9351 Y-6.0921 F60.00
G01 X45.0028 Y-6.0419 F60.00
G01 X45.0653 Y-5.9853 F60.00
G01 X45.1219 Y-5.9228 F60.00
G01 X45.1721 Y-5.8551 F60.00
G01 X45.2154 Y-5.7828 F60.00
G01 X45.2514 Y-5.7066 F60.00
G01 X45.2798 Y-5.6273 F60.00
G01 X45.3003 Y-5.5455 F60.00
G01 X45.3127 Y-5.4622 F60.00
G01 X45.3168 Y-5.3780 F60.00
G01 X45.3127 Y-5.2938 F60.00
G01 X45.3003 Y-5.2105 F60.00
G01 X45.2798 Y-5.1287 F60.00
G01 X45.2514 Y-5.0494 F60.00
G01 X45.2178 Y-4.9779 F60.00
G01 X45.2128 Y-4.9685 F60.00
G01 X45.1749 Y-4.9054 F60.00
G01 X45.1690 Y-4.8965 F60.00
G01 X45.1219 Y-4.8332 F60.00
G01 X45.0653 Y-4.7707 F60.00
G01 X45.0028 Y-4.7141 F60.00
G01 X44.9351 Y-4.6639 F60.00
G01 X44.8628 Y-4.6206 F60.00
G01 X44.7915 Y-4.5867 F60.00
G01 X44.7817 Y-4.5827 F60.00
G01 X44.7124 Y-4.5579 F60.00
G01 X44.7021 Y-4.5548 F60.00
G01 X44.6255 Y-4.5357 F60.00
G01 X44.5475 Y-4.5240 F60.00
G01 X44.5395 Y-4.5231 F60.00
G01 X44.4580 Y-4.5192 F60.00
G01 X44.3738 Y-4.5233 F60.00
G01 X44.2905 Y-4.5357 F60.00
G01 X44.2087 Y-4.5562 F60.00
G01 X44.1294 Y-4.5846 F60.00
G01 X44.0532 Y-4.6206 F60.00
G01 X43.9809 Y-4.6639 F60.00
G01 X43.9174 Y-4.7109 F60.00
G01 X43.9077 Y-4.7189 F60.00
G01 X39.3484 Y-4.7189 F60.00
G01 X39.2878 Y-4.6641 F60.00
G01 X39.2201 Y-4.6139 F60.00
G01 X39.1478 Y-4.5706 F60.00
G01 X39.0716 Y-4.5346 F60.00
G01 X38.9923 Y-4.5062 F60.00
G01 X38.9105 Y-4.4857 F60.00
G01 X38.8272 Y-4.4733 F60.00
G01 X38.7483 Y-4.4693 F60.00
G01 X38.7403 Y-4.4692 F60.00
G01 X38.6588 Y-4.4733 F60.00
G01 X38.5755 Y-4.4857 F60.00
G01 X38.4937 Y-4.5062 F60.00
G01 X38.4144 Y-4.5346 F60.00
G01 X38.3382 Y-4.5706 F60.00
G01 X38.2659 Y-4.6139 F60.00
G01 X38.1982 Y-4.6641 F60.00
G01 X38.1357 Y-4.7207 F60.00
G01 X38.0791 Y-4.7832 F60.00
G01 X38.0289 Y-4.8509 F60.00
G01 X37.9856 Y-4.9232 F60.00
G01 X37.9496 Y-4.9994 F60.00
G01 X37.9212 Y-5.0787 F60.00
G01 X37.9007 Y-5.1605 F60.00
G01 X37.8883 Y-5.2438 F60.00
G01 X37.8842 Y-5.3280 F60.00
G01 X37.8883 Y-5.4122 F60.00
G01 X37.9007 Y-5.4955 F60.00
G01 X37.9212 Y-5.5773 F60.00
G01 X37.9496 Y-5.6566 F60.00
G01 X37.9856 Y-5.7328 F60.00
G01 X38.0289 Y-5.8051 F60.00
G01 X38.0791 Y-5.8728 F60.00
G01 X38.1357 Y-5.9353 F60.00
G01 X38.1982 Y-5.9919 F60.00
G01 X38.2659 Y-6.0421 F60.00
G01 X38.3382 Y-6.0854 F60.00
G01 X38.4144 Y-6.1214 F60.00
G01 X38.4937 Y-6.1498 F60.00
G01 X38.5755 Y-6.1703 F60.00
G01 X38.6588 Y-6.1827 F60.00
G01 X38.7430 Y-6.1868 F60.00
G01 X38.8272 Y-6.1827 F60.00
G01 X38.9105 Y-6.1703 F60.00
G01 X38.9923 Y-6.1498 F60.00
G01 X39.0716 Y-6.1214 F60.00
G01 X39.1478 Y-6.0854 F60.00
G01 X39.2201 Y-6.0421 F60.00
G01 X39.2878 Y-5.9919 F60.00
G01 X39.3484 Y-5.9371 F60.00
G00 Z2.0000
G00 X43.3119 Y-10.2780
G01 F60.00
G01 Z-0.0499
G01 F60.00
G01 X43.3293 Y-10.4770 F60.00
G01 X43.3811 Y-10.6700 F60.00
G01 X43.4655 Y-10.8510 F60.00
G01 X43.5801 Y-11.0147 F60.00
G01 X43.7213 Y-11.1559 F60.00
G01 X43.8850 Y-11.2705 F60.00
G01 X44.0660 Y-11.3549 F60.00
G01 X44.2590 Y-11.4067 F60.00
G01 X44.4580 Y-11.4241 F60.00
G01 X44.6570 Y-11.4067 F60.00
G01 X44.8500 Y-11.3549 F60.00
G01 X45.0310 Y-11.2705 F60.00
G01 X45.0967 Y-11.2245 F60.00
G01 X45.1034 Y-11.2205 F60.00
G01 X45.1126 Y-11.2158 F60.00
G01 X45.1222 Y-11.2120 F60.00
G01 X45.1937 Y-11.1881 F60.00
G01 X45.2018 Y-11.1861 F60.00
G01 X45.2100 Y-11.1848 F60.00
G01 X45.2260 Y-11.1839 F60.00
G01 X49.4769 Y-11.1839 F60.00
G01 X49.4898 Y-11.1850 F60.00
G01 X49.5024 Y-11.1876 F60.00
G01 X49.5720 Y-11.2080 F60.00
G01 X49.5824 Y-11.2116 F60.00
G01 X49.5900 Y-11.2151 F60.00
G01 X49.5984 Y-11.2198 F60.00
G01 X49.7810 Y-11.3049 F60.00
G01 X49.9740 Y-11.3567 F60.00
G01 X50.1730 Y-11.3741 F60.00
G01 X50.3720 Y-11.3567 F60.00
G01 X50.5650 Y-11.3049 F60.00
G01 X50.7460 Y-11.2205 F60.00
G01 X50.9097 Y-11.1059 F60.00
G01 X51.0509 Y-10.9647 F60.00
G01 X51.1655 Y-10.8010 F60.00
G01 X51.2499 Y-10.6200 F60.00
G01 X51.3017 Y-10.4270 F60.00
G01 X51.3191 Y-10.2280 F60.00
G01 X51.3017 Y-10.0290 F60.00
G01 X51.2499 Y-9.8360 F60.00
G01 X51.1655 Y-9.6550 F60.00
G01 X51.0509 Y-9.4913 F60.00
G01 X50.9097 Y-9.3501 F60.00
G01 X50.7460 Y-9.2355 F60.00
G01 X50.5650 Y-9.1511 F60.00
G01 X50.3720 Y-9.0993 F60.00
G01 X50.1730 Y-9.0819 F60.00
G01 X49.9740 Y-9.0993 F60.00
G01 X49.7810 Y-9.1511 F60.00
G01 X49.6000 Y-9.2355 F60.00
G01 X49.4244 Y-9.3584 F60.00
G01 X49.4179 Y-9.3626 F60.00
G01 X49.4111 Y-9.3664 F60.00
G01 X49.4041 Y-9.3696 F60.00
G01 X49.3968 Y-9.3724 F60.00
G01 X49.3253 Y-9.3963 F60.00
G01 X49.3172 Y-9.3983 F60.00
G01 X49.3090 Y-9.3996 F60.00
G01 X49.2931 Y-9.4005 F60.00
G01 X45.2635 Y-9.4004 F60.00
G01 X45.2507 Y-9.3990 F60.00
G01 X45.2405 Y-9.3968 F60.00
G01 X45.1684 Y-9.3756 F60.00
G01 X45.1555 Y-9.3705 F60.00
G01 X45.1457 Y-9.3653 F60.00
G01 X45.1370 Y-9.3596 F60.00
G01 X45.0310 Y-9.2855 F60.00
G01 X44.8500 Y-9.2011 F60.00
G01 X44.6570 Y-9.1493 F60.00
G01 X44.4580 Y-9.1319 F60.00
G01 X44.2590 Y-9.1493 F60.00
G01 X44.0660 Y-9.2011 F60.00
G01 X43.8850 Y-9.2855 F60.00
G01 X43.7213 Y-9.4001 F60.00
G01 X43.5801 Y-9.5413 F60.00
G01 X43.4655 Y-9.7050 F60.00
G01 X43.3811 Y-9.8860 F60.00
G01 X43.3293 Y-10.0790 F60.00
G01 X43.3119 Y-10.2780 F60.00
G00 Z2.0000
G00 X45.0478 Y-10.9013
G01 F60.00
G01 Z-0.0499
G01 F60.00
G01 X49.6406 Y-10.9013 F60.00
G01 X49.6959 Y-10.9421 F60.00
G01 X49.7682 Y-10.9854 F60.00
G01 X49.8444 Y-11.0214 F60.00
G01 X49.9237 Y-11.0498 F60.00
G01 X50.0055 Y-11.0703 F60.00
G01 X50.0888 Y-11.0827 F60.00
G01 X50.1730 Y-11.0868 F60.00
G01 X50.2519 Y-11.0831 F60.00
G01 X50.2598 Y-11.0824 F60.00
G01 X50.3405 Y-11.0703 F60.00
G01 X50.4223 Y-11.0498 F60.00
G01 X50.5016 Y-11.0214 F60.00
G01 X50.5778 Y-10.9854 F60.00
G01 X50.6501 Y-10.9421 F60.00
G01 X50.7178 Y-10.8919 F60.00
G01 X50.7803 Y-10.8353 F60.00
G01 X50.8369 Y-10.7728 F60.00
G01 X50.8871 Y-10.7051 F60.00
G01 X50.9304 Y-10.6328 F60.00
G01 X50.9664 Y-10.5566 F60.00
G01 X50.9948 Y-10.4773 F60.00
G01 X51.0153 Y-10.3955 F60.00
G01 X51.0277 Y-10.3122 F60.00
G01 X51.0318 Y-10.2280 F60.00
G01 X51.0281 Y-10.1491 F60.00
G01 X51.0274 Y-10.1412 F60.00
G01 X51.0153 Y-10.0605 F60.00
G01 X50.9948 Y-9.9787 F60.00
G01 X50.9664 Y-9.8994 F60.00
G01 X50.9328 Y-9.8279 F60.00
G01 X50.9278 Y-9.8185 F60.00
G01 X50.8899 Y-9.7554 F60.00
G01 X50.8840 Y-9.7465 F60.00
G01 X50.8369 Y-9.6832 F60.00
G01 X50.7803 Y-9.6207 F60.00
G01 X50.7178 Y-9.5641 F60.00
G01 X50.6501 Y-9.5139 F60.00
G01 X50.5778 Y-9.4706 F60.00
G01 X50.5065 Y-9.4367 F60.00
G01 X50.4967 Y-9.4327 F60.00
G01 X50.4274 Y-9.4079 F60.00
G01 X50.4171 Y-9.4048 F60.00
G01 X50.3405 Y-9.3857 F60.00
G01 X50.2625 Y-9.3740 F60.00
G01 X50.2545 Y-9.3731 F60.00
G01 X50.1783 Y-9.3693 F60.00
G01 X50.1677 Y-9.3693 F60.00
G01 X50.0888 Y-9.3733 F60.00
G01 X50.0107 Y-9.3848 F60.00
G01 X50.0002 Y-9.3869 F60.00
G01 X49.9237 Y-9.4062 F60.00
G01 X49.8444 Y-9.4346 F60.00
G01 X49.7682 Y-9.4706 F60.00
G01 X49.7004 Y-9.5111 F60.00
G01 X49.6915 Y-9.5170 F60.00
G01 X49.6282 Y-9.5641 F60.00
G01 X49.5696 Y-9.6171 F60.00
G01 X49.5621 Y-9.6246 F60.00
G01 X49.5092 Y-9.6831 F60.00
G01 X45.0767 Y-9.6831 F60.00
G01 X45.0634 Y-9.6689 F60.00
G01 X45.0049 Y-9.6159 F60.00
G01 X44.9986 Y-9.6109 F60.00
G01 X44.9351 Y-9.5639 F60.00
G01 X44.8628 Y-9.5206 F60.00
G01 X44.7866 Y-9.4846 F60.00
G01 X44.7073 Y-9.4562 F60.00
G01 X44.6255 Y-9.4357 F60.00
G01 X44.5422 Y-9.4233 F60.00
G01 X44.4580 Y-9.4192 F60.00
G01 X44.3738 Y-9.4233 F60.00
G01 X44.2905 Y-9.4357 F60.00
G01 X44.2087 Y-9.4562 F60.00
G01 X44.1294 Y-9.4846 F60.00
G01 X44.0532 Y-9.5206 F60.00
G01 X43.9809 Y-9.5639 F60.00
G01 X43.9132 Y-9.6141 F60.00
G01 X43.8526 Y-9.6689 F60.00
G01 X43.8471 Y-9.6746 F60.00
G01 X43.7941 Y-9.7332 F60.00
G01 X43.7439 Y-9.8009 F60.00
G01 X43.7006 Y-9.8732 F60.00
G01 X43.6646 Y-9.9494 F60.00
G01 X43.6362 Y-10.0287 F60.00
G01 X43.6157 Y-10.1105 F60.00
G01 X43.6033 Y-10.1938 F60.00
G01 X43.5992 Y-10.2780 F60.00
G01 X43.6033 Y-10.3622 F60.00
G01 X43.6157 Y-10.4455 F60.00
G01 X43.6362 Y-10.5273 F60.00
G01 X43.6646 Y-10.6066 F60.00
G01 X43.7006 Y-10.6828 F60.00
G01 X43.7439 Y-10.7551 F60.00
G01 X43.7941 Y-10.8228 F60.00
G01 X43.8489 Y-10.8834 F60.00
G01 X43.8546 Y-10.8889 F60.00
G01 X43.9132 Y-10.9419 F60.00
G01 X43.9809 Y-10.9921 F60.00
G01 X44.0532 Y-11.0354 F60.00
G01 X44.1294 Y-11.0714 F60.00
G01 X44.2087 Y-11.0998 F60.00
G01 X44.2905 Y-11.1203 F60.00
G01 X44.3738 Y-11.1327 F60.00
G01 X44.4553 Y-11.1368 F60.00
G01 X44.4633 Y-11.1367 F60.00
G01 X44.5422 Y-11.1327 F60.00
G01 X44.6255 Y-11.1203 F60.00
G01 X44.7073 Y-11.0998 F60.00
G01 X44.7842 Y-11.0724 F60.00
G01 X44.7915 Y-11.0693 F60.00
G01 X44.8628 Y-11.0354 F60.00
G01 X44.9329 Y-10.9935 F60.00
G01 X44.9395 Y-10.9890 F60.00
G01 X45.0028 Y-10.9419 F60.00
G01 X45.0478 Y-10.9013 F60.00
G00 Z2.0000
G00 X49.0269 Y-5.3280
G01 F60.00
G01 Z-0.0499
G01 F60.00
G01 X49.0443 Y-5.5270 F60.00
G01 X49.0961 Y-5.7200 F60.00
G01 X49.1805 Y-5.9010 F60.00
G01 X49.2951 Y-6.0647 F60.00
G01 X49.4363 Y-6.2059 F60.00
G01 X49.6000 Y-6.3205 F60.00
G01 X49.7810 Y-6.4049 F60.00
G01 X49.9740 Y-6.4567 F60.00
G01 X50.1730 Y-6.4741 F60.00
G01 X50.3720 Y-6.4567 F60.00
G01 X50.5650 Y-6.4049 F60.00
G01 X50.7460 Y-6.3205 F60.00
G01 X50.8502 Y-6.2476 F60.00
G01 X50.8567 Y-6.2434 F60.00
G01 X50.8658 Y-6.2385 F60.00
G01 X50.8778 Y-6.2336 F60.00
G01 X50.9466 Y-6.2105 F60.00
G01 X50.9601 Y-6.2072 F60.00
G01 X50.9738 Y-6.2057 F60.00
G01 X55.0059 Y-6.2055 F60.00
G01 X55.0137 Y-6.2058 F60.00
G01 X55.0214 Y-6.2066 F60.00
G01 X55.0341 Y-6.2092 F60.00
G01 X55.1062 Y-6.2304 F60.00
G01 X55.1140 Y-6.2332 F60.00
G01 X55.1216 Y-6.2367 F60.00
G01 X55.1289 Y-6.2407 F60.00
G01 X55.1394 Y-6.2476 F60.00
G01 X55.3150 Y-6.3705 F60.00
G01 X55.4960 Y-6.4549 F60.00
G01 X55.6890 Y-6.5067 F60.00
G01 X55.8880 Y-6.5241 F60.00
G01 X56.0870 Y-6.5067 F60.00
G01 X56.2800 Y-6.4549 F60.00
G01 X56.4610 Y-6.3705 F60.00
G01 X56.5470 Y-6.3103 F60.00
G01 X56.5536 Y-6.3063 F60.00
G01 X56.5605 Y-6.3027 F60.00
G01 X56.5725 Y-6.2978 F60.00
G01 X56.6440 Y-6.2739 F60.00
G01 X56.6521 Y-6.2719 F60.00
G01 X56.6603 Y-6.2706 F60.00
G01 X56.6686 Y-6.2699 F60.00
G01 X56.6784 Y-6.2697 F60.00
G01 X61.0718 Y-6.2698 F60.00
G01 X61.0846 Y-6.2712 F60.00
G01 X61.0947 Y-6.2734 F60.00
G01 X61.1669 Y-6.2946 F60.00
G01 X61.1798 Y-6.2997 F60.00
G01 X61.1896 Y-6.3049 F60.00
G01 X61.1983 Y-6.3106 F60.00
G01 X61.2840 Y-6.3705 F60.00
G01 X61.4650 Y-6.4549 F60.00
G01 X61.6580 Y-6.5067 F60.00
G01 X61.8570 Y-6.5241 F60.00
G01 X62.0560 Y-6.5067 F60.00
G01 X62.2490 Y-6.4549 F60.00
G01 X62.4300 Y-6.3705 F60.00
G01 X62.5937 Y-6.2559 F60.00
G01 X62.7349 Y-6.1147 F60.00
G01 X62.8495 Y-5.9510 F60.00
G01 X62.9339 Y-5.7700 F60.00
G01 X62.9857 Y-5.5770 F60.00
G01 X63.0031 Y-5.3780 F60.00
G01 X62.9857 Y-5.1790 F60.00
G01 X62.9339 Y-4.9860 F60.00
G01 X62.8495 Y-4.8050 F60.00
G01 X62.7349 Y-4.6413 F60.00
G01 X62.5937 Y-4.5001 F60.00
G01 X62.4300 Y-4.3855 F60.00
G01 X62.2490 Y-4.3011 F60.00
G01 X62.0560 Y-4.2493 F60.00
G01 X61.8570 Y-4.2319 F60.00
G01 X61.6580 Y-4.2493 F60.00
G01 X61.4650 Y-4.3011 F60.00
G01 X61.2840 Y-4.3855 F60.00
G01 X61.1980 Y-4.4457 F60.00
G01 X61.1914 Y-4.4497 F60.00
G01 X61.1845 Y-4.4533 F60.00
G01 X61.1725 Y-4.4582 F60.00
G01 X61.1036 Y-4.4813 F60.00
G01 X61.0902 Y-4.4846 F60.00
G01 X61.0764 Y-4.4861 F60.00
G01 X56.6784 Y-4.4863 F60.00
G01 X56.6707 Y-4.4860 F60.00
G01 X56.6629 Y-4.4852 F60.00
G01 X56.6503 Y-4.4826 F60.00
G01 X56.5781 Y-4.4614 F60.00
G01 X56.5652 Y-4.4563 F60.00
G01 X56.5554 Y-4.4511 F60.00
G01 X56.5467 Y-4.4454 F60.00
G01 X56.4610 Y-4.3855 F60.00
G01 X56.2800 Y-4.3011 F60.00
G01 X56.0870 Y-4.2493 F60.00
G01 X55.8880 Y-4.2319 F60.00
G01 X55.6890 Y-4.2493 F60.00
G01 X55.4960 Y-4.3011 F60.00
G01 X55.3107 Y-4.3875 F60.00
G01 X55.3030 Y-4.3916 F60.00
G01 X55.2957 Y-4.3948 F60.00
G01 X55.2855 Y-4.3982 F60.00
G01 X55.2757 Y-4.4005 F60.00
G01 X55.2237 Y-4.4179 F60.00
G01 X55.2129 Y-4.4204 F60.00
G01 X55.1991 Y-4.4219 F60.00
G01 X50.9431 Y-4.4221 F60.00
G01 X50.9354 Y-4.4218 F60.00
G01 X50.9277 Y-4.4210 F60.00
G01 X50.9150 Y-4.4184 F60.00
G01 X50.8454 Y-4.3980 F60.00
G01 X50.8324 Y-4.3933 F60.00
G01 X50.8250 Y-4.3897 F60.00
G01 X50.8155 Y-4.3840 F60.00
G01 X50.7460 Y-4.3355 F60.00
G01 X50.5650 Y-4.2511 F60.00
G01 X50.3720 Y-4.1993 F60.00
G01 X50.1730 Y-4.1819 F60.00
G01 X49.9740 Y-4.1993 F60.00
G01 X49.7810 Y-4.2511 F60.00
G01 X49.6000 Y-4.3355 F60.00
G01 X49.4363 Y-4.4501 F60.00
G01 X49.2951 Y-4.5913 F60.00
G01 X49.1805 Y-4.7550 F60.00
G01 X49.0961 Y-4.9360 F60.00
G01 X49.0443 Y-5.1290 F60.00
G01 X49.0269 Y-5.3280 F60.00
G00 Z2.0000
G00 X50.7628 Y-4.7047
G01 F60.00
G01 Z-0.0499
G01 F60.00
G01 X50.7178 Y-4.6641 F60.00
G01 X50.6545 Y-4.6170 F60.00
G01 X50.6479 Y-4.6125 F60.00
G01 X50.5778 Y-4.5706 F60.00
G01 X50.5065 Y-4.5367 F60.00
G01 X50.4992 Y-4.5336 F60.00
G01 X50.4223 Y-4.5062 F60.00
G01 X50.3405 Y-4.4857 F60.00
G01 X50.2572 Y-4.4733 F60.00
G01 X50.1783 Y-4.4693 F60.00
G01 X50.1703 Y-4.4692 F60.00
G01 X50.0888 Y-4.4733 F60.00
G01 X50.0055 Y-4.4857 F60.00
G01 X49.9237 Y-4.5062 F60.00
G01 X49.8444 Y-4.5346 F60.00
G01 X49.7682 Y-4.5706 F60.00
G01 X49.6959 Y-4.6139 F60.00
G01 X49.6282 Y-4.6641 F60.00
G01 X49.5696 Y-4.7171 F60.00
G01 X49.5639 Y-4.7226 F60.00
G01 X49.5091 Y-4.7832 F60.00
G01 X49.4589 Y-4.8509 F60.00
G01 X49.4156 Y-4.9232 F60.00
G01 X49.3796 Y-4.9994 F60.00
G01 X49.3512 Y-5.0787 F60.00
G01 X49.3307 Y-5.1605 F60.00
G01 X49.3183 Y-5.2438 F60.00
G01 X49.3142 Y-5.3280 F60.00
G01 X49.3183 Y-5.4122 F60.00
G01 X49.3307 Y-5.4955 F60.00
G01 X49.3512 Y-5.5773 F60.00
G01 X49.3796 Y-5.6566 F60.00
G01 X49.4156 Y-5.7328 F60.00
G01 X49.4589 Y-5.8051 F60.00
G01 X49.5091 Y-5.8728 F60.00
G01 X49.5621 Y-5.9314 F60.00
G01 X49.5676 Y-5.9371 F60.00
G01 X49.6282 Y-5.9919 F60.00
G01 X49.6959 Y-6.0421 F60.00
G01 X49.7682 Y-6.0854 F60.00
G01 X49.8444 Y-6.1214 F60.00
G01 X49.9237 Y-6.1498 F60.00
G01 X50.0055 Y-6.1703 F60.00
G01 X50.0888 Y-6.1827 F60.00
G01 X50.1703 Y-6.1868 F60.00
G01 X50.1783 Y-6.1867 F60.00
G01 X50.2572 Y-6.1827 F60.00
G01 X50.3405 Y-6.1703 F60.00
G01 X50.4223 Y-6.1498 F60.00
G01 X50.5016 Y-6.1214 F60.00
G01 X50.5778 Y-6.0854 F60.00
G01 X50.6501 Y-6.0421 F60.00
G01 X50.7136 Y-5.9951 F60.00
G01 X50.7199 Y-5.9901 F60.00
G01 X50.7784 Y-5.9371 F60.00
G01 X50.7917 Y-5.9229 F60.00
G01 X55.2242 Y-5.9229 F60.00
G01 X55.2807 Y-5.9853 F60.00
G01 X55.3432 Y-6.0419 F60.00
G01 X55.4109 Y-6.0921 F60.00
G01 X55.4785 Y-6.1328 F60.00
G01 X55.4879 Y-6.1378 F60.00
G01 X55.5545 Y-6.1693 F60.00
G01 X55.5643 Y-6.1733 F60.00
G01 X55.6387 Y-6.1998 F60.00
G01 X55.7152 Y-6.2191 F60.00
G01 X55.7257 Y-6.2212 F60.00
G01 X55.8038 Y-6.2327 F60.00
G01 X55.8827 Y-6.2367 F60.00
G01 X55.8933 Y-6.2367 F60.00
G01 X55.9722 Y-6.2327 F60.00
G01 X56.0555 Y-6.2203 F60.00
G01 X56.1373 Y-6.1998 F60.00
G01 X56.2166 Y-6.1714 F60.00
G01 X56.2928 Y-6.1354 F60.00
G01 X56.3651 Y-6.0921 F60.00
G01 X56.4328 Y-6.0419 F60.00
G01 X56.4934 Y-5.9871 F60.00
G01 X61.2516 Y-5.9871 F60.00
G01 X61.3122 Y-6.0419 F60.00
G01 X61.3799 Y-6.0921 F60.00
G01 X61.4522 Y-6.1354 F60.00
G01 X61.5284 Y-6.1714 F60.00
G01 X61.6077 Y-6.1998 F60.00
G01 X61.6895 Y-6.2203 F60.00
G01 X61.7728 Y-6.2327 F60.00
G01 X61.8517 Y-6.2367 F60.00
G01 X61.8597 Y-6.2368 F60.00
G01 X61.9412 Y-6.2327 F60.00
G01 X62.0245 Y-6.2203 F60.00
G01 X62.1063 Y-6.1998 F60.00
G01 X62.1856 Y-6.1714 F60.00
G01 X62.2618 Y-6.1354 F60.00
G01 X62.3341 Y-6.0921 F60.00
G01 X62.4018 Y-6.0419 F60.00
G01 X62.4604 Y-5.9889 F60.00
G01 X62.4679 Y-5.9814 F60.00
G01 X62.5209 Y-5.9228 F60.00
G01 X62.5680 Y-5.8595 F60.00
G01 X62.5739 Y-5.8506 F60.00
G01 X62.6118 Y-5.7875 F60.00
G01 X62.6168 Y-5.7781 F60.00
G01 X62.6504 Y-5.7066 F60.00
G01 X62.6788 Y-5.6273 F60.00
G01 X62.6993 Y-5.5455 F60.00
G01 X62.7110 Y-5.4675 F60.00
G01 X62.7119 Y-5.4595 F60.00
G01 X62.7158 Y-5.3780 F60.00
G01 X62.7117 Y-5.2938 F60.00
G01 X62.6993 Y-5.2105 F60.00
G01 X62.6788 Y-5.1287 F60.00
G01 X62.6504 Y-5.0494 F60.00
G01 X62.6144 Y-4.9732 F60.00
G01 X62.5711 Y-4.9009 F60.00
G01 X62.5209 Y-4.8332 F60.00
G01 X62.4643 Y-4.7707 F60.00
G01 X62.4018 Y-4.7141 F60.00
G01 X62.3341 Y-4.6639 F60.00
G01 X62.2618 Y-4.6206 F60.00
G01 X62.1856 Y-4.5846 F60.00
G01 X62.1063 Y-4.5562 F60.00
G01 X62.0245 Y-4.5357 F60.00
G01 X61.9465 Y-4.5240 F60.00
G01 X61.9385 Y-4.5231 F60.00
G01 X61.8570 Y-4.5192 F60.00
G01 X61.7781 Y-4.5229 F60.00
G01 X61.7675 Y-4.5240 F60.00
G01 X61.6947 Y-4.5348 F60.00
G01 X61.6842 Y-4.5369 F60.00
G01 X61.6077 Y-4.5562 F60.00
G01 X61.5333 Y-4.5827 F60.00
G01 X61.5235 Y-4.5867 F60.00
G01 X61.4522 Y-4.6206 F60.00
G01 X61.3799 Y-4.6639 F60.00
G01 X61.3122 Y-4.7141 F60.00
G01 X61.2516 Y-4.7689 F60.00
G01 X56.4934 Y-4.7689 F60.00
G01 X56.4328 Y-4.7141 F60.00
G01 X56.3651 Y-4.6639 F60.00
G01 X56.2928 Y-4.6206 F60.00
G01 X56.2166 Y-4.5846 F60.00
G01 X56.1373 Y-4.5562 F60.00
G01 X56.0555 Y-4.5357 F60.00
G01 X55.9722 Y-4.5233 F60.00
G01 X55.8880 Y-4.5192 F60.00
G01 X55.8038 Y-4.5233 F60.00
G01 X55.7257 Y-4.5348 F60.00
G01 X55.7152 Y-4.5369 F60.00
G01 X55.6439 Y-4.5548 F60.00
G01 X55.6336 Y-4.5579 F60.00
G01 X55.5594 Y-4.5846 F60.00
G01 X55.4832 Y-4.6206 F60.00
G01 X55.4109 Y-4.6639 F60.00
G01 X55.3556 Y-4.7047 F60.00
G01 X50.7628 Y-4.7047 F60.00
G00 Z2.0000
G00 X54.7419 Y-10.2780
G01 F60.00
G01 Z-0.0499
G01 F60.00
G01 X54.7593 Y-10.4770 F60.00
G01 X54.8111 Y-10.6700 F60.00
G01 X54.8955 Y-10.8510 F60.00
G01 X55.0101 Y-11.0147 F60.00
G01 X55.1513 Y-11.1559 F60.00
G01 X55.3150 Y-11.2705 F60.00
G01 X55.4960 Y-11.3549 F60.00
G01 X55.6890 Y-11.4067 F60.00
G01 X55.8880 Y-11.4241 F60.00
G01 X56.0870 Y-11.4067 F60.00
G01 X56.2800 Y-11.3549 F60.00
G01 X56.4610 Y-11.2705 F60.00
G01 X56.5470 Y-11.2103 F60.00
G01 X56.5536 Y-11.2063 F60.00
G01 X56.5605 Y-11.2027 F60.00
G01 X56.5725 Y-11.1978 F60.00
G01 X56.6440 Y-11.1739 F60.00
G01 X56.6521 Y-11.1719 F60.00
G01 X56.6603 Y-11.1706 F60.00
G01 X56.6686 Y-11.1699 F60.00
G01 X56.6784 Y-11.1697 F60.00
G01 X61.0692 Y-11.1697 F60.00
G01 X61.0821 Y-11.1708 F60.00
G01 X61.0947 Y-11.1734 F60.00
G01 X61.1669 Y-11.1946 F60.00
G01 X61.1798 Y-11.1997 F60.00
G01 X61.1896 Y-11.2049 F60.00
G01 X61.1983 Y-11.2106 F60.00
G01 X61.2840 Y-11.2705 F60.00
G01 X61.4650 Y-11.3549 F60.00
G01 X61.6580 Y-11.4067 F60.00
G01 X61.8570 Y-11.4241 F60.00
G01 X62.0560 Y-11.4067 F60.00
G01 X62.2490 Y-11.3549 F60.00
G01 X62.4300 Y-11.2705 F60.00
G01 X62.5937 Y-11.1559 F60.00
G01 X62.7349 Y-11.0147 F60.00
G01 X62.8495 Y-10.8510 F60.00
G01 X62.9339 Y-10.6700 F60.00
G01 X62.9856 Y-10.4770 F60.00
G01 X62.9976 Y-10.3405 F60.00
G01 X62.9985 Y-10.3328 F60.00
G01 X63.0007 Y-10.3226 F60.00
G01 X63.0047 Y-10.3103 F60.00
G01 X63.0301 Y-10.2453 F60.00
G01 X63.0346 Y-10.2354 F60.00
G01 X63.0385 Y-10.2283 F60.00
G01 X63.0446 Y-10.2193 F60.00
G01 X63.0617 Y-10.1995 F60.00
G01 X66.1215 Y-7.1395 F60.00
G01 X66.1801 Y-7.0838 F60.00
G01 X66.2112 Y-7.0392 F60.00
G01 X66.2484 Y-6.9932 F60.00
G01 X66.2603 Y-6.9706 F60.00
G01 X66.2666 Y-6.9599 F60.00
G01 X66.2837 Y-6.9350 F60.00
G01 X66.3072 Y-6.8808 F60.00
G01 X66.3323 Y-6.8325 F60.00
G01 X66.3394 Y-6.8079 F60.00
G01 X66.3435 Y-6.7961 F60.00
G01 X66.3552 Y-6.7683 F60.00
G01 X66.3662 Y-6.7150 F60.00
G01 X66.3822 Y-6.6581 F60.00
G01 X66.3848 Y-6.6280 F60.00
G01 X66.3866 Y-6.6157 F60.00
G01 X66.3917 Y-6.5907 F60.00
G01 X66.3920 Y-6.5316 F60.00
G01 X66.3960 Y-6.4773 F60.00
G01 X66.3928 Y-6.4519 F60.00
G01 X66.3917 Y-6.4349 F60.00
G01 X66.3917 Y-6.3113 F60.00
G01 X66.3920 Y-6.3036 F60.00
G01 X66.3932 Y-6.2933 F60.00
G01 X66.3954 Y-6.2832 F60.00
G01 X66.4158 Y-6.2136 F60.00
G01 X66.4184 Y-6.2058 F60.00
G01 X66.4217 Y-6.1981 F60.00
G01 X66.4283 Y-6.1860 F60.00
G01 X66.5030 Y-6.0791 F60.00
G01 X66.5883 Y-5.8961 F60.00
G01 X66.6405 Y-5.7011 F60.00
G01 X66.6581 Y-5.5000 F60.00
G01 X66.6405 Y-5.2989 F60.00
G01 X66.5883 Y-5.1039 F60.00
G01 X66.5030 Y-4.9209 F60.00
G01 X66.3872 Y-4.7556 F60.00
G01 X66.2444 Y-4.6128 F60.00
G01 X66.0791 Y-4.4971 F60.00
G01 X65.8961 Y-4.4117 F60.00
G01 X65.7011 Y-4.3595 F60.00
G01 X65.5000 Y-4.3419 F60.00
G01 X65.2989 Y-4.3595 F60.00
G01 X65.1039 Y-4.4117 F60.00
G01 X64.9209 Y-4.4970 F60.00
G01 X64.7556 Y-4.6128 F60.00
G01 X64.6128 Y-4.7556 F60.00
G01 X64.4970 Y-4.9209 F60.00
G01 X64.4117 Y-5.1039 F60.00
G01 X64.3595 Y-5.2989 F60.00
G01 X64.3419 Y-5.5000 F60.00
G01 X64.3595 Y-5.7011 F60.00
G01 X64.4117 Y-5.8961 F60.00
G01 X64.4799 Y-6.0424 F60.00
G01 X64.4847 Y-6.0544 F60.00
G01 X64.4869 Y-6.0619 F60.00
G01 X64.4885 Y-6.0695 F60.00
G01 X64.5001 Y-6.1465 F60.00
G01 X64.5006 Y-6.1599 F60.00
G01 X64.4998 Y-6.1707 F60.00
G01 X64.4973 Y-6.1840 F60.00
G01 X64.4942 Y-6.1943 F60.00
G01 X64.4912 Y-6.2018 F60.00
G01 X64.4615 Y-6.2681 F60.00
G01 X64.4563 Y-6.2777 F60.00
G01 X64.4502 Y-6.2867 F60.00
G01 X64.4451 Y-6.2930 F60.00
G01 X64.4336 Y-6.3054 F60.00
G01 X61.6068 Y-9.1321 F60.00
G01 X61.5969 Y-9.1404 F60.00
G01 X61.5884 Y-9.1462 F60.00
G01 X61.5306 Y-9.1797 F60.00
G01 X61.5237 Y-9.1833 F60.00
G01 X61.5142 Y-9.1874 F60.00
G01 X61.5068 Y-9.1898 F60.00
G01 X61.4650 Y-9.2011 F60.00
G01 X61.2840 Y-9.2855 F60.00
G01 X61.1980 Y-9.3457 F60.00
G01 X61.1891 Y-9.3510 F60.00
G01 X61.1821 Y-9.3544 F60.00
G01 X61.1725 Y-9.3582 F60.00
G01 X61.1010 Y-9.3821 F60.00
G01 X61.0929 Y-9.3841 F60.00
G01 X61.0847 Y-9.3854 F60.00
G01 X61.0764 Y-9.3861 F60.00
G01 X61.0666 Y-9.3863 F60.00
G01 X56.6732 Y-9.3862 F60.00
G01 X56.6604 Y-9.3848 F60.00
G01 X56.6503 Y-9.3826 F60.00
G01 X56.5781 Y-9.3614 F60.00
G01 X56.5652 Y-9.3563 F60.00
G01 X56.5554 Y-9.3511 F60.00
G01 X56.5467 Y-9.3454 F60.00
G01 X56.4610 Y-9.2855 F60.00
G01 X56.2800 Y-9.2011 F60.00
G01 X56.0870 Y-9.1493 F60.00
G01 X55.8880 Y-9.1319 F60.00
G01 X55.6890 Y-9.1493 F60.00
G01 X55.4960 Y-9.2011 F60.00
G01 X55.3150 Y-9.2855 F60.00
G01 X55.1513 Y-9.4001 F60.00
G01 X55.0101 Y-9.5413 F60.00
G01 X54.8955 Y-9.7050 F60.00
G01 X54.8111 Y-9.8860 F60.00
G01 X54.7593 Y-10.0790 F60.00
G01 X54.7419 Y-10.2780 F60.00
G00 Z2.0000
G00 X56.4934 Y-10.8871
G01 F60.00
G01 Z-0.0499
G01 F60.00
G01 X61.2516 Y-10.8871 F60.00
G01 X61.3122 Y-10.9419 F60.00
G01 X61.3755 Y-10.9890 F60.00
G01 X61.3844 Y-10.9949 F60.00
G01 X61.4475 Y-11.0328 F60.00
G01 X61.4569 Y-11.0378 F60.00
G01 X61.5284 Y-11.0714 F60.00
G01 X61.6077 Y-11.0998 F60.00
G01 X61.6895 Y-11.1203 F60.00
G01 X61.7675 Y-11.1320 F60.00
G01 X61.7781 Y-11.1331 F60.00
G01 X61.8517 Y-11.1367 F60.00
G01 X61.8623 Y-11.1367 F60.00
G01 X61.9412 Y-11.1327 F60.00
G01 X62.0245 Y-11.1203 F60.00
G01 X62.1063 Y-11.0998 F60.00
G01 X62.1807 Y-11.0733 F60.00
G01 X62.1905 Y-11.0693 F60.00
G01 X62.2571 Y-11.0378 F60.00
G01 X62.2665 Y-11.0328 F60.00
G01 X62.3341 Y-10.9921 F60.00
G01 X62.3976 Y-10.9451 F60.00
G01 X62.4059 Y-10.9384 F60.00
G01 X62.4643 Y-10.8853 F60.00
G01 X62.5209 Y-10.8228 F60.00
G01 X62.5680 Y-10.7595 F60.00
G01 X62.5739 Y-10.7506 F60.00
G01 X62.6118 Y-10.6875 F60.00
G01 X62.6156 Y-10.6805 F60.00
G01 X62.6504 Y-10.6066 F60.00
G01 X62.6771 Y-10.5324 F60.00
G01 X62.6802 Y-10.5221 F60.00
G01 X62.6981 Y-10.4508 F60.00
G01 X62.6998 Y-10.4429 F60.00
G01 X62.7117 Y-10.3622 F60.00
G01 X62.7158 Y-10.2807 F60.00
G01 X62.7157 Y-10.2727 F60.00
G01 X62.7119 Y-10.1965 F60.00
G01 X62.7061 Y-10.1553 F60.00
G01 X65.9307 Y-6.9307 F60.00
G01 X65.9708 Y-6.8864 F60.00
G01 X66.0064 Y-6.8384 F60.00
G01 X66.0371 Y-6.7871 F60.00
G01 X66.0605 Y-6.7380 F60.00
G01 X66.0646 Y-6.7281 F60.00
G01 X66.0828 Y-6.6768 F60.00
G01 X66.0962 Y-6.6240 F60.00
G01 X66.0983 Y-6.6136 F60.00
G01 X66.1055 Y-6.5650 F60.00
G01 X66.1065 Y-6.5544 F60.00
G01 X66.1091 Y-6.5000 F60.00
G01 X66.1091 Y-6.1220 F60.00
G01 X66.1194 Y-6.1119 F60.00
G01 X66.1696 Y-6.0565 F60.00
G01 X66.1764 Y-6.0482 F60.00
G01 X66.2240 Y-5.9838 F60.00
G01 X66.2653 Y-5.9151 F60.00
G01 X66.2704 Y-5.9057 F60.00
G01 X66.3045 Y-5.8332 F60.00
G01 X66.3333 Y-5.7528 F60.00
G01 X66.3541 Y-5.6699 F60.00
G01 X66.3660 Y-5.5907 F60.00
G01 X66.3670 Y-5.5800 F60.00
G01 X66.3707 Y-5.5053 F60.00
G01 X66.3707 Y-5.4947 F60.00
G01 X66.3666 Y-5.4146 F60.00
G01 X66.3541 Y-5.3301 F60.00
G01 X66.3333 Y-5.2472 F60.00
G01 X66.3064 Y-5.1717 F60.00
G01 X66.3024 Y-5.1619 F60.00
G01 X66.2704 Y-5.0943 F60.00
G01 X66.2653 Y-5.0849 F60.00
G01 X66.2269 Y-5.0207 F60.00
G01 X66.2210 Y-5.0118 F60.00
G01 X66.1731 Y-4.9476 F60.00
G01 X66.1194 Y-4.8881 F60.00
G01 X66.1119 Y-4.8806 F60.00
G01 X66.0524 Y-4.8269 F60.00
G01 X65.9882 Y-4.7790 F60.00
G01 X65.9793 Y-4.7731 F60.00
G01 X65.9105 Y-4.7320 F60.00
G01 X65.8332 Y-4.6955 F60.00
G01 X65.7528 Y-4.6667 F60.00
G01 X65.6751 Y-4.6471 F60.00
G01 X65.6646 Y-4.6450 F60.00
G01 X65.5854 Y-4.6334 F60.00
G01 X65.5053 Y-4.6293 F60.00
G01 X65.4947 Y-4.6293 F60.00
G01 X65.4200 Y-4.6330 F60.00
G01 X65.4093 Y-4.6340 F60.00
G01 X65.3301 Y-4.6459 F60.00
G01 X65.2472 Y-4.6667 F60.00
G01 X65.1668 Y-4.6955 F60.00
G01 X65.0943 Y-4.7296 F60.00
G01 X65.0849 Y-4.7347 F60.00
G01 X65.0207 Y-4.7731 F60.00
G01 X65.0118 Y-4.7790 F60.00
G01 X64.9476 Y-4.8269 F60.00
G01 X64.8881 Y-4.8806 F60.00
G01 X64.8806 Y-4.8881 F60.00
G01 X64.8269 Y-4.9476 F60.00
G01 X64.7760 Y-5.0162 F60.00
G01 X64.7320 Y-5.0895 F60.00
G01 X64.6955 Y-5.1668 F60.00
G01 X64.6667 Y-5.2472 F60.00
G01 X64.6459 Y-5.3301 F60.00
G01 X64.6334 Y-5.4146 F60.00
G01 X64.6292 Y-5.5000 F60.00
G01 X64.6334 Y-5.5854 F60.00
G01 X64.6450 Y-5.6646 F60.00
G01 X64.6471 Y-5.6751 F60.00
G01 X64.6653 Y-5.7476 F60.00
G01 X64.6684 Y-5.7579 F60.00
G01 X64.6936 Y-5.8283 F60.00
G01 X64.6976 Y-5.8381 F60.00
G01 X64.7320 Y-5.9105 F60.00
G01 X64.7731 Y-5.9793 F60.00
G01 X64.7790 Y-5.9882 F60.00
G01 X64.8269 Y-6.0524 F60.00
G01 X64.8806 Y-6.1119 F60.00
G01 X64.8909 Y-6.1220 F60.00
G01 X64.8909 Y-6.2477 F60.00
G01 X61.7055 Y-9.4332 F60.00
G01 X61.6921 Y-9.4352 F60.00
G01 X61.6842 Y-9.4369 F60.00
G01 X61.6129 Y-9.4548 F60.00
G01 X61.6026 Y-9.4579 F60.00
G01 X61.5284 Y-9.4846 F60.00
G01 X61.4522 Y-9.5206 F60.00
G01 X61.3844 Y-9.5611 F60.00
G01 X61.3755 Y-9.5670 F60.00
G01 X61.3122 Y-9.6141 F60.00
G01 X61.2516 Y-9.6689 F60.00
G01 X56.4934 Y-9.6689 F60.00
G01 X56.4328 Y-9.6141 F60.00
G01 X56.3651 Y-9.5639 F60.00
G01 X56.2928 Y-9.5206 F60.00
G01 X56.2166 Y-9.4846 F60.00
G01 X56.1373 Y-9.4562 F60.00
G01 X56.0555 Y-9.4357 F60.00
G01 X55.9722 Y-9.4233 F60.00
G01 X55.8880 Y-9.4192 F60.00
G01 X55.8038 Y-9.4233 F60.00
G01 X55.7205 Y-9.4357 F60.00
G01 X55.6387 Y-9.4562 F60.00
G01 X55.5594 Y-9.4846 F60.00
G01 X55.4832 Y-9.5206 F60.00
G01 X55.4109 Y-9.5639 F60.00
G01 X55.3432 Y-9.6141 F60.00
G01 X55.2807 Y-9.6707 F60.00
G01 X55.2241 Y-9.7332 F60.00
G01 X55.1739 Y-9.8009 F60.00
G01 X55.1306 Y-9.8732 F60.00
G01 X55.0946 Y-9.9494 F60.00
G01 X55.0662 Y-10.0287 F60.00
G01 X55.0457 Y-10.1105 F60.00
G01 X55.0333 Y-10.1938 F60.00
G01 X55.0292 Y-10.2780 F60.00
G01 X55.0333 Y-10.3622 F60.00
G01 X55.0457 Y-10.4455 F60.00
G01 X55.0662 Y-10.5273 F60.00
G01 X55.0946 Y-10.6066 F60.00
G01 X55.1306 Y-10.6828 F60.00
G01 X55.1739 Y-10.7551 F60.00
G01 X55.2241 Y-10.8228 F60.00
G01 X55.2807 Y-10.8853 F60.00
G01 X55.3432 Y-10.9419 F60.00
G01 X55.4109 Y-10.9921 F60.00
G01 X55.4832 Y-11.0354 F60.00
G01 X55.5594 Y-11.0714 F60.00
G01 X55.6387 Y-11.0998 F60.00
G01 X55.7205 Y-11.1203 F60.00
G01 X55.8038 Y-11.1327 F60.00
G01 X55.8880 Y-11.1368 F60.00
G01 X55.9722 Y-11.1327 F60.00
G01 X56.0555 Y-11.1203 F60.00
G01 X56.1373 Y-11.0998 F60.00
G01 X56.2166 Y-11.0714 F60.00
G01 X56.2928 Y-11.0354 F60.00
G01 X56.3651 Y-10.9921 F60.00
G01 X56.4328 Y-10.9419 F60.00
G01 X56.4934 Y-10.8871 F60.00
G00 Z2.0000
G00 X66.8917 Y-14.1842
G01 F60.00
G01 Z-0.0499
G01 F60.00
G01 X66.8917 Y-15.9018 F60.00
G01 X66.8922 Y-15.9172 F60.00
G01 X66.8939 Y-15.9306 F60.00
G01 X66.8971 Y-15.9436 F60.00
G01 X66.9233 Y-16.0141 F60.00
G01 X66.9274 Y-16.0237 F60.00
G01 X66.9310 Y-16.0305 F60.00
G01 X66.9366 Y-16.0392 F60.00
G01 X66.9823 Y-16.1004 F60.00
G01 X67.0224 Y-16.2077 F60.00
G01 X67.0267 Y-16.2480 F60.00
G01 X67.0268 Y-19.8807 F60.00
G01 X67.0275 Y-19.8884 F60.00
G01 X67.0287 Y-19.8961 F60.00
G01 X67.0410 Y-19.9528 F60.00
G01 X67.0441 Y-19.9632 F60.00
G01 X67.0494 Y-19.9757 F60.00
G01 X67.0548 Y-19.9852 F60.00
G01 X67.0627 Y-19.9962 F60.00
G01 X67.1102 Y-20.0511 F60.00
G01 X67.1197 Y-20.0607 F60.00
G01 X67.1303 Y-20.0691 F60.00
G01 X67.1418 Y-20.0761 F60.00
G01 X67.1541 Y-20.0816 F60.00
G01 X67.1618 Y-20.0842 F60.00
G01 X67.2313 Y-20.1046 F60.00
G01 X67.2440 Y-20.1072 F60.00
G01 X67.2569 Y-20.1083 F60.00
G01 X71.8755 Y-20.1083 F60.00
G01 X71.8858 Y-20.1078 F60.00
G01 X71.8961 Y-20.1063 F60.00
G01 X71.9501 Y-20.0946 F60.00
G01 X71.9632 Y-20.0909 F60.00
G01 X71.9733 Y-20.0868 F60.00
G01 X71.9852 Y-20.0802 F60.00
G01 X71.9941 Y-20.0740 F60.00
G01 X72.0511 Y-20.0248 F60.00
G01 X72.0607 Y-20.0153 F60.00
G01 X72.0691 Y-20.0047 F60.00
G01 X72.0761 Y-19.9932 F60.00
G01 X72.0816 Y-19.9809 F60.00
G01 X72.0842 Y-19.9732 F60.00
G01 X72.1052 Y-19.9012 F60.00
G01 X72.1075 Y-19.8884 F60.00
G01 X72.1083 Y-19.8755 F60.00
G01 X72.1083 Y-10.6863 F60.00
G01 X72.1078 Y-10.6755 F60.00
G01 X72.1047 Y-10.6459 F60.00
G01 X72.1027 Y-10.6356 F60.00
G01 X72.0997 Y-10.6256 F60.00
G01 X72.0946 Y-10.6135 F60.00
G01 X72.0609 Y-10.5494 F60.00
G01 X72.0554 Y-10.5401 F60.00
G01 X72.0507 Y-10.5335 F60.00
G01 X72.0455 Y-10.5273 F60.00
G01 X72.0398 Y-10.5214 F60.00
G01 X72.0338 Y-10.5160 F60.00
G01 X72.0273 Y-10.5111 F60.00
G01 X72.0205 Y-10.5067 F60.00
G01 X72.0085 Y-10.4999 F60.00
G01 X72.0511 Y-10.4630 F60.00
G01 X72.0570 Y-10.4575 F60.00
G01 X72.0625 Y-10.4515 F60.00
G01 X72.0675 Y-10.4452 F60.00
G01 X72.0721 Y-10.4384 F60.00
G01 X72.0761 Y-10.4314 F60.00
G01 X72.0807 Y-10.4216 F60.00
G01 X72.0834 Y-10.4140 F60.00
G01 X72.1046 Y-10.3419 F60.00
G01 X72.1072 Y-10.3292 F60.00
G01 X72.1080 Y-10.3215 F60.00
G01 X72.1083 Y-10.3137 F60.00
G01 X72.1083 Y-0.1245 F60.00
G01 X72.1078 Y-0.1142 F60.00
G01 X72.1063 Y-0.1039 F60.00
G01 X72.0940 Y-0.0472 F60.00
G01 X72.0918 Y-0.0394 F60.00
G01 X72.0879 Y-0.0292 F60.00
G01 X72.0843 Y-0.0219 F60.00
G01 X72.0802 Y-0.0148 F60.00
G01 X72.0756 Y-0.0081 F60.00
G01 X72.0705 Y-0.0017 F60.00
G01 X72.0248 Y0.0511 F60.00
G01 X72.0173 Y0.0589 F60.00
G01 X72.0069 Y0.0675 F60.00
G01 X71.9979 Y0.0735 F60.00
G01 X71.9884 Y0.0785 F60.00
G01 X71.9783 Y0.0826 F60.00
G01 X71.9012 Y0.1052 F60.00
G01 X71.8884 Y0.1075 F60.00
G01 X71.8755 Y0.1083 F60.00
G01 X0.1245 Y0.1083 F60.00
G01 X0.1142 Y0.1078 F60.00
G01 X0.1039 Y0.1063 F60.00
G01 X0.0499 Y0.0946 F60.00
G01 X0.0394 Y0.0918 F60.00
G01 X0.0267 Y0.0868 F60.00
G01 X0.0148 Y0.0802 F60.00
G01 X0.0059 Y0.0740 F60.00
G01 X-0.0531 Y0.0230 F60.00
G01 X-0.0607 Y0.0153 F60.00
G01 X-0.0675 Y0.0069 F60.00
G01 X-0.0748 Y-0.0044 F60.00
G01 X-0.0796 Y-0.0141 F60.00
G01 X-0.0842 Y-0.0268 F60.00
G01 X-0.1058 Y-0.1014 F60.00
G01 X-0.1075 Y-0.1116 F60.00
G01 X-0.1083 Y-0.1245 F60.00
G01 X-0.1083 Y-5.0164 F60.00
G01 X-0.1078 Y-5.0245 F60.00
G01 X-0.1047 Y-5.0541 F60.00
G01 X-0.1027 Y-5.0644 F60.00
G01 X-0.0997 Y-5.0744 F60.00
G01 X-0.0946 Y-5.0864 F60.00
G01 X-0.0596 Y-5.1530 F60.00
G01 X-0.0554 Y-5.1599 F60.00
G01 X-0.0507 Y-5.1665 F60.00
G01 X-0.0455 Y-5.1727 F60.00
G01 X-0.0379 Y-5.1804 F60.00
G01 X-0.0317 Y-5.1856 F60.00
G01 X-0.0251 Y-5.1904 F60.00
G01 X-0.0085 Y-5.2001 F60.00
G01 X-0.0511 Y-5.2370 F60.00
G01 X-0.0570 Y-5.2425 F60.00
G01 X-0.0625 Y-5.2485 F60.00
G01 X-0.0675 Y-5.2548 F60.00
G01 X-0.0721 Y-5.2616 F60.00
G01 X-0.0761 Y-5.2686 F60.00
G01 X-0.0807 Y-5.2784 F60.00
G01 X-0.0834 Y-5.2860 F60.00
G01 X-0.1046 Y-5.3581 F60.00
G01 X-0.1063 Y-5.3657 F60.00
G01 X-0.1075 Y-5.3734 F60.00
G01 X-0.1083 Y-5.3863 F60.00
G01 X-0.1083 Y-19.8755 F60.00
G01 X-0.1078 Y-19.8858 F60.00
G01 X-0.1063 Y-19.8961 F60.00
G01 X-0.0946 Y-19.9501 F60.00
G01 X-0.0909 Y-19.9632 F60.00
G01 X-0.0868 Y-19.9733 F60.00
G01 X-0.0817 Y-19.9829 F60.00
G01 X-0.0740 Y-19.9941 F60.00
G01 X-0.0230 Y-20.0531 F60.00
G01 X-0.0153 Y-20.0607 F60.00
G01 X-0.0047 Y-20.0691 F60.00
G01 X0.0044 Y-20.0748 F60.00
G01 X0.0141 Y-20.0796 F60.00
G01 X0.0268 Y-20.0842 F60.00
G01 X0.1014 Y-20.1058 F60.00
G01 X0.1142 Y-20.1078 F60.00
G01 X0.1245 Y-20.1083 F60.00
G01 X4.7431 Y-20.1083 F60.00
G01 X4.7534 Y-20.1075 F60.00
G01 X4.7611 Y-20.1063 F60.00
G01 X4.8178 Y-20.0940 F60.00
G01 X4.8256 Y-20.0918 F60.00
G01 X4.8333 Y-20.0890 F60.00
G01 X4.8455 Y-20.0830 F60.00
G01 X4.8547 Y-20.0772 F60.00
G01 X4.8612 Y-20.0723 F60.00
G01 X4.9181 Y-20.0230 F60.00
G01 X4.9239 Y-20.0173 F60.00
G01 X4.9309 Y-20.0091 F60.00
G01 X4.9356 Y-20.0025 F60.00
G01 X4.9398 Y-19.9956 F60.00
G01 X4.9446 Y-19.9859 F60.00
G01 X4.9484 Y-19.9758 F60.00
G01 X4.9696 Y-19.9037 F60.00
G01 X4.9722 Y-19.8910 F60.00
G01 X4.9730 Y-19.8833 F60.00
G01 X4.9733 Y-19.8755 F60.00
G01 X4.9733 Y-16.2480 F60.00
G01 X4.9776 Y-16.2077 F60.00
G01 X5.0177 Y-16.1003 F60.00
G01 X5.0641 Y-16.0382 F60.00
G01 X5.0735 Y-16.0241 F60.00
G01 X5.0774 Y-16.0170 F60.00
G01 X5.0807 Y-16.0096 F60.00
G01 X5.0842 Y-15.9995 F60.00
G01 X5.1046 Y-15.9300 F60.00
G01 X5.1072 Y-15.9173 F60.00
G01 X5.1083 Y-15.9044 F60.00
G01 X5.1083 Y-10.7674 F60.00
G01 X5.1072 Y-10.7481 F60.00
G01 X5.1040 Y-10.7227 F60.00
G01 X5.1080 Y-10.6684 F60.00
G01 X5.1083 Y-10.6093 F60.00
G01 X5.1134 Y-10.5843 F60.00
G01 X5.1152 Y-10.5720 F60.00
G01 X5.1178 Y-10.5419 F60.00
G01 X5.1327 Y-10.4895 F60.00
G01 X5.1448 Y-10.4317 F60.00
G01 X5.1565 Y-10.4039 F60.00
G01 X5.1606 Y-10.3921 F60.00
G01 X5.1676 Y-10.3675 F60.00
G01 X5.1948 Y-10.3150 F60.00
G01 X5.2163 Y-10.2650 F60.00
G01 X5.2309 Y-10.2440 F60.00
G01 X5.2374 Y-10.2334 F60.00
G01 X5.2516 Y-10.2068 F60.00
G01 X5.2644 Y-10.1911 F60.00
G01 X5.2706 Y-10.1828 F60.00
G01 X5.2751 Y-10.1762 F60.00
G01 X5.2790 Y-10.1693 F60.00
G01 X5.2835 Y-10.1597 F60.00
G01 X5.3084 Y-10.0888 F60.00
G01 X5.3107 Y-10.0814 F60.00
G01 X5.3124 Y-10.0738 F60.00
G01 X5.3137 Y-10.0654 F60.00
G01 X5.3595 Y-9.8887 F60.00
G01 X5.4394 Y-9.7259 F60.00
G01 X5.4510 Y-9.7101 F60.00
G01 X5.4691 Y-9.6804 F60.00
G01 X5.4970 Y-9.6209 F60.00
G01 X5.6128 Y-9.4556 F60.00
G01 X5.7556 Y-9.3128 F60.00
G01 X5.9209 Y-9.1970 F60.00
G01 X6.1039 Y-9.1117 F60.00
G01 X6.2989 Y-9.0595 F60.00
G01 X6.5000 Y-9.0419 F60.00
G01 X6.7011 Y-9.0595 F60.00
G01 X6.8961 Y-9.1117 F60.00
G01 X7.0791 Y-9.1971 F60.00
G01 X7.2444 Y-9.3128 F60.00
G01 X7.3872 Y-9.4556 F60.00
G01 X7.5030 Y-9.6209 F60.00
G01 X7.5883 Y-9.8039 F60.00
G01 X7.6405 Y-9.9989 F60.00
G01 X7.6581 Y-10.2000 F60.00
G01 X7.6405 Y-10.4011 F60.00
G01 X7.5883 Y-10.5961 F60.00
G01 X7.5029 Y-10.7791 F60.00
G01 X7.3872 Y-10.9444 F60.00
G01 X7.2444 Y-11.0872 F60.00
G01 X7.0791 Y-11.2030 F60.00
G01 X7.0236 Y-11.2288 F60.00
G01 X7.0163 Y-11.2329 F60.00
G01 X7.0093 Y-11.2374 F60.00
G01 X7.0005 Y-11.2443 F60.00
G01 X6.9486 Y-11.2896 F60.00
G01 X6.9409 Y-11.2971 F60.00
G01 X6.9323 Y-11.3074 F60.00
G01 X6.9264 Y-11.3164 F60.00
G01 X6.9215 Y-11.3259 F60.00
G01 X6.9174 Y-11.3358 F60.00
G01 X6.8954 Y-11.4105 F60.00
G01 X6.8932 Y-11.4206 F60.00
G01 X6.8918 Y-11.4334 F60.00
G01 X6.8917 Y-15.9018 F60.00
G01 X6.8927 Y-15.9226 F60.00
G01 X6.8939 Y-15.9306 F60.00
G01 X6.8963 Y-15.9410 F60.00
G01 X6.8989 Y-15.9487 F60.00
G01 X6.9263 Y-16.0213 F60.00
G01 X6.9310 Y-16.0305 F60.00
G01 X6.9366 Y-16.0392 F60.00
G01 X6.9823 Y-16.1004 F60.00
G01 X7.0224 Y-16.2077 F60.00
G01 X7.0267 Y-16.2480 F60.00
G01 X7.0268 Y-19.8807 F60.00
G01 X7.0275 Y-19.8884 F60.00
G01 X7.0287 Y-19.8961 F60.00
G01 X7.0410 Y-19.9528 F60.00
G01 X7.0441 Y-19.9632 F60.00
G01 X7.0494 Y-19.9757 F60.00
G01 X7.0562 Y-19.9875 F60.00
G01 X7.0627 Y-19.9962 F60.00
G01 X7.1139 Y-20.0551 F60.00
G01 X7.1217 Y-20.0625 F60.00
G01 X7.1325 Y-20.0706 F60.00
G01 X7.1418 Y-20.0761 F60.00
G01 X7.1541 Y-20.0816 F60.00
G01 X7.1618 Y-20.0842 F60.00
G01 X7.2313 Y-20.1046 F60.00
G01 X7.2415 Y-20.1068 F60.00
G01 X7.2492 Y-20.1078 F60.00
G01 X7.2595 Y-20.1083 F60.00
G01 X64.7405 Y-20.1083 F60.00
G01 X64.7483 Y-20.1080 F60.00
G01 X64.7585 Y-20.1068 F60.00
G01 X64.8204 Y-20.0933 F60.00
G01 X64.8333 Y-20.0890 F60.00
G01 X64.8431 Y-20.0843 F60.00
G01 X64.8525 Y-20.0788 F60.00
G01 X64.8612 Y-20.0723 F60.00
G01 X64.9161 Y-20.0248 F60.00
G01 X64.9239 Y-20.0173 F60.00
G01 X64.9309 Y-20.0091 F60.00
G01 X64.9371 Y-20.0002 F60.00
G01 X64.9423 Y-19.9908 F60.00
G01 X64.9466 Y-19.9809 F60.00
G01 X64.9492 Y-19.9732 F60.00
G01 X64.9696 Y-19.9037 F60.00
G01 X64.9718 Y-19.8935 F60.00
G01 X64.9730 Y-19.8833 F60.00
G01 X64.9733 Y-19.8755 F60.00
G01 X64.9733 Y-16.2480 F60.00
G01 X64.9776 Y-16.2077 F60.00
G01 X65.0177 Y-16.1003 F60.00
G01 X65.0641 Y-16.0382 F60.00
G01 X65.0721 Y-16.0264 F60.00
G01 X65.0785 Y-16.0146 F60.00
G01 X65.0834 Y-16.0021 F60.00
G01 X65.1046 Y-15.9300 F60.00
G01 X65.1068 Y-15.9198 F60.00
G01 X65.1082 Y-15.9070 F60.00
G01 X65.1083 Y-13.7858 F60.00
G01 X65.1072 Y-13.7665 F60.00
G01 X65.1040 Y-13.7411 F60.00
G01 X65.1080 Y-13.6868 F60.00
G01 X65.1083 Y-13.6277 F60.00
G01 X65.1134 Y-13.6027 F60.00
G01 X65.1152 Y-13.5904 F60.00
G01 X65.1178 Y-13.5603 F60.00
G01 X65.1327 Y-13.5079 F60.00
G01 X65.1448 Y-13.4501 F60.00
G01 X65.1565 Y-13.4223 F60.00
G01 X65.1606 Y-13.4105 F60.00
G01 X65.1676 Y-13.3859 F60.00
G01 X65.1948 Y-13.3334 F60.00
G01 X65.2163 Y-13.2834 F60.00
G01 X65.2309 Y-13.2624 F60.00
G01 X65.2374 Y-13.2518 F60.00
G01 X65.2516 Y-13.2252 F60.00
G01 X65.2859 Y-13.1829 F60.00
G01 X65.3199 Y-13.1346 F60.00
G01 X65.3785 Y-13.0789 F60.00
G01 X68.5402 Y-9.9171 F60.00
G01 X68.5531 Y-9.9027 F60.00
G01 X68.5688 Y-9.8825 F60.00
G01 X68.6134 Y-9.8438 F60.00
G01 X68.6520 Y-9.8054 F60.00
G01 X68.6733 Y-9.7913 F60.00
G01 X68.6833 Y-9.7838 F60.00
G01 X68.7064 Y-9.7643 F60.00
G01 X68.7579 Y-9.7354 F60.00
G01 X68.8034 Y-9.7056 F60.00
G01 X68.8314 Y-9.6942 F60.00
G01 X68.8426 Y-9.6887 F60.00
G01 X68.8649 Y-9.6763 F60.00
G01 X68.9213 Y-9.6584 F60.00
G01 X68.9718 Y-9.6383 F60.00
G01 X68.9970 Y-9.6337 F60.00
G01 X69.0091 Y-9.6309 F60.00
G01 X69.0380 Y-9.6220 F60.00
G01 X69.0921 Y-9.6165 F60.00
G01 X69.1503 Y-9.6063 F60.00
G01 X69.2311 Y-9.6083 F60.00
G01 X69.6887 Y-9.6083 F60.00
G01 X69.7040 Y-9.6077 F60.00
G01 X69.7177 Y-9.6055 F60.00
G01 X69.7283 Y-9.6025 F60.00
G01 X69.7946 Y-9.5802 F60.00
G01 X69.8018 Y-9.5774 F60.00
G01 X69.8089 Y-9.5742 F60.00
G01 X69.8157 Y-9.5704 F60.00
G01 X69.8222 Y-9.5662 F60.00
G01 X69.9209 Y-9.4970 F60.00
G01 X70.1039 Y-9.4117 F60.00
G01 X70.2989 Y-9.3595 F60.00
G01 X70.5000 Y-9.3419 F60.00
G01 X70.7011 Y-9.3595 F60.00
G01 X70.8961 Y-9.4117 F60.00
G01 X71.0791 Y-9.4971 F60.00
G01 X71.2444 Y-9.6128 F60.00
G01 X71.3872 Y-9.7556 F60.00
G01 X71.5030 Y-9.9209 F60.00
G01 X71.5883 Y-10.1039 F60.00
G01 X71.6405 Y-10.2989 F60.00
G01 X71.6446 Y-10.3420 F60.00
G01 X71.6507 Y-10.3739 F60.00
G01 X71.6528 Y-10.3815 F60.00
G01 X71.6554 Y-10.3889 F60.00
G01 X71.6586 Y-10.3961 F60.00
G01 X71.6636 Y-10.4053 F60.00
G01 X71.7028 Y-10.4663 F60.00
G01 X71.7074 Y-10.4729 F60.00
G01 X71.7143 Y-10.4812 F60.00
G01 X71.7220 Y-10.4888 F60.00
G01 X71.7305 Y-10.4955 F60.00
G01 X71.7411 Y-10.5024 F60.00
G01 X71.7114 Y-10.5239 F60.00
G01 X71.7052 Y-10.5290 F60.00
G01 X71.6993 Y-10.5346 F60.00
G01 X71.6922 Y-10.5428 F60.00
G01 X71.6859 Y-10.5515 F60.00
G01 X71.6818 Y-10.5585 F60.00
G01 X71.6771 Y-10.5683 F60.00
G01 X71.6506 Y-10.6358 F60.00
G01 X71.6467 Y-10.6481 F60.00
G01 X71.6450 Y-10.6557 F60.00
G01 X71.6438 Y-10.6634 F60.00
G01 X71.6405 Y-10.7011 F60.00
G01 X71.5883 Y-10.8961 F60.00
G01 X71.5029 Y-11.0791 F60.00
G01 X71.3872 Y-11.2444 F60.00
G01 X71.2444 Y-11.3872 F60.00
G01 X71.0791 Y-11.5030 F60.00
G01 X70.8961 Y-11.5883 F60.00
G01 X70.7011 Y-11.6405 F60.00
G01 X70.5000 Y-11.6581 F60.00
G01 X70.2989 Y-11.6405 F60.00
G01 X70.1039 Y-11.5883 F60.00
G01 X69.9209 Y-11.5030 F60.00
G01 X69.8222 Y-11.4338 F60.00
G01 X69.8116 Y-11.4269 F60.00
G01 X69.8043 Y-11.4229 F60.00
G01 X69.7942 Y-11.4184 F60.00
G01 X69.7864 Y-11.4158 F60.00
G01 X69.7193 Y-11.3961 F60.00
G01 X69.7067 Y-11.3932 F60.00
G01 X69.6938 Y-11.3918 F60.00
G01 X69.6755 Y-11.3921 F60.00
G01 X69.6409 Y-11.3959 F60.00
G01 X69.6330 Y-11.3974 F60.00
G01 X69.6253 Y-11.3995 F60.00
G01 X69.6178 Y-11.4022 F60.00
G01 X69.6080 Y-11.4066 F60.00
G01 X69.5444 Y-11.4413 F60.00
G01 X69.5377 Y-11.4453 F60.00
G01 X69.5292 Y-11.4513 F60.00
G01 X69.5196 Y-11.4599 F60.00
G01 X66.9578 Y-14.0217 F60.00
G01 X66.9521 Y-14.0282 F60.00
G01 X66.9307 Y-14.0553 F60.00
G01 X66.9250 Y-14.0644 F60.00
G01 X66.9193 Y-14.0764 F60.00
G01 X66.9158 Y-14.0865 F60.00
G01 X66.8954 Y-14.1560 F60.00
G01 X66.8928 Y-14.1687 F60.00
G01 X66.8920 Y-14.1764 F60.00
G01 X66.8917 Y-14.1842 F60.00
G00 Z2.0000
G00 X65.3650 Y-19.9988
G01 F60.00
G01 Z-0.0499
G01 F60.00
G01 X66.6350 Y-19.9988 F60.00
G01 X66.6430 Y-19.9985 F60.00
G01 X66.6510 Y-19.9976 F60.00
G01 X66.6614 Y-19.9955 F60.00
G01 X66.6691 Y-19.9933 F60.00
G01 X66.6791 Y-19.9895 F60.00
G01 X66.6863 Y-19.9860 F60.00
G01 X66.6954 Y-19.9805 F60.00
G01 X66.7019 Y-19.9758 F60.00
G01 X66.7081 Y-19.9706 F60.00
G01 X66.7138 Y-19.9650 F60.00
G01 X66.7191 Y-19.9590 F60.00
G01 X66.7255 Y-19.9504 F60.00
G01 X66.7297 Y-19.9436 F60.00
G01 X66.7345 Y-19.9341 F60.00
G01 X66.7374 Y-19.9267 F60.00
G01 X66.7399 Y-19.9190 F60.00
G01 X66.7417 Y-19.9112 F60.00
G01 X66.7433 Y-19.9007 F60.00
G01 X66.7438 Y-19.8900 F60.00
G01 X66.7438 Y-16.2873 F60.00
G01 X66.7426 Y-16.2740 F60.00
G01 X66.7405 Y-16.2636 F60.00
G01 X66.7374 Y-16.2533 F60.00
G01 X66.7322 Y-16.2411 F60.00
G01 X66.7269 Y-16.2318 F60.00
G01 X66.7191 Y-16.2210 F60.00
G01 X66.7100 Y-16.2112 F60.00
G01 X66.7019 Y-16.2042 F60.00
G01 X66.6909 Y-16.1967 F60.00
G01 X66.6815 Y-16.1916 F60.00
G01 X66.6717 Y-16.1876 F60.00
G01 X66.6614 Y-16.1845 F60.00
G01 X66.6510 Y-16.1824 F60.00
G01 X66.6430 Y-16.1815 F60.00
G01 X66.6091 Y-16.1812 F60.00
G01 X66.6091 Y-13.9707 F60.00
G01 X69.4707 Y-11.1091 F60.00
G01 X69.8780 Y-11.1091 F60.00
G01 X69.8881 Y-11.1194 F60.00
G01 X69.9476 Y-11.1731 F60.00
G01 X70.0162 Y-11.2240 F60.00
G01 X70.0895 Y-11.2680 F60.00
G01 X70.1668 Y-11.3045 F60.00
G01 X70.2472 Y-11.3333 F60.00
G01 X70.3301 Y-11.3541 F60.00
G01 X70.4146 Y-11.3666 F60.00
G01 X70.5000 Y-11.3708 F60.00
G01 X70.5854 Y-11.3666 F60.00
G01 X70.6699 Y-11.3541 F60.00
G01 X70.7528 Y-11.3333 F60.00
G01 X70.8332 Y-11.3045 F60.00
G01 X70.9105 Y-11.2680 F60.00
G01 X70.9838 Y-11.2240 F60.00
G01 X71.0524 Y-11.1731 F60.00
G01 X71.1157 Y-11.1157 F60.00
G01 X71.1731 Y-11.0524 F60.00
G01 X71.2210 Y-10.9882 F60.00
G01 X71.2269 Y-10.9793 F60.00
G01 X71.2680 Y-10.9105 F60.00
G01 X71.3024 Y-10.8381 F60.00
G01 X71.3064 Y-10.8283 F60.00
G01 X71.3333 Y-10.7528 F60.00
G01 X71.3541 Y-10.6699 F60.00
G01 X71.3660 Y-10.5907 F60.00
G01 X71.3670 Y-10.5800 F60.00
G01 X71.3707 Y-10.5053 F60.00
G01 X71.3707 Y-10.4947 F60.00
G01 X71.3666 Y-10.4146 F60.00
G01 X71.3550 Y-10.3354 F60.00
G01 X71.3529 Y-10.3249 F60.00
G01 X71.3333 Y-10.2472 F60.00
G01 X71.3045 Y-10.1668 F60.00
G01 X71.2680 Y-10.0895 F60.00
G01 X71.2269 Y-10.0207 F60.00
G01 X71.2210 Y-10.0118 F60.00
G01 X71.1731 Y-9.9476 F60.00
G01 X71.1194 Y-9.8881 F60.00
G01 X71.1119 Y-9.8806 F60.00
G01 X71.0565 Y-9.8304 F60.00
G01 X71.0482 Y-9.8236 F60.00
G01 X70.9838 Y-9.7760 F60.00
G01 X70.9105 Y-9.7320 F60.00
G01 X70.8381 Y-9.6976 F60.00
G01 X70.8283 Y-9.6936 F60.00
G01 X70.7528 Y-9.6667 F60.00
G01 X70.6699 Y-9.6459 F60.00
G01 X70.5854 Y-9.6334 F60.00
G01 X70.5053 Y-9.6293 F60.00
G01 X70.4947 Y-9.6293 F60.00
G01 X70.4200 Y-9.6330 F60.00
G01 X70.4120 Y-9.6337 F60.00
G01 X70.3301 Y-9.6459 F60.00
G01 X70.2472 Y-9.6667 F60.00
G01 X70.1668 Y-9.6955 F60.00
G01 X70.0943 Y-9.7296 F60.00
G01 X70.0849 Y-9.7347 F60.00
G01 X70.0162 Y-9.7760 F60.00
G01 X69.9518 Y-9.8236 F60.00
G01 X69.9435 Y-9.8304 F60.00
G01 X69.8881 Y-9.8806 F60.00
G01 X69.8780 Y-9.8909 F60.00
G01 X69.2184 Y-9.8909 F60.00
G01 X69.1587 Y-9.8939 F60.00
G01 X69.1048 Y-9.9017 F60.00
G01 X69.0944 Y-9.9038 F60.00
G01 X69.0416 Y-9.9172 F60.00
G01 X68.9903 Y-9.9354 F60.00
G01 X68.9804 Y-9.9395 F60.00
G01 X68.9313 Y-9.9629 F60.00
G01 X68.8800 Y-9.9936 F60.00
G01 X68.8320 Y-10.0292 F60.00
G01 X68.7877 Y-10.0693 F60.00
G01 X65.5693 Y-13.2877 F60.00
G01 X65.5327 Y-13.3280 F60.00
G01 X65.5259 Y-13.3362 F60.00
G01 X65.4936 Y-13.3800 F60.00
G01 X65.4629 Y-13.4313 F60.00
G01 X65.4373 Y-13.4853 F60.00
G01 X65.4189 Y-13.5365 F60.00
G01 X65.4158 Y-13.5467 F60.00
G01 X65.4027 Y-13.5996 F60.00
G01 X65.3945 Y-13.6534 F60.00
G01 X65.3935 Y-13.6640 F60.00
G01 X65.3910 Y-13.7157 F60.00
G01 X65.3909 Y-16.1812 F60.00
G01 X65.3570 Y-16.1815 F60.00
G01 X65.3464 Y-16.1828 F60.00
G01 X65.3386 Y-16.1845 F60.00
G01 X65.3283 Y-16.1876 F60.00
G01 X65.3185 Y-16.1916 F60.00
G01 X65.3068 Y-16.1981 F60.00
G01 X65.2981 Y-16.2042 F60.00
G01 X65.2881 Y-16.2131 F60.00
G01 X65.2809 Y-16.2210 F60.00
G01 X65.2745 Y-16.2296 F60.00
G01 X65.2678 Y-16.2411 F60.00
G01 X65.2626 Y-16.2533 F60.00
G01 X65.2595 Y-16.2636 F60.00
G01 X65.2570 Y-16.2767 F60.00
G01 X65.2562 Y-16.2873 F60.00
G01 X65.2562 Y-19.8927 F60.00
G01 X65.2570 Y-19.9033 F60.00
G01 X65.2583 Y-19.9112 F60.00
G01 X65.2609 Y-19.9216 F60.00
G01 X65.2645 Y-19.9316 F60.00
G01 X65.2690 Y-19.9413 F60.00
G01 X65.2745 Y-19.9504 F60.00
G01 X65.2809 Y-19.9590 F60.00
G01 X65.2881 Y-19.9669 F60.00
G01 X65.2960 Y-19.9741 F60.00
G01 X65.3046 Y-19.9805 F60.00
G01 X65.3137 Y-19.9860 F60.00
G01 X65.3234 Y-19.9905 F60.00
G01 X65.3334 Y-19.9941 F60.00
G01 X65.3438 Y-19.9967 F60.00
G01 X65.3543 Y-19.9983 F60.00
G01 X65.3650 Y-19.9988 F60.00
G00 Z2.0000
G00 X5.3650 Y-19.9988
G01 F60.00
G01 Z-0.0499
G01 F60.00
G01 X6.6350 Y-19.9988 F60.00
G01 X6.6430 Y-19.9985 F60.00
G01 X6.6536 Y-19.9972 F60.00
G01 X6.6614 Y-19.9955 F60.00
G01 X6.6691 Y-19.9933 F60.00
G01 X6.6791 Y-19.9895 F60.00
G01 X6.6886 Y-19.9847 F60.00
G01 X6.6954 Y-19.9805 F60.00
G01 X6.7019 Y-19.9758 F60.00
G01 X6.7100 Y-19.9688 F60.00
G01 X6.7156 Y-19.9631 F60.00
G01 X6.7224 Y-19.9548 F60.00
G01 X6.7283 Y-19.9459 F60.00
G01 X6.7322 Y-19.9389 F60.00
G01 X6.7355 Y-19.9316 F60.00
G01 X6.7391 Y-19.9216 F60.00
G01 X6.7412 Y-19.9138 F60.00
G01 X6.7430 Y-19.9033 F60.00
G01 X6.7438 Y-19.8900 F60.00
G01 X6.7438 Y-16.2873 F60.00
G01 X6.7430 Y-16.2767 F60.00
G01 X6.7405 Y-16.2636 F60.00
G01 X6.7365 Y-16.2508 F60.00
G01 X6.7322 Y-16.2411 F60.00
G01 X6.7255 Y-16.2296 F60.00
G01 X6.7191 Y-16.2210 F60.00
G01 X6.7119 Y-16.2131 F60.00
G01 X6.7019 Y-16.2042 F60.00
G01 X6.6932 Y-16.1981 F60.00
G01 X6.6839 Y-16.1928 F60.00
G01 X6.6742 Y-16.1885 F60.00
G01 X6.6614 Y-16.1845 F60.00
G01 X6.6510 Y-16.1824 F60.00
G01 X6.6430 Y-16.1815 F60.00
G01 X6.6091 Y-16.1812 F60.00
G01 X6.6091 Y-11.0632 F60.00
G01 X6.6699 Y-11.0541 F60.00
G01 X6.7528 Y-11.0333 F60.00
G01 X6.8332 Y-11.0045 F60.00
G01 X6.9105 Y-10.9680 F60.00
G01 X6.9838 Y-10.9240 F60.00
G01 X7.0524 Y-10.8731 F60.00
G01 X7.1157 Y-10.8157 F60.00
G01 X7.1714 Y-10.7545 F60.00
G01 X7.1764 Y-10.7482 F60.00
G01 X7.2240 Y-10.6838 F60.00
G01 X7.2653 Y-10.6151 F60.00
G01 X7.2704 Y-10.6057 F60.00
G01 X7.3024 Y-10.5381 F60.00
G01 X7.3064 Y-10.5283 F60.00
G01 X7.3333 Y-10.4528 F60.00
G01 X7.3541 Y-10.3699 F60.00
G01 X7.3666 Y-10.2854 F60.00
G01 X7.3707 Y-10.2053 F60.00
G01 X7.3708 Y-10.1973 F60.00
G01 X7.3666 Y-10.1146 F60.00
G01 X7.3541 Y-10.0301 F60.00
G01 X7.3333 Y-9.9472 F60.00
G01 X7.3045 Y-9.8668 F60.00
G01 X7.2680 Y-9.7895 F60.00
G01 X7.2240 Y-9.7162 F60.00
G01 X7.1731 Y-9.6476 F60.00
G01 X7.1194 Y-9.5881 F60.00
G01 X7.1119 Y-9.5806 F60.00
G01 X7.0524 Y-9.5269 F60.00
G01 X6.9882 Y-9.4790 F60.00
G01 X6.9793 Y-9.4731 F60.00
G01 X6.9151 Y-9.4347 F60.00
G01 X6.9057 Y-9.4296 F60.00
G01 X6.8332 Y-9.3955 F60.00
G01 X6.7528 Y-9.3667 F60.00
G01 X6.6699 Y-9.3459 F60.00
G01 X6.5880 Y-9.3337 F60.00
G01 X6.5800 Y-9.3330 F60.00
G01 X6.5000 Y-9.3292 F60.00
G01 X6.4200 Y-9.3330 F60.00
G01 X6.4093 Y-9.3340 F60.00
G01 X6.3354 Y-9.3450 F60.00
G01 X6.3249 Y-9.3471 F60.00
G01 X6.2472 Y-9.3667 F60.00
G01 X6.1717 Y-9.3936 F60.00
G01 X6.1619 Y-9.3976 F60.00
G01 X6.0895 Y-9.4320 F60.00
G01 X6.0162 Y-9.4760 F60.00
G01 X5.9476 Y-9.5269 F60.00
G01 X5.8881 Y-9.5806 F60.00
G01 X5.8806 Y-9.5881 F60.00
G01 X5.8269 Y-9.6476 F60.00
G01 X5.7790 Y-9.7118 F60.00
G01 X5.7745 Y-9.7184 F60.00
G01 X5.7320 Y-9.7895 F60.00
G01 X5.7054 Y-9.8455 F60.00
G01 X5.6921 Y-9.8639 F60.00
G01 X5.6642 Y-9.9106 F60.00
G01 X5.6605 Y-9.9177 F60.00
G01 X5.6395 Y-9.9620 F60.00
G01 X5.6354 Y-9.9719 F60.00
G01 X5.6172 Y-10.0232 F60.00
G01 X5.6038 Y-10.0760 F60.00
G01 X5.6022 Y-10.0838 F60.00
G01 X5.5945 Y-10.1350 F60.00
G01 X5.5935 Y-10.1456 F60.00
G01 X5.5909 Y-10.2000 F60.00
G01 X5.5931 Y-10.2456 F60.00
G01 X5.5675 Y-10.2712 F60.00
G01 X5.5327 Y-10.3096 F60.00
G01 X5.5275 Y-10.3157 F60.00
G01 X5.4936 Y-10.3616 F60.00
G01 X5.4655 Y-10.4082 F60.00
G01 X5.4616 Y-10.4153 F60.00
G01 X5.4373 Y-10.4669 F60.00
G01 X5.4172 Y-10.5232 F60.00
G01 X5.4027 Y-10.5812 F60.00
G01 X5.3942 Y-10.6376 F60.00
G01 X5.3935 Y-10.6456 F60.00
G01 X5.3909 Y-10.7000 F60.00
G01 X5.3909 Y-16.1812 F60.00
G01 X5.3570 Y-16.1815 F60.00
G01 X5.3490 Y-16.1824 F60.00
G01 X5.3386 Y-16.1845 F60.00
G01 X5.3258 Y-16.1885 F60.00
G01 X5.3161 Y-16.1928 F60.00
G01 X5.3046 Y-16.1995 F60.00
G01 X5.2960 Y-16.2059 F60.00
G01 X5.2862 Y-16.2150 F60.00
G01 X5.2792 Y-16.2231 F60.00
G01 X5.2717 Y-16.2341 F60.00
G01 X5.2666 Y-16.2435 F60.00
G01 X5.2626 Y-16.2533 F60.00
G01 X5.2588 Y-16.2662 F60.00
G01 X5.2567 Y-16.2793 F60.00
G01 X5.2562 Y-16.2900 F60.00
G01 X5.2562 Y-19.8927 F60.00
G01 X5.2570 Y-19.9033 F60.00
G01 X5.2588 Y-19.9138 F60.00
G01 X5.2617 Y-19.9241 F60.00
G01 X5.2655 Y-19.9341 F60.00
G01 X5.2703 Y-19.9436 F60.00
G01 X5.2760 Y-19.9526 F60.00
G01 X5.2826 Y-19.9611 F60.00
G01 X5.2900 Y-19.9688 F60.00
G01 X5.2981 Y-19.9758 F60.00
G01 X5.3068 Y-19.9819 F60.00
G01 X5.3161 Y-19.9872 F60.00
G01 X5.3258 Y-19.9915 F60.00
G01 X5.3360 Y-19.9949 F60.00
G01 X5.3438 Y-19.9967 F60.00
G01 X5.3543 Y-19.9983 F60.00
G01 X5.3650 Y-19.9988 F60.00
G00 Z2.0000
M05
G00 Z2.0000
G00 Z15.00


