(G-CODE GENERATED BY FLATCAM v8.994 - www.flatcam.org - Version Date: 2020/11/7)

(Name: AD8367AGCAmp.drl_cnc)
(Type: G-code from Geometry)
(Units: MM)

(Created on Friday, 08 September 2023 at 16:03)

(This preprocessor is used with a motion controller loaded with GRBL firmware.)
(It is configured to be compatible with almost any version of GRBL firmware.)


(TOOLS DIAMETER: )
(Tool: 1 -> Dia: 0.4)

(FEEDRATE Z: )
(Tool: 1 -> Feedrate: 30.0)

(FEEDRATE RAPIDS: )
(Tool: 1 -> Feedrate Rapids: 1500.0)

(Z_CUT: )
(Tool: 1 -> Z_Cut: -1.7)

(Tools Offset: )
(Tool: 1 -> Offset Z: 0.0)

(Z_MOVE: )
(Tool: 1 -> Z_Move: 2.0)

(Z Toolchange: 25.0 mm)
(X,Y Toolchange: 0.0000, 0.0000 mm)
(Z Start: None mm)
(Z End: 0.5 mm)
(X,Y End: None mm)
(Steps per circle: 64)
(Steps per circle: 64)
(Preprocessor Excellon: GRBL_11_no_M6)

(X range:    1.8000 ...   43.2000  mm)
(Y range:  -18.2000 ...   -1.8000  mm)

(Spindle Speed: 12000 RPM)
G21
G90
G17
G94


G01 F30.00

M5             
G00 Z25.0000
G00 X0.0000 Y0.0000                
T1
(MSG, Change to Tool Dia = 0.4000 ||| Total drills for tool T1 = 13)
M0
G00 Z25.0000
        
G01 F30.00
M03 S12000
G4 P1
G00 X2.0000 Y-2.0000
G01 Z-1.7000
G01 Z0
G00 Z2.0000
G00 X16.0000 Y-9.0000
G01 Z-1.7000
G01 Z0
G00 Z2.0000
G00 X18.0000 Y-2.0000
G01 Z-1.7000
G01 Z0
G00 Z2.0000
G00 X25.0000 Y-6.0000
G01 Z-1.7000
G01 Z0
G00 Z2.0000
G00 X28.0000 Y-2.0000
G01 Z-1.7000
G01 Z0
G00 Z2.0000
G00 X31.0000 Y-6.0000
G01 Z-1.7000
G01 Z0
G00 Z2.0000
G00 X43.0000 Y-2.0000
G01 Z-1.7000
G01 Z0
G00 Z2.0000
G00 X43.0000 Y-18.0000
G01 Z-1.7000
G01 Z0
G00 Z2.0000
G00 X35.0000 Y-18.0000
G01 Z-1.7000
G01 Z0
G00 Z2.0000
G00 X29.0000 Y-16.0000
G01 Z-1.7000
G01 Z0
G00 Z2.0000
G00 X22.0000 Y-18.0000
G01 Z-1.7000
G01 Z0
G00 Z2.0000
G00 X13.0000 Y-16.0000
G01 Z-1.7000
G01 Z0
G00 Z2.0000
G00 X2.0000 Y-18.0000
G01 Z-1.7000
G01 Z0
G00 Z2.0000
M05
G00 Z0.50


