(G-CODE GENERATED BY FLATCAM v8.994 - www.flatcam.org - Version Date: 2020/11/7)

(Name: AD8367AGCAmp-F_Cu.gbr_iso_combined_cnc)
(Type: G-code from Geometry)
(Units: MM)

(Created on Friday, 08 September 2023 at 16:02)

(This preprocessor is the default preprocessor used by FlatCAM.)
(It is made to work with MACH3 compatible motion controllers.)

(TOOL DIAMETER: 0.1839 mm)
(Feedrate_XY: 30.0 mm/min)
(Feedrate_Z: 10.0 mm/min)
(Feedrate rapids 1500.0 mm/min)

(Z_Cut: -0.05 mm)
(DepthPerCut: 0.05 mm <=>1 passes)
(Z_Move: 2.0 mm)
(Z Start: None mm)
(Z End: 15.0 mm)
(X,Y End: None mm)
(Steps per circle: 64)
(Preprocessor Geometry: Default_no_M6)

(X range:   -0.2570 ...   45.2570  mm)
(Y range:  -20.2570 ...    0.2570  mm)

(Spindle Speed: 12000.0 RPM)
G21
G90
G94

G01 F30.00

M5
G00 Z15.0000
G00 X0.0000 Y0.0000
T2
(MSG, Change to Tool Dia = 0.1839)
M0
G00 Z15.0000
        
G00 Z2.0000
M03 S12000.0
G4 P1.0
G01 F30.00
G00 X3.9679 Y-11.4097
G01 F10.00
G01 Z-0.0500
G01 F30.00
G01 X3.9800 Y-11.4273
G01 X3.9888 Y-11.4423
G01 X4.0637 Y-11.4423
G01 X4.0107 Y-11.4267
G01 X3.9987 Y-11.4228
G01 X3.9810 Y-11.4159
G01 X3.9679 Y-11.4097
G00 Z2.0000
G00 X4.8106 Y-11.4423
G01 F10.00
G01 Z-0.0500
G01 F30.00
G01 X5.0825 Y-11.4423
G01 X5.0825 Y-11.1616
G01 X5.0668 Y-11.2151
G01 X5.0629 Y-11.2273
G01 X5.0560 Y-11.2451
G01 X5.0506 Y-11.2567
G01 X5.0414 Y-11.2736
G01 X5.0311 Y-11.2897
G01 X5.0195 Y-11.3050
G01 X5.0069 Y-11.3194
G01 X4.9932 Y-11.3329
G01 X4.9356 Y-11.3829
G01 X4.9206 Y-11.3950
G01 X4.9047 Y-11.4059
G01 X4.8936 Y-11.4125
G01 X4.8823 Y-11.4185
G01 X4.8706 Y-11.4240
G01 X4.8587 Y-11.4289
G01 X4.8466 Y-11.4332
G01 X4.8342 Y-11.4368
G01 X4.8106 Y-11.4423
G00 Z2.0000
G00 X4.0571 Y-12.9577
G01 F10.00
G01 Z-0.0500
G01 F30.00
G01 X3.9888 Y-12.9577
G01 X3.9833 Y-12.9674
G01 X3.9766 Y-12.9780
G01 X3.9661 Y-12.9926
G01 X3.9864 Y-12.9840
G01 X4.0571 Y-12.9577
G00 Z2.0000
G00 X5.0825 Y-13.2305
G01 F10.00
G01 Z-0.0500
G01 F30.00
G01 X5.0825 Y-12.9577
G01 X4.8025 Y-12.9577
G01 X4.8551 Y-12.9732
G01 X4.8673 Y-12.9771
G01 X4.8851 Y-12.9840
G01 X4.8967 Y-12.9894
G01 X4.9136 Y-12.9986
G01 X4.9297 Y-13.0089
G01 X4.9400 Y-13.0165
G01 X4.9499 Y-13.0246
G01 X4.9640 Y-13.0376
G01 X4.9771 Y-13.0516
G01 X5.0270 Y-13.1093
G01 X5.0387 Y-13.1246
G01 X5.0492 Y-13.1408
G01 X5.0585 Y-13.1577
G01 X5.0640 Y-13.1694
G01 X5.0689 Y-13.1813
G01 X5.0732 Y-13.1934
G01 X5.0768 Y-13.2058
G01 X5.0825 Y-13.2305
G00 Z2.0000
G00 X0.1625 Y-12.9269
G01 F10.00
G01 Z-0.0500
G01 F30.00
G01 X3.7648 Y-12.9269
G01 X3.7760 Y-12.9260
G01 X3.7848 Y-12.9242
G01 X3.7956 Y-12.9208
G01 X3.8058 Y-12.9161
G01 X3.8154 Y-12.9102
G01 X3.8242 Y-12.9031
G01 X3.8321 Y-12.8951
G01 X3.8390 Y-12.8861
G01 X3.8436 Y-12.8783
G01 X3.8483 Y-12.8681
G01 X3.8511 Y-12.8595
G01 X3.8531 Y-12.8507
G01 X3.8544 Y-12.8373
G01 X3.8544 Y-12.7922
G01 X5.2481 Y-12.7922
G01 X5.2481 Y-13.4601
G01 X5.2490 Y-13.4789
G01 X5.2510 Y-13.4931
G01 X5.2527 Y-13.5019
G01 X5.2570 Y-13.5179
G01 X5.2627 Y-13.5335
G01 X5.2687 Y-13.5465
G01 X5.2718 Y-13.5525
G01 X5.2804 Y-13.5667
G01 X5.2902 Y-13.5800
G01 X5.2945 Y-13.5852
G01 X5.3042 Y-13.5958
G01 X5.3148 Y-13.6055
G01 X5.3200 Y-13.6098
G01 X5.3333 Y-13.6196
G01 X5.3475 Y-13.6282
G01 X5.3535 Y-13.6313
G01 X5.3665 Y-13.6373
G01 X5.3842 Y-13.6437
G01 X5.4003 Y-13.6478
G01 X5.4069 Y-13.6490
G01 X5.4211 Y-13.6510
G01 X5.4399 Y-13.6519
G01 X7.9401 Y-13.6519
G01 X7.9567 Y-13.6512
G01 X7.9634 Y-13.6505
G01 X7.9775 Y-13.6483
G01 X7.9914 Y-13.6449
G01 X8.0001 Y-13.6423
G01 X8.0156 Y-13.6365
G01 X8.0305 Y-13.6293
G01 X8.0467 Y-13.6196
G01 X8.0618 Y-13.6084
G01 X8.0725 Y-13.5989
G01 X8.0789 Y-13.5925
G01 X8.0898 Y-13.5800
G01 X8.0996 Y-13.5667
G01 X8.1082 Y-13.5525
G01 X8.1155 Y-13.5376
G01 X8.1190 Y-13.5293
G01 X8.1237 Y-13.5158
G01 X8.1283 Y-13.4975
G01 X8.1310 Y-13.4789
G01 X8.1318 Y-13.4646
G01 X8.1319 Y-10.9599
G01 X8.1312 Y-10.9433
G01 X8.1305 Y-10.9366
G01 X8.1283 Y-10.9225
G01 X8.1249 Y-10.9086
G01 X8.1223 Y-10.8999
G01 X8.1165 Y-10.8844
G01 X8.1093 Y-10.8695
G01 X8.0996 Y-10.8533
G01 X8.0898 Y-10.8400
G01 X8.0855 Y-10.8348
G01 X8.0758 Y-10.8242
G01 X8.0618 Y-10.8116
G01 X8.0467 Y-10.8004
G01 X8.0345 Y-10.7929
G01 X8.0285 Y-10.7897
G01 X8.0135 Y-10.7827
G01 X7.9958 Y-10.7763
G01 X7.9797 Y-10.7722
G01 X7.9634 Y-10.7695
G01 X7.9544 Y-10.7686
G01 X7.9401 Y-10.7681
G01 X5.4399 Y-10.7681
G01 X5.4189 Y-10.7692
G01 X5.4047 Y-10.7713
G01 X5.3981 Y-10.7727
G01 X5.3842 Y-10.7763
G01 X5.3686 Y-10.7818
G01 X5.3475 Y-10.7918
G01 X5.3333 Y-10.8004
G01 X5.3217 Y-10.8088
G01 X5.3148 Y-10.8145
G01 X5.3027 Y-10.8259
G01 X5.2916 Y-10.8382
G01 X5.2830 Y-10.8496
G01 X5.2792 Y-10.8552
G01 X5.2707 Y-10.8695
G01 X5.2627 Y-10.8865
G01 X5.2577 Y-10.8999
G01 X5.2551 Y-10.9086
G01 X5.2513 Y-10.9247
G01 X5.2490 Y-10.9411
G01 X5.2481 Y-10.9599
G01 X5.2481 Y-11.6078
G01 X3.8544 Y-11.6078
G01 X3.8544 Y-11.5627
G01 X3.8531 Y-11.5493
G01 X3.8505 Y-11.5383
G01 X3.8475 Y-11.5298
G01 X3.8436 Y-11.5217
G01 X3.8390 Y-11.5139
G01 X3.8336 Y-11.5067
G01 X3.8259 Y-11.4984
G01 X3.8173 Y-11.4911
G01 X3.8078 Y-11.4850
G01 X3.7977 Y-11.4800
G01 X3.7870 Y-11.4764
G01 X3.7760 Y-11.4740
G01 X3.7648 Y-11.4731
G01 X0.1625 Y-11.4731
G01 X0.1512 Y-11.4737
G01 X0.1402 Y-11.4758
G01 X0.1315 Y-11.4784
G01 X0.1252 Y-11.4809
G01 X0.1133 Y-11.4873
G01 X0.1077 Y-11.4911
G01 X0.1008 Y-11.4969
G01 X0.0914 Y-11.5067
G01 X0.0860 Y-11.5139
G01 X0.0825 Y-11.5197
G01 X0.0767 Y-11.5319
G01 X0.0728 Y-11.5449
G01 X0.0712 Y-11.5537
G01 X0.0707 Y-11.5605
G01 X0.0706 Y-12.8373
G01 X0.0712 Y-12.8463
G01 X0.0728 Y-12.8551
G01 X0.0752 Y-12.8638
G01 X0.0784 Y-12.8723
G01 X0.0825 Y-12.8803
G01 X0.0873 Y-12.8879
G01 X0.0929 Y-12.8951
G01 X0.0991 Y-12.9016
G01 X0.1059 Y-12.9075
G01 X0.1133 Y-12.9127
G01 X0.1212 Y-12.9171
G01 X0.1294 Y-12.9208
G01 X0.1380 Y-12.9236
G01 X0.1446 Y-12.9252
G01 X0.1535 Y-12.9265
G01 X0.1625 Y-12.9269
G00 Z2.0000
G00 X0.0863 Y-13.0809
G01 F10.00
G01 Z-0.0500
G01 F30.00
G01 X0.0698 Y-13.0839
G01 X0.0183 Y-13.0951
G01 X-0.0004 Y-13.0999
G01 X-0.0127 Y-13.1039
G01 X-0.0247 Y-13.1085
G01 X-0.0365 Y-13.1137
G01 X-0.0480 Y-13.1194
G01 X-0.0592 Y-13.1258
G01 X-0.0700 Y-13.1326
G01 X-0.0806 Y-13.1400
G01 X-0.0907 Y-13.1480
G01 X-0.1532 Y-13.2021
G01 X-0.1624 Y-13.2110
G01 X-0.1712 Y-13.2203
G01 X-0.1795 Y-13.2300
G01 X-0.1873 Y-13.2401
G01 X-0.1947 Y-13.2506
G01 X-0.2014 Y-13.2614
G01 X-0.2077 Y-13.2726
G01 X-0.2133 Y-13.2841
G01 X-0.2184 Y-13.2958
G01 X-0.2229 Y-13.3077
G01 X-0.2268 Y-13.3199
G01 X-0.2465 Y-13.3870
G01 X-0.2511 Y-13.4048
G01 X-0.2534 Y-13.4168
G01 X-0.2551 Y-13.4289
G01 X-0.2563 Y-13.4411
G01 X-0.2570 Y-13.4595
G01 X-0.2570 Y-19.8755
G01 X-0.2567 Y-19.8878
G01 X-0.2551 Y-19.9061
G01 X-0.2523 Y-19.9242
G01 X-0.2384 Y-19.9880
G01 X-0.2351 Y-20.0004
G01 X-0.2311 Y-20.0127
G01 X-0.2265 Y-20.0247
G01 X-0.2213 Y-20.0365
G01 X-0.2156 Y-20.0480
G01 X-0.2092 Y-20.0592
G01 X-0.2024 Y-20.0700
G01 X-0.1950 Y-20.0806
G01 X-0.1829 Y-20.0956
G01 X-0.1329 Y-20.1532
G01 X-0.1240 Y-20.1624
G01 X-0.1147 Y-20.1712
G01 X-0.1050 Y-20.1795
G01 X-0.0949 Y-20.1873
G01 X-0.0844 Y-20.1947
G01 X-0.0736 Y-20.2014
G01 X-0.0624 Y-20.2077
G01 X-0.0509 Y-20.2133
G01 X-0.0333 Y-20.2208
G01 X-0.0151 Y-20.2268
G01 X0.0579 Y-20.2482
G01 X0.0698 Y-20.2511
G01 X0.0818 Y-20.2534
G01 X0.1000 Y-20.2558
G01 X0.1122 Y-20.2567
G01 X0.1245 Y-20.2570
G01 X44.8755 Y-20.2570
G01 X44.8878 Y-20.2567
G01 X44.9000 Y-20.2558
G01 X44.9182 Y-20.2534
G01 X44.9817 Y-20.2399
G01 X45.0004 Y-20.2351
G01 X45.0127 Y-20.2311
G01 X45.0247 Y-20.2265
G01 X45.0423 Y-20.2185
G01 X45.0592 Y-20.2092
G01 X45.0700 Y-20.2024
G01 X45.0806 Y-20.1950
G01 X45.0956 Y-20.1829
G01 X45.1484 Y-20.1371
G01 X45.1579 Y-20.1285
G01 X45.1669 Y-20.1194
G01 X45.1754 Y-20.1099
G01 X45.1835 Y-20.1000
G01 X45.1911 Y-20.0897
G01 X45.2014 Y-20.0736
G01 X45.2106 Y-20.0567
G01 X45.2184 Y-20.0392
G01 X45.2250 Y-20.0212
G01 X45.2465 Y-19.9480
G01 X45.2511 Y-19.9302
G01 X45.2534 Y-19.9182
G01 X45.2558 Y-19.9000
G01 X45.2567 Y-19.8878
G01 X45.2570 Y-19.8755
G01 X45.2570 Y-13.4465
G01 X45.2567 Y-13.4342
G01 X45.2551 Y-13.4159
G01 X45.2523 Y-13.3978
G01 X45.2384 Y-13.3340
G01 X45.2351 Y-13.3216
G01 X45.2311 Y-13.3093
G01 X45.2265 Y-13.2973
G01 X45.2213 Y-13.2855
G01 X45.2125 Y-13.2684
G01 X45.2059 Y-13.2573
G01 X45.1987 Y-13.2466
G01 X45.1910 Y-13.2363
G01 X45.1829 Y-13.2264
G01 X45.1371 Y-13.1736
G01 X45.1285 Y-13.1641
G01 X45.1194 Y-13.1551
G01 X45.1099 Y-13.1466
G01 X45.1000 Y-13.1385
G01 X45.0897 Y-13.1309
G01 X45.0790 Y-13.1239
G01 X45.0680 Y-13.1174
G01 X45.0567 Y-13.1114
G01 X45.0451 Y-13.1060
G01 X45.0333 Y-13.1012
G01 X45.0212 Y-13.0970
G01 X44.9480 Y-13.0755
G01 X44.9302 Y-13.0709
G01 X44.9137 Y-13.0679
G01 X44.9302 Y-13.0622
G01 X44.9476 Y-13.0547
G01 X44.9644 Y-13.0460
G01 X44.9805 Y-13.0361
G01 X44.9959 Y-13.0250
G01 X45.0104 Y-13.0128
G01 X45.0240 Y-12.9995
G01 X45.0365 Y-12.9853
G01 X45.0480 Y-12.9702
G01 X45.0583 Y-12.9544
G01 X45.0675 Y-12.9378
G01 X45.0754 Y-12.9205
G01 X45.0820 Y-12.9028
G01 X45.0872 Y-12.8846
G01 X45.0912 Y-12.8660
G01 X45.0930 Y-12.8535
G01 X45.0946 Y-12.8346
G01 X45.0950 Y-12.8220
G01 X45.0950 Y-11.5520
G01 X45.0946 Y-11.5394
G01 X45.0937 Y-11.5268
G01 X45.0912 Y-11.5080
G01 X45.0872 Y-11.4894
G01 X45.0820 Y-11.4712
G01 X45.0754 Y-11.4535
G01 X45.0675 Y-11.4362
G01 X45.0583 Y-11.4196
G01 X45.0516 Y-11.4090
G01 X45.0443 Y-11.3986
G01 X45.0365 Y-11.3887
G01 X45.0283 Y-11.3791
G01 X45.0150 Y-11.3655
G01 X45.0008 Y-11.3530
G01 X44.9857 Y-11.3415
G01 X44.9699 Y-11.3312
G01 X44.9533 Y-11.3220
G01 X44.9360 Y-11.3141
G01 X44.9242 Y-11.3096
G01 X44.9137 Y-11.3061
G01 X44.9302 Y-11.3031
G01 X44.9817 Y-11.2919
G01 X45.0004 Y-11.2871
G01 X45.0127 Y-11.2831
G01 X45.0247 Y-11.2785
G01 X45.0365 Y-11.2733
G01 X45.0480 Y-11.2676
G01 X45.0592 Y-11.2612
G01 X45.0700 Y-11.2544
G01 X45.0806 Y-11.2470
G01 X45.0907 Y-11.2390
G01 X45.1532 Y-11.1849
G01 X45.1624 Y-11.1760
G01 X45.1712 Y-11.1667
G01 X45.1835 Y-11.1520
G01 X45.1911 Y-11.1417
G01 X45.1981 Y-11.1310
G01 X45.2046 Y-11.1200
G01 X45.2106 Y-11.1087
G01 X45.2160 Y-11.0971
G01 X45.2208 Y-11.0853
G01 X45.2268 Y-11.0671
G01 X45.2497 Y-10.9882
G01 X45.2534 Y-10.9702
G01 X45.2551 Y-10.9581
G01 X45.2563 Y-10.9459
G01 X45.2569 Y-10.9336
G01 X45.2570 Y-0.1245
G01 X45.2563 Y-0.1061
G01 X45.2551 Y-0.0939
G01 X45.2534 Y-0.0818
G01 X45.2399 Y-0.0183
G01 X45.2351 Y0.0004
G01 X45.2289 Y0.0187
G01 X45.2240 Y0.0306
G01 X45.2185 Y0.0423
G01 X45.2125 Y0.0536
G01 X45.2059 Y0.0647
G01 X45.1950 Y0.0806
G01 X45.1829 Y0.0956
G01 X45.1371 Y0.1484
G01 X45.1285 Y0.1579
G01 X45.1194 Y0.1669
G01 X45.1099 Y0.1754
G01 X45.1000 Y0.1835
G01 X45.0897 Y0.1911
G01 X45.0736 Y0.2014
G01 X45.0567 Y0.2106
G01 X45.0392 Y0.2184
G01 X45.0212 Y0.2250
G01 X44.9480 Y0.2465
G01 X44.9302 Y0.2511
G01 X44.9182 Y0.2534
G01 X44.9061 Y0.2551
G01 X44.8939 Y0.2563
G01 X44.8755 Y0.2570
G01 X24.3964 Y0.2569
G01 X24.3780 Y0.2558
G01 X24.3598 Y0.2534
G01 X24.2963 Y0.2399
G01 X24.2776 Y0.2351
G01 X24.2653 Y0.2311
G01 X24.2533 Y0.2265
G01 X24.2415 Y0.2213
G01 X24.2300 Y0.2156
G01 X24.2188 Y0.2092
G01 X24.2080 Y0.2024
G01 X24.1974 Y0.1950
G01 X24.1824 Y0.1829
G01 X24.1248 Y0.1329
G01 X24.1156 Y0.1240
G01 X24.1068 Y0.1147
G01 X24.0985 Y0.1050
G01 X24.0906 Y0.0949
G01 X24.0833 Y0.0844
G01 X24.0766 Y0.0736
G01 X24.0703 Y0.0624
G01 X24.0647 Y0.0509
G01 X24.0572 Y0.0333
G01 X24.0512 Y0.0151
G01 X24.0298 Y-0.0579
G01 X24.0269 Y-0.0698
G01 X24.0239 Y-0.0863
G01 X24.0182 Y-0.0698
G01 X24.0107 Y-0.0524
G01 X24.0020 Y-0.0356
G01 X23.9921 Y-0.0195
G01 X23.9810 Y-0.0041
G01 X23.9688 Y0.0104
G01 X23.9555 Y0.0240
G01 X23.9413 Y0.0365
G01 X23.9262 Y0.0480
G01 X23.9104 Y0.0583
G01 X23.8938 Y0.0675
G01 X23.8765 Y0.0754
G01 X23.8588 Y0.0820
G01 X23.8467 Y0.0856
G01 X23.8282 Y0.0900
G01 X23.8095 Y0.0930
G01 X23.7969 Y0.0943
G01 X23.7780 Y0.0950
G01 X22.5080 Y0.0950
G01 X22.4891 Y0.0943
G01 X22.4765 Y0.0930
G01 X22.4640 Y0.0912
G01 X22.4454 Y0.0872
G01 X22.4272 Y0.0820
G01 X22.4095 Y0.0754
G01 X22.3922 Y0.0675
G01 X22.3756 Y0.0583
G01 X22.3650 Y0.0516
G01 X22.3546 Y0.0443
G01 X22.3398 Y0.0325
G01 X22.3305 Y0.0240
G01 X22.3215 Y0.0150
G01 X22.3090 Y0.0008
G01 X22.2975 Y-0.0143
G01 X22.2872 Y-0.0301
G01 X22.2780 Y-0.0467
G01 X22.2701 Y-0.0640
G01 X22.2656 Y-0.0758
G01 X22.2621 Y-0.0863
G01 X22.2591 Y-0.0698
G01 X22.2479 Y-0.0183
G01 X22.2431 Y0.0004
G01 X22.2391 Y0.0127
G01 X22.2345 Y0.0247
G01 X22.2293 Y0.0365
G01 X22.2236 Y0.0480
G01 X22.2172 Y0.0592
G01 X22.2104 Y0.0700
G01 X22.2030 Y0.0806
G01 X22.1950 Y0.0907
G01 X22.1409 Y0.1532
G01 X22.1320 Y0.1624
G01 X22.1227 Y0.1712
G01 X22.1130 Y0.1795
G01 X22.1029 Y0.1873
G01 X22.0924 Y0.1947
G01 X22.0816 Y0.2014
G01 X22.0647 Y0.2106
G01 X22.0531 Y0.2160
G01 X22.0413 Y0.2208
G01 X22.0231 Y0.2268
G01 X21.9442 Y0.2497
G01 X21.9322 Y0.2523
G01 X21.9201 Y0.2543
G01 X21.9080 Y0.2558
G01 X21.8896 Y0.2569
G01 X0.1245 Y0.2570
G01 X0.1122 Y0.2567
G01 X0.1000 Y0.2558
G01 X0.0818 Y0.2534
G01 X0.0183 Y0.2399
G01 X-0.0004 Y0.2351
G01 X-0.0127 Y0.2311
G01 X-0.0247 Y0.2265
G01 X-0.0423 Y0.2185
G01 X-0.0536 Y0.2125
G01 X-0.0647 Y0.2059
G01 X-0.0806 Y0.1950
G01 X-0.0956 Y0.1829
G01 X-0.1484 Y0.1371
G01 X-0.1579 Y0.1285
G01 X-0.1669 Y0.1194
G01 X-0.1754 Y0.1099
G01 X-0.1873 Y0.0949
G01 X-0.1947 Y0.0844
G01 X-0.2014 Y0.0736
G01 X-0.2106 Y0.0567
G01 X-0.2184 Y0.0392
G01 X-0.2250 Y0.0212
G01 X-0.2465 Y-0.0520
G01 X-0.2511 Y-0.0698
G01 X-0.2534 Y-0.0818
G01 X-0.2551 Y-0.0939
G01 X-0.2563 Y-0.1061
G01 X-0.2569 Y-0.1184
G01 X-0.2570 Y-10.9405
G01 X-0.2567 Y-10.9528
G01 X-0.2551 Y-10.9711
G01 X-0.2534 Y-10.9832
G01 X-0.2511 Y-10.9952
G01 X-0.2399 Y-11.0467
G01 X-0.2368 Y-11.0592
G01 X-0.2311 Y-11.0777
G01 X-0.2240 Y-11.0956
G01 X-0.2185 Y-11.1073
G01 X-0.2125 Y-11.1186
G01 X-0.2024 Y-11.1350
G01 X-0.1950 Y-11.1456
G01 X-0.1829 Y-11.1606
G01 X-0.1329 Y-11.2182
G01 X-0.1240 Y-11.2274
G01 X-0.1147 Y-11.2362
G01 X-0.1050 Y-11.2445
G01 X-0.0949 Y-11.2523
G01 X-0.0844 Y-11.2597
G01 X-0.0736 Y-11.2664
G01 X-0.0624 Y-11.2727
G01 X-0.0509 Y-11.2783
G01 X-0.0333 Y-11.2858
G01 X-0.0151 Y-11.2918
G01 X0.0579 Y-11.3132
G01 X0.0698 Y-11.3161
G01 X0.0863 Y-11.3191
G01 X0.0758 Y-11.3226
G01 X0.0640 Y-11.3271
G01 X0.0467 Y-11.3350
G01 X0.0301 Y-11.3442
G01 X0.0143 Y-11.3545
G01 X-0.0008 Y-11.3660
G01 X-0.0150 Y-11.3785
G01 X-0.0240 Y-11.3875
G01 X-0.0325 Y-11.3968
G01 X-0.0443 Y-11.4116
G01 X-0.0516 Y-11.4220
G01 X-0.0583 Y-11.4326
G01 X-0.0675 Y-11.4492
G01 X-0.0754 Y-11.4665
G01 X-0.0820 Y-11.4842
G01 X-0.0856 Y-11.4963
G01 X-0.0887 Y-11.5086
G01 X-0.0922 Y-11.5272
G01 X-0.0943 Y-11.5461
G01 X-0.0950 Y-11.5650
G01 X-0.0950 Y-12.8350
G01 X-0.0946 Y-12.8476
G01 X-0.0930 Y-12.8665
G01 X-0.0900 Y-12.8852
G01 X-0.0856 Y-12.9037
G01 X-0.0820 Y-12.9158
G01 X-0.0754 Y-12.9335
G01 X-0.0675 Y-12.9508
G01 X-0.0583 Y-12.9674
G01 X-0.0480 Y-12.9832
G01 X-0.0365 Y-12.9983
G01 X-0.0240 Y-13.0125
G01 X-0.0104 Y-13.0258
G01 X0.0041 Y-13.0380
G01 X0.0195 Y-13.0491
G01 X0.0356 Y-13.0590
G01 X0.0524 Y-13.0677
G01 X0.0698 Y-13.0752
G01 X0.0863 Y-13.0809
G00 Z2.0000
G00 X-0.0578 Y-19.9872
G01 F10.00
G01 Z-0.0500
G01 F30.00
G01 X-0.0090 Y-20.0434
G01 X-0.0040 Y-20.0482
G01 X0.0012 Y-20.0526
G01 X0.0068 Y-20.0565
G01 X0.0126 Y-20.0601
G01 X0.0208 Y-20.0642
G01 X0.0294 Y-20.0674
G01 X0.1007 Y-20.0883
G01 X0.1114 Y-20.0905
G01 X0.1245 Y-20.0914
G01 X44.8755 Y-20.0914
G01 X44.8864 Y-20.0908
G01 X44.8950 Y-20.0893
G01 X44.9488 Y-20.0776
G01 X44.9554 Y-20.0757
G01 X44.9640 Y-20.0725
G01 X44.9702 Y-20.0695
G01 X44.9762 Y-20.0660
G01 X44.9819 Y-20.0621
G01 X44.9872 Y-20.0578
G01 X45.0417 Y-20.0105
G01 X45.0497 Y-20.0023
G01 X45.0565 Y-19.9932
G01 X45.0601 Y-19.9874
G01 X45.0632 Y-19.9813
G01 X45.0659 Y-19.9749
G01 X45.0680 Y-19.9684
G01 X45.0883 Y-19.8993
G01 X45.0905 Y-19.8886
G01 X45.0914 Y-19.8777
G01 X45.0914 Y-13.4465
G01 X45.0910 Y-13.4378
G01 X45.0898 Y-13.4291
G01 X45.0764 Y-13.3688
G01 X45.0734 Y-13.3601
G01 X45.0695 Y-13.3518
G01 X45.0647 Y-13.3439
G01 X45.0593 Y-13.3365
G01 X45.0090 Y-13.2786
G01 X45.0006 Y-13.2709
G01 X44.9951 Y-13.2667
G01 X44.9893 Y-13.2630
G01 X44.9792 Y-13.2578
G01 X44.9684 Y-13.2540
G01 X44.8993 Y-13.2337
G01 X44.8907 Y-13.2318
G01 X44.8799 Y-13.2307
G01 X41.1946 Y-13.2306
G01 X41.1513 Y-13.2259
G01 X41.0397 Y-13.1843
G01 X40.9761 Y-13.1367
G01 X40.9650 Y-13.1292
G01 X40.9571 Y-13.1248
G01 X40.9509 Y-13.1220
G01 X40.9446 Y-13.1197
G01 X40.8752 Y-13.0993
G01 X40.8646 Y-13.0968
G01 X40.8559 Y-13.0958
G01 X39.6744 Y-13.0956
G01 X39.6569 Y-13.0966
G01 X39.6301 Y-13.0999
G01 X39.5748 Y-13.0958
G01 X39.5146 Y-13.0956
G01 X39.4882 Y-13.0901
G01 X39.4766 Y-13.0884
G01 X39.4459 Y-13.0859
G01 X39.3925 Y-13.0707
G01 X39.3336 Y-13.0584
G01 X39.3052 Y-13.0464
G01 X39.2941 Y-13.0425
G01 X39.2682 Y-13.0351
G01 X39.2148 Y-13.0074
G01 X39.1638 Y-12.9855
G01 X39.1417 Y-12.9701
G01 X39.1317 Y-12.9640
G01 X39.1044 Y-12.9495
G01 X39.0614 Y-12.9145
G01 X39.0121 Y-12.8799
G01 X38.9556 Y-12.8205
G01 X38.6469 Y-12.5118
G01 X38.6415 Y-12.5068
G01 X38.6135 Y-12.4845
G01 X38.6059 Y-12.4798
G01 X38.5978 Y-12.4758
G01 X38.5872 Y-12.4720
G01 X38.5159 Y-12.4511
G01 X38.5051 Y-12.4492
G01 X38.4942 Y-12.4485
G01 X36.8266 Y-12.4486
G01 X36.7272 Y-12.4355
G01 X36.6035 Y-12.3842
G01 X36.4973 Y-12.3027
G01 X36.4158 Y-12.1965
G01 X36.3645 Y-12.0728
G01 X36.3514 Y-11.9734
G01 X36.3514 Y-9.4066
G01 X36.3645 Y-9.3072
G01 X36.4158 Y-9.1835
G01 X36.4973 Y-9.0773
G01 X36.6035 Y-8.9958
G01 X36.7272 Y-8.9445
G01 X36.8266 Y-8.9314
G01 X39.3934 Y-8.9314
G01 X39.4928 Y-8.9445
G01 X39.6165 Y-8.9958
G01 X39.7227 Y-9.0773
G01 X39.8042 Y-9.1835
G01 X39.8555 Y-9.3072
G01 X39.8685 Y-9.4066
G01 X39.8685 Y-11.0625
G01 X39.8690 Y-11.0712
G01 X39.8707 Y-11.0820
G01 X39.8824 Y-11.1358
G01 X39.8858 Y-11.1468
G01 X39.8895 Y-11.1552
G01 X39.8940 Y-11.1632
G01 X39.9007 Y-11.1725
G01 X39.9510 Y-11.2304
G01 X39.9577 Y-11.2367
G01 X39.9649 Y-11.2423
G01 X39.9747 Y-11.2482
G01 X39.9829 Y-11.2520
G01 X39.9916 Y-11.2550
G01 X40.0586 Y-11.2747
G01 X40.0671 Y-11.2768
G01 X40.0758 Y-11.2780
G01 X40.0845 Y-11.2784
G01 X40.8493 Y-11.2784
G01 X40.8682 Y-11.2776
G01 X40.8772 Y-11.2761
G01 X40.8881 Y-11.2731
G01 X40.9558 Y-11.2479
G01 X40.9658 Y-11.2435
G01 X40.9770 Y-11.2367
G01 X41.0397 Y-11.1897
G01 X41.1513 Y-11.1481
G01 X41.1946 Y-11.1434
G01 X44.8777 Y-11.1434
G01 X44.8842 Y-11.1430
G01 X44.8929 Y-11.1418
G01 X44.9488 Y-11.1296
G01 X44.9598 Y-11.1262
G01 X44.9682 Y-11.1225
G01 X44.9762 Y-11.1180
G01 X44.9855 Y-11.1113
G01 X45.0400 Y-11.0640
G01 X45.0466 Y-11.0577
G01 X45.0539 Y-11.0490
G01 X45.0590 Y-11.0413
G01 X45.0632 Y-11.0333
G01 X45.0666 Y-11.0248
G01 X45.0889 Y-10.9492
G01 X45.0908 Y-10.9384
G01 X45.0914 Y-10.9275
G01 X45.0914 Y-0.1245
G01 X45.0908 Y-0.1136
G01 X45.0893 Y-0.1050
G01 X45.0776 Y-0.0512
G01 X45.0757 Y-0.0446
G01 X45.0725 Y-0.0360
G01 X45.0695 Y-0.0298
G01 X45.0660 Y-0.0238
G01 X45.0621 Y-0.0181
G01 X45.0578 Y-0.0128
G01 X45.0105 Y0.0417
G01 X45.0023 Y0.0497
G01 X44.9932 Y0.0565
G01 X44.9874 Y0.0601
G01 X44.9813 Y0.0632
G01 X44.9749 Y0.0659
G01 X44.9684 Y0.0680
G01 X44.8972 Y0.0889
G01 X44.8864 Y0.0908
G01 X44.8755 Y0.0914
G01 X24.4025 Y0.0914
G01 X24.3938 Y0.0910
G01 X24.3851 Y0.0898
G01 X24.3270 Y0.0771
G01 X24.3182 Y0.0742
G01 X24.3098 Y0.0705
G01 X24.3018 Y0.0660
G01 X24.2943 Y0.0607
G01 X24.2363 Y0.0105
G01 X24.2283 Y0.0023
G01 X24.2227 Y-0.0049
G01 X24.2190 Y-0.0107
G01 X24.2158 Y-0.0167
G01 X24.2130 Y-0.0229
G01 X24.2106 Y-0.0294
G01 X24.1897 Y-0.1007
G01 X24.1878 Y-0.1093
G01 X24.1867 Y-0.1201
G01 X24.1866 Y-3.8054
G01 X24.1819 Y-3.8487
G01 X24.1403 Y-3.9603
G01 X24.0699 Y-4.0544
G01 X24.0095 Y-4.0995
G01 X24.0014 Y-4.1068
G01 X23.9941 Y-4.1150
G01 X23.9506 Y-4.1707
G01 X23.9460 Y-4.1782
G01 X23.9415 Y-4.1877
G01 X23.9261 Y-4.2098
G01 X23.9200 Y-4.2198
G01 X23.9055 Y-4.2470
G01 X23.8677 Y-4.2938
G01 X23.8359 Y-4.3394
G01 X23.7765 Y-4.3959
G01 X22.3968 Y-5.7756
G01 X22.3902 Y-5.7829
G01 X22.3695 Y-5.8090
G01 X22.3648 Y-5.8166
G01 X22.3608 Y-5.8247
G01 X22.3570 Y-5.8353
G01 X22.3357 Y-5.9087
G01 X22.3340 Y-5.9195
G01 X22.3335 Y-5.9283
G01 X22.3336 Y-6.0953
G01 X22.3245 Y-6.1834
G01 X22.2759 Y-6.3302
G01 X22.1951 Y-6.4612
G01 X22.0862 Y-6.5701
G01 X21.9552 Y-6.6509
G01 X21.8084 Y-6.6995
G01 X21.7203 Y-6.7085
G01 X19.4797 Y-6.7086
G01 X19.3916 Y-6.6995
G01 X19.2448 Y-6.6509
G01 X19.1138 Y-6.5701
G01 X19.0049 Y-6.4612
G01 X18.9241 Y-6.3302
G01 X18.8755 Y-6.1834
G01 X18.8664 Y-6.0953
G01 X18.8664 Y-5.3797
G01 X18.8755 Y-5.2916
G01 X18.9241 Y-5.1448
G01 X19.0049 Y-5.0138
G01 X19.1138 Y-4.9049
G01 X19.2448 Y-4.8241
G01 X19.3916 Y-4.7755
G01 X19.4797 Y-4.7664
G01 X20.7492 Y-4.7664
G01 X20.7565 Y-4.7659
G01 X20.7896 Y-4.7621
G01 X20.8027 Y-4.7587
G01 X20.8131 Y-4.7544
G01 X20.8823 Y-4.7167
G01 X20.8912 Y-4.7105
G01 X20.8994 Y-4.7032
G01 X22.0362 Y-3.5664
G01 X22.0428 Y-3.5591
G01 X22.0635 Y-3.5330
G01 X22.0693 Y-3.5234
G01 X22.0739 Y-3.5131
G01 X22.0963 Y-3.4375
G01 X22.0985 Y-3.4268
G01 X22.0994 Y-3.4137
G01 X22.0994 Y-0.1223
G01 X22.0988 Y-0.1136
G01 X22.0978 Y-0.1071
G01 X22.0851 Y-0.0490
G01 X22.0830 Y-0.0424
G01 X22.0805 Y-0.0360
G01 X22.0775 Y-0.0298
G01 X22.0740 Y-0.0238
G01 X22.0701 Y-0.0181
G01 X22.0658 Y-0.0128
G01 X22.0154 Y0.0450
G01 X22.0086 Y0.0511
G01 X22.0012 Y0.0565
G01 X21.9913 Y0.0622
G01 X21.9829 Y0.0659
G01 X21.9073 Y0.0883
G01 X21.8966 Y0.0905
G01 X21.8835 Y0.0914
G01 X0.1245 Y0.0914
G01 X0.1136 Y0.0908
G01 X0.1050 Y0.0893
G01 X0.0512 Y0.0776
G01 X0.0424 Y0.0750
G01 X0.0360 Y0.0725
G01 X0.0298 Y0.0695
G01 X0.0238 Y0.0660
G01 X0.0181 Y0.0621
G01 X0.0128 Y0.0578
G01 X-0.0417 Y0.0105
G01 X-0.0497 Y0.0023
G01 X-0.0565 Y-0.0068
G01 X-0.0601 Y-0.0126
G01 X-0.0632 Y-0.0187
G01 X-0.0659 Y-0.0251
G01 X-0.0680 Y-0.0316
G01 X-0.0889 Y-0.1028
G01 X-0.0908 Y-0.1136
G01 X-0.0914 Y-0.1245
G01 X-0.0914 Y-10.9405
G01 X-0.0910 Y-10.9492
G01 X-0.0898 Y-10.9579
G01 X-0.0776 Y-11.0138
G01 X-0.0757 Y-11.0204
G01 X-0.0725 Y-11.0290
G01 X-0.0695 Y-11.0352
G01 X-0.0660 Y-11.0412
G01 X-0.0621 Y-11.0469
G01 X-0.0578 Y-11.0522
G01 X-0.0105 Y-11.1067
G01 X-0.0023 Y-11.1147
G01 X0.0030 Y-11.1189
G01 X0.0087 Y-11.1228
G01 X0.0147 Y-11.1262
G01 X0.0208 Y-11.1292
G01 X0.0316 Y-11.1330
G01 X0.1007 Y-11.1533
G01 X0.1114 Y-11.1555
G01 X0.1201 Y-11.1563
G01 X3.8055 Y-11.1565
G01 X3.8487 Y-11.1611
G01 X3.9603 Y-11.2027
G01 X4.0239 Y-11.2503
G01 X4.0350 Y-11.2578
G01 X4.0429 Y-11.2622
G01 X4.0491 Y-11.2650
G01 X4.0576 Y-11.2680
G01 X4.1248 Y-11.2877
G01 X4.1376 Y-11.2905
G01 X4.1507 Y-11.2914
G01 X4.7221 Y-11.2912
G01 X4.7350 Y-11.2893
G01 X4.7910 Y-11.2771
G01 X4.8019 Y-11.2734
G01 X4.8082 Y-11.2705
G01 X4.8142 Y-11.2672
G01 X4.8200 Y-11.2634
G01 X4.8255 Y-11.2593
G01 X4.8834 Y-11.2090
G01 X4.8897 Y-11.2023
G01 X4.8939 Y-11.1970
G01 X4.8990 Y-11.1893
G01 X4.9032 Y-11.1813
G01 X4.9059 Y-11.1749
G01 X4.9080 Y-11.1684
G01 X4.9277 Y-11.1014
G01 X4.9298 Y-11.0929
G01 X4.9308 Y-11.0864
G01 X4.9314 Y-11.0755
G01 X4.9314 Y-10.9266
G01 X4.9445 Y-10.8272
G01 X4.9958 Y-10.7035
G01 X5.0773 Y-10.5973
G01 X5.1835 Y-10.5158
G01 X5.3072 Y-10.4645
G01 X5.4066 Y-10.4514
G01 X7.9734 Y-10.4514
G01 X8.0728 Y-10.4645
G01 X8.1965 Y-10.5158
G01 X8.3027 Y-10.5973
G01 X8.3842 Y-10.7035
G01 X8.4355 Y-10.8272
G01 X8.4485 Y-10.9266
G01 X8.4486 Y-13.4934
G01 X8.4355 Y-13.5928
G01 X8.3842 Y-13.7165
G01 X8.3027 Y-13.8227
G01 X8.1965 Y-13.9042
G01 X8.0728 Y-13.9555
G01 X7.9734 Y-13.9685
G01 X5.4066 Y-13.9686
G01 X5.3072 Y-13.9555
G01 X5.1835 Y-13.9042
G01 X5.0773 Y-13.8227
G01 X4.9958 Y-13.7165
G01 X4.9445 Y-13.5928
G01 X4.9315 Y-13.4934
G01 X4.9315 Y-13.3245
G01 X4.9310 Y-13.3158
G01 X4.9293 Y-13.3050
G01 X4.9176 Y-13.2512
G01 X4.9142 Y-13.2402
G01 X4.9105 Y-13.2318
G01 X4.9060 Y-13.2238
G01 X4.8993 Y-13.2145
G01 X4.8520 Y-13.1600
G01 X4.8474 Y-13.1550
G01 X4.8423 Y-13.1503
G01 X4.8332 Y-13.1435
G01 X4.8233 Y-13.1378
G01 X4.8171 Y-13.1350
G01 X4.8106 Y-13.1326
G01 X4.7393 Y-13.1117
G01 X4.7264 Y-13.1092
G01 X4.7155 Y-13.1086
G01 X4.1507 Y-13.1086
G01 X4.1363 Y-13.1090
G01 X4.1295 Y-13.1097
G01 X4.1206 Y-13.1114
G01 X4.1119 Y-13.1139
G01 X4.0442 Y-13.1391
G01 X4.0342 Y-13.1435
G01 X4.0230 Y-13.1503
G01 X3.9603 Y-13.1973
G01 X3.8487 Y-13.2389
G01 X3.8054 Y-13.2435
G01 X0.1245 Y-13.2435
G01 X0.1158 Y-13.2440
G01 X0.1071 Y-13.2452
G01 X0.0468 Y-13.2586
G01 X0.0381 Y-13.2616
G01 X0.0318 Y-13.2645
G01 X0.0238 Y-13.2690
G01 X0.0163 Y-13.2743
G01 X-0.0434 Y-13.3260
G01 X-0.0511 Y-13.3344
G01 X-0.0553 Y-13.3399
G01 X-0.0590 Y-13.3457
G01 X-0.0642 Y-13.3558
G01 X-0.0674 Y-13.3644
G01 X-0.0877 Y-13.4336
G01 X-0.0905 Y-13.4464
G01 X-0.0914 Y-13.4595
G01 X-0.0914 Y-19.8755
G01 X-0.0910 Y-19.8842
G01 X-0.0898 Y-19.8929
G01 X-0.0764 Y-19.9532
G01 X-0.0725 Y-19.9640
G01 X-0.0684 Y-19.9722
G01 X-0.0634 Y-19.9800
G01 X-0.0578 Y-19.9872
G00 Z2.0000
G00 X11.1514 Y-13.4934
G01 F10.00
G01 Z-0.0500
G01 F30.00
G01 X11.1645 Y-13.5928
G01 X11.2158 Y-13.7165
G01 X11.2973 Y-13.8227
G01 X11.4035 Y-13.9042
G01 X11.5272 Y-13.9555
G01 X11.6266 Y-13.9686
G01 X13.7813 Y-13.9686
G01 X13.7922 Y-13.9695
G01 X13.8029 Y-13.9717
G01 X13.8743 Y-13.9926
G01 X13.8807 Y-13.9950
G01 X13.8870 Y-13.9978
G01 X13.8930 Y-14.0010
G01 X13.8987 Y-14.0047
G01 X13.9077 Y-14.0118
G01 X13.9142 Y-14.0183
G01 X13.9629 Y-14.0745
G01 X13.9671 Y-14.0800
G01 X13.9719 Y-14.0877
G01 X13.9751 Y-14.0938
G01 X13.9778 Y-14.1001
G01 X13.9806 Y-14.1087
G01 X13.9826 Y-14.1176
G01 X13.9936 Y-14.1959
G01 X13.9938 Y-14.2050
G01 X13.9930 Y-14.2141
G01 X13.9914 Y-14.2231
G01 X13.9881 Y-14.2340
G01 X13.9545 Y-14.3079
G01 X13.9488 Y-14.3175
G01 X13.9405 Y-14.3280
G01 X13.9341 Y-14.3343
G01 X13.9271 Y-14.3399
G01 X13.8749 Y-14.3762
G01 X13.8691 Y-14.3799
G01 X13.8630 Y-14.3832
G01 X13.8522 Y-14.3877
G01 X13.7581 Y-14.4581
G01 X13.6877 Y-14.5522
G01 X13.6461 Y-14.6638
G01 X13.6415 Y-14.7070
G01 X13.6414 Y-16.2929
G01 X13.6461 Y-16.3362
G01 X13.6877 Y-16.4478
G01 X13.7581 Y-16.5419
G01 X13.8522 Y-16.6123
G01 X13.9638 Y-16.6539
G01 X14.0071 Y-16.6586
G01 X15.5929 Y-16.6585
G01 X15.6362 Y-16.6539
G01 X15.7478 Y-16.6123
G01 X15.8419 Y-16.5419
G01 X15.9123 Y-16.4478
G01 X15.9539 Y-16.3362
G01 X15.9586 Y-16.2929
G01 X15.9585 Y-15.2825
G01 X15.9590 Y-15.2738
G01 X15.9598 Y-15.2673
G01 X15.9617 Y-15.2587
G01 X15.9826 Y-15.1874
G01 X15.9868 Y-15.1767
G01 X15.9899 Y-15.1706
G01 X15.9935 Y-15.1648
G01 X15.9974 Y-15.1592
G01 X16.0018 Y-15.1540
G01 X16.0100 Y-15.1460
G01 X16.0645 Y-15.0987
G01 X16.0719 Y-15.0933
G01 X16.0818 Y-15.0875
G01 X16.0924 Y-15.0830
G01 X16.1012 Y-15.0804
G01 X16.1571 Y-15.0682
G01 X16.1636 Y-15.0672
G01 X16.1723 Y-15.0666
G01 X17.5673 Y-15.0665
G01 X17.6554 Y-15.0575
G01 X17.8022 Y-15.0089
G01 X17.9332 Y-14.9281
G01 X18.0459 Y-14.8154
G01 X18.0515 Y-14.8088
G01 X18.0579 Y-14.8025
G01 X18.0667 Y-14.7955
G01 X18.0763 Y-14.7897
G01 X18.1023 Y-14.7663
G01 X18.1092 Y-14.7607
G01 X18.1185 Y-14.7546
G01 X18.1285 Y-14.7497
G01 X18.1369 Y-14.7467
G01 X18.1434 Y-14.7450
G01 X18.1992 Y-14.7324
G01 X18.2105 Y-14.7308
G01 X18.4351 Y-14.7306
G01 X18.4352 Y-14.6675
G01 X18.4362 Y-14.6511
G01 X18.4387 Y-14.6346
G01 X18.4433 Y-14.6163
G01 X18.4497 Y-14.5985
G01 X18.4577 Y-14.5815
G01 X18.4662 Y-14.5672
G01 X18.4787 Y-14.5502
G01 X18.4913 Y-14.5363
G01 X18.5052 Y-14.5236
G01 X18.5204 Y-14.5124
G01 X18.5365 Y-14.5027
G01 X18.5556 Y-14.4938
G01 X18.5734 Y-14.4877
G01 X18.5873 Y-14.4842
G01 X18.5940 Y-14.4830
G01 X18.6082 Y-14.4810
G01 X18.6270 Y-14.4801
G01 X20.1070 Y-14.4800
G01 X20.1100 Y-14.4770
G01 X20.1100 Y-13.2859
G01 X19.9381 Y-13.1140
G01 X18.6270 Y-13.1139
G01 X18.6085 Y-13.1131
G01 X18.5896 Y-13.1103
G01 X18.5713 Y-13.1057
G01 X18.5515 Y-13.0984
G01 X18.5365 Y-13.0913
G01 X18.5242 Y-13.0840
G01 X18.5185 Y-13.0803
G01 X18.5052 Y-13.0703
G01 X18.4929 Y-13.0593
G01 X18.4882 Y-13.0545
G01 X18.4786 Y-13.0438
G01 X18.4700 Y-13.0323
G01 X18.4662 Y-13.0267
G01 X18.4577 Y-13.0124
G01 X18.4506 Y-12.9975
G01 X18.4480 Y-12.9912
G01 X18.4433 Y-12.9777
G01 X18.4392 Y-12.9617
G01 X18.4358 Y-12.9386
G01 X18.4351 Y-12.9220
G01 X18.4351 Y-12.7197
G01 X18.4362 Y-12.7011
G01 X18.4392 Y-12.6823
G01 X18.4433 Y-12.6663
G01 X18.4497 Y-12.6485
G01 X18.4577 Y-12.6315
G01 X18.4674 Y-12.6154
G01 X18.4787 Y-12.6002
G01 X18.4913 Y-12.5863
G01 X18.5052 Y-12.5736
G01 X18.5185 Y-12.5637
G01 X18.5326 Y-12.5549
G01 X18.5405 Y-12.5507
G01 X18.5535 Y-12.5447
G01 X18.5713 Y-12.5383
G01 X18.5873 Y-12.5342
G01 X18.5940 Y-12.5330
G01 X18.6082 Y-12.5310
G01 X18.6247 Y-12.5301
G01 X20.0614 Y-12.5300
G01 X20.0877 Y-12.5314
G01 X20.1163 Y-12.5356
G01 X20.1439 Y-12.5425
G01 X20.1729 Y-12.5531
G01 X20.1969 Y-12.5645
G01 X20.2232 Y-12.5804
G01 X20.2461 Y-12.5977
G01 X20.2640 Y-12.6139
G01 X20.2734 Y-12.6233
G01 X20.3462 Y-12.5285
G01 X20.3975 Y-12.4048
G01 X20.4088 Y-12.3183
G01 X20.4115 Y-12.3055
G01 X20.4159 Y-12.2931
G01 X20.4442 Y-12.2292
G01 X20.4494 Y-12.2191
G01 X20.4559 Y-12.2097
G01 X20.4619 Y-12.2028
G01 X20.4685 Y-12.1965
G01 X20.4758 Y-12.1909
G01 X20.5397 Y-12.1488
G01 X20.5496 Y-12.1438
G01 X20.5621 Y-12.1393
G01 X20.5708 Y-12.1374
G01 X20.6093 Y-12.1316
G01 X20.6161 Y-12.1308
G01 X20.6229 Y-12.1306
G01 X22.0122 Y-12.1306
G01 X22.0231 Y-12.1312
G01 X22.0360 Y-12.1337
G01 X22.1051 Y-12.1540
G01 X22.1158 Y-12.1578
G01 X22.1260 Y-12.1630
G01 X22.1336 Y-12.1681
G01 X22.1424 Y-12.1754
G01 X22.1487 Y-12.1820
G01 X22.1959 Y-12.2365
G01 X22.2014 Y-12.2438
G01 X22.2061 Y-12.2517
G01 X22.2100 Y-12.2599
G01 X22.2176 Y-12.2800
G01 X22.2428 Y-12.3601
G01 X22.3324 Y-12.5217
G01 X22.4528 Y-12.6619
G01 X22.5989 Y-12.7750
G01 X22.7648 Y-12.8564
G01 X22.9437 Y-12.9027
G01 X23.0507 Y-12.9081
G01 X23.0573 Y-12.9087
G01 X23.0659 Y-12.9102
G01 X23.0764 Y-12.9132
G01 X23.1424 Y-12.9362
G01 X23.1507 Y-12.9396
G01 X23.1587 Y-12.9438
G01 X23.1698 Y-12.9515
G01 X23.1925 Y-12.9711
G01 X23.4574 Y-13.2360
G01 X23.4975 Y-13.2809
G01 X23.5446 Y-13.3136
G01 X23.5869 Y-13.3466
G01 X23.6129 Y-13.3610
G01 X23.6191 Y-13.3648
G01 X23.6727 Y-13.3853
G01 X23.7178 Y-13.4055
G01 X23.7275 Y-13.4109
G01 X23.7382 Y-13.4188
G01 X23.7913 Y-13.4643
G01 X23.7979 Y-13.4706
G01 X23.8025 Y-13.4757
G01 X23.8066 Y-13.4811
G01 X23.8115 Y-13.4888
G01 X23.8156 Y-13.4970
G01 X23.8181 Y-13.5034
G01 X23.8413 Y-13.5811
G01 X23.8430 Y-13.5919
G01 X23.8434 Y-13.6053
G01 X23.8565 Y-13.7048
G01 X23.8628 Y-13.7205
G01 X23.8652 Y-13.7289
G01 X23.8664 Y-13.7354
G01 X23.8748 Y-13.8137
G01 X23.8746 Y-13.8272
G01 X23.8724 Y-13.8406
G01 X23.8631 Y-13.8727
G01 X23.8565 Y-13.8892
G01 X23.8434 Y-13.9887
G01 X23.8434 Y-14.2553
G01 X23.8565 Y-14.3548
G01 X23.9077 Y-14.4784
G01 X23.9893 Y-14.5847
G01 X24.0955 Y-14.6662
G01 X24.1601 Y-14.6929
G01 X24.1601 Y-14.6697
G01 X24.1609 Y-14.6535
G01 X24.1637 Y-14.6346
G01 X24.1683 Y-14.6163
G01 X24.1747 Y-14.5985
G01 X24.1827 Y-14.5815
G01 X24.1924 Y-14.5654
G01 X24.2037 Y-14.5502
G01 X24.2163 Y-14.5363
G01 X24.2302 Y-14.5236
G01 X24.2454 Y-14.5124
G01 X24.2615 Y-14.5027
G01 X24.2785 Y-14.4947
G01 X24.2963 Y-14.4883
G01 X24.3146 Y-14.4837
G01 X24.3354 Y-14.4808
G01 X24.3520 Y-14.4801
G01 X25.6315 Y-14.4802
G01 X25.6479 Y-14.4812
G01 X25.6667 Y-14.4842
G01 X25.6827 Y-14.4883
G01 X25.7025 Y-14.4956
G01 X25.7175 Y-14.5027
G01 X25.7355 Y-14.5137
G01 X25.7505 Y-14.5251
G01 X25.7611 Y-14.5347
G01 X25.7658 Y-14.5395
G01 X25.7754 Y-14.5502
G01 X25.7866 Y-14.5654
G01 X25.7963 Y-14.5815
G01 X25.8043 Y-14.5985
G01 X25.8107 Y-14.6163
G01 X25.8153 Y-14.6346
G01 X25.8180 Y-14.6532
G01 X25.8188 Y-14.6675
G01 X25.8189 Y-14.8720
G01 X25.8178 Y-14.8929
G01 X25.8157 Y-14.9072
G01 X25.8143 Y-14.9139
G01 X25.8107 Y-14.9277
G01 X25.8052 Y-14.9434
G01 X25.7963 Y-14.9625
G01 X25.7878 Y-14.9768
G01 X25.7839 Y-14.9824
G01 X26.3452 Y-15.5439
G01 X26.3521 Y-15.5524
G01 X26.3568 Y-15.5598
G01 X26.3924 Y-15.6250
G01 X26.3962 Y-15.6332
G01 X26.3984 Y-15.6396
G01 X26.4002 Y-15.6461
G01 X26.4018 Y-15.6550
G01 X26.4054 Y-15.6910
G01 X26.4054 Y-15.7488
G01 X26.4048 Y-15.7597
G01 X26.4038 Y-15.7662
G01 X26.4017 Y-15.7747
G01 X26.3820 Y-15.8417
G01 X26.3773 Y-15.8544
G01 X26.3731 Y-15.8624
G01 X26.3682 Y-15.8699
G01 X26.3456 Y-15.8979
G01 X26.2439 Y-15.9998
G01 X26.1631 Y-16.1308
G01 X26.1145 Y-16.2776
G01 X26.1054 Y-16.3657
G01 X26.1054 Y-17.4063
G01 X26.1145 Y-17.4944
G01 X26.1631 Y-17.6412
G01 X26.2439 Y-17.7722
G01 X26.3528 Y-17.8811
G01 X26.4838 Y-17.9619
G01 X26.6306 Y-18.0105
G01 X26.7187 Y-18.0196
G01 X27.3093 Y-18.0195
G01 X27.3974 Y-18.0105
G01 X27.5442 Y-17.9619
G01 X27.6752 Y-17.8811
G01 X27.7841 Y-17.7722
G01 X27.8649 Y-17.6412
G01 X27.9135 Y-17.4944
G01 X27.9226 Y-17.4063
G01 X27.9225 Y-16.3657
G01 X27.9135 Y-16.2776
G01 X27.8649 Y-16.1308
G01 X27.7841 Y-15.9998
G01 X27.6858 Y-15.9015
G01 X27.6799 Y-15.8950
G01 X27.6759 Y-15.8898
G01 X27.6701 Y-15.8805
G01 X27.6356 Y-15.8172
G01 X27.6318 Y-15.8090
G01 X27.6289 Y-15.8004
G01 X27.6262 Y-15.7872
G01 X27.6231 Y-15.7586
G01 X27.6226 Y-15.7488
G01 X27.6226 Y-15.3749
G01 X27.6259 Y-15.3149
G01 X27.6163 Y-15.2621
G01 X27.6092 Y-15.2051
G01 X27.6070 Y-15.1982
G01 X27.5993 Y-15.1696
G01 X27.5773 Y-15.1206
G01 X27.5568 Y-15.0670
G01 X27.5530 Y-15.0608
G01 X27.5386 Y-15.0348
G01 X27.5034 Y-14.9895
G01 X27.4586 Y-14.9243
G01 X27.4554 Y-14.9184
G01 X27.4518 Y-14.9101
G01 X27.4491 Y-14.9015
G01 X27.4475 Y-14.8945
G01 X27.4325 Y-14.8626
G01 X27.4293 Y-14.8540
G01 X27.4269 Y-14.8452
G01 X27.4254 Y-14.8362
G01 X27.4247 Y-14.8271
G01 X27.4249 Y-14.8203
G01 X27.4350 Y-14.7419
G01 X27.4375 Y-14.7308
G01 X27.4413 Y-14.7200
G01 X27.4453 Y-14.7118
G01 X27.4515 Y-14.7022
G01 X27.5024 Y-14.6418
G01 X27.5105 Y-14.6337
G01 X27.5195 Y-14.6268
G01 X27.5293 Y-14.6210
G01 X27.5398 Y-14.6164
G01 X27.6131 Y-14.5939
G01 X27.6262 Y-14.5913
G01 X27.6373 Y-14.5906
G01 X27.8223 Y-14.5905
G01 X27.9104 Y-14.5815
G01 X28.0572 Y-14.5329
G01 X28.1882 Y-14.4521
G01 X28.2986 Y-14.3417
G01 X28.3037 Y-14.3356
G01 X28.3097 Y-14.3295
G01 X28.3622 Y-14.2825
G01 X28.3674 Y-14.2781
G01 X28.3730 Y-14.2742
G01 X28.3788 Y-14.2707
G01 X28.3869 Y-14.2667
G01 X28.3954 Y-14.2635
G01 X28.4020 Y-14.2617
G01 X28.4776 Y-14.2491
G01 X28.4867 Y-14.2481
G01 X28.4958 Y-14.2480
G01 X28.5049 Y-14.2488
G01 X28.5139 Y-14.2505
G01 X28.5226 Y-14.2530
G01 X28.5952 Y-14.2843
G01 X28.6033 Y-14.2886
G01 X28.6090 Y-14.2923
G01 X28.6162 Y-14.2979
G01 X28.6229 Y-14.3041
G01 X28.6554 Y-14.3417
G01 X28.7658 Y-14.4521
G01 X28.8968 Y-14.5329
G01 X29.0436 Y-14.5815
G01 X29.1317 Y-14.5906
G01 X29.7223 Y-14.5905
G01 X29.8104 Y-14.5815
G01 X29.9572 Y-14.5329
G01 X30.0882 Y-14.4521
G01 X30.1971 Y-14.3432
G01 X30.2729 Y-14.2205
G01 X30.2812 Y-14.2101
G01 X30.3008 Y-14.1899
G01 X30.3053 Y-14.1836
G01 X30.3113 Y-14.1768
G01 X30.3208 Y-14.1681
G01 X30.3634 Y-14.1256
G01 X30.4089 Y-14.0862
G01 X30.4254 Y-14.0649
G01 X30.4371 Y-14.0518
G01 X31.9771 Y-12.5118
G01 X31.9853 Y-12.5045
G01 X31.9924 Y-12.4995
G01 X32.0594 Y-12.4626
G01 X32.0696 Y-12.4578
G01 X32.0781 Y-12.4549
G01 X32.0891 Y-12.4525
G01 X32.1249 Y-12.4487
G01 X33.1734 Y-12.4485
G01 X33.2728 Y-12.4355
G01 X33.3965 Y-12.3842
G01 X33.5027 Y-12.3027
G01 X33.5842 Y-12.1965
G01 X33.6355 Y-12.0728
G01 X33.6486 Y-11.9734
G01 X33.6485 Y-9.4066
G01 X33.6355 Y-9.3072
G01 X33.5842 Y-9.1835
G01 X33.5027 Y-9.0773
G01 X33.3965 Y-8.9958
G01 X33.2728 Y-8.9445
G01 X33.1734 Y-8.9314
G01 X30.6066 Y-8.9314
G01 X30.5072 Y-8.9445
G01 X30.3835 Y-8.9958
G01 X30.2773 Y-9.0773
G01 X30.1958 Y-9.1835
G01 X30.1445 Y-9.3072
G01 X30.1314 Y-9.4066
G01 X30.1314 Y-11.7004
G01 X30.1305 Y-11.7113
G01 X30.1283 Y-11.7220
G01 X30.1074 Y-11.7933
G01 X30.1051 Y-11.7997
G01 X30.1013 Y-11.8079
G01 X30.0979 Y-11.8138
G01 X30.0928 Y-11.8212
G01 X30.0748 Y-11.8436
G01 X30.0682 Y-11.8509
G01 X29.6573 Y-12.2617
G01 X29.6490 Y-12.2688
G01 X29.6399 Y-12.2748
G01 X29.5746 Y-12.3104
G01 X29.5622 Y-12.3157
G01 X29.5513 Y-12.3187
G01 X29.5424 Y-12.3201
G01 X29.5111 Y-12.3233
G01 X29.1317 Y-12.3234
G01 X29.0436 Y-12.3325
G01 X28.8968 Y-12.3811
G01 X28.7658 Y-12.4619
G01 X28.6554 Y-12.5723
G01 X28.6502 Y-12.5784
G01 X28.6427 Y-12.5861
G01 X28.5901 Y-12.6330
G01 X28.5829 Y-12.6385
G01 X28.5752 Y-12.6433
G01 X28.5670 Y-12.6473
G01 X28.5607 Y-12.6498
G01 X28.5542 Y-12.6518
G01 X28.5476 Y-12.6533
G01 X28.4741 Y-12.6652
G01 X28.4627 Y-12.6661
G01 X28.4513 Y-12.6655
G01 X28.4446 Y-12.6645
G01 X28.4379 Y-12.6630
G01 X28.4271 Y-12.6593
G01 X28.3588 Y-12.6297
G01 X28.3527 Y-12.6266
G01 X28.3450 Y-12.6217
G01 X28.3377 Y-12.6161
G01 X28.3311 Y-12.6099
G01 X28.2986 Y-12.5723
G01 X28.1882 Y-12.4619
G01 X28.0572 Y-12.3811
G01 X28.0424 Y-12.3758
G01 X28.0306 Y-12.3695
G01 X27.9694 Y-12.3273
G01 X27.9622 Y-12.3218
G01 X27.9555 Y-12.3155
G01 X27.9495 Y-12.3086
G01 X27.9430 Y-12.2992
G01 X27.9387 Y-12.2912
G01 X27.9084 Y-12.2183
G01 X27.9063 Y-12.2117
G01 X27.9047 Y-12.2051
G01 X27.9032 Y-12.1938
G01 X27.9031 Y-12.1823
G01 X27.9044 Y-12.1710
G01 X27.9172 Y-12.1000
G01 X27.9201 Y-12.0890
G01 X27.9235 Y-12.0805
G01 X27.9288 Y-12.0704
G01 X27.9326 Y-12.0647
G01 X27.9368 Y-12.0593
G01 X27.9890 Y-12.0030
G01 X27.9939 Y-11.9983
G01 X28.0010 Y-11.9927
G01 X28.0086 Y-11.9878
G01 X28.0166 Y-11.9836
G01 X28.0456 Y-11.9705
G01 X28.0892 Y-11.9559
G01 X28.2202 Y-11.8751
G01 X28.3291 Y-11.7662
G01 X28.4099 Y-11.6352
G01 X28.4585 Y-11.4884
G01 X28.4676 Y-11.4003
G01 X28.4675 Y-10.8097
G01 X28.4585 Y-10.7216
G01 X28.4099 Y-10.5748
G01 X28.3291 Y-10.4438
G01 X28.2187 Y-10.3334
G01 X28.2126 Y-10.3282
G01 X28.2049 Y-10.3207
G01 X28.1580 Y-10.2681
G01 X28.1525 Y-10.2609
G01 X28.1488 Y-10.2552
G01 X28.1456 Y-10.2492
G01 X28.1428 Y-10.2430
G01 X28.1405 Y-10.2366
G01 X28.1382 Y-10.2278
G01 X28.1261 Y-10.1544
G01 X28.1253 Y-10.1476
G01 X28.1249 Y-10.1408
G01 X28.1253 Y-10.1316
G01 X28.1265 Y-10.1226
G01 X28.1286 Y-10.1137
G01 X28.1308 Y-10.1072
G01 X28.1613 Y-10.0368
G01 X28.1644 Y-10.0307
G01 X28.1693 Y-10.0230
G01 X28.1748 Y-10.0158
G01 X28.1811 Y-10.0091
G01 X28.2187 Y-9.9766
G01 X28.3291 Y-9.8662
G01 X28.4099 Y-9.7352
G01 X28.4585 Y-9.5884
G01 X28.4676 Y-9.5003
G01 X28.4675 Y-8.9097
G01 X28.4585 Y-8.8216
G01 X28.4099 Y-8.6748
G01 X28.3265 Y-8.5395
G01 X28.3203 Y-8.5311
G01 X28.3157 Y-8.5233
G01 X28.3110 Y-8.5125
G01 X28.2870 Y-8.4685
G01 X28.2821 Y-8.4582
G01 X28.2792 Y-8.4495
G01 X28.2771 Y-8.4406
G01 X28.2762 Y-8.4339
G01 X28.2757 Y-8.4247
G01 X28.2811 Y-8.3460
G01 X28.2833 Y-8.3330
G01 X28.2866 Y-8.3225
G01 X28.2900 Y-8.3144
G01 X28.3039 Y-8.2866
G01 X28.3849 Y-8.1552
G01 X28.4335 Y-8.0084
G01 X28.4426 Y-7.9203
G01 X28.4425 Y-7.3047
G01 X28.4335 Y-7.2166
G01 X28.3849 Y-7.0698
G01 X28.3041 Y-6.9388
G01 X28.1952 Y-6.8299
G01 X28.0642 Y-6.7491
G01 X27.9174 Y-6.7005
G01 X27.8293 Y-6.6914
G01 X26.8387 Y-6.6914
G01 X26.7506 Y-6.7005
G01 X26.6038 Y-6.7491
G01 X26.4728 Y-6.8299
G01 X26.3639 Y-6.9388
G01 X26.2831 Y-7.0698
G01 X26.2345 Y-7.2166
G01 X26.2254 Y-7.3047
G01 X26.2254 Y-7.9203
G01 X26.2345 Y-8.0084
G01 X26.2831 Y-8.1552
G01 X26.3630 Y-8.2847
G01 X26.3682 Y-8.2944
G01 X26.3728 Y-8.3066
G01 X26.3924 Y-8.3783
G01 X26.3945 Y-8.3896
G01 X26.3950 Y-8.3964
G01 X26.3951 Y-8.4032
G01 X26.3940 Y-8.4146
G01 X26.3915 Y-8.4257
G01 X26.3693 Y-8.4967
G01 X26.3641 Y-8.5088
G01 X26.3609 Y-8.5146
G01 X26.3560 Y-8.5219
G01 X26.3418 Y-8.5394
G01 X26.2581 Y-8.6748
G01 X26.2095 Y-8.8216
G01 X26.2004 Y-8.9097
G01 X26.2004 Y-9.5003
G01 X26.2095 Y-9.5884
G01 X26.2581 Y-9.7352
G01 X26.3389 Y-9.8662
G01 X26.4493 Y-9.9766
G01 X26.4554 Y-9.9817
G01 X26.4631 Y-9.9893
G01 X26.5100 Y-10.0419
G01 X26.5142 Y-10.0472
G01 X26.5180 Y-10.0529
G01 X26.5214 Y-10.0588
G01 X26.5252 Y-10.0670
G01 X26.5282 Y-10.0756
G01 X26.5303 Y-10.0844
G01 X26.5425 Y-10.1601
G01 X26.5431 Y-10.1715
G01 X26.5427 Y-10.1784
G01 X26.5419 Y-10.1851
G01 X26.5394 Y-10.1963
G01 X26.5355 Y-10.2070
G01 X26.5067 Y-10.2732
G01 X26.5024 Y-10.2812
G01 X26.4974 Y-10.2889
G01 X26.4916 Y-10.2959
G01 X26.4852 Y-10.3024
G01 X26.4493 Y-10.3334
G01 X26.3389 Y-10.4438
G01 X26.2581 Y-10.5748
G01 X26.2094 Y-10.7217
G01 X26.2074 Y-10.7324
G01 X26.2041 Y-10.7428
G01 X26.1751 Y-10.8137
G01 X26.1720 Y-10.8198
G01 X26.1684 Y-10.8257
G01 X26.1644 Y-10.8312
G01 X26.1600 Y-10.8365
G01 X26.1536 Y-10.8429
G01 X26.1465 Y-10.8487
G01 X26.0836 Y-10.8927
G01 X26.0756 Y-10.8972
G01 X26.0694 Y-10.9001
G01 X26.0629 Y-10.9024
G01 X26.0541 Y-10.9048
G01 X26.0098 Y-10.9122
G01 X25.9991 Y-10.9133
G01 X25.8189 Y-10.9134
G01 X25.8188 Y-10.9765
G01 X25.8178 Y-10.9929
G01 X25.8153 Y-11.0094
G01 X25.8107 Y-11.0277
G01 X25.8043 Y-11.0455
G01 X25.7963 Y-11.0625
G01 X25.7853 Y-11.0805
G01 X25.7739 Y-11.0955
G01 X25.7643 Y-11.1061
G01 X25.7595 Y-11.1108
G01 X25.7488 Y-11.1204
G01 X25.7373 Y-11.1290
G01 X25.7317 Y-11.1328
G01 X25.7213 Y-11.1391
G01 X25.7154 Y-11.1423
G01 X25.7025 Y-11.1484
G01 X25.6827 Y-11.1557
G01 X25.6644 Y-11.1603
G01 X25.6458 Y-11.1630
G01 X25.6270 Y-11.1639
G01 X24.3520 Y-11.1639
G01 X24.3335 Y-11.1631
G01 X24.3146 Y-11.1603
G01 X24.2963 Y-11.1557
G01 X24.2785 Y-11.1493
G01 X24.2615 Y-11.1413
G01 X24.2454 Y-11.1316
G01 X24.2302 Y-11.1203
G01 X24.2163 Y-11.1077
G01 X24.2036 Y-11.0938
G01 X24.1912 Y-11.0767
G01 X24.1827 Y-11.0624
G01 X24.1747 Y-11.0455
G01 X24.1683 Y-11.0277
G01 X24.1637 Y-11.0094
G01 X24.1610 Y-10.9908
G01 X24.1602 Y-10.9765
G01 X24.1601 Y-10.9166
G01 X24.1372 Y-10.9130
G01 X24.1261 Y-10.9103
G01 X24.1197 Y-10.9080
G01 X24.1134 Y-10.9053
G01 X24.1035 Y-10.8996
G01 X24.0979 Y-10.8957
G01 X24.0926 Y-10.8913
G01 X24.0387 Y-10.8434
G01 X24.0309 Y-10.8353
G01 X24.0242 Y-10.8262
G01 X24.0177 Y-10.8143
G01 X24.0130 Y-10.8016
G01 X23.9935 Y-10.7335
G01 X23.9913 Y-10.7221
G01 X23.9906 Y-10.7127
G01 X23.9905 Y-8.4917
G01 X23.9815 Y-8.4036
G01 X23.9329 Y-8.2568
G01 X23.8521 Y-8.1258
G01 X23.7432 Y-8.0169
G01 X23.6122 Y-7.9361
G01 X23.4654 Y-7.8875
G01 X23.3773 Y-7.8784
G01 X23.0712 Y-7.8784
G01 X23.0619 Y-7.8780
G01 X23.0550 Y-7.8770
G01 X23.0015 Y-7.8660
G01 X22.9904 Y-7.8627
G01 X22.9380 Y-7.8401
G01 X22.8888 Y-7.8144
G01 X22.8629 Y-7.8070
G01 X22.8518 Y-7.8031
G01 X22.8234 Y-7.7911
G01 X22.7690 Y-7.7799
G01 X22.7111 Y-7.7636
G01 X22.6804 Y-7.7611
G01 X22.6688 Y-7.7594
G01 X22.6424 Y-7.7539
G01 X22.5822 Y-7.7537
G01 X22.5269 Y-7.7496
G01 X22.5001 Y-7.7529
G01 X22.4826 Y-7.7539
G01 X21.9984 Y-7.7537
G01 X21.9901 Y-7.7528
G01 X21.9511 Y-7.7465
G01 X21.9408 Y-7.7442
G01 X21.8084 Y-7.7005
G01 X21.7203 Y-7.6914
G01 X19.4797 Y-7.6914
G01 X19.3916 Y-7.7005
G01 X19.2448 Y-7.7491
G01 X19.1138 Y-7.8299
G01 X19.0049 Y-7.9388
G01 X18.9241 Y-8.0698
G01 X18.8755 Y-8.2166
G01 X18.8664 Y-8.3047
G01 X18.8664 Y-9.0203
G01 X18.8755 Y-9.1084
G01 X18.9241 Y-9.2552
G01 X19.0049 Y-9.3862
G01 X19.1138 Y-9.4951
G01 X19.2448 Y-9.5759
G01 X19.3916 Y-9.6245
G01 X19.4797 Y-9.6336
G01 X21.7203 Y-9.6335
G01 X21.8084 Y-9.6245
G01 X21.8917 Y-9.5970
G01 X21.9001 Y-9.5948
G01 X21.9088 Y-9.5935
G01 X21.9852 Y-9.5906
G01 X21.9943 Y-9.5908
G01 X22.0034 Y-9.5918
G01 X22.0123 Y-9.5938
G01 X22.0210 Y-9.5966
G01 X22.0293 Y-9.6002
G01 X22.0954 Y-9.6393
G01 X22.1011 Y-9.6430
G01 X22.1083 Y-9.6486
G01 X22.1134 Y-9.6532
G01 X22.1195 Y-9.6600
G01 X22.1236 Y-9.6655
G01 X22.1274 Y-9.6712
G01 X22.1306 Y-9.6772
G01 X22.1618 Y-9.7397
G01 X22.1655 Y-9.7481
G01 X22.1689 Y-9.7591
G01 X22.1706 Y-9.7681
G01 X22.1734 Y-9.8006
G01 X22.1734 Y-10.6975
G01 X22.1730 Y-10.7062
G01 X22.1718 Y-10.7149
G01 X22.1703 Y-10.7213
G01 X22.1500 Y-10.7904
G01 X22.1462 Y-10.8012
G01 X22.1410 Y-10.8113
G01 X22.1373 Y-10.8171
G01 X22.1331 Y-10.8226
G01 X22.1254 Y-10.8310
G01 X22.0675 Y-10.8813
G01 X22.0601 Y-10.8867
G01 X22.0522 Y-10.8915
G01 X22.0439 Y-10.8954
G01 X22.0352 Y-10.8984
G01 X21.9749 Y-10.9118
G01 X21.9684 Y-10.9128
G01 X21.9597 Y-10.9134
G01 X20.0939 Y-10.9134
G01 X20.0938 Y-10.9765
G01 X20.0928 Y-10.9929
G01 X20.0898 Y-11.0117
G01 X20.0863 Y-11.0256
G01 X20.0843 Y-11.0320
G01 X20.0793 Y-11.0455
G01 X20.0733 Y-11.0585
G01 X20.0702 Y-11.0645
G01 X20.0628 Y-11.0768
G01 X20.0517 Y-11.0921
G01 X20.0377 Y-11.1077
G01 X20.0238 Y-11.1204
G01 X20.0067 Y-11.1328
G01 X19.9944 Y-11.1403
G01 X19.9885 Y-11.1433
G01 X19.9775 Y-11.1484
G01 X19.9712 Y-11.1510
G01 X19.9577 Y-11.1557
G01 X19.9439 Y-11.1593
G01 X19.9372 Y-11.1607
G01 X19.9231 Y-11.1628
G01 X19.9020 Y-11.1639
G01 X18.6270 Y-11.1639
G01 X18.6085 Y-11.1631
G01 X18.5918 Y-11.1607
G01 X18.5713 Y-11.1557
G01 X18.5535 Y-11.1493
G01 X18.5365 Y-11.1413
G01 X18.5204 Y-11.1316
G01 X18.5052 Y-11.1203
G01 X18.4913 Y-11.1077
G01 X18.4786 Y-11.0938
G01 X18.4662 Y-11.0767
G01 X18.4577 Y-11.0624
G01 X18.4497 Y-11.0455
G01 X18.4433 Y-11.0277
G01 X18.4387 Y-11.0094
G01 X18.4360 Y-10.9908
G01 X18.4352 Y-10.9765
G01 X18.4351 Y-10.9134
G01 X18.4331 Y-10.9134
G01 X18.3232 Y-10.9268
G01 X18.1850 Y-10.9792
G01 X18.0480 Y-11.0738
G01 X18.0404 Y-11.0785
G01 X18.0281 Y-11.0842
G01 X18.0217 Y-11.0863
G01 X18.0143 Y-11.0881
G01 X17.9750 Y-11.1063
G01 X17.9641 Y-11.1097
G01 X17.9574 Y-11.1111
G01 X17.9506 Y-11.1120
G01 X17.9415 Y-11.1123
G01 X17.9346 Y-11.1120
G01 X17.8766 Y-11.1072
G01 X17.8680 Y-11.1061
G01 X17.8554 Y-11.1029
G01 X17.7334 Y-11.0625
G01 X17.6453 Y-11.0534
G01 X17.0547 Y-11.0534
G01 X16.9666 Y-11.0625
G01 X16.8198 Y-11.1111
G01 X16.6888 Y-11.1919
G01 X16.5784 Y-11.3023
G01 X16.5732 Y-11.3084
G01 X16.5657 Y-11.3161
G01 X16.5131 Y-11.3630
G01 X16.5059 Y-11.3685
G01 X16.4982 Y-11.3733
G01 X16.4921 Y-11.3764
G01 X16.4859 Y-11.3790
G01 X16.4772 Y-11.3818
G01 X16.4706 Y-11.3833
G01 X16.3971 Y-11.3952
G01 X16.3903 Y-11.3959
G01 X16.3812 Y-11.3960
G01 X16.3744 Y-11.3955
G01 X16.3653 Y-11.3940
G01 X16.3565 Y-11.3917
G01 X16.3501 Y-11.3893
G01 X16.2818 Y-11.3597
G01 X16.2757 Y-11.3566
G01 X16.2680 Y-11.3517
G01 X16.2608 Y-11.3461
G01 X16.2541 Y-11.3399
G01 X16.2216 Y-11.3023
G01 X16.1112 Y-11.1919
G01 X15.9802 Y-11.1111
G01 X15.8334 Y-11.0625
G01 X15.7453 Y-11.0534
G01 X15.1547 Y-11.0534
G01 X15.0666 Y-11.0625
G01 X14.9503 Y-11.1010
G01 X14.9418 Y-11.1033
G01 X14.9332 Y-11.1049
G01 X14.9245 Y-11.1056
G01 X14.8478 Y-11.1080
G01 X14.8387 Y-11.1072
G01 X14.8320 Y-11.1060
G01 X14.8232 Y-11.1036
G01 X14.8146 Y-11.1003
G01 X14.8045 Y-11.0951
G01 X14.7387 Y-11.0557
G01 X14.7315 Y-11.0501
G01 X14.7233 Y-11.0421
G01 X14.7175 Y-11.0350
G01 X14.7125 Y-11.0274
G01 X14.6780 Y-10.9589
G01 X14.6730 Y-10.9468
G01 X14.6707 Y-10.9384
G01 X14.6685 Y-10.9263
G01 X14.6555 Y-10.8272
G01 X14.6042 Y-10.7035
G01 X14.5227 Y-10.5973
G01 X14.4165 Y-10.5158
G01 X14.2928 Y-10.4645
G01 X14.1934 Y-10.4514
G01 X11.6266 Y-10.4514
G01 X11.5272 Y-10.4645
G01 X11.4035 Y-10.5158
G01 X11.2973 Y-10.5973
G01 X11.2158 Y-10.7035
G01 X11.1645 Y-10.8272
G01 X11.1514 Y-10.9266
G01 X11.1514 Y-13.4934
G00 Z2.0000
G00 X11.4710 Y-13.4931
G01 F10.00
G01 Z-0.0500
G01 F30.00
G01 X11.4727 Y-13.5019
G01 X11.4757 Y-13.5136
G01 X11.4777 Y-13.5201
G01 X11.4835 Y-13.5356
G01 X11.4918 Y-13.5525
G01 X11.5004 Y-13.5667
G01 X11.5116 Y-13.5818
G01 X11.5242 Y-13.5958
G01 X11.5348 Y-13.6055
G01 X11.5417 Y-13.6112
G01 X11.5552 Y-13.6208
G01 X11.5695 Y-13.6293
G01 X11.5865 Y-13.6373
G01 X11.6042 Y-13.6437
G01 X11.6203 Y-13.6478
G01 X11.6366 Y-13.6505
G01 X11.6456 Y-13.6514
G01 X11.6599 Y-13.6519
G01 X14.1601 Y-13.6519
G01 X14.1811 Y-13.6508
G01 X14.1975 Y-13.6483
G01 X14.2136 Y-13.6443
G01 X14.2293 Y-13.6390
G01 X14.2376 Y-13.6355
G01 X14.2505 Y-13.6293
G01 X14.2667 Y-13.6196
G01 X14.2818 Y-13.6084
G01 X14.2925 Y-13.5989
G01 X14.2989 Y-13.5925
G01 X14.3098 Y-13.5800
G01 X14.3196 Y-13.5667
G01 X14.3293 Y-13.5505
G01 X14.3373 Y-13.5335
G01 X14.3423 Y-13.5201
G01 X14.3443 Y-13.5136
G01 X14.3483 Y-13.4975
G01 X14.3510 Y-13.4789
G01 X14.3519 Y-13.4601
G01 X14.3519 Y-12.7792
G01 X14.8791 Y-12.7792
G01 X14.8850 Y-12.7949
G01 X14.8974 Y-12.8212
G01 X14.9007 Y-12.8271
G01 X14.9170 Y-12.8538
G01 X14.9357 Y-12.8789
G01 X14.9551 Y-12.9005
G01 X14.9615 Y-12.9069
G01 X14.9848 Y-12.9277
G01 X15.0100 Y-12.9463
G01 X15.0349 Y-12.9613
G01 X15.0428 Y-12.9656
G01 X15.0691 Y-12.9779
G01 X15.0965 Y-12.9878
G01 X15.1051 Y-12.9904
G01 X15.1333 Y-12.9974
G01 X15.1642 Y-13.0021
G01 X15.2000 Y-13.0039
G01 X15.7023 Y-13.0039
G01 X15.7335 Y-13.0023
G01 X15.7667 Y-12.9974
G01 X15.7993 Y-12.9892
G01 X15.8309 Y-12.9779
G01 X15.8572 Y-12.9656
G01 X15.8650 Y-12.9614
G01 X15.8900 Y-12.9463
G01 X15.9134 Y-12.9291
G01 X15.9203 Y-12.9234
G01 X15.9418 Y-12.9038
G01 X15.9614 Y-12.8823
G01 X15.9671 Y-12.8754
G01 X15.9843 Y-12.8520
G01 X15.9993 Y-12.8271
G01 X16.0036 Y-12.8192
G01 X16.0159 Y-12.7929
G01 X16.0258 Y-12.7655
G01 X16.0284 Y-12.7569
G01 X16.0354 Y-12.7287
G01 X16.0401 Y-12.6978
G01 X16.0419 Y-12.6620
G01 X16.0422 Y-12.1870
G01 X16.0419 Y-11.7097
G01 X16.0403 Y-11.6785
G01 X16.0354 Y-11.6453
G01 X16.0272 Y-11.6127
G01 X16.0159 Y-11.5811
G01 X16.0016 Y-11.5509
G01 X15.9867 Y-11.5258
G01 X15.9817 Y-11.5183
G01 X15.9657 Y-11.4968
G01 X15.9614 Y-11.4917
G01 X15.9418 Y-11.4702
G01 X15.9203 Y-11.4506
G01 X15.9134 Y-11.4449
G01 X15.8900 Y-11.4277
G01 X15.8612 Y-11.4104
G01 X15.8309 Y-11.3961
G01 X15.8035 Y-11.3862
G01 X15.7949 Y-11.3836
G01 X15.7667 Y-11.3766
G01 X15.7380 Y-11.3722
G01 X15.7290 Y-11.3714
G01 X15.7023 Y-11.3701
G01 X15.2000 Y-11.3701
G01 X15.1665 Y-11.3717
G01 X15.1377 Y-11.3758
G01 X15.1289 Y-11.3776
G01 X15.1007 Y-11.3848
G01 X15.0691 Y-11.3961
G01 X15.0428 Y-11.4084
G01 X15.0350 Y-11.4126
G01 X15.0082 Y-11.4290
G01 X14.9831 Y-11.4477
G01 X14.9615 Y-11.4671
G01 X14.9551 Y-11.4735
G01 X14.9343 Y-11.4968
G01 X14.9157 Y-11.5220
G01 X14.8995 Y-11.5488
G01 X14.8850 Y-11.5791
G01 X14.8791 Y-11.5948
G01 X14.3519 Y-11.5948
G01 X14.3519 Y-10.9599
G01 X14.3510 Y-10.9411
G01 X14.3483 Y-10.9225
G01 X14.3443 Y-10.9064
G01 X14.3423 Y-10.8999
G01 X14.3373 Y-10.8865
G01 X14.3293 Y-10.8695
G01 X14.3196 Y-10.8533
G01 X14.3112 Y-10.8417
G01 X14.3069 Y-10.8365
G01 X14.2958 Y-10.8242
G01 X14.2835 Y-10.8131
G01 X14.2783 Y-10.8088
G01 X14.2667 Y-10.8004
G01 X14.2505 Y-10.7907
G01 X14.2335 Y-10.7827
G01 X14.2201 Y-10.7777
G01 X14.2114 Y-10.7751
G01 X14.1953 Y-10.7713
G01 X14.1789 Y-10.7690
G01 X14.1601 Y-10.7681
G01 X11.6599 Y-10.7681
G01 X11.6411 Y-10.7690
G01 X11.6225 Y-10.7717
G01 X11.6042 Y-10.7763
G01 X11.5865 Y-10.7827
G01 X11.5715 Y-10.7897
G01 X11.5655 Y-10.7929
G01 X11.5533 Y-10.8004
G01 X11.5382 Y-10.8116
G01 X11.5242 Y-10.8242
G01 X11.5145 Y-10.8348
G01 X11.5102 Y-10.8400
G01 X11.5004 Y-10.8533
G01 X11.4918 Y-10.8675
G01 X11.4887 Y-10.8735
G01 X11.4827 Y-10.8865
G01 X11.4763 Y-10.9042
G01 X11.4722 Y-10.9203
G01 X11.4710 Y-10.9269
G01 X11.4690 Y-10.9411
G01 X11.4682 Y-10.9554
G01 X11.4681 Y-13.4601
G01 X11.4690 Y-13.4789
G01 X11.4710 Y-13.4931
G00 Z2.0000
G00 X14.1079 Y-14.4925
G01 F10.00
G01 Z-0.0500
G01 F30.00
G01 X14.1318 Y-14.4428
G01 X14.1380 Y-14.4318
G01 X14.1700 Y-14.3790
G01 X14.2065 Y-14.3293
G01 X14.2143 Y-14.3193
G01 X14.2555 Y-14.2734
G01 X14.2642 Y-14.2642
G01 X14.9062 Y-13.6222
G01 X14.9517 Y-13.5805
G01 X14.9613 Y-13.5723
G01 X14.9713 Y-13.5645
G01 X15.0210 Y-13.5280
G01 X15.0738 Y-13.4960
G01 X15.0848 Y-13.4898
G01 X15.1405 Y-13.4631
G01 X15.1520 Y-13.4580
G01 X15.1638 Y-13.4534
G01 X15.2220 Y-13.4329
G01 X15.2818 Y-13.4176
G01 X15.2942 Y-13.4148
G01 X15.3066 Y-13.4127
G01 X15.3677 Y-13.4039
G01 X15.3803 Y-13.4030
G01 X15.4357 Y-13.4004
G01 X17.1574 Y-13.4005
G01 X17.3885 Y-13.1695
G01 X17.1000 Y-13.1695
G01 X17.0566 Y-13.1676
G01 X17.0440 Y-13.1663
G01 X17.0135 Y-13.1619
G01 X17.0010 Y-13.1597
G01 X16.9887 Y-13.1569
G01 X16.9527 Y-13.1476
G01 X16.9176 Y-13.1354
G01 X16.9058 Y-13.1308
G01 X16.8721 Y-13.1152
G01 X16.8608 Y-13.1095
G01 X16.8498 Y-13.1033
G01 X16.8181 Y-13.0839
G01 X16.7880 Y-13.0620
G01 X16.7781 Y-13.0543
G01 X16.7685 Y-13.0460
G01 X16.7412 Y-13.0208
G01 X16.7160 Y-12.9935
G01 X16.7077 Y-12.9839
G01 X16.7000 Y-12.9740
G01 X16.6781 Y-12.9439
G01 X16.6587 Y-12.9122
G01 X16.6524 Y-12.9010
G01 X16.6363 Y-12.8677
G01 X16.6312 Y-12.8562
G01 X16.6266 Y-12.8444
G01 X16.6144 Y-12.8093
G01 X16.6051 Y-12.7733
G01 X16.6023 Y-12.7610
G01 X16.6001 Y-12.7485
G01 X16.5950 Y-12.7117
G01 X16.5926 Y-12.6683
G01 X16.5926 Y-11.7057
G01 X16.5950 Y-11.6623
G01 X16.6001 Y-11.6255
G01 X16.6036 Y-11.6068
G01 X16.6126 Y-11.5708
G01 X16.6163 Y-11.5587
G01 X16.6266 Y-11.5296
G01 X16.6337 Y-11.5120
G01 X16.6525 Y-11.4728
G01 X16.6675 Y-11.4471
G01 X16.6202 Y-11.4892
G01 X16.6052 Y-11.5010
G01 X16.5948 Y-11.5082
G01 X16.5785 Y-11.5181
G01 X16.5672 Y-11.5239
G01 X16.5498 Y-11.5317
G01 X16.5380 Y-11.5361
G01 X16.5259 Y-11.5400
G01 X16.5136 Y-11.5433
G01 X16.5012 Y-11.5459
G01 X16.4197 Y-11.5592
G01 X16.4069 Y-11.5606
G01 X16.3878 Y-11.5616
G01 X16.3750 Y-11.5614
G01 X16.3622 Y-11.5606
G01 X16.3495 Y-11.5592
G01 X16.3369 Y-11.5571
G01 X16.3244 Y-11.5544
G01 X16.3121 Y-11.5511
G01 X16.2999 Y-11.5472
G01 X16.2879 Y-11.5427
G01 X16.2179 Y-11.5124
G01 X16.2063 Y-11.5070
G01 X16.1950 Y-11.5011
G01 X16.1787 Y-11.4911
G01 X16.1682 Y-11.4838
G01 X16.1531 Y-11.4719
G01 X16.1403 Y-11.4601
G01 X16.1505 Y-11.4785
G01 X16.1663 Y-11.5120
G01 X16.1734 Y-11.5296
G01 X16.1856 Y-11.5647
G01 X16.1949 Y-11.6007
G01 X16.1989 Y-11.6192
G01 X16.2043 Y-11.6560
G01 X16.2059 Y-11.6749
G01 X16.2075 Y-11.7120
G01 X16.2077 Y-12.1870
G01 X16.2075 Y-12.6620
G01 X16.2071 Y-12.6746
G01 X16.2050 Y-12.7117
G01 X16.1999 Y-12.7485
G01 X16.1977 Y-12.7610
G01 X16.1890 Y-12.7971
G01 X16.1837 Y-12.8153
G01 X16.1712 Y-12.8503
G01 X16.1663 Y-12.8620
G01 X16.1504 Y-12.8956
G01 X16.1413 Y-12.9122
G01 X16.1219 Y-12.9439
G01 X16.1000 Y-12.9740
G01 X16.0882 Y-12.9888
G01 X16.0675 Y-13.0117
G01 X16.0543 Y-13.0252
G01 X16.0268 Y-13.0502
G01 X16.0170 Y-13.0582
G01 X15.9871 Y-13.0804
G01 X15.9713 Y-13.0907
G01 X15.9390 Y-13.1096
G01 X15.9000 Y-13.1283
G01 X15.8824 Y-13.1354
G01 X15.8473 Y-13.1476
G01 X15.8113 Y-13.1569
G01 X15.7928 Y-13.1609
G01 X15.7497 Y-13.1670
G01 X15.7126 Y-13.1691
G01 X15.7000 Y-13.1695
G01 X15.2000 Y-13.1695
G01 X15.1874 Y-13.1691
G01 X15.1503 Y-13.1670
G01 X15.1135 Y-13.1619
G01 X15.1010 Y-13.1597
G01 X15.0649 Y-13.1510
G01 X15.0467 Y-13.1457
G01 X15.0117 Y-13.1332
G01 X15.0000 Y-13.1283
G01 X14.9664 Y-13.1124
G01 X14.9498 Y-13.1033
G01 X14.9181 Y-13.0839
G01 X14.8880 Y-13.0620
G01 X14.8732 Y-13.0502
G01 X14.8503 Y-13.0295
G01 X14.8368 Y-13.0163
G01 X14.8118 Y-12.9888
G01 X14.8000 Y-12.9740
G01 X14.7786 Y-12.9447
G01 X14.5175 Y-12.9447
G01 X14.5175 Y-13.4601
G01 X14.5171 Y-13.4727
G01 X14.5157 Y-13.4951
G01 X14.5117 Y-13.5236
G01 X14.5078 Y-13.5421
G01 X14.5021 Y-13.5638
G01 X14.4926 Y-13.5910
G01 X14.4878 Y-13.6027
G01 X14.4809 Y-13.6173
G01 X14.4722 Y-13.6341
G01 X14.4572 Y-13.6586
G01 X14.4441 Y-13.6768
G01 X14.4363 Y-13.6868
G01 X14.4281 Y-13.6964
G01 X14.4172 Y-13.7083
G01 X14.4036 Y-13.7215
G01 X14.3916 Y-13.7323
G01 X14.3819 Y-13.7403
G01 X14.3638 Y-13.7537
G01 X14.3533 Y-13.7607
G01 X14.3286 Y-13.7753
G01 X14.3173 Y-13.7809
G01 X14.2969 Y-13.7903
G01 X14.2699 Y-13.8002
G01 X14.2578 Y-13.8038
G01 X14.2421 Y-13.8078
G01 X14.2236 Y-13.8117
G01 X14.2014 Y-13.8150
G01 X14.1888 Y-13.8163
G01 X14.1664 Y-13.8174
G01 X13.8653 Y-13.8175
G01 X13.9248 Y-13.8350
G01 X13.9369 Y-13.8392
G01 X13.9546 Y-13.8467
G01 X13.9717 Y-13.8554
G01 X13.9827 Y-13.8619
G01 X13.9985 Y-13.8726
G01 X14.0136 Y-13.8846
G01 X14.0277 Y-13.8976
G01 X14.0365 Y-13.9068
G01 X14.0865 Y-13.9644
G01 X14.0985 Y-13.9793
G01 X14.1094 Y-13.9951
G01 X14.1190 Y-14.0117
G01 X14.1274 Y-14.0289
G01 X14.1345 Y-14.0468
G01 X14.1403 Y-14.0651
G01 X14.1433 Y-14.0775
G01 X14.1458 Y-14.0900
G01 X14.1567 Y-14.1655
G01 X14.1582 Y-14.1782
G01 X14.1591 Y-14.1910
G01 X14.1592 Y-14.2101
G01 X14.1585 Y-14.2229
G01 X14.1572 Y-14.2356
G01 X14.1552 Y-14.2483
G01 X14.1526 Y-14.2608
G01 X14.1475 Y-14.2793
G01 X14.1434 Y-14.2914
G01 X14.1387 Y-14.3032
G01 X14.1044 Y-14.3783
G01 X14.0986 Y-14.3895
G01 X14.0923 Y-14.4003
G01 X14.0819 Y-14.4160
G01 X14.0704 Y-14.4308
G01 X14.0621 Y-14.4402
G01 X14.0534 Y-14.4492
G01 X14.0443 Y-14.4578
G01 X14.0347 Y-14.4659
G01 X14.0248 Y-14.4735
G01 X13.9859 Y-14.5007
G01 X14.0060 Y-14.4963
G01 X14.0185 Y-14.4945
G01 X14.0311 Y-14.4932
G01 X14.0500 Y-14.4925
G01 X14.1079 Y-14.4925
G00 Z2.0000
G00 X14.2257 Y-14.6581
G01 F10.00
G01 Z-0.0500
G01 F30.00
G01 X14.0477 Y-14.6581
G01 X14.0365 Y-14.6590
G01 X14.0233 Y-14.6620
G01 X14.0107 Y-14.6669
G01 X13.9989 Y-14.6735
G01 X13.9883 Y-14.6819
G01 X13.9804 Y-14.6899
G01 X13.9723 Y-14.7008
G01 X13.9659 Y-14.7127
G01 X13.9620 Y-14.7233
G01 X13.9590 Y-14.7365
G01 X13.9581 Y-14.7500
G01 X13.9581 Y-16.2500
G01 X13.9590 Y-16.2635
G01 X13.9603 Y-16.2701
G01 X13.9627 Y-16.2788
G01 X13.9659 Y-16.2873
G01 X13.9689 Y-16.2933
G01 X13.9723 Y-16.2992
G01 X13.9775 Y-16.3066
G01 X13.9850 Y-16.3150
G01 X13.9917 Y-16.3211
G01 X14.0008 Y-16.3277
G01 X14.0087 Y-16.3321
G01 X14.0190 Y-16.3366
G01 X14.0277 Y-16.3392
G01 X14.0365 Y-16.3410
G01 X14.0477 Y-16.3419
G01 X15.5500 Y-16.3419
G01 X15.5590 Y-16.3415
G01 X15.5701 Y-16.3397
G01 X15.5831 Y-16.3358
G01 X15.5893 Y-16.3331
G01 X15.5973 Y-16.3289
G01 X15.6083 Y-16.3211
G01 X15.6134 Y-16.3166
G01 X15.6196 Y-16.3101
G01 X15.6252 Y-16.3029
G01 X15.6289 Y-16.2973
G01 X15.6350 Y-16.2852
G01 X15.6380 Y-16.2767
G01 X15.6397 Y-16.2701
G01 X15.6417 Y-16.2568
G01 X15.6419 Y-14.7955
G01 X15.6873 Y-14.7502
G01 X17.5220 Y-14.7499
G01 X17.5555 Y-14.7483
G01 X17.5843 Y-14.7442
G01 X17.5931 Y-14.7424
G01 X17.6191 Y-14.7359
G01 X17.6255 Y-14.7338
G01 X17.6549 Y-14.7230
G01 X17.6792 Y-14.7116
G01 X17.6870 Y-14.7074
G01 X17.7120 Y-14.6923
G01 X17.7389 Y-14.6723
G01 X17.7638 Y-14.6498
G01 X17.7849 Y-14.6267
G01 X17.8063 Y-14.5980
G01 X17.8213 Y-14.5731
G01 X17.8256 Y-14.5652
G01 X17.8370 Y-14.5409
G01 X17.8395 Y-14.5346
G01 X17.8492 Y-14.5073
G01 X17.8574 Y-14.4747
G01 X17.8623 Y-14.4415
G01 X17.8638 Y-14.4140
G01 X19.9020 Y-14.4139
G01 X19.9208 Y-14.4130
G01 X19.9350 Y-14.4110
G01 X19.9439 Y-14.4093
G01 X19.9599 Y-14.4050
G01 X19.9734 Y-14.4002
G01 X19.9796 Y-14.3975
G01 X19.9924 Y-14.3913
G01 X20.0048 Y-14.3840
G01 X20.0105 Y-14.3803
G01 X20.0220 Y-14.3718
G01 X20.0377 Y-14.3577
G01 X20.0517 Y-14.3421
G01 X20.0603 Y-14.3305
G01 X20.0640 Y-14.3248
G01 X20.0702 Y-14.3145
G01 X20.0733 Y-14.3085
G01 X20.0793 Y-14.2955
G01 X20.0843 Y-14.2820
G01 X20.0869 Y-14.2734
G01 X20.0907 Y-14.2572
G01 X20.0931 Y-14.2405
G01 X20.0938 Y-14.2265
G01 X20.0939 Y-14.0220
G01 X20.0930 Y-14.0032
G01 X20.0907 Y-13.9868
G01 X20.0869 Y-13.9706
G01 X20.0843 Y-13.9620
G01 X20.0793 Y-13.9485
G01 X20.0713 Y-13.9315
G01 X20.0616 Y-13.9154
G01 X20.0532 Y-13.9038
G01 X20.0474 Y-13.8968
G01 X20.0361 Y-13.8847
G01 X20.0238 Y-13.8737
G01 X20.0086 Y-13.8624
G01 X19.9945 Y-13.8538
G01 X19.9885 Y-13.8507
G01 X19.9755 Y-13.8447
G01 X19.9577 Y-13.8383
G01 X19.9417 Y-13.8342
G01 X19.9350 Y-13.8330
G01 X19.9205 Y-13.8309
G01 X19.9020 Y-13.8301
G01 X17.8547 Y-13.8299
G01 X17.8492 Y-13.8087
G01 X17.8388 Y-13.7793
G01 X17.8540 Y-13.7640
G01 X19.9020 Y-13.7639
G01 X19.9208 Y-13.7630
G01 X19.9394 Y-13.7603
G01 X19.9556 Y-13.7563
G01 X19.9620 Y-13.7543
G01 X19.9755 Y-13.7493
G01 X19.9904 Y-13.7423
G01 X20.0086 Y-13.7316
G01 X20.0220 Y-13.7218
G01 X20.0272 Y-13.7174
G01 X20.0377 Y-13.7077
G01 X20.0474 Y-13.6972
G01 X20.0517 Y-13.6921
G01 X20.0616 Y-13.6786
G01 X20.0702 Y-13.6645
G01 X20.0733 Y-13.6585
G01 X20.0793 Y-13.6455
G01 X20.0843 Y-13.6320
G01 X20.0869 Y-13.6234
G01 X20.0907 Y-13.6072
G01 X20.0931 Y-13.5905
G01 X20.0939 Y-13.5743
G01 X20.0939 Y-13.3697
G01 X20.0930 Y-13.3532
G01 X20.0898 Y-13.3323
G01 X20.0857 Y-13.3163
G01 X20.0802 Y-13.3006
G01 X20.0733 Y-13.2855
G01 X20.0691 Y-13.2776
G01 X20.0616 Y-13.2654
G01 X20.0504 Y-13.2502
G01 X20.0377 Y-13.2363
G01 X20.0255 Y-13.2251
G01 X20.0123 Y-13.2150
G01 X20.0048 Y-13.2100
G01 X19.9925 Y-13.2027
G01 X19.9755 Y-13.1947
G01 X19.9577 Y-13.1883
G01 X19.9439 Y-13.1847
G01 X19.9350 Y-13.1830
G01 X19.9181 Y-13.1807
G01 X19.9020 Y-13.1801
G01 X17.7330 Y-13.1800
G01 X17.7089 Y-13.1810
G01 X17.6999 Y-13.1819
G01 X17.6782 Y-13.1851
G01 X17.6716 Y-13.1866
G01 X17.6482 Y-13.1925
G01 X17.6212 Y-13.2022
G01 X17.5994 Y-13.2124
G01 X17.5914 Y-13.2167
G01 X17.5707 Y-13.2292
G01 X17.5495 Y-13.2448
G01 X17.5265 Y-13.2655
G01 X17.2259 Y-13.5661
G01 X15.4420 Y-13.5658
G01 X15.3840 Y-13.5687
G01 X15.3243 Y-13.5776
G01 X15.2701 Y-13.5913
G01 X15.2196 Y-13.6093
G01 X15.2112 Y-13.6127
G01 X15.1628 Y-13.6357
G01 X15.1130 Y-13.6656
G01 X15.0699 Y-13.6974
G01 X15.0629 Y-13.7032
G01 X15.0233 Y-13.7393
G01 X14.3813 Y-14.3813
G01 X14.3437 Y-14.4226
G01 X14.3076 Y-14.4710
G01 X14.2767 Y-14.5228
G01 X14.2520 Y-14.5755
G01 X14.2340 Y-14.6259
G01 X14.2257 Y-14.6581
G00 Z2.0000
G00 X16.0794 Y-14.9157
G01 F10.00
G01 Z-0.0500
G01 F30.00
G01 X15.8075 Y-14.9157
G01 X15.8075 Y-15.1964
G01 X15.8232 Y-15.1429
G01 X15.8271 Y-15.1308
G01 X15.8316 Y-15.1188
G01 X15.8394 Y-15.1013
G01 X15.8486 Y-15.0844
G01 X15.8589 Y-15.0683
G01 X15.8705 Y-15.0530
G01 X15.8831 Y-15.0386
G01 X15.8968 Y-15.0251
G01 X15.9544 Y-14.9751
G01 X15.9694 Y-14.9630
G01 X15.9853 Y-14.9521
G01 X15.9964 Y-14.9455
G01 X16.0077 Y-14.9395
G01 X16.0194 Y-14.9340
G01 X16.0313 Y-14.9291
G01 X16.0434 Y-14.9248
G01 X16.0558 Y-14.9212
G01 X16.0794 Y-14.9157
G00 Z2.0000
G00 X18.1245 Y-14.5796
G01 F10.00
G01 Z-0.0500
G01 F30.00
G01 X17.9993 Y-14.5796
G01 X17.9908 Y-14.6022
G01 X17.9752 Y-14.6359
G01 X17.9665 Y-14.6528
G01 X17.9542 Y-14.6733
G01 X17.9672 Y-14.6632
G01 X17.9769 Y-14.6564
G01 X17.9963 Y-14.6391
G01 X18.0059 Y-14.6312
G01 X18.0211 Y-14.6203
G01 X18.0371 Y-14.6105
G01 X18.0537 Y-14.6019
G01 X18.0651 Y-14.5969
G01 X18.0768 Y-14.5924
G01 X18.0946 Y-14.5867
G01 X18.1245 Y-14.5796
G00 Z2.0000
G00 X18.2781 Y-12.6446
G01 F10.00
G01 Z-0.0500
G01 F30.00
G01 X18.1075 Y-12.6446
G01 X18.1074 Y-12.6683
G01 X18.1056 Y-12.7054
G01 X18.1043 Y-12.7180
G01 X18.0989 Y-12.7548
G01 X18.0964 Y-12.7672
G01 X18.0874 Y-12.8032
G01 X18.0837 Y-12.8153
G01 X18.0712 Y-12.8503
G01 X18.0663 Y-12.8620
G01 X18.0504 Y-12.8956
G01 X18.0445 Y-12.9068
G01 X18.0254 Y-12.9386
G01 X18.0184 Y-12.9491
G01 X17.9962 Y-12.9790
G01 X17.9882 Y-12.9888
G01 X17.9650 Y-13.0144
G01 X18.2818 Y-13.0144
G01 X18.2764 Y-12.9917
G01 X18.2720 Y-12.9633
G01 X18.2703 Y-12.9444
G01 X18.2695 Y-12.9220
G01 X18.2696 Y-12.7157
G01 X18.2706 Y-12.6946
G01 X18.2719 Y-12.6811
G01 X18.2753 Y-12.6585
G01 X18.2781 Y-12.6446
G00 Z2.0000
G00 X18.1827 Y-11.4695
G01 F10.00
G01 Z-0.0500
G01 F30.00
G01 X18.1792 Y-11.4934
G01 X18.1779 Y-11.5243
G01 X18.1795 Y-11.5529
G01 X18.1828 Y-11.5750
G01 X18.1844 Y-11.5834
G01 X18.1898 Y-11.6046
G01 X18.1918 Y-11.6111
G01 X18.2001 Y-11.6338
G01 X18.2103 Y-11.6556
G01 X18.2134 Y-11.6616
G01 X18.2258 Y-11.6824
G01 X18.2414 Y-11.7037
G01 X18.2471 Y-11.7107
G01 X18.2634 Y-11.7285
G01 X18.2846 Y-11.7478
G01 X18.3076 Y-11.7648
G01 X18.3321 Y-11.7795
G01 X18.3581 Y-11.7918
G01 X18.3851 Y-11.8015
G01 X18.4127 Y-11.8084
G01 X18.4435 Y-11.8128
G01 X18.4699 Y-11.8140
G01 X22.4898 Y-11.8141
G01 X22.4898 Y-12.0000
G01 X22.4925 Y-12.0558
G01 X22.5012 Y-12.1155
G01 X22.5147 Y-12.1697
G01 X22.5349 Y-12.2266
G01 X22.5577 Y-12.2751
G01 X22.5620 Y-12.2831
G01 X22.5896 Y-12.3290
G01 X22.6214 Y-12.3721
G01 X22.6272 Y-12.3791
G01 X22.6649 Y-12.4203
G01 X22.7029 Y-12.4548
G01 X22.7099 Y-12.4606
G01 X22.7530 Y-12.4924
G01 X22.7989 Y-12.5200
G01 X22.8069 Y-12.5243
G01 X22.8554 Y-12.5471
G01 X22.9058 Y-12.5653
G01 X22.9144 Y-12.5679
G01 X22.9665 Y-12.5808
G01 X23.0195 Y-12.5888
G01 X23.0285 Y-12.5897
G01 X23.0820 Y-12.5922
G01 X23.1355 Y-12.5897
G01 X23.1445 Y-12.5888
G01 X23.1975 Y-12.5808
G01 X23.2394 Y-12.5704
G01 X23.6975 Y-13.0285
G01 X23.7153 Y-13.0448
G01 X23.7223 Y-13.0505
G01 X23.7417 Y-13.0648
G01 X23.7624 Y-13.0773
G01 X23.7701 Y-13.0815
G01 X23.7922 Y-13.0918
G01 X23.8149 Y-13.1001
G01 X23.8236 Y-13.1027
G01 X23.8468 Y-13.1084
G01 X23.8754 Y-13.1126
G01 X23.9040 Y-13.1140
G01 X25.6270 Y-13.1139
G01 X25.6436 Y-13.1132
G01 X25.6600 Y-13.1110
G01 X25.6689 Y-13.1093
G01 X25.6827 Y-13.1057
G01 X25.7005 Y-13.0993
G01 X25.7174 Y-13.0913
G01 X25.7317 Y-13.0828
G01 X25.7452 Y-13.0732
G01 X25.7522 Y-13.0674
G01 X25.7627 Y-13.0577
G01 X25.7753 Y-13.0438
G01 X25.7866 Y-13.0286
G01 X25.7941 Y-13.0164
G01 X25.7983 Y-13.0085
G01 X25.8052 Y-12.9934
G01 X25.8107 Y-12.9777
G01 X25.8153 Y-12.9594
G01 X25.8181 Y-12.9405
G01 X25.8189 Y-12.9243
G01 X25.8189 Y-12.7197
G01 X25.8180 Y-12.7032
G01 X25.8160 Y-12.6890
G01 X25.8143 Y-12.6801
G01 X25.8100 Y-12.6641
G01 X25.8052 Y-12.6506
G01 X25.8025 Y-12.6444
G01 X25.7963 Y-12.6315
G01 X25.7890 Y-12.6192
G01 X25.7853 Y-12.6135
G01 X25.7768 Y-12.6020
G01 X25.7627 Y-12.5863
G01 X25.7505 Y-12.5751
G01 X25.7454 Y-12.5710
G01 X25.7336 Y-12.5624
G01 X25.7214 Y-12.5549
G01 X25.7155 Y-12.5517
G01 X25.7005 Y-12.5447
G01 X25.6806 Y-12.5377
G01 X25.6644 Y-12.5337
G01 X25.6503 Y-12.5315
G01 X25.6431 Y-12.5307
G01 X25.6270 Y-12.5301
G01 X24.0250 Y-12.5300
G01 X23.9591 Y-12.4640
G01 X25.6270 Y-12.4639
G01 X25.6458 Y-12.4630
G01 X25.6667 Y-12.4598
G01 X25.6806 Y-12.4563
G01 X25.6870 Y-12.4543
G01 X25.7005 Y-12.4493
G01 X25.7135 Y-12.4433
G01 X25.7194 Y-12.4403
G01 X25.7336 Y-12.4316
G01 X25.7505 Y-12.4189
G01 X25.7627 Y-12.4077
G01 X25.7724 Y-12.3972
G01 X25.7767 Y-12.3921
G01 X25.7853 Y-12.3805
G01 X25.7963 Y-12.3625
G01 X25.8034 Y-12.3475
G01 X25.8060 Y-12.3412
G01 X25.8107 Y-12.3277
G01 X25.8153 Y-12.3094
G01 X25.8178 Y-12.2929
G01 X25.8188 Y-12.2765
G01 X25.8189 Y-12.0720
G01 X25.8178 Y-12.0509
G01 X25.8153 Y-12.0346
G01 X25.8107 Y-12.0163
G01 X25.8043 Y-11.9985
G01 X25.7983 Y-11.9855
G01 X25.7941 Y-11.9776
G01 X25.7878 Y-11.9672
G01 X25.7840 Y-11.9617
G01 X25.7739 Y-11.9485
G01 X25.7611 Y-11.9347
G01 X25.7488 Y-11.9237
G01 X25.7336 Y-11.9124
G01 X25.7175 Y-11.9027
G01 X25.7025 Y-11.8956
G01 X25.6849 Y-11.8890
G01 X25.6689 Y-11.8847
G01 X25.6600 Y-11.8830
G01 X25.6431 Y-11.8807
G01 X25.6270 Y-11.8801
G01 X23.6742 Y-11.8800
G01 X23.6742 Y-9.0120
G01 X23.6739 Y-8.5370
G01 X23.6725 Y-8.5057
G01 X23.6682 Y-8.4747
G01 X23.6664 Y-8.4659
G01 X23.6592 Y-8.4377
G01 X23.6479 Y-8.4061
G01 X23.6336 Y-8.3759
G01 X23.6187 Y-8.3508
G01 X23.6150 Y-8.3452
G01 X23.5991 Y-8.3236
G01 X23.5934 Y-8.3167
G01 X23.5738 Y-8.2952
G01 X23.5489 Y-8.2727
G01 X23.5220 Y-8.2527
G01 X23.4971 Y-8.2377
G01 X23.4892 Y-8.2334
G01 X23.4649 Y-8.2220
G01 X23.4586 Y-8.2195
G01 X23.4313 Y-8.2098
G01 X23.3987 Y-8.2016
G01 X23.3655 Y-8.1967
G01 X23.3343 Y-8.1951
G01 X22.9128 Y-8.1951
G01 X22.8790 Y-8.1701
G01 X22.8331 Y-8.1425
G01 X22.8251 Y-8.1382
G01 X22.7787 Y-8.1163
G01 X22.7219 Y-8.0958
G01 X22.6699 Y-8.0827
G01 X22.6611 Y-8.0809
G01 X22.6080 Y-8.0732
G01 X22.5523 Y-8.0703
G01 X21.8714 Y-8.0703
G01 X21.8612 Y-8.0633
G01 X21.8342 Y-8.0474
G01 X21.8059 Y-8.0341
G01 X21.7764 Y-8.0235
G01 X21.7461 Y-8.0156
G01 X21.7373 Y-8.0138
G01 X21.7085 Y-8.0097
G01 X21.6773 Y-8.0081
G01 X19.5227 Y-8.0081
G01 X19.4915 Y-8.0097
G01 X19.4627 Y-8.0138
G01 X19.4539 Y-8.0156
G01 X19.4257 Y-8.0228
G01 X19.3984 Y-8.0325
G01 X19.3900 Y-8.0359
G01 X19.3639 Y-8.0484
G01 X19.3369 Y-8.0644
G01 X19.3081 Y-8.0857
G01 X19.2832 Y-8.1082
G01 X19.2607 Y-8.1331
G01 X19.2407 Y-8.1600
G01 X19.2234 Y-8.1888
G01 X19.2091 Y-8.2191
G01 X19.1978 Y-8.2507
G01 X19.1892 Y-8.2855
G01 X19.1847 Y-8.3165
G01 X19.1831 Y-8.3500
G01 X19.1832 Y-8.9795
G01 X19.1847 Y-9.0085
G01 X19.1888 Y-9.0373
G01 X19.1906 Y-9.0461
G01 X19.1978 Y-9.0743
G01 X19.2091 Y-9.1059
G01 X19.2214 Y-9.1322
G01 X19.2256 Y-9.1400
G01 X19.2407 Y-9.1650
G01 X19.2579 Y-9.1884
G01 X19.2636 Y-9.1953
G01 X19.2832 Y-9.2168
G01 X19.3081 Y-9.2393
G01 X19.3313 Y-9.2567
G01 X19.3388 Y-9.2617
G01 X19.3638 Y-9.2766
G01 X19.3921 Y-9.2900
G01 X19.4257 Y-9.3022
G01 X19.4583 Y-9.3104
G01 X19.4915 Y-9.3153
G01 X19.5250 Y-9.3169
G01 X21.6750 Y-9.3169
G01 X21.7085 Y-9.3153
G01 X21.7373 Y-9.3112
G01 X21.7461 Y-9.3094
G01 X21.7764 Y-9.3015
G01 X21.8059 Y-9.2909
G01 X21.8342 Y-9.2776
G01 X21.8612 Y-9.2617
G01 X21.8714 Y-9.2547
G01 X22.3047 Y-9.2547
G01 X22.4808 Y-9.4307
G01 X22.4898 Y-9.4391
G01 X22.4898 Y-11.2300
G01 X18.4699 Y-11.2300
G01 X18.4458 Y-11.2310
G01 X18.4368 Y-11.2319
G01 X18.4151 Y-11.2351
G01 X18.4085 Y-11.2366
G01 X18.3851 Y-11.2425
G01 X18.3561 Y-11.2531
G01 X18.3322 Y-11.2644
G01 X18.3076 Y-11.2792
G01 X18.2846 Y-11.2962
G01 X18.2667 Y-11.3124
G01 X18.2603 Y-11.3188
G01 X18.2456 Y-11.3350
G01 X18.2414 Y-11.3403
G01 X18.2271 Y-11.3597
G01 X18.2124 Y-11.3842
G01 X18.2001 Y-11.4102
G01 X18.1918 Y-11.4329
G01 X18.1898 Y-11.4394
G01 X18.1844 Y-11.4606
G01 X18.1827 Y-11.4695
G00 Z2.0000
G00 X17.8504 Y-11.2708
G01 F10.00
G01 Z-0.0500
G01 F30.00
G01 X17.8819 Y-11.2901
G01 X17.9120 Y-11.3120
G01 X17.9268 Y-11.3238
G01 X17.9497 Y-11.3445
G01 X17.9632 Y-11.3577
G01 X17.9882 Y-11.3852
G01 X18.0000 Y-11.4000
G01 X18.0217 Y-11.4298
G01 X18.0303 Y-11.3952
G01 X18.0360 Y-11.3772
G01 X18.0472 Y-11.3469
G01 X18.0638 Y-11.3113
G01 X18.0695 Y-11.3006
G01 X18.0827 Y-11.2785
G01 X18.0930 Y-11.2626
G01 X18.1122 Y-11.2367
G01 X18.1265 Y-11.2199
G01 X18.1150 Y-11.2263
G01 X18.0979 Y-11.2344
G01 X18.0862 Y-11.2391
G01 X18.0715 Y-11.2441
G01 X18.0459 Y-11.2561
G01 X18.0341 Y-11.2609
G01 X18.0220 Y-11.2652
G01 X18.0097 Y-11.2689
G01 X17.9910 Y-11.2732
G01 X17.9784 Y-11.2753
G01 X17.9656 Y-11.2768
G01 X17.9529 Y-11.2776
G01 X17.9400 Y-11.2779
G01 X17.9209 Y-11.2770
G01 X17.8629 Y-11.2721
G01 X17.8504 Y-11.2708
G00 Z2.0000
G00 X16.8007 Y-12.8271
G01 F10.00
G01 Z-0.0500
G01 F30.00
G01 X16.8170 Y-12.8538
G01 X16.8329 Y-12.8754
G01 X16.8386 Y-12.8823
G01 X16.8582 Y-12.9038
G01 X16.8797 Y-12.9234
G01 X16.8848 Y-12.9277
G01 X16.9063 Y-12.9437
G01 X16.9138 Y-12.9487
G01 X16.9388 Y-12.9636
G01 X16.9691 Y-12.9779
G01 X17.0007 Y-12.9892
G01 X17.0333 Y-12.9974
G01 X17.0665 Y-13.0023
G01 X17.1000 Y-13.0039
G01 X17.6000 Y-13.0039
G01 X17.6358 Y-13.0021
G01 X17.6623 Y-12.9982
G01 X17.6711 Y-12.9964
G01 X17.6993 Y-12.9892
G01 X17.7266 Y-12.9795
G01 X17.7350 Y-12.9761
G01 X17.7611 Y-12.9636
G01 X17.7900 Y-12.9463
G01 X17.8169 Y-12.9263
G01 X17.8385 Y-12.9069
G01 X17.8449 Y-12.9005
G01 X17.8629 Y-12.8807
G01 X17.8671 Y-12.8754
G01 X17.8843 Y-12.8520
G01 X17.8993 Y-12.8271
G01 X17.9036 Y-12.8192
G01 X17.9159 Y-12.7929
G01 X17.9272 Y-12.7613
G01 X17.9354 Y-12.7287
G01 X17.9401 Y-12.6978
G01 X17.9419 Y-12.6620
G01 X17.9419 Y-12.4790
G01 X19.2495 Y-12.4790
G01 X19.2781 Y-12.4776
G01 X19.3043 Y-12.4739
G01 X19.3321 Y-12.4671
G01 X19.3417 Y-12.4639
G01 X19.9020 Y-12.4639
G01 X19.9231 Y-12.4628
G01 X19.9372 Y-12.4607
G01 X19.9439 Y-12.4593
G01 X19.9577 Y-12.4557
G01 X19.9712 Y-12.4510
G01 X19.9775 Y-12.4484
G01 X19.9924 Y-12.4413
G01 X20.0067 Y-12.4328
G01 X20.0123 Y-12.4290
G01 X20.0238 Y-12.4204
G01 X20.0345 Y-12.4108
G01 X20.0393 Y-12.4061
G01 X20.0503 Y-12.3938
G01 X20.0628 Y-12.3768
G01 X20.0702 Y-12.3645
G01 X20.0733 Y-12.3585
G01 X20.0793 Y-12.3455
G01 X20.0850 Y-12.3299
G01 X20.0893 Y-12.3139
G01 X20.0910 Y-12.3050
G01 X20.0931 Y-12.2905
G01 X20.0939 Y-12.2743
G01 X20.0939 Y-12.0697
G01 X20.0928 Y-12.0509
G01 X20.0907 Y-12.0368
G01 X20.0893 Y-12.0301
G01 X20.0857 Y-12.0163
G01 X20.0793 Y-11.9985
G01 X20.0713 Y-11.9815
G01 X20.0640 Y-11.9692
G01 X20.0590 Y-11.9617
G01 X20.0489 Y-11.9485
G01 X20.0377 Y-11.9363
G01 X20.0255 Y-11.9251
G01 X20.0123 Y-11.9150
G01 X20.0048 Y-11.9100
G01 X19.9925 Y-11.9027
G01 X19.9755 Y-11.8947
G01 X19.9577 Y-11.8883
G01 X19.9439 Y-11.8847
G01 X19.9350 Y-11.8830
G01 X19.9181 Y-11.8807
G01 X19.9020 Y-11.8801
G01 X18.6270 Y-11.8801
G01 X18.6082 Y-11.8810
G01 X18.5896 Y-11.8837
G01 X18.5713 Y-11.8883
G01 X18.5529 Y-11.8950
G01 X17.9419 Y-11.8949
G01 X17.9419 Y-11.7120
G01 X17.9405 Y-11.6807
G01 X17.9362 Y-11.6497
G01 X17.9344 Y-11.6409
G01 X17.9272 Y-11.6127
G01 X17.9175 Y-11.5854
G01 X17.9141 Y-11.5770
G01 X17.9026 Y-11.5528
G01 X17.8867 Y-11.5258
G01 X17.8830 Y-11.5202
G01 X17.8671 Y-11.4986
G01 X17.8614 Y-11.4917
G01 X17.8418 Y-11.4702
G01 X17.8169 Y-11.4477
G01 X17.7900 Y-11.4277
G01 X17.7632 Y-11.4115
G01 X17.7309 Y-11.3961
G01 X17.7035 Y-11.3862
G01 X17.6949 Y-11.3836
G01 X17.6689 Y-11.3771
G01 X17.6623 Y-11.3758
G01 X17.6335 Y-11.3717
G01 X17.6045 Y-11.3702
G01 X17.0977 Y-11.3701
G01 X17.0665 Y-11.3717
G01 X17.0377 Y-11.3758
G01 X17.0289 Y-11.3776
G01 X17.0007 Y-11.3848
G01 X16.9734 Y-11.3945
G01 X16.9650 Y-11.3979
G01 X16.9389 Y-11.4104
G01 X16.9100 Y-11.4277
G01 X16.8866 Y-11.4449
G01 X16.8797 Y-11.4506
G01 X16.8566 Y-11.4718
G01 X16.8357 Y-11.4951
G01 X16.8183 Y-11.5183
G01 X16.8133 Y-11.5258
G01 X16.7984 Y-11.5508
G01 X16.7841 Y-11.5811
G01 X16.7742 Y-11.6085
G01 X16.7721 Y-11.6149
G01 X16.7656 Y-11.6409
G01 X16.7638 Y-11.6497
G01 X16.7597 Y-11.6785
G01 X16.7581 Y-11.7120
G01 X16.7581 Y-12.6643
G01 X16.7594 Y-12.6910
G01 X16.7602 Y-12.7000
G01 X16.7646 Y-12.7287
G01 X16.7716 Y-12.7569
G01 X16.7742 Y-12.7655
G01 X16.7841 Y-12.7929
G01 X16.7964 Y-12.8192
G01 X16.8007 Y-12.8271
G00 Z2.0000
G00 X14.5175 Y-11.0034
G01 F10.00
G01 Z-0.0500
G01 F30.00
G01 X14.5175 Y-11.4293
G01 X14.7786 Y-11.4293
G01 X14.8000 Y-11.4000
G01 X14.8118 Y-11.3852
G01 X14.8368 Y-11.3577
G01 X14.8503 Y-11.3445
G01 X14.8781 Y-11.3197
G01 X14.9077 Y-11.2973
G01 X14.9234 Y-11.2866
G01 X14.9522 Y-11.2693
G01 X14.9302 Y-11.2710
G01 X14.8604 Y-11.2734
G01 X14.8476 Y-11.2735
G01 X14.8348 Y-11.2730
G01 X14.8157 Y-11.2711
G01 X14.8031 Y-11.2690
G01 X14.7906 Y-11.2663
G01 X14.7783 Y-11.2629
G01 X14.7661 Y-11.2590
G01 X14.7483 Y-11.2520
G01 X14.7367 Y-11.2465
G01 X14.7198 Y-11.2374
G01 X14.6598 Y-11.2016
G01 X14.6437 Y-11.1912
G01 X14.6334 Y-11.1836
G01 X14.6235 Y-11.1755
G01 X14.6140 Y-11.1669
G01 X14.6050 Y-11.1579
G01 X14.5964 Y-11.1484
G01 X14.5883 Y-11.1385
G01 X14.5807 Y-11.1282
G01 X14.5703 Y-11.1121
G01 X14.5611 Y-11.0953
G01 X14.5272 Y-11.0273
G01 X14.5223 Y-11.0161
G01 X14.5175 Y-11.0034
G00 Z2.0000
G00 X20.2472 Y-11.9796
G01 F10.00
G01 Z-0.0500
G01 F30.00
G01 X20.2513 Y-11.9961
G01 X20.2548 Y-12.0147
G01 X20.2577 Y-12.0370
G01 X20.2591 Y-12.0594
G01 X20.2595 Y-12.0720
G01 X20.2595 Y-12.2386
G01 X20.2646 Y-12.2262
G01 X20.2928 Y-12.1623
G01 X20.2983 Y-12.1507
G01 X20.3043 Y-12.1394
G01 X20.3144 Y-12.1231
G01 X20.3218 Y-12.1127
G01 X20.3338 Y-12.0977
G01 X20.3469 Y-12.0837
G01 X20.3562 Y-12.0749
G01 X20.3659 Y-12.0666
G01 X20.3812 Y-12.0551
G01 X20.4448 Y-12.0130
G01 X20.4554 Y-12.0064
G01 X20.4717 Y-11.9975
G01 X20.4887 Y-11.9898
G01 X20.5062 Y-11.9834
G01 X20.5189 Y-11.9796
G01 X20.2472 Y-11.9796
G00 Z2.0000
G00 X22.0519 Y-11.0644
G01 F10.00
G01 Z-0.0500
G01 F30.00
G01 X22.3243 Y-11.0644
G01 X22.3243 Y-10.7845
G01 X22.3088 Y-10.8371
G01 X22.3049 Y-10.8493
G01 X22.2980 Y-10.8671
G01 X22.2926 Y-10.8787
G01 X22.2834 Y-10.8956
G01 X22.2731 Y-10.9117
G01 X22.2655 Y-10.9220
G01 X22.2574 Y-10.9319
G01 X22.2444 Y-10.9460
G01 X22.2304 Y-10.9591
G01 X22.1727 Y-11.0090
G01 X22.1574 Y-11.0207
G01 X22.1412 Y-11.0312
G01 X22.1300 Y-11.0376
G01 X22.1185 Y-11.0433
G01 X22.1007 Y-11.0509
G01 X22.0886 Y-11.0552
G01 X22.0762 Y-11.0588
G01 X22.0519 Y-11.0644
G00 Z2.0000
G00 X22.3401 Y-12.1535
G01 F10.00
G01 Z-0.0500
G01 F30.00
G01 X22.3367 Y-12.1354
G01 X22.3279 Y-12.0743
G01 X22.3246 Y-12.0126
G01 X22.3243 Y-11.9796
G01 X22.0986 Y-11.9796
G01 X22.1579 Y-11.9970
G01 X22.1759 Y-12.0036
G01 X22.1876 Y-12.0087
G01 X22.2047 Y-12.0174
G01 X22.2157 Y-12.0239
G01 X22.2316 Y-12.0347
G01 X22.2417 Y-12.0425
G01 X22.2514 Y-12.0508
G01 X22.2607 Y-12.0596
G01 X22.2695 Y-12.0688
G01 X22.3237 Y-12.1313
G01 X22.3315 Y-12.1413
G01 X22.3401 Y-12.1535
G00 Z2.0000
G00 X23.2282 Y-12.7933
G01 F10.00
G01 Z-0.0500
G01 F30.00
G01 X23.1850 Y-12.7501
G01 X23.1563 Y-12.7541
G01 X23.1276 Y-12.7558
G01 X23.2029 Y-12.7821
G01 X23.2146 Y-12.7869
G01 X23.2282 Y-12.7933
G00 Z2.0000
G00 X23.9945 Y-13.5152
G01 F10.00
G01 Z-0.0500
G01 F30.00
G01 X23.9945 Y-13.3720
G01 X23.9953 Y-13.3496
G01 X23.9969 Y-13.3311
G01 X24.0003 Y-13.3085
G01 X24.0027 Y-13.2961
G01 X24.0068 Y-13.2796
G01 X23.9040 Y-13.2796
G01 X23.8914 Y-13.2792
G01 X23.8592 Y-13.2774
G01 X23.8466 Y-13.2758
G01 X23.8159 Y-13.2710
G01 X23.8313 Y-13.2815
G01 X23.8412 Y-13.2892
G01 X23.9038 Y-13.3428
G01 X23.9131 Y-13.3516
G01 X23.9219 Y-13.3609
G01 X23.9303 Y-13.3705
G01 X23.9381 Y-13.3806
G01 X23.9490 Y-13.3964
G01 X23.9556 Y-13.4074
G01 X23.9644 Y-13.4244
G01 X23.9695 Y-13.4361
G01 X23.9762 Y-13.4541
G01 X23.9945 Y-13.5152
G00 Z2.0000
G00 X24.1601 Y-13.3720
G01 F10.00
G01 Z-0.0500
G01 F30.00
G01 X24.1601 Y-13.5720
G01 X24.1606 Y-13.5863
G01 X24.1612 Y-13.5931
G01 X24.1630 Y-13.6050
G01 X24.1647 Y-13.6139
G01 X24.1690 Y-13.6299
G01 X24.1756 Y-13.6475
G01 X24.1827 Y-13.6624
G01 X24.1900 Y-13.6748
G01 X24.1937 Y-13.6805
G01 X24.2022 Y-13.6920
G01 X24.2163 Y-13.7077
G01 X24.2285 Y-13.7189
G01 X24.2336 Y-13.7230
G01 X24.2454 Y-13.7316
G01 X24.2576 Y-13.7391
G01 X24.2635 Y-13.7423
G01 X24.2785 Y-13.7493
G01 X24.2941 Y-13.7550
G01 X24.3006 Y-13.7569
G01 X24.3146 Y-13.7603
G01 X24.3287 Y-13.7625
G01 X24.3359 Y-13.7633
G01 X24.3520 Y-13.7639
G01 X26.9351 Y-13.7641
G01 X26.9351 Y-13.9320
G01 X26.9369 Y-13.9678
G01 X26.9416 Y-13.9987
G01 X26.9498 Y-14.0313
G01 X26.9611 Y-14.0629
G01 X26.9765 Y-14.0951
G01 X26.9927 Y-14.1220
G01 X27.0099 Y-14.1454
G01 X27.0156 Y-14.1523
G01 X27.0352 Y-14.1738
G01 X27.0567 Y-14.1934
G01 X27.0618 Y-14.1977
G01 X27.0833 Y-14.2137
G01 X27.0908 Y-14.2187
G01 X27.1158 Y-14.2336
G01 X27.1461 Y-14.2479
G01 X27.1777 Y-14.2592
G01 X27.2059 Y-14.2664
G01 X27.2147 Y-14.2682
G01 X27.2435 Y-14.2723
G01 X27.2770 Y-14.2739
G01 X27.7793 Y-14.2739
G01 X27.8105 Y-14.2723
G01 X27.8393 Y-14.2682
G01 X27.8481 Y-14.2664
G01 X27.8763 Y-14.2592
G01 X27.9079 Y-14.2479
G01 X27.9342 Y-14.2356
G01 X27.9420 Y-14.2314
G01 X27.9670 Y-14.2163
G01 X27.9904 Y-14.1991
G01 X27.9973 Y-14.1934
G01 X28.0188 Y-14.1738
G01 X28.0384 Y-14.1523
G01 X28.0441 Y-14.1454
G01 X28.0613 Y-14.1220
G01 X28.0763 Y-14.0971
G01 X28.0806 Y-14.0892
G01 X28.0929 Y-14.0629
G01 X28.1035 Y-14.0334
G01 X28.1114 Y-14.0031
G01 X28.1132 Y-13.9943
G01 X28.1173 Y-13.9655
G01 X28.1189 Y-13.9320
G01 X28.1189 Y-12.9820
G01 X28.1173 Y-12.9485
G01 X28.1124 Y-12.9153
G01 X28.1054 Y-12.8871
G01 X28.1028 Y-12.8785
G01 X28.0929 Y-12.8511
G01 X28.0786 Y-12.8209
G01 X28.0637 Y-12.7958
G01 X28.0587 Y-12.7883
G01 X28.0413 Y-12.7651
G01 X28.0188 Y-12.7402
G01 X27.9973 Y-12.7206
G01 X27.9904 Y-12.7149
G01 X27.9670 Y-12.6977
G01 X27.9382 Y-12.6804
G01 X27.9079 Y-12.6661
G01 X27.8805 Y-12.6562
G01 X27.8741 Y-12.6541
G01 X27.8481 Y-12.6476
G01 X27.8393 Y-12.6458
G01 X27.8105 Y-12.6417
G01 X27.7770 Y-12.6401
G01 X27.2770 Y-12.6401
G01 X27.2480 Y-12.6414
G01 X27.2390 Y-12.6422
G01 X27.2103 Y-12.6466
G01 X27.1777 Y-12.6548
G01 X27.1461 Y-12.6661
G01 X27.1198 Y-12.6784
G01 X27.1120 Y-12.6826
G01 X27.0870 Y-12.6977
G01 X27.0601 Y-12.7177
G01 X27.0352 Y-12.7402
G01 X27.0127 Y-12.7651
G01 X26.9927 Y-12.7920
G01 X26.9754 Y-12.8208
G01 X26.9611 Y-12.8511
G01 X26.9512 Y-12.8785
G01 X26.9486 Y-12.8871
G01 X26.9416 Y-12.9153
G01 X26.9372 Y-12.9440
G01 X26.9364 Y-12.9530
G01 X26.9351 Y-12.9820
G01 X26.9351 Y-13.1800
G01 X24.3520 Y-13.1801
G01 X24.3354 Y-13.1808
G01 X24.3146 Y-13.1837
G01 X24.2984 Y-13.1877
G01 X24.2806 Y-13.1938
G01 X24.2655 Y-13.2007
G01 X24.2595 Y-13.2038
G01 X24.2472 Y-13.2112
G01 X24.2338 Y-13.2208
G01 X24.2268 Y-13.2266
G01 X24.2179 Y-13.2347
G01 X24.2132 Y-13.2395
G01 X24.2037 Y-13.2502
G01 X24.1924 Y-13.2654
G01 X24.1827 Y-13.2815
G01 X24.1747 Y-13.2985
G01 X24.1683 Y-13.3163
G01 X24.1637 Y-13.3346
G01 X24.1609 Y-13.3535
G01 X24.1601 Y-13.3720
G00 Z2.0000
G00 X24.0386 Y-13.8502
G01 F10.00
G01 Z-0.0500
G01 F30.00
G01 X24.0480 Y-13.8341
G01 X24.0548 Y-13.8234
G01 X24.0621 Y-13.8131
G01 X24.0743 Y-13.7970
G01 X24.0621 Y-13.7809
G01 X24.0513 Y-13.7653
G01 X24.0396 Y-13.7458
G01 X24.0327 Y-13.7325
G01 X24.0390 Y-13.7915
G01 X24.0401 Y-13.8041
G01 X24.0405 Y-13.8167
G01 X24.0403 Y-13.8294
G01 X24.0386 Y-13.8502
G00 Z2.0000
G00 X24.1601 Y-14.0220
G01 F10.00
G01 Z-0.0500
G01 F30.00
G01 X24.1602 Y-14.2265
G01 X24.1610 Y-14.2408
G01 X24.1637 Y-14.2594
G01 X24.1683 Y-14.2777
G01 X24.1730 Y-14.2912
G01 X24.1756 Y-14.2975
G01 X24.1827 Y-14.3124
G01 X24.1937 Y-14.3305
G01 X24.2022 Y-14.3420
G01 X24.2066 Y-14.3472
G01 X24.2163 Y-14.3577
G01 X24.2268 Y-14.3674
G01 X24.2319 Y-14.3717
G01 X24.2435 Y-14.3803
G01 X24.2615 Y-14.3913
G01 X24.2806 Y-14.4002
G01 X24.2941 Y-14.4050
G01 X24.3006 Y-14.4069
G01 X24.3146 Y-14.4103
G01 X24.3287 Y-14.4125
G01 X24.3359 Y-14.4133
G01 X24.3520 Y-14.4139
G01 X25.6631 Y-14.4140
G01 X26.7220 Y-15.4729
G01 X26.7219 Y-16.0719
G01 X26.6973 Y-16.0756
G01 X26.6647 Y-16.0838
G01 X26.6331 Y-16.0951
G01 X26.6068 Y-16.1074
G01 X26.5990 Y-16.1116
G01 X26.5778 Y-16.1243
G01 X26.5703 Y-16.1293
G01 X26.5471 Y-16.1467
G01 X26.5222 Y-16.1692
G01 X26.4997 Y-16.1941
G01 X26.4823 Y-16.2173
G01 X26.4784 Y-16.2229
G01 X26.4647 Y-16.2459
G01 X26.4604 Y-16.2538
G01 X26.4481 Y-16.2801
G01 X26.4368 Y-16.3117
G01 X26.4286 Y-16.3443
G01 X26.4242 Y-16.3730
G01 X26.4234 Y-16.3820
G01 X26.4221 Y-16.4110
G01 X26.4221 Y-17.3633
G01 X26.4237 Y-17.3945
G01 X26.4286 Y-17.4277
G01 X26.4368 Y-17.4603
G01 X26.4465 Y-17.4876
G01 X26.4499 Y-17.4960
G01 X26.4614 Y-17.5202
G01 X26.4646 Y-17.5260
G01 X26.4797 Y-17.5510
G01 X26.4969 Y-17.5744
G01 X26.5026 Y-17.5813
G01 X26.5222 Y-17.6028
G01 X26.5437 Y-17.6224
G01 X26.5506 Y-17.6281
G01 X26.5740 Y-17.6453
G01 X26.5989 Y-17.6603
G01 X26.6068 Y-17.6646
G01 X26.6331 Y-17.6769
G01 X26.6647 Y-17.6882
G01 X26.6929 Y-17.6954
G01 X26.7017 Y-17.6972
G01 X26.7305 Y-17.7013
G01 X26.7640 Y-17.7029
G01 X27.2640 Y-17.7029
G01 X27.2998 Y-17.7011
G01 X27.3307 Y-17.6964
G01 X27.3633 Y-17.6882
G01 X27.3949 Y-17.6769
G01 X27.4212 Y-17.6646
G01 X27.4290 Y-17.6604
G01 X27.4502 Y-17.6477
G01 X27.4577 Y-17.6427
G01 X27.4809 Y-17.6253
G01 X27.5042 Y-17.6044
G01 X27.5283 Y-17.5779
G01 X27.5457 Y-17.5547
G01 X27.5496 Y-17.5491
G01 X27.5633 Y-17.5261
G01 X27.5676 Y-17.5182
G01 X27.5799 Y-17.4919
G01 X27.5912 Y-17.4603
G01 X27.5994 Y-17.4277
G01 X27.6045 Y-17.3923
G01 X27.6059 Y-17.3610
G01 X27.6059 Y-16.4110
G01 X27.6041 Y-16.3752
G01 X27.5994 Y-16.3443
G01 X27.5912 Y-16.3117
G01 X27.5799 Y-16.2801
G01 X27.5676 Y-16.2538
G01 X27.5634 Y-16.2460
G01 X27.5507 Y-16.2248
G01 X27.5457 Y-16.2173
G01 X27.5283 Y-16.1941
G01 X27.5058 Y-16.1692
G01 X27.4809 Y-16.1467
G01 X27.4577 Y-16.1293
G01 X27.4521 Y-16.1254
G01 X27.4291 Y-16.1117
G01 X27.4212 Y-16.1074
G01 X27.3949 Y-16.0951
G01 X27.3633 Y-16.0838
G01 X27.3307 Y-16.0756
G01 X27.3060 Y-16.0719
G01 X27.3060 Y-15.3519
G01 X27.3046 Y-15.3233
G01 X27.3004 Y-15.2949
G01 X27.2947 Y-15.2715
G01 X27.2921 Y-15.2628
G01 X27.2847 Y-15.2422
G01 X27.2820 Y-15.2360
G01 X27.2716 Y-15.2142
G01 X27.2568 Y-15.1896
G01 X27.2398 Y-15.1666
G01 X27.2221 Y-15.1470
G01 X25.9890 Y-13.9139
G01 X25.9694 Y-13.8962
G01 X25.9464 Y-13.8792
G01 X25.9219 Y-13.8645
G01 X25.9000 Y-13.8540
G01 X25.8917 Y-13.8506
G01 X25.8689 Y-13.8425
G01 X25.8413 Y-13.8356
G01 X25.8127 Y-13.8314
G01 X25.7864 Y-13.8300
G01 X24.3520 Y-13.8301
G01 X24.3332 Y-13.8310
G01 X24.3146 Y-13.8337
G01 X24.2963 Y-13.8383
G01 X24.2785 Y-13.8447
G01 X24.2615 Y-13.8527
G01 X24.2454 Y-13.8624
G01 X24.2302 Y-13.8736
G01 X24.2163 Y-13.8863
G01 X24.2066 Y-13.8968
G01 X24.2023 Y-13.9019
G01 X24.1950 Y-13.9117
G01 X24.1900 Y-13.9192
G01 X24.1817 Y-13.9335
G01 X24.1756 Y-13.9465
G01 X24.1730 Y-13.9528
G01 X24.1683 Y-13.9663
G01 X24.1637 Y-13.9846
G01 X24.1609 Y-14.0035
G01 X24.1601 Y-14.0220
G00 Z2.0000
G00 X25.9722 Y-13.0144
G01 F10.00
G01 Z-0.0500
G01 F30.00
G01 X26.7695 Y-13.0144
G01 X26.7696 Y-12.9757
G01 X26.7714 Y-12.9386
G01 X26.7727 Y-12.9260
G01 X26.7793 Y-12.8830
G01 X26.7896 Y-12.8408
G01 X26.7933 Y-12.8287
G01 X26.8036 Y-12.7996
G01 X26.8107 Y-12.7820
G01 X26.8295 Y-12.7428
G01 X26.8516 Y-12.7054
G01 X26.8586 Y-12.6949
G01 X26.8770 Y-12.6700
G01 X26.8888 Y-12.6552
G01 X26.9182 Y-12.6232
G01 X26.9502 Y-12.5938
G01 X26.9650 Y-12.5820
G01 X26.9899 Y-12.5636
G01 X27.0004 Y-12.5566
G01 X27.0272 Y-12.5405
G01 X27.0380 Y-12.5344
G01 X27.0770 Y-12.5157
G01 X27.0887 Y-12.5108
G01 X27.1237 Y-12.4983
G01 X27.1358 Y-12.4946
G01 X27.1718 Y-12.4856
G01 X27.1842 Y-12.4831
G01 X27.2210 Y-12.4777
G01 X27.2336 Y-12.4764
G01 X27.2707 Y-12.4746
G01 X27.7833 Y-12.4746
G01 X27.8267 Y-12.4770
G01 X27.8635 Y-12.4821
G01 X27.8822 Y-12.4856
G01 X27.9218 Y-12.4957
G01 X27.8700 Y-12.4597
G01 X27.8598 Y-12.4519
G01 X27.8454 Y-12.4393
G01 X27.8319 Y-12.4256
G01 X27.8195 Y-12.4110
G01 X27.8118 Y-12.4008
G01 X27.8013 Y-12.3848
G01 X27.7950 Y-12.3737
G01 X27.7865 Y-12.3564
G01 X27.7572 Y-12.2860
G01 X27.7505 Y-12.2681
G01 X27.7452 Y-12.2497
G01 X27.7412 Y-12.2309
G01 X27.7387 Y-12.2119
G01 X27.7375 Y-12.1927
G01 X27.7378 Y-12.1736
G01 X27.7396 Y-12.1545
G01 X27.7415 Y-12.1418
G01 X27.7550 Y-12.0668
G01 X27.7596 Y-12.0481
G01 X27.7655 Y-12.0299
G01 X27.7727 Y-12.0122
G01 X27.7783 Y-12.0006
G01 X27.7877 Y-11.9839
G01 X27.7983 Y-11.9680
G01 X27.8061 Y-11.9578
G01 X27.8186 Y-11.9432
G01 X27.8661 Y-11.8920
G01 X27.8750 Y-11.8830
G01 X27.8843 Y-11.8743
G01 X27.8940 Y-11.8662
G01 X27.9041 Y-11.8585
G01 X27.9146 Y-11.8513
G01 X27.9018 Y-11.8539
G01 X27.8650 Y-11.8593
G01 X27.8524 Y-11.8606
G01 X27.8153 Y-11.8624
G01 X27.2223 Y-11.8625
G01 X27.2121 Y-11.8716
G01 X27.2023 Y-11.8796
G01 X27.1764 Y-11.8989
G01 X27.1659 Y-11.9059
G01 X27.1327 Y-11.9255
G01 X27.0979 Y-11.9422
G01 X27.0862 Y-11.9471
G01 X27.0618 Y-11.9559
G01 X27.0498 Y-11.9599
G01 X27.0376 Y-11.9632
G01 X27.0124 Y-11.9695
G01 X27.0001 Y-11.9719
G01 X26.9681 Y-11.9767
G01 X26.9556 Y-11.9779
G01 X26.9170 Y-11.9796
G01 X25.9722 Y-11.9796
G01 X25.9776 Y-12.0023
G01 X25.9812 Y-12.0244
G01 X25.9833 Y-12.0433
G01 X25.9844 Y-12.0657
G01 X25.9845 Y-12.2720
G01 X25.9837 Y-12.2944
G01 X25.9821 Y-12.3129
G01 X25.9776 Y-12.3417
G01 X25.9724 Y-12.3636
G01 X25.9672 Y-12.3818
G01 X25.9572 Y-12.4088
G01 X25.9452 Y-12.4349
G01 X25.9360 Y-12.4515
G01 X25.9277 Y-12.4653
G01 X25.9206 Y-12.4758
G01 X25.9047 Y-12.4970
G01 X25.9206 Y-12.5182
G01 X25.9277 Y-12.5287
G01 X25.9360 Y-12.5425
G01 X25.9452 Y-12.5591
G01 X25.9572 Y-12.5852
G01 X25.9672 Y-12.6122
G01 X25.9724 Y-12.6304
G01 X25.9776 Y-12.6523
G01 X25.9820 Y-12.6807
G01 X25.9837 Y-12.6996
G01 X25.9845 Y-12.7220
G01 X25.9844 Y-12.9283
G01 X25.9834 Y-12.9494
G01 X25.9812 Y-12.9696
G01 X25.9776 Y-12.9917
G01 X25.9722 Y-13.0144
G00 Z2.0000
G00 X26.0981 Y-11.0644
G01 F10.00
G01 Z-0.0500
G01 F30.00
G01 X26.3515 Y-11.0644
G01 X26.3515 Y-10.8550
G01 X26.3532 Y-10.8157
G01 X26.3277 Y-10.8779
G01 X26.3223 Y-10.8895
G01 X26.3163 Y-10.9008
G01 X26.3063 Y-10.9172
G01 X26.2951 Y-10.9328
G01 X26.2828 Y-10.9475
G01 X26.2694 Y-10.9612
G01 X26.2599 Y-10.9698
G01 X26.2449 Y-10.9818
G01 X26.1826 Y-11.0256
G01 X26.1664 Y-11.0361
G01 X26.1495 Y-11.0453
G01 X26.1320 Y-11.0533
G01 X26.1139 Y-11.0599
G01 X26.0981 Y-11.0644
G00 Z2.0000
G00 X26.6071 Y-10.4147
G01 F10.00
G01 Z-0.0500
G01 F30.00
G01 X26.6255 Y-10.4045
G01 X26.6590 Y-10.3887
G01 X26.6766 Y-10.3816
G01 X26.7117 Y-10.3694
G01 X26.7477 Y-10.3601
G01 X26.7662 Y-10.3561
G01 X26.8030 Y-10.3507
G01 X26.8219 Y-10.3491
G01 X26.8590 Y-10.3475
G01 X27.8090 Y-10.3475
G01 X27.8524 Y-10.3494
G01 X27.8713 Y-10.3515
G01 X27.9080 Y-10.3573
G01 X27.9502 Y-10.3676
G01 X27.9623 Y-10.3713
G01 X27.9914 Y-10.3816
G01 X28.0090 Y-10.3887
G01 X28.0482 Y-10.4075
G01 X28.0739 Y-10.4225
G01 X28.0318 Y-10.3752
G01 X28.0200 Y-10.3602
G01 X28.0094 Y-10.3444
G01 X28.0030 Y-10.3335
G01 X27.9971 Y-10.3222
G01 X27.9893 Y-10.3049
G01 X27.9849 Y-10.2930
G01 X27.9810 Y-10.2809
G01 X27.9777 Y-10.2686
G01 X27.9751 Y-10.2562
G01 X27.9618 Y-10.1747
G01 X27.9599 Y-10.1556
G01 X27.9594 Y-10.1428
G01 X27.9596 Y-10.1300
G01 X27.9604 Y-10.1173
G01 X27.9618 Y-10.1046
G01 X27.9639 Y-10.0919
G01 X27.9665 Y-10.0794
G01 X27.9698 Y-10.0671
G01 X27.9738 Y-10.0549
G01 X27.9783 Y-10.0429
G01 X28.0086 Y-9.9730
G01 X28.0140 Y-9.9614
G01 X28.0199 Y-9.9501
G01 X28.0299 Y-9.9337
G01 X28.0372 Y-9.9232
G01 X28.0491 Y-9.9082
G01 X28.0609 Y-9.8953
G01 X28.0425 Y-9.9055
G01 X28.0090 Y-9.9213
G01 X27.9914 Y-9.9284
G01 X27.9563 Y-9.9406
G01 X27.9203 Y-9.9499
G01 X27.9018 Y-9.9539
G01 X27.8650 Y-9.9593
G01 X27.8461 Y-9.9609
G01 X27.8090 Y-9.9625
G01 X27.3340 Y-9.9627
G01 X26.8590 Y-9.9625
G01 X26.8156 Y-9.9606
G01 X26.7967 Y-9.9585
G01 X26.7600 Y-9.9527
G01 X26.7178 Y-9.9424
G01 X26.7057 Y-9.9387
G01 X26.6766 Y-9.9284
G01 X26.6590 Y-9.9213
G01 X26.6198 Y-9.9025
G01 X26.5941 Y-9.8875
G01 X26.6362 Y-9.9348
G01 X26.6480 Y-9.9498
G01 X26.6552 Y-9.9602
G01 X26.6650 Y-9.9765
G01 X26.6737 Y-9.9935
G01 X26.6787 Y-10.0051
G01 X26.6831 Y-10.0170
G01 X26.6870 Y-10.0291
G01 X26.6903 Y-10.0414
G01 X26.6929 Y-10.0538
G01 X26.7062 Y-10.1353
G01 X26.7076 Y-10.1480
G01 X26.7086 Y-10.1672
G01 X26.7084 Y-10.1800
G01 X26.7076 Y-10.1927
G01 X26.7062 Y-10.2054
G01 X26.7041 Y-10.2181
G01 X26.7015 Y-10.2306
G01 X26.6982 Y-10.2429
G01 X26.6942 Y-10.2551
G01 X26.6897 Y-10.2671
G01 X26.6594 Y-10.3370
G01 X26.6540 Y-10.3486
G01 X26.6481 Y-10.3599
G01 X26.6416 Y-10.3709
G01 X26.6308 Y-10.3868
G01 X26.6189 Y-10.4018
G01 X26.6071 Y-10.4147
G00 Z2.0000
G00 X26.5597 Y-9.6201
G01 F10.00
G01 Z-0.0500
G01 F30.00
G01 X26.5734 Y-9.6431
G01 X26.5773 Y-9.6487
G01 X26.5947 Y-9.6719
G01 X26.6141 Y-9.6935
G01 X26.6205 Y-9.6999
G01 X26.6421 Y-9.7193
G01 X26.6690 Y-9.7393
G01 X26.6978 Y-9.7566
G01 X26.7240 Y-9.7691
G01 X26.7324 Y-9.7725
G01 X26.7597 Y-9.7822
G01 X26.7879 Y-9.7894
G01 X26.7945 Y-9.7908
G01 X26.8210 Y-9.7948
G01 X26.8300 Y-9.7956
G01 X26.8590 Y-9.7969
G01 X27.3340 Y-9.7972
G01 X27.8090 Y-9.7969
G01 X27.8425 Y-9.7953
G01 X27.8713 Y-9.7912
G01 X27.8801 Y-9.7894
G01 X27.9083 Y-9.7822
G01 X27.9356 Y-9.7725
G01 X27.9440 Y-9.7691
G01 X27.9701 Y-9.7566
G01 X27.9952 Y-9.7417
G01 X28.0027 Y-9.7367
G01 X28.0259 Y-9.7193
G01 X28.0475 Y-9.6999
G01 X28.0539 Y-9.6935
G01 X28.0733 Y-9.6719
G01 X28.0907 Y-9.6487
G01 X28.0957 Y-9.6412
G01 X28.1106 Y-9.6162
G01 X28.1249 Y-9.5859
G01 X28.1362 Y-9.5543
G01 X28.1444 Y-9.5217
G01 X28.1488 Y-9.4930
G01 X28.1496 Y-9.4840
G01 X28.1509 Y-9.4550
G01 X28.1509 Y-8.9550
G01 X28.1491 Y-8.9192
G01 X28.1444 Y-8.8883
G01 X28.1374 Y-8.8601
G01 X28.1348 Y-8.8515
G01 X28.1249 Y-8.8241
G01 X28.1126 Y-8.7978
G01 X28.1084 Y-8.7900
G01 X28.0933 Y-8.7650
G01 X28.0747 Y-8.7398
G01 X28.0539 Y-8.7165
G01 X28.0475 Y-8.7101
G01 X28.0259 Y-8.6907
G01 X28.0008 Y-8.6720
G01 X27.9682 Y-8.6524
G01 X27.9419 Y-8.6400
G01 X27.9262 Y-8.6341
G01 X27.9262 Y-8.1857
G01 X27.9451 Y-8.1766
G01 X27.9702 Y-8.1617
G01 X27.9777 Y-8.1567
G01 X27.9992 Y-8.1407
G01 X28.0258 Y-8.1168
G01 X28.0497 Y-8.0902
G01 X28.0683 Y-8.0650
G01 X28.0833 Y-8.0401
G01 X28.0876 Y-8.0322
G01 X28.0999 Y-8.0059
G01 X28.1098 Y-7.9785
G01 X28.1124 Y-7.9699
G01 X28.1189 Y-7.9439
G01 X28.1243 Y-7.9085
G01 X28.1259 Y-7.8750
G01 X28.1259 Y-7.3500
G01 X28.1245 Y-7.3187
G01 X28.1194 Y-7.2833
G01 X28.1124 Y-7.2551
G01 X28.1098 Y-7.2465
G01 X28.0999 Y-7.2191
G01 X28.0876 Y-7.1928
G01 X28.0834 Y-7.1850
G01 X28.0683 Y-7.1600
G01 X28.0511 Y-7.1366
G01 X28.0454 Y-7.1297
G01 X28.0258 Y-7.1082
G01 X28.0043 Y-7.0886
G01 X27.9974 Y-7.0829
G01 X27.9740 Y-7.0657
G01 X27.9452 Y-7.0484
G01 X27.9149 Y-7.0341
G01 X27.8875 Y-7.0242
G01 X27.8789 Y-7.0216
G01 X27.8507 Y-7.0146
G01 X27.8220 Y-7.0102
G01 X27.8130 Y-7.0094
G01 X27.7863 Y-7.0081
G01 X26.8840 Y-7.0081
G01 X26.8505 Y-7.0097
G01 X26.8217 Y-7.0138
G01 X26.8129 Y-7.0156
G01 X26.7847 Y-7.0228
G01 X26.7574 Y-7.0325
G01 X26.7490 Y-7.0359
G01 X26.7229 Y-7.0484
G01 X26.6940 Y-7.0657
G01 X26.6706 Y-7.0829
G01 X26.6637 Y-7.0886
G01 X26.6422 Y-7.1082
G01 X26.6226 Y-7.1297
G01 X26.6169 Y-7.1366
G01 X26.5997 Y-7.1600
G01 X26.5824 Y-7.1888
G01 X26.5681 Y-7.2191
G01 X26.5568 Y-7.2507
G01 X26.5486 Y-7.2833
G01 X26.5442 Y-7.3120
G01 X26.5434 Y-7.3210
G01 X26.5421 Y-7.3500
G01 X26.5421 Y-7.8750
G01 X26.5437 Y-7.9085
G01 X26.5478 Y-7.9373
G01 X26.5496 Y-7.9461
G01 X26.5568 Y-7.9743
G01 X26.5665 Y-8.0016
G01 X26.5699 Y-8.0100
G01 X26.5824 Y-8.0361
G01 X26.6010 Y-8.0668
G01 X26.6169 Y-8.0884
G01 X26.6226 Y-8.0953
G01 X26.6422 Y-8.1168
G01 X26.6653 Y-8.1379
G01 X26.6959 Y-8.1606
G01 X26.7228 Y-8.1766
G01 X26.7418 Y-8.1857
G01 X26.7418 Y-8.6341
G01 X26.7261 Y-8.6400
G01 X26.6998 Y-8.6524
G01 X26.6939 Y-8.6557
G01 X26.6672 Y-8.6720
G01 X26.6456 Y-8.6879
G01 X26.6387 Y-8.6936
G01 X26.6172 Y-8.7132
G01 X26.5961 Y-8.7363
G01 X26.5747 Y-8.7650
G01 X26.5597 Y-8.7899
G01 X26.5554 Y-8.7978
G01 X26.5431 Y-8.8241
G01 X26.5332 Y-8.8515
G01 X26.5306 Y-8.8601
G01 X26.5232 Y-8.8905
G01 X26.5187 Y-8.9215
G01 X26.5171 Y-8.9550
G01 X26.5171 Y-9.4550
G01 X26.5184 Y-9.4840
G01 X26.5192 Y-9.4930
G01 X26.5236 Y-9.5217
G01 X26.5318 Y-9.5543
G01 X26.5431 Y-9.5859
G01 X26.5554 Y-9.6122
G01 X26.5597 Y-9.6201
G00 Z2.0000
G00 X26.5200 Y-8.2285
G01 F10.00
G01 Z-0.0500
G01 F30.00
G01 X26.5255 Y-8.2418
G01 X26.5314 Y-8.2592
G01 X26.5515 Y-8.3324
G01 X26.5546 Y-8.3449
G01 X26.5570 Y-8.3574
G01 X26.5595 Y-8.3764
G01 X26.5606 Y-8.3956
G01 X26.5605 Y-8.4084
G01 X26.5598 Y-8.4211
G01 X26.5575 Y-8.4402
G01 X26.5539 Y-8.4590
G01 X26.5506 Y-8.4714
G01 X26.5260 Y-8.5500
G01 X26.5194 Y-8.5673
G01 X26.5102 Y-8.5867
G01 X26.5371 Y-8.5627
G01 X26.5470 Y-8.5550
G01 X26.5763 Y-8.5336
G01 X26.5763 Y-8.2782
G01 X26.5670 Y-8.2712
G01 X26.5572 Y-8.2632
G01 X26.5297 Y-8.2382
G01 X26.5200 Y-8.2285
G00 Z2.0000
G00 X28.1663 Y-8.5947
G01 F10.00
G01 Z-0.0500
G01 F30.00
G01 X28.1370 Y-8.5388
G01 X28.1293 Y-8.5218
G01 X28.1249 Y-8.5101
G01 X28.1193 Y-8.4923
G01 X28.1150 Y-8.4742
G01 X28.1121 Y-8.4557
G01 X28.1105 Y-8.4372
G01 X28.1103 Y-8.4185
G01 X28.1109 Y-8.4061
G01 X28.1164 Y-8.3302
G01 X28.1188 Y-8.3119
G01 X28.1225 Y-8.2938
G01 X28.1257 Y-8.2819
G01 X28.1295 Y-8.2701
G01 X28.1362 Y-8.2529
G01 X28.1476 Y-8.2290
G01 X28.1383 Y-8.2382
G01 X28.1108 Y-8.2632
G01 X28.1010 Y-8.2712
G01 X28.0917 Y-8.2782
G01 X28.0917 Y-8.5336
G01 X28.1210 Y-8.5550
G01 X28.1309 Y-8.5627
G01 X28.1405 Y-8.5710
G01 X28.1663 Y-8.5947
G00 Z2.0000
G00 X30.2481 Y-11.8844
G01 F10.00
G01 Z-0.0500
G01 F30.00
G01 X30.2825 Y-11.8499
G01 X30.2825 Y-11.7843
G01 X30.2668 Y-11.8378
G01 X30.2630 Y-11.8498
G01 X30.2561 Y-11.8675
G01 X30.2481 Y-11.8844
G00 Z2.0000
G00 X29.6089 Y-12.4745
G01 F10.00
G01 Z-0.0500
G01 F30.00
G01 X29.6579 Y-12.4745
G01 X29.7041 Y-12.4284
G01 X29.6560 Y-12.4546
G01 X29.6447 Y-12.4604
G01 X29.6274 Y-12.4680
G01 X29.6089 Y-12.4745
G00 Z2.0000
G00 X28.8351 Y-13.4643
G01 F10.00
G01 Z-0.0500
G01 F30.00
G01 X28.8351 Y-13.9320
G01 X28.8367 Y-13.9655
G01 X28.8412 Y-13.9965
G01 X28.8498 Y-14.0313
G01 X28.8595 Y-14.0586
G01 X28.8629 Y-14.0670
G01 X28.8744 Y-14.0912
G01 X28.8776 Y-14.0970
G01 X28.8927 Y-14.1220
G01 X28.9127 Y-14.1489
G01 X28.9352 Y-14.1738
G01 X28.9583 Y-14.1949
G01 X28.9833 Y-14.2137
G01 X28.9908 Y-14.2187
G01 X29.0158 Y-14.2336
G01 X29.0461 Y-14.2479
G01 X29.0777 Y-14.2592
G01 X29.1059 Y-14.2664
G01 X29.1147 Y-14.2682
G01 X29.1457 Y-14.2725
G01 X29.1770 Y-14.2739
G01 X29.6793 Y-14.2739
G01 X29.7105 Y-14.2723
G01 X29.7393 Y-14.2682
G01 X29.7481 Y-14.2664
G01 X29.7763 Y-14.2592
G01 X29.8036 Y-14.2495
G01 X29.8120 Y-14.2461
G01 X29.8381 Y-14.2336
G01 X29.8632 Y-14.2187
G01 X29.8707 Y-14.2137
G01 X29.8939 Y-14.1963
G01 X29.9188 Y-14.1738
G01 X29.9413 Y-14.1489
G01 X29.9587 Y-14.1257
G01 X29.9637 Y-14.1182
G01 X29.9796 Y-14.0912
G01 X29.9929 Y-14.0629
G01 X30.0035 Y-14.0334
G01 X30.0119 Y-14.0009
G01 X30.0145 Y-13.9849
G01 X30.0281 Y-13.9782
G01 X30.0779 Y-13.9481
G01 X30.1227 Y-13.9148
G01 X30.1657 Y-13.8757
G01 X31.9095 Y-12.1319
G01 X33.1446 Y-12.1318
G01 X33.1589 Y-12.1310
G01 X33.1775 Y-12.1283
G01 X33.1958 Y-12.1237
G01 X33.2135 Y-12.1173
G01 X33.2305 Y-12.1093
G01 X33.2467 Y-12.0996
G01 X33.2618 Y-12.0884
G01 X33.2741 Y-12.0773
G01 X33.2884 Y-12.0618
G01 X33.2996 Y-12.0467
G01 X33.3093 Y-12.0305
G01 X33.3173 Y-12.0135
G01 X33.3237 Y-11.9958
G01 X33.3283 Y-11.9775
G01 X33.3310 Y-11.9589
G01 X33.3319 Y-11.9401
G01 X33.3319 Y-9.4376
G01 X33.3310 Y-9.4211
G01 X33.3283 Y-9.4025
G01 X33.3237 Y-9.3842
G01 X33.3173 Y-9.3665
G01 X33.3093 Y-9.3495
G01 X33.2996 Y-9.3333
G01 X33.2884 Y-9.3182
G01 X33.2773 Y-9.3059
G01 X33.2618 Y-9.2916
G01 X33.2467 Y-9.2804
G01 X33.2305 Y-9.2707
G01 X33.2135 Y-9.2627
G01 X33.1958 Y-9.2563
G01 X33.1775 Y-9.2517
G01 X33.1589 Y-9.2490
G01 X33.1401 Y-9.2481
G01 X30.6376 Y-9.2481
G01 X30.6211 Y-9.2490
G01 X30.6025 Y-9.2517
G01 X30.5842 Y-9.2563
G01 X30.5665 Y-9.2627
G01 X30.5495 Y-9.2707
G01 X30.5333 Y-9.2804
G01 X30.5182 Y-9.2916
G01 X30.5059 Y-9.3027
G01 X30.4916 Y-9.3182
G01 X30.4804 Y-9.3333
G01 X30.4707 Y-9.3495
G01 X30.4627 Y-9.3665
G01 X30.4563 Y-9.3842
G01 X30.4517 Y-9.4025
G01 X30.4490 Y-9.4211
G01 X30.4481 Y-9.4376
G01 X30.4481 Y-11.9185
G01 X29.7231 Y-12.6434
G01 X29.7083 Y-12.6415
G01 X29.6770 Y-12.6401
G01 X29.1770 Y-12.6401
G01 X29.1412 Y-12.6419
G01 X29.1103 Y-12.6466
G01 X29.0777 Y-12.6548
G01 X29.0461 Y-12.6661
G01 X29.0198 Y-12.6784
G01 X29.0120 Y-12.6826
G01 X28.9908 Y-12.6953
G01 X28.9833 Y-12.7003
G01 X28.9601 Y-12.7177
G01 X28.9368 Y-12.7386
G01 X28.9127 Y-12.7651
G01 X28.8953 Y-12.7883
G01 X28.8914 Y-12.7939
G01 X28.8777 Y-12.8169
G01 X28.8734 Y-12.8248
G01 X28.8611 Y-12.8511
G01 X28.8498 Y-12.8827
G01 X28.8416 Y-12.9153
G01 X28.8372 Y-12.9440
G01 X28.8364 Y-12.9530
G01 X28.8351 Y-12.9820
G01 X28.8348 Y-13.4570
G01 X28.8351 Y-13.4643
G00 Z2.0000
G00 X28.6695 Y-13.4460
G01 F10.00
G01 Z-0.0500
G01 F30.00
G01 X28.6695 Y-12.9820
G01 X28.6699 Y-12.9694
G01 X28.6720 Y-12.9323
G01 X28.6771 Y-12.8955
G01 X28.6793 Y-12.8830
G01 X28.6880 Y-12.8469
G01 X28.6933 Y-12.8287
G01 X28.7058 Y-12.7937
G01 X28.7133 Y-12.7763
G01 X28.7295 Y-12.7428
G01 X28.7445 Y-12.7171
G01 X28.6971 Y-12.7592
G01 X28.6822 Y-12.7710
G01 X28.6717 Y-12.7782
G01 X28.6554 Y-12.7881
G01 X28.6442 Y-12.7939
G01 X28.6268 Y-12.8017
G01 X28.6149 Y-12.8062
G01 X28.6028 Y-12.8100
G01 X28.5906 Y-12.8133
G01 X28.5782 Y-12.8159
G01 X28.4966 Y-12.8292
G01 X28.4839 Y-12.8306
G01 X28.4648 Y-12.8316
G01 X28.4520 Y-12.8314
G01 X28.4392 Y-12.8306
G01 X28.4265 Y-12.8292
G01 X28.4139 Y-12.8271
G01 X28.4014 Y-12.8244
G01 X28.3890 Y-12.8211
G01 X28.3769 Y-12.8172
G01 X28.3649 Y-12.8127
G01 X28.2949 Y-12.7824
G01 X28.2833 Y-12.7770
G01 X28.2720 Y-12.7711
G01 X28.2610 Y-12.7646
G01 X28.2451 Y-12.7538
G01 X28.2301 Y-12.7419
G01 X28.2173 Y-12.7301
G01 X28.2275 Y-12.7485
G01 X28.2433 Y-12.7820
G01 X28.2504 Y-12.7996
G01 X28.2626 Y-12.8347
G01 X28.2719 Y-12.8707
G01 X28.2759 Y-12.8892
G01 X28.2813 Y-12.9260
G01 X28.2829 Y-12.9449
G01 X28.2845 Y-12.9820
G01 X28.2845 Y-13.9320
G01 X28.2826 Y-13.9754
G01 X28.2805 Y-13.9943
G01 X28.2747 Y-14.0310
G01 X28.2644 Y-14.0732
G01 X28.2607 Y-14.0853
G01 X28.2504 Y-14.1144
G01 X28.2433 Y-14.1320
G01 X28.2245 Y-14.1712
G01 X28.2095 Y-14.1969
G01 X28.2568 Y-14.1548
G01 X28.2718 Y-14.1430
G01 X28.2822 Y-14.1358
G01 X28.2985 Y-14.1260
G01 X28.3098 Y-14.1201
G01 X28.3271 Y-14.1123
G01 X28.3390 Y-14.1079
G01 X28.3511 Y-14.1040
G01 X28.3634 Y-14.1007
G01 X28.3758 Y-14.0981
G01 X28.4573 Y-14.0848
G01 X28.4700 Y-14.0834
G01 X28.4892 Y-14.0824
G01 X28.5020 Y-14.0826
G01 X28.5147 Y-14.0834
G01 X28.5274 Y-14.0848
G01 X28.5401 Y-14.0869
G01 X28.5526 Y-14.0895
G01 X28.5649 Y-14.0928
G01 X28.5771 Y-14.0968
G01 X28.5891 Y-14.1013
G01 X28.6590 Y-14.1316
G01 X28.6706 Y-14.1370
G01 X28.6820 Y-14.1429
G01 X28.6983 Y-14.1529
G01 X28.7088 Y-14.1602
G01 X28.7238 Y-14.1721
G01 X28.7367 Y-14.1839
G01 X28.7265 Y-14.1655
G01 X28.7107 Y-14.1320
G01 X28.7058 Y-14.1203
G01 X28.6933 Y-14.0853
G01 X28.6880 Y-14.0671
G01 X28.6793 Y-14.0310
G01 X28.6771 Y-14.0185
G01 X28.6720 Y-13.9817
G01 X28.6699 Y-13.9446
G01 X28.6695 Y-13.9320
G01 X28.6693 Y-13.4570
G01 X28.6695 Y-13.4460
G00 Z2.0000
G00 X27.5522 Y-14.4395
G01 F10.00
G01 Z-0.0500
G01 F30.00
G01 X27.2707 Y-14.4394
G01 X27.2273 Y-14.4370
G01 X27.1905 Y-14.4319
G01 X27.1718 Y-14.4284
G01 X27.1358 Y-14.4194
G01 X27.1237 Y-14.4157
G01 X27.0887 Y-14.4032
G01 X27.0713 Y-14.3957
G01 X27.0378 Y-14.3795
G01 X27.0268 Y-14.3733
G01 X26.9951 Y-14.3539
G01 X26.9600 Y-14.3282
G01 X26.9455 Y-14.3160
G01 X26.9182 Y-14.2908
G01 X26.8930 Y-14.2635
G01 X26.8808 Y-14.2490
G01 X26.8586 Y-14.2191
G01 X26.8483 Y-14.2033
G01 X26.8294 Y-14.1710
G01 X26.8107 Y-14.1320
G01 X26.8036 Y-14.1144
G01 X26.7914 Y-14.0793
G01 X26.7821 Y-14.0433
G01 X26.7781 Y-14.0248
G01 X26.7720 Y-13.9817
G01 X26.7699 Y-13.9446
G01 X26.7695 Y-13.9296
G01 X26.2388 Y-13.9296
G01 X27.3140 Y-15.0048
G01 X27.3069 Y-14.9914
G01 X27.3016 Y-14.9799
G01 X27.2969 Y-14.9682
G01 X27.2909 Y-14.9505
G01 X27.2785 Y-14.9234
G01 X27.2719 Y-14.9054
G01 X27.2667 Y-14.8869
G01 X27.2639 Y-14.8744
G01 X27.2618 Y-14.8618
G01 X27.2598 Y-14.8427
G01 X27.2592 Y-14.8236
G01 X27.2601 Y-14.8044
G01 X27.2615 Y-14.7917
G01 X27.2715 Y-14.7161
G01 X27.2739 Y-14.7035
G01 X27.2785 Y-14.6849
G01 X27.2845 Y-14.6667
G01 X27.2892 Y-14.6548
G01 X27.2974 Y-14.6375
G01 X27.3036 Y-14.6263
G01 X27.3103 Y-14.6154
G01 X27.3214 Y-14.5998
G01 X27.3294 Y-14.5898
G01 X27.3788 Y-14.5317
G01 X27.3921 Y-14.5178
G01 X27.4063 Y-14.5050
G01 X27.4215 Y-14.4933
G01 X27.4375 Y-14.4828
G01 X27.4543 Y-14.4735
G01 X27.4658 Y-14.4679
G01 X27.4776 Y-14.4630
G01 X27.4897 Y-14.4587
G01 X27.5522 Y-14.4395
G00 Z2.0000
G00 X27.4716 Y-15.8518
G01 F10.00
G01 Z-0.0500
G01 F30.00
G01 X27.4716 Y-15.9481
G01 X27.5032 Y-15.9635
G01 X27.5142 Y-15.9697
G01 X27.5413 Y-15.9860
G01 X27.5342 Y-15.9756
G01 X27.5278 Y-15.9652
G01 X27.4884 Y-15.8929
G01 X27.4829 Y-15.8816
G01 X27.4780 Y-15.8699
G01 X27.4716 Y-15.8518
G00 Z2.0000
G00 X26.5564 Y-15.5904
G01 F10.00
G01 Z-0.0500
G01 F30.00
G01 X26.5564 Y-15.5414
G01 X26.5101 Y-15.4951
G01 X26.5366 Y-15.5437
G01 X26.5424 Y-15.5549
G01 X26.5500 Y-15.5723
G01 X26.5564 Y-15.5904
G00 Z2.0000
G00 X26.4879 Y-15.9853
G01 F10.00
G01 Z-0.0500
G01 F30.00
G01 X26.5250 Y-15.9634
G01 X26.5564 Y-15.9481
G01 X26.5564 Y-15.8352
