(G-CODE GENERATED BY FLATCAM v8.994 - www.flatcam.org - Version Date: 2020/11/7)

(Name: AudioAGC-F_Cu.gbr_iso_combined_cnc)
(Type: G-code from Geometry)
(Units: MM)

(Created on Saturday, 28 October 2023 at 21:41)

(This preprocessor is used with a motion controller loaded with GRBL firmware.)
(It is configured to be compatible with almost any version of GRBL firmware.)

(TOOL DIAMETER: 0.45 mm)
(Feedrate_XY: 60.0 mm/min)
(Feedrate_Z: 60.0 mm/min)
(Feedrate rapids 1500.0 mm/min)

(Z_Cut: -0.6531 mm)
(DepthPerCut: 0.8 mm <=>1 passes)
(Z_Move: 2.0 mm)
(Z Start: 5.0 mm)
(Z End: 5.0 mm)
(X,Y End: None mm)
(Steps per circle: 64)
(Steps per circle: 64)
(Preprocessor Geometry: GRBL_11_no_M6)

(X range:   -3.0345 ...   17.0345  mm)
(Y range:  -16.0345 ...    1.0345  mm)

(Spindle Speed: 12000.0 RPM)
G21
G90
G17
G94


G01 F60.00

M5             
G00 Z5.0000
G00 X0.0000 Y0.0000                
T1
(MSG, Change to Tool Dia = 0.4500)
M0
G00 Z5.0000
        
G00 Z2.0000
M03 S12000.0
G4 P1.0
G01 F60.00
G00 X-2.2245 Y-0.1245
G01 F60.00
G01 Z-0.6531
G01 F60.00
G01 X-2.2245 Y-14.8755 F60.00
G01 X-2.2242 Y-14.8862 F60.00
G01 X-2.2235 Y-14.8969 F60.00
G01 X-2.2214 Y-14.9128 F60.00
G01 X-2.2082 Y-14.9748 F60.00
G01 X-2.2055 Y-14.9858 F60.00
G01 X-2.2005 Y-15.0019 F60.00
G01 X-2.1965 Y-15.0124 F60.00
G01 X-2.1895 Y-15.0277 F60.00
G01 X-2.1842 Y-15.0377 F60.00
G01 X-2.1784 Y-15.0473 F60.00
G01 X-2.1689 Y-15.0612 F60.00
G01 X-2.1620 Y-15.0701 F60.00
G01 X-2.1089 Y-15.1313 F60.00
G01 X-2.0971 Y-15.1433 F60.00
G01 X-2.0845 Y-15.1543 F60.00
G01 X-2.0757 Y-15.1612 F60.00
G01 X-2.0665 Y-15.1676 F60.00
G01 X-2.0522 Y-15.1763 F60.00
G01 X-2.0423 Y-15.1815 F60.00
G01 X-2.0322 Y-15.1862 F60.00
G01 X-2.0166 Y-15.1923 F60.00
G01 X-1.9389 Y-15.2154 F60.00
G01 X-1.9233 Y-15.2194 F60.00
G01 X-1.9075 Y-15.2222 F60.00
G01 X-1.8969 Y-15.2235 F60.00
G01 X-1.8862 Y-15.2242 F60.00
G01 X-1.8755 Y-15.2245 F60.00
G01 X15.8755 Y-15.2245 F60.00
G01 X15.8916 Y-15.2239 F60.00
G01 X15.9022 Y-15.2229 F60.00
G01 X15.9128 Y-15.2214 F60.00
G01 X15.9748 Y-15.2082 F60.00
G01 X15.9858 Y-15.2055 F60.00
G01 X16.0019 Y-15.2005 F60.00
G01 X16.0124 Y-15.1965 F60.00
G01 X16.0277 Y-15.1895 F60.00
G01 X16.0377 Y-15.1842 F60.00
G01 X16.0520 Y-15.1754 F60.00
G01 X16.0612 Y-15.1689 F60.00
G01 X16.0701 Y-15.1620 F60.00
G01 X16.1313 Y-15.1089 F60.00
G01 X16.1433 Y-15.0971 F60.00
G01 X16.1543 Y-15.0845 F60.00
G01 X16.1612 Y-15.0757 F60.00
G01 X16.1676 Y-15.0665 F60.00
G01 X16.1763 Y-15.0522 F60.00
G01 X16.1839 Y-15.0373 F60.00
G01 X16.1883 Y-15.0270 F60.00
G01 X16.1923 Y-15.0166 F60.00
G01 X16.2154 Y-14.9389 F60.00
G01 X16.2194 Y-14.9233 F60.00
G01 X16.2222 Y-14.9075 F60.00
G01 X16.2235 Y-14.8969 F60.00
G01 X16.2242 Y-14.8862 F60.00
G01 X16.2245 Y-14.8755 F60.00
G01 X16.2245 Y-0.1245 F60.00
G01 X16.2242 Y-0.1138 F60.00
G01 X16.2235 Y-0.1031 F60.00
G01 X16.2214 Y-0.0872 F60.00
G01 X16.2082 Y-0.0252 F60.00
G01 X16.2040 Y-0.0088 F60.00
G01 X16.2005 Y0.0019 F60.00
G01 X16.1943 Y0.0175 F60.00
G01 X16.1895 Y0.0277 F60.00
G01 X16.1842 Y0.0377 F60.00
G01 X16.1754 Y0.0520 F60.00
G01 X16.1689 Y0.0612 F60.00
G01 X16.1620 Y0.0701 F60.00
G01 X16.1089 Y0.1313 F60.00
G01 X16.0971 Y0.1433 F60.00
G01 X16.0845 Y0.1543 F60.00
G01 X16.0711 Y0.1644 F60.00
G01 X16.0618 Y0.1706 F60.00
G01 X16.0522 Y0.1763 F60.00
G01 X16.0373 Y0.1839 F60.00
G01 X16.0270 Y0.1883 F60.00
G01 X16.0166 Y0.1923 F60.00
G01 X15.9389 Y0.2154 F60.00
G01 X15.9233 Y0.2194 F60.00
G01 X15.9128 Y0.2214 F60.00
G01 X15.8969 Y0.2235 F60.00
G01 X15.8862 Y0.2242 F60.00
G01 X15.8755 Y0.2245 F60.00
G01 X6.5607 Y0.2245 F60.00
G01 X6.5458 Y0.2240 F60.00
G01 X6.5078 Y0.2204 F60.00
G01 X6.4967 Y0.2186 F60.00
G01 X6.4857 Y0.2162 F60.00
G01 X6.4695 Y0.2116 F60.00
G01 X6.4537 Y0.2058 F60.00
G01 X6.4434 Y0.2013 F60.00
G01 X6.3709 Y0.1651 F60.00
G01 X6.3564 Y0.1567 F60.00
G01 X6.3471 Y0.1506 F60.00
G01 X6.3381 Y0.1439 F60.00
G01 X6.3253 Y0.1331 F60.00
G01 X6.3133 Y0.1214 F60.00
G01 X6.3058 Y0.1131 F60.00
G01 X6.2953 Y0.1000 F60.00
G01 X6.2889 Y0.0909 F60.00
G01 X6.2472 Y0.0214 F60.00
G01 X6.2418 Y0.0116 F60.00
G01 X6.2368 Y0.0016 F60.00
G01 X6.2302 Y-0.0138 F60.00
G01 X6.2249 Y-0.0297 F60.00
G01 X6.2207 Y-0.0459 F60.00
G01 X6.2178 Y-0.0624 F60.00
G01 X6.2161 Y-0.0791 F60.00
G01 X6.2156 Y-0.0958 F60.00
G01 X6.2184 Y-0.1766 F60.00
G01 X6.2192 Y-0.1873 F60.00
G01 X6.2206 Y-0.1979 F60.00
G01 X6.2236 Y-0.2137 F60.00
G01 X6.2278 Y-0.2292 F60.00
G01 X6.2587 Y-0.3226 F60.00
G01 X6.2655 Y-0.3895 F60.00
G01 X6.2655 Y-1.3665 F60.00
G01 X6.2587 Y-1.4334 F60.00
G01 X6.2195 Y-1.5516 F60.00
G01 X6.1346 Y-1.6893 F60.00
G01 X6.1269 Y-1.7038 F60.00
G01 X6.1139 Y-1.7305 F60.00
G01 X6.1096 Y-1.7404 F60.00
G01 X6.1059 Y-1.7505 F60.00
G01 X6.1011 Y-1.7659 F60.00
G01 X6.0985 Y-1.7764 F60.00
G01 X6.0965 Y-1.7870 F60.00
G01 X6.0949 Y-1.7977 F60.00
G01 X6.0889 Y-1.8781 F60.00
G01 X6.0884 Y-1.8893 F60.00
G01 X6.0887 Y-1.9060 F60.00
G01 X6.0895 Y-1.9172 F60.00
G01 X6.0910 Y-1.9282 F60.00
G01 X6.0941 Y-1.9447 F60.00
G01 X6.0969 Y-1.9555 F60.00
G01 X6.1021 Y-1.9715 F60.00
G01 X6.1062 Y-1.9819 F60.00
G01 X6.1108 Y-1.9920 F60.00
G01 X6.1159 Y-2.0020 F60.00
G01 X6.1547 Y-2.0726 F60.00
G01 X6.1605 Y-2.0816 F60.00
G01 X6.1667 Y-2.0903 F60.00
G01 X6.1792 Y-2.1055 F60.00
G01 X6.2445 Y-2.2114 F60.00
G01 X6.2837 Y-2.3296 F60.00
G01 X6.2905 Y-2.3965 F60.00
G01 X6.2905 Y-3.4235 F60.00
G01 X6.2837 Y-3.4904 F60.00
G01 X6.2445 Y-3.6086 F60.00
G01 X6.1716 Y-3.7270 F60.00
G01 X6.1636 Y-3.7420 F60.00
G01 X6.1567 Y-3.7575 F60.00
G01 X6.1529 Y-3.7681 F60.00
G01 X6.1495 Y-3.7789 F60.00
G01 X6.1282 Y-3.8549 F60.00
G01 X6.1260 Y-3.8660 F60.00
G01 X6.1243 Y-3.8772 F60.00
G01 X6.1231 Y-3.8884 F60.00
G01 X6.1226 Y-3.8997 F60.00
G01 X6.1225 Y-4.1126 F60.00
G01 X6.1236 Y-4.1405 F60.00
G01 X6.1249 Y-4.1516 F60.00
G01 X6.1266 Y-4.1626 F60.00
G01 X6.1303 Y-4.1788 F60.00
G01 X6.1351 Y-4.1948 F60.00
G01 X6.1634 Y-4.2705 F60.00
G01 X6.1676 Y-4.2803 F60.00
G01 X6.1748 Y-4.2947 F60.00
G01 X6.1830 Y-4.3085 F60.00
G01 X6.1913 Y-4.3206 F60.00
G01 X6.2204 Y-4.3987 F60.00
G01 X6.2225 Y-4.4182 F60.00
G01 X6.2225 Y-5.0898 F60.00
G01 X6.2204 Y-5.1093 F60.00
G01 X6.1913 Y-5.1874 F60.00
G01 X6.1438 Y-5.2508 F60.00
G01 X6.0804 Y-5.2983 F60.00
G01 X6.0023 Y-5.3274 F60.00
G01 X5.9828 Y-5.3295 F60.00
G01 X5.2112 Y-5.3295 F60.00
G01 X5.1917 Y-5.3274 F60.00
G01 X5.1136 Y-5.2983 F60.00
G01 X5.0502 Y-5.2508 F60.00
G01 X5.0027 Y-5.1874 F60.00
G01 X4.9736 Y-5.1093 F60.00
G01 X4.9715 Y-5.0898 F60.00
G01 X4.9715 Y-4.4182 F60.00
G01 X4.9736 Y-4.3987 F60.00
G01 X5.0027 Y-4.3205 F60.00
G01 X5.0148 Y-4.3033 F60.00
G01 X5.0234 Y-4.2890 F60.00
G01 X5.0310 Y-4.2742 F60.00
G01 X5.0374 Y-4.2588 F60.00
G01 X5.0427 Y-4.2430 F60.00
G01 X5.0624 Y-4.1760 F60.00
G01 X5.0652 Y-4.1656 F60.00
G01 X5.0674 Y-4.1551 F60.00
G01 X5.0699 Y-4.1393 F60.00
G01 X5.0712 Y-4.1233 F60.00
G01 X5.0715 Y-4.1126 F60.00
G01 X5.0712 Y-4.0668 F60.00
G01 X5.0699 Y-4.0509 F60.00
G01 X5.0684 Y-4.0404 F60.00
G01 X5.0617 Y-4.0001 F60.00
G01 X5.0583 Y-3.9836 F60.00
G01 X5.0537 Y-3.9675 F60.00
G01 X5.0500 Y-3.9569 F60.00
G01 X5.0434 Y-3.9414 F60.00
G01 X5.0356 Y-3.9264 F60.00
G01 X5.0299 Y-3.9168 F60.00
G01 X5.0236 Y-3.9074 F60.00
G01 X4.9853 Y-3.8531 F60.00
G01 X4.9766 Y-3.8415 F60.00
G01 X4.9663 Y-3.8292 F60.00
G01 X4.9589 Y-3.8215 F60.00
G01 X4.9482 Y-3.8114 F60.00
G01 X4.8421 Y-3.7053 F60.00
G01 X4.8145 Y-3.6734 F60.00
G01 X4.8030 Y-3.6611 F60.00
G01 X4.7907 Y-3.6497 F60.00
G01 X4.7821 Y-3.6427 F60.00
G01 X4.7684 Y-3.6329 F60.00
G01 X4.7541 Y-3.6242 F60.00
G01 X4.7442 Y-3.6190 F60.00
G01 X4.7341 Y-3.6143 F60.00
G01 X4.6596 Y-3.5823 F60.00
G01 X4.6491 Y-3.5786 F60.00
G01 X4.6384 Y-3.5755 F60.00
G01 X4.6275 Y-3.5729 F60.00
G01 X4.6165 Y-3.5708 F60.00
G01 X4.6054 Y-3.5693 F60.00
G01 X4.5943 Y-3.5683 F60.00
G01 X4.5776 Y-3.5679 F60.00
G01 X4.5664 Y-3.5683 F60.00
G01 X4.5553 Y-3.5693 F60.00
G01 X4.5442 Y-3.5708 F60.00
G01 X4.4643 Y-3.5841 F60.00
G01 X4.4535 Y-3.5867 F60.00
G01 X4.4429 Y-3.5898 F60.00
G01 X4.4273 Y-3.5954 F60.00
G01 X4.4171 Y-3.5998 F60.00
G01 X4.4071 Y-3.6047 F60.00
G01 X4.3927 Y-3.6130 F60.00
G01 X4.3834 Y-3.6191 F60.00
G01 X4.3744 Y-3.6256 F60.00
G01 X4.3616 Y-3.6362 F60.00
G01 X4.3124 Y-3.6801 F60.00
G01 X4.3043 Y-3.6877 F60.00
G01 X4.2938 Y-3.6986 F60.00
G01 X4.2879 Y-3.7053 F60.00
G01 X4.1932 Y-3.8000 F60.00
G01 X4.0886 Y-3.8645 F60.00
G01 X3.9704 Y-3.9037 F60.00
G01 X3.9035 Y-3.9105 F60.00
G01 X3.3265 Y-3.9105 F60.00
G01 X3.2596 Y-3.9037 F60.00
G01 X3.1414 Y-3.8645 F60.00
G01 X3.0368 Y-3.8000 F60.00
G01 X2.9263 Y-3.6895 F60.00
G01 X2.9183 Y-3.6818 F60.00
G01 X2.9099 Y-3.6746 F60.00
G01 X2.8972 Y-3.6649 F60.00
G01 X2.8759 Y-3.6471 F60.00
G01 X2.8672 Y-3.6404 F60.00
G01 X2.8582 Y-3.6342 F60.00
G01 X2.8489 Y-3.6284 F60.00
G01 X2.8344 Y-3.6207 F60.00
G01 X2.8195 Y-3.6139 F60.00
G01 X2.8040 Y-3.6083 F60.00
G01 X2.7935 Y-3.6052 F60.00
G01 X2.7829 Y-3.6027 F60.00
G01 X2.7091 Y-3.5867 F60.00
G01 X2.6981 Y-3.5849 F60.00
G01 X2.6814 Y-3.5831 F60.00
G01 X2.6647 Y-3.5827 F60.00
G01 X2.6535 Y-3.5831 F60.00
G01 X2.6424 Y-3.5840 F60.00
G01 X2.6313 Y-3.5855 F60.00
G01 X2.6149 Y-3.5887 F60.00
G01 X2.6041 Y-3.5916 F60.00
G01 X2.5882 Y-3.5969 F60.00
G01 X2.5227 Y-3.6213 F60.00
G01 X2.5079 Y-3.6274 F60.00
G01 X2.4982 Y-3.6321 F60.00
G01 X2.4842 Y-3.6400 F60.00
G01 X2.4752 Y-3.6458 F60.00
G01 X2.4634 Y-3.6543 F60.00
G01 X2.3853 Y-3.6834 F60.00
G01 X2.3658 Y-3.6855 F60.00
G01 X1.5220 Y-3.6855 F60.00
G01 X1.5096 Y-3.6760 F60.00
G01 X1.4957 Y-3.6670 F60.00
G01 X1.4812 Y-3.6590 F60.00
G01 X1.4661 Y-3.6521 F60.00
G01 X1.4558 Y-3.6482 F60.00
G01 X1.4400 Y-3.6432 F60.00
G01 X1.4239 Y-3.6393 F60.00
G01 X1.4075 Y-3.6367 F60.00
G01 X1.3966 Y-3.6356 F60.00
G01 X1.3800 Y-3.6350 F60.00
G01 X1.1208 Y-3.6350 F60.00
G01 X1.0832 Y-3.6068 F60.00
G01 X1.0357 Y-3.5434 F60.00
G01 X1.0066 Y-3.4653 F60.00
G01 X1.0045 Y-3.4458 F60.00
G01 X1.0045 Y-2.3742 F60.00
G01 X1.0066 Y-2.3547 F60.00
G01 X1.0357 Y-2.2766 F60.00
G01 X1.0832 Y-2.2132 F60.00
G01 X1.1208 Y-2.1850 F60.00
G01 X1.3800 Y-2.1850 F60.00
G01 X1.3910 Y-2.1847 F60.00
G01 X1.4075 Y-2.1833 F60.00
G01 X1.4239 Y-2.1807 F60.00
G01 X1.4400 Y-2.1768 F60.00
G01 X1.4506 Y-2.1736 F60.00
G01 X1.4661 Y-2.1679 F60.00
G01 X1.4812 Y-2.1610 F60.00
G01 X1.4957 Y-2.1530 F60.00
G01 X1.5096 Y-2.1440 F60.00
G01 X1.5220 Y-2.1345 F60.00
G01 X2.3658 Y-2.1345 F60.00
G01 X2.3853 Y-2.1366 F60.00
G01 X2.4634 Y-2.1657 F60.00
G01 X2.4757 Y-2.1746 F60.00
G01 X2.4852 Y-2.1807 F60.00
G01 X2.4951 Y-2.1862 F60.00
G01 X2.5052 Y-2.1913 F60.00
G01 X2.5599 Y-2.2169 F60.00
G01 X2.5753 Y-2.2226 F60.00
G01 X2.5911 Y-2.2272 F60.00
G01 X2.6017 Y-2.2297 F60.00
G01 X2.6179 Y-2.2323 F60.00
G01 X2.6343 Y-2.2338 F60.00
G01 X2.6452 Y-2.2341 F60.00
G01 X2.7260 Y-2.2307 F60.00
G01 X2.7427 Y-2.2293 F60.00
G01 X2.7593 Y-2.2267 F60.00
G01 X2.7702 Y-2.2243 F60.00
G01 X2.7810 Y-2.2213 F60.00
G01 X2.7968 Y-2.2159 F60.00
G01 X2.8123 Y-2.2093 F60.00
G01 X2.8271 Y-2.2015 F60.00
G01 X2.8367 Y-2.1957 F60.00
G01 X2.8927 Y-2.1582 F60.00
G01 X2.9059 Y-2.1486 F60.00
G01 X2.9143 Y-2.1417 F60.00
G01 X2.9224 Y-2.1344 F60.00
G01 X3.0368 Y-2.0200 F60.00
G01 X3.1414 Y-1.9555 F60.00
G01 X3.2596 Y-1.9163 F60.00
G01 X3.3265 Y-1.9095 F60.00
G01 X3.9035 Y-1.9095 F60.00
G01 X3.9704 Y-1.9163 F60.00
G01 X4.0886 Y-1.9555 F60.00
G01 X4.1932 Y-2.0200 F60.00
G01 X4.2511 Y-2.0779 F60.00
G01 X4.2641 Y-2.0902 F60.00
G01 X4.2722 Y-2.0973 F60.00
G01 X4.2808 Y-2.1039 F60.00
G01 X4.2896 Y-2.1102 F60.00
G01 X4.2987 Y-2.1160 F60.00
G01 X4.3081 Y-2.1213 F60.00
G01 X4.3177 Y-2.1262 F60.00
G01 X4.3807 Y-2.1564 F60.00
G01 X4.3961 Y-2.1631 F60.00
G01 X4.4119 Y-2.1686 F60.00
G01 X4.4227 Y-2.1716 F60.00
G01 X4.4391 Y-2.1751 F60.00
G01 X4.4557 Y-2.1774 F60.00
G01 X4.4724 Y-2.1785 F60.00
G01 X4.4836 Y-2.1785 F60.00
G01 X4.4947 Y-2.1779 F60.00
G01 X4.5752 Y-2.1681 F60.00
G01 X4.5862 Y-2.1665 F60.00
G01 X4.6026 Y-2.1630 F60.00
G01 X4.6134 Y-2.1599 F60.00
G01 X4.6292 Y-2.1544 F60.00
G01 X4.6395 Y-2.1501 F60.00
G01 X4.6545 Y-2.1427 F60.00
G01 X4.6642 Y-2.1371 F60.00
G01 X4.6782 Y-2.1279 F60.00
G01 X4.6914 Y-2.1176 F60.00
G01 X4.7451 Y-2.0728 F60.00
G01 X4.7535 Y-2.0655 F60.00
G01 X4.7615 Y-2.0577 F60.00
G01 X4.7691 Y-2.0495 F60.00
G01 X4.7763 Y-2.0410 F60.00
G01 X4.7863 Y-2.0275 F60.00
G01 X4.7924 Y-2.0182 F60.00
G01 X4.7981 Y-2.0085 F60.00
G01 X4.8032 Y-1.9986 F60.00
G01 X4.8079 Y-1.9884 F60.00
G01 X4.8120 Y-1.9780 F60.00
G01 X4.8365 Y-1.9008 F60.00
G01 X4.8409 Y-1.8846 F60.00
G01 X4.8432 Y-1.8737 F60.00
G01 X4.8456 Y-1.8571 F60.00
G01 X4.8467 Y-1.8404 F60.00
G01 X4.8468 Y-1.8292 F60.00
G01 X4.8463 Y-1.8181 F60.00
G01 X4.8453 Y-1.8069 F60.00
G01 X4.8427 Y-1.7904 F60.00
G01 X4.8403 Y-1.7795 F60.00
G01 X4.8189 Y-1.7015 F60.00
G01 X4.8156 Y-1.6913 F60.00
G01 X4.8118 Y-1.6813 F60.00
G01 X4.8053 Y-1.6667 F60.00
G01 X4.7977 Y-1.6525 F60.00
G01 X4.7355 Y-1.5516 F60.00
G01 X4.6963 Y-1.4334 F60.00
G01 X4.6895 Y-1.3665 F60.00
G01 X4.6895 Y-0.3894 F60.00
G01 X4.6963 Y-0.3226 F60.00
G01 X4.7271 Y-0.2295 F60.00
G01 X4.7310 Y-0.2151 F60.00
G01 X4.7384 Y-0.1828 F60.00
G01 X4.7401 Y-0.1717 F60.00
G01 X4.7417 Y-0.1549 F60.00
G01 X4.7420 Y-0.1381 F60.00
G01 X4.7411 Y-0.1213 F60.00
G01 X4.7298 Y-0.0410 F60.00
G01 X4.7268 Y-0.0245 F60.00
G01 X4.7226 Y-0.0083 F60.00
G01 X4.7191 Y0.0024 F60.00
G01 X4.7129 Y0.0179 F60.00
G01 X4.7056 Y0.0330 F60.00
G01 X4.6971 Y0.0475 F60.00
G01 X4.6909 Y0.0568 F60.00
G01 X4.6843 Y0.0657 F60.00
G01 X4.6771 Y0.0744 F60.00
G01 X4.6277 Y0.1313 F60.00
G01 X4.6200 Y0.1394 F60.00
G01 X4.6076 Y0.1508 F60.00
G01 X4.5945 Y0.1612 F60.00
G01 X4.5806 Y0.1706 F60.00
G01 X4.5710 Y0.1763 F60.00
G01 X4.5611 Y0.1815 F60.00
G01 X4.5510 Y0.1862 F60.00
G01 X4.5406 Y0.1904 F60.00
G01 X4.5247 Y0.1957 F60.00
G01 X4.4577 Y0.2154 F60.00
G01 X4.4421 Y0.2194 F60.00
G01 X4.4263 Y0.2222 F60.00
G01 X4.4104 Y0.2239 F60.00
G01 X4.3943 Y0.2245 F60.00
G01 X-1.8755 Y0.2245 F60.00
G01 X-1.8862 Y0.2242 F60.00
G01 X-1.9022 Y0.2229 F60.00
G01 X-1.9181 Y0.2204 F60.00
G01 X-1.9803 Y0.2069 F60.00
G01 X-1.9912 Y0.2040 F60.00
G01 X-2.0071 Y0.1985 F60.00
G01 X-2.0175 Y0.1943 F60.00
G01 X-2.0277 Y0.1895 F60.00
G01 X-2.0377 Y0.1842 F60.00
G01 X-2.0473 Y0.1784 F60.00
G01 X-2.0567 Y0.1722 F60.00
G01 X-2.0657 Y0.1655 F60.00
G01 X-2.1272 Y0.1126 F60.00
G01 X-2.1394 Y0.1011 F60.00
G01 X-2.1471 Y0.0930 F60.00
G01 X-2.1543 Y0.0845 F60.00
G01 X-2.1612 Y0.0757 F60.00
G01 X-2.1676 Y0.0665 F60.00
G01 X-2.1763 Y0.0522 F60.00
G01 X-2.1815 Y0.0423 F60.00
G01 X-2.1862 Y0.0322 F60.00
G01 X-2.1904 Y0.0218 F60.00
G01 X-2.1957 Y0.0059 F60.00
G01 X-2.2182 Y-0.0715 F60.00
G01 X-2.2214 Y-0.0872 F60.00
G01 X-2.2229 Y-0.0978 F60.00
G01 X-2.2239 Y-0.1084 F60.00
G01 X-2.2245 Y-0.1245 F60.00
G00 Z2.0000
G00 X-2.6295 Y-0.1245
G01 F60.00
G01 Z-0.6531
G01 F60.00
G01 X-2.6293 Y-14.8905 F60.00
G01 X-2.6279 Y-14.9204 F60.00
G01 X-2.6266 Y-14.9354 F60.00
G01 X-2.6231 Y-14.9652 F60.00
G01 X-2.6181 Y-14.9947 F60.00
G01 X-2.6004 Y-15.0763 F60.00
G01 X-2.5964 Y-15.0915 F60.00
G01 X-2.5875 Y-15.1217 F60.00
G01 X-2.5770 Y-15.1514 F60.00
G01 X-2.5650 Y-15.1805 F60.00
G01 X-2.5517 Y-15.2090 F60.00
G01 X-2.5369 Y-15.2368 F60.00
G01 X-2.5290 Y-15.2504 F60.00
G01 X-2.5121 Y-15.2770 F60.00
G01 X-2.4940 Y-15.3028 F60.00
G01 X-2.4746 Y-15.3275 F60.00
G01 X-2.4187 Y-15.3924 F60.00
G01 X-2.3976 Y-15.4155 F60.00
G01 X-2.3866 Y-15.4267 F60.00
G01 X-2.3639 Y-15.4482 F60.00
G01 X-2.3401 Y-15.4685 F60.00
G01 X-2.3154 Y-15.4876 F60.00
G01 X-2.2897 Y-15.5055 F60.00
G01 X-2.2765 Y-15.5140 F60.00
G01 X-2.2496 Y-15.5299 F60.00
G01 X-2.2219 Y-15.5445 F60.00
G01 X-2.1935 Y-15.5577 F60.00
G01 X-2.1791 Y-15.5637 F60.00
G01 X-2.1498 Y-15.5747 F60.00
G01 X-2.1200 Y-15.5843 F60.00
G01 X-2.0386 Y-15.6080 F60.00
G01 X-2.0094 Y-15.6151 F60.00
G01 X-1.9947 Y-15.6181 F60.00
G01 X-1.9652 Y-15.6231 F60.00
G01 X-1.9354 Y-15.6266 F60.00
G01 X-1.9055 Y-15.6288 F60.00
G01 X-1.8755 Y-15.6295 F60.00
G01 X15.8755 Y-15.6295 F60.00
G01 X15.8905 Y-15.6293 F60.00
G01 X15.9204 Y-15.6279 F60.00
G01 X15.9503 Y-15.6250 F60.00
G01 X15.9652 Y-15.6231 F60.00
G01 X15.9947 Y-15.6181 F60.00
G01 X16.0763 Y-15.6004 F60.00
G01 X16.1067 Y-15.5921 F60.00
G01 X16.1366 Y-15.5824 F60.00
G01 X16.1514 Y-15.5770 F60.00
G01 X16.1805 Y-15.5650 F60.00
G01 X16.2090 Y-15.5517 F60.00
G01 X16.2368 Y-15.5369 F60.00
G01 X16.2638 Y-15.5207 F60.00
G01 X16.2900 Y-15.5032 F60.00
G01 X16.3153 Y-15.4844 F60.00
G01 X16.3275 Y-15.4746 F60.00
G01 X16.3924 Y-15.4187 F60.00
G01 X16.4155 Y-15.3976 F60.00
G01 X16.4376 Y-15.3754 F60.00
G01 X16.4482 Y-15.3639 F60.00
G01 X16.4685 Y-15.3401 F60.00
G01 X16.4876 Y-15.3154 F60.00
G01 X16.4968 Y-15.3026 F60.00
G01 X16.5140 Y-15.2765 F60.00
G01 X16.5299 Y-15.2496 F60.00
G01 X16.5445 Y-15.2219 F60.00
G01 X16.5577 Y-15.1935 F60.00
G01 X16.5694 Y-15.1645 F60.00
G01 X16.5747 Y-15.1498 F60.00
G01 X16.5843 Y-15.1200 F60.00
G01 X16.6080 Y-15.0386 F60.00
G01 X16.6117 Y-15.0240 F60.00
G01 X16.6181 Y-14.9947 F60.00
G01 X16.6231 Y-14.9652 F60.00
G01 X16.6266 Y-14.9354 F60.00
G01 X16.6288 Y-14.9055 F60.00
G01 X16.6295 Y-14.8755 F60.00
G01 X16.6295 Y-0.1245 F60.00
G01 X16.6288 Y-0.0945 F60.00
G01 X16.6279 Y-0.0796 F60.00
G01 X16.6266 Y-0.0646 F60.00
G01 X16.6231 Y-0.0348 F60.00
G01 X16.6181 Y-0.0053 F60.00
G01 X16.6004 Y0.0763 F60.00
G01 X16.5921 Y0.1067 F60.00
G01 X16.5824 Y0.1366 F60.00
G01 X16.5712 Y0.1660 F60.00
G01 X16.5585 Y0.1948 F60.00
G01 X16.5517 Y0.2090 F60.00
G01 X16.5369 Y0.2368 F60.00
G01 X16.5207 Y0.2638 F60.00
G01 X16.5032 Y0.2900 F60.00
G01 X16.4844 Y0.3153 F60.00
G01 X16.4746 Y0.3275 F60.00
G01 X16.4187 Y0.3924 F60.00
G01 X16.3976 Y0.4155 F60.00
G01 X16.3754 Y0.4376 F60.00
G01 X16.3521 Y0.4585 F60.00
G01 X16.3401 Y0.4685 F60.00
G01 X16.3154 Y0.4876 F60.00
G01 X16.3026 Y0.4968 F60.00
G01 X16.2765 Y0.5140 F60.00
G01 X16.2496 Y0.5299 F60.00
G01 X16.2358 Y0.5374 F60.00
G01 X16.2078 Y0.5512 F60.00
G01 X16.1791 Y0.5637 F60.00
G01 X16.1498 Y0.5747 F60.00
G01 X16.1200 Y0.5843 F60.00
G01 X16.0530 Y0.6040 F60.00
G01 X16.0386 Y0.6080 F60.00
G01 X16.0094 Y0.6151 F60.00
G01 X15.9800 Y0.6208 F60.00
G01 X15.9503 Y0.6250 F60.00
G01 X15.9204 Y0.6279 F60.00
G01 X15.8905 Y0.6293 F60.00
G01 X6.5607 Y0.6295 F60.00
G01 X6.5467 Y0.6293 F60.00
G01 X6.5189 Y0.6281 F60.00
G01 X6.4831 Y0.6251 F60.00
G01 X6.4519 Y0.6215 F60.00
G01 X6.4209 Y0.6164 F60.00
G01 X6.3901 Y0.6098 F60.00
G01 X6.3598 Y0.6016 F60.00
G01 X6.3299 Y0.5919 F60.00
G01 X6.3005 Y0.5807 F60.00
G01 X6.2717 Y0.5681 F60.00
G01 X6.1951 Y0.5301 F60.00
G01 X6.1674 Y0.5154 F60.00
G01 X6.1405 Y0.4994 F60.00
G01 X6.1145 Y0.4821 F60.00
G01 X6.0893 Y0.4635 F60.00
G01 X6.0771 Y0.4537 F60.00
G01 X6.0534 Y0.4333 F60.00
G01 X6.0419 Y0.4227 F60.00
G01 X6.0239 Y0.4047 F60.00
G01 X5.9955 Y0.4141 F60.00
G01 X5.9806 Y0.4184 F60.00
G01 X5.9419 Y0.4283 F60.00
G01 X5.9117 Y0.4351 F60.00
G01 X5.8812 Y0.4404 F60.00
G01 X5.8416 Y0.4461 F60.00
G01 X5.8263 Y0.4478 F60.00
G01 X5.7954 Y0.4500 F60.00
G01 X5.7555 Y0.4518 F60.00
G01 X5.7400 Y0.4520 F60.00
G01 X5.2150 Y0.4520 F60.00
G01 X5.1995 Y0.4518 F60.00
G01 X5.1596 Y0.4500 F60.00
G01 X5.1287 Y0.4478 F60.00
G01 X5.0981 Y0.4440 F60.00
G01 X5.0585 Y0.4379 F60.00
G01 X5.0282 Y0.4319 F60.00
G01 X4.9894 Y0.4224 F60.00
G01 X4.9595 Y0.4141 F60.00
G01 X4.9276 Y0.4035 F60.00
G01 X4.9054 Y0.4267 F60.00
G01 X4.8827 Y0.4482 F60.00
G01 X4.8589 Y0.4685 F60.00
G01 X4.8342 Y0.4876 F60.00
G01 X4.8085 Y0.5055 F60.00
G01 X4.7820 Y0.5221 F60.00
G01 X4.7547 Y0.5374 F60.00
G01 X4.7407 Y0.5445 F60.00
G01 X4.7123 Y0.5577 F60.00
G01 X4.6833 Y0.5694 F60.00
G01 X4.6538 Y0.5797 F60.00
G01 X4.5718 Y0.6040 F60.00
G01 X4.5428 Y0.6117 F60.00
G01 X4.5282 Y0.6151 F60.00
G01 X4.4988 Y0.6208 F60.00
G01 X4.4691 Y0.6250 F60.00
G01 X4.4393 Y0.6279 F60.00
G01 X4.4093 Y0.6293 F60.00
G01 X-1.8905 Y0.6293 F60.00
G01 X-1.9055 Y0.6288 F60.00
G01 X-1.9354 Y0.6266 F60.00
G01 X-1.9652 Y0.6231 F60.00
G01 X-1.9947 Y0.6181 F60.00
G01 X-2.0609 Y0.6039 F60.00
G01 X-2.0915 Y0.5964 F60.00
G01 X-2.1217 Y0.5875 F60.00
G01 X-2.1514 Y0.5770 F60.00
G01 X-2.1805 Y0.5650 F60.00
G01 X-2.1948 Y0.5585 F60.00
G01 X-2.2230 Y0.5444 F60.00
G01 X-2.2504 Y0.5290 F60.00
G01 X-2.2770 Y0.5121 F60.00
G01 X-2.3028 Y0.4940 F60.00
G01 X-2.3153 Y0.4844 F60.00
G01 X-2.3396 Y0.4644 F60.00
G01 X-2.4041 Y0.4083 F60.00
G01 X-2.4267 Y0.3866 F60.00
G01 X-2.4482 Y0.3639 F60.00
G01 X-2.4685 Y0.3401 F60.00
G01 X-2.4876 Y0.3154 F60.00
G01 X-2.5055 Y0.2897 F60.00
G01 X-2.5221 Y0.2632 F60.00
G01 X-2.5374 Y0.2358 F60.00
G01 X-2.5512 Y0.2078 F60.00
G01 X-2.5637 Y0.1791 F60.00
G01 X-2.5747 Y0.1498 F60.00
G01 X-2.5843 Y0.1200 F60.00
G01 X-2.6080 Y0.0386 F60.00
G01 X-2.6151 Y0.0094 F60.00
G01 X-2.6208 Y-0.0200 F60.00
G01 X-2.6250 Y-0.0497 F60.00
G01 X-2.6266 Y-0.0646 F60.00
G01 X-2.6288 Y-0.0945 F60.00
G01 X-2.6295 Y-0.1245 F60.00
G00 Z2.0000
G00 X-3.0345 Y-0.1245
G01 F60.00
G01 Z-0.6531
G01 F60.00
G01 X-3.0345 Y-14.8755 F60.00
G01 X-3.0342 Y-14.9001 F60.00
G01 X-3.0333 Y-14.9247 F60.00
G01 X-3.0319 Y-14.9493 F60.00
G01 X-3.0298 Y-14.9739 F60.00
G01 X-3.0272 Y-14.9984 F60.00
G01 X-3.0240 Y-15.0228 F60.00
G01 X-3.0202 Y-15.0471 F60.00
G01 X-3.0158 Y-15.0714 F60.00
G01 X-2.9996 Y-15.1470 F60.00
G01 X-2.9938 Y-15.1722 F60.00
G01 X-2.9874 Y-15.1973 F60.00
G01 X-2.9803 Y-15.2222 F60.00
G01 X-2.9726 Y-15.2469 F60.00
G01 X-2.9643 Y-15.2713 F60.00
G01 X-2.9554 Y-15.2956 F60.00
G01 X-2.9459 Y-15.3197 F60.00
G01 X-2.9358 Y-15.3435 F60.00
G01 X-2.9251 Y-15.3670 F60.00
G01 X-2.9138 Y-15.3903 F60.00
G01 X-2.9019 Y-15.4133 F60.00
G01 X-2.8895 Y-15.4360 F60.00
G01 X-2.8765 Y-15.4583 F60.00
G01 X-2.8630 Y-15.4803 F60.00
G01 X-2.8489 Y-15.5020 F60.00
G01 X-2.8342 Y-15.5234 F60.00
G01 X-2.8191 Y-15.5443 F60.00
G01 X-2.8034 Y-15.5649 F60.00
G01 X-2.7872 Y-15.5850 F60.00
G01 X-2.7705 Y-15.6048 F60.00
G01 X-2.7077 Y-15.6768 F60.00
G01 X-2.6901 Y-15.6956 F60.00
G01 X-2.6721 Y-15.7139 F60.00
G01 X-2.6537 Y-15.7318 F60.00
G01 X-2.6348 Y-15.7493 F60.00
G01 X-2.6155 Y-15.7662 F60.00
G01 X-2.5957 Y-15.7827 F60.00
G01 X-2.5756 Y-15.7986 F60.00
G01 X-2.5551 Y-15.8141 F60.00
G01 X-2.5341 Y-15.8291 F60.00
G01 X-2.5129 Y-15.8435 F60.00
G01 X-2.4913 Y-15.8574 F60.00
G01 X-2.4693 Y-15.8707 F60.00
G01 X-2.4470 Y-15.8836 F60.00
G01 X-2.4244 Y-15.8958 F60.00
G01 X-2.4015 Y-15.9075 F60.00
G01 X-2.3783 Y-15.9186 F60.00
G01 X-2.3549 Y-15.9291 F60.00
G01 X-2.3312 Y-15.9391 F60.00
G01 X-2.3072 Y-15.9484 F60.00
G01 X-2.2831 Y-15.9572 F60.00
G01 X-2.2587 Y-15.9653 F60.00
G01 X-2.2341 Y-15.9729 F60.00
G01 X-2.1434 Y-15.9992 F60.00
G01 X-2.1195 Y-16.0053 F60.00
G01 X-2.0955 Y-16.0108 F60.00
G01 X-2.0714 Y-16.0158 F60.00
G01 X-2.0471 Y-16.0202 F60.00
G01 X-2.0228 Y-16.0240 F60.00
G01 X-1.9984 Y-16.0272 F60.00
G01 X-1.9739 Y-16.0298 F60.00
G01 X-1.9493 Y-16.0319 F60.00
G01 X-1.9247 Y-16.0333 F60.00
G01 X-1.9001 Y-16.0342 F60.00
G01 X-1.8755 Y-16.0345 F60.00
G01 X15.8755 Y-16.0345 F60.00
G01 X15.9001 Y-16.0342 F60.00
G01 X15.9247 Y-16.0333 F60.00
G01 X15.9493 Y-16.0319 F60.00
G01 X15.9739 Y-16.0298 F60.00
G01 X15.9984 Y-16.0272 F60.00
G01 X16.0228 Y-16.0240 F60.00
G01 X16.0471 Y-16.0202 F60.00
G01 X16.0714 Y-16.0158 F60.00
G01 X16.1470 Y-15.9996 F60.00
G01 X16.1722 Y-15.9938 F60.00
G01 X16.1973 Y-15.9874 F60.00
G01 X16.2222 Y-15.9803 F60.00
G01 X16.2469 Y-15.9726 F60.00
G01 X16.2713 Y-15.9643 F60.00
G01 X16.2956 Y-15.9554 F60.00
G01 X16.3197 Y-15.9459 F60.00
G01 X16.3435 Y-15.9358 F60.00
G01 X16.3670 Y-15.9251 F60.00
G01 X16.3903 Y-15.9138 F60.00
G01 X16.4133 Y-15.9019 F60.00
G01 X16.4360 Y-15.8895 F60.00
G01 X16.4583 Y-15.8765 F60.00
G01 X16.4803 Y-15.8630 F60.00
G01 X16.5020 Y-15.8489 F60.00
G01 X16.5234 Y-15.8342 F60.00
G01 X16.5443 Y-15.8191 F60.00
G01 X16.5649 Y-15.8034 F60.00
G01 X16.5850 Y-15.7872 F60.00
G01 X16.6048 Y-15.7705 F60.00
G01 X16.6768 Y-15.7077 F60.00
G01 X16.6956 Y-15.6901 F60.00
G01 X16.7139 Y-15.6721 F60.00
G01 X16.7318 Y-15.6537 F60.00
G01 X16.7493 Y-15.6348 F60.00
G01 X16.7662 Y-15.6155 F60.00
G01 X16.7827 Y-15.5957 F60.00
G01 X16.7986 Y-15.5756 F60.00
G01 X16.8141 Y-15.5551 F60.00
G01 X16.8291 Y-15.5341 F60.00
G01 X16.8435 Y-15.5129 F60.00
G01 X16.8574 Y-15.4913 F60.00
G01 X16.8707 Y-15.4693 F60.00
G01 X16.8836 Y-15.4470 F60.00
G01 X16.8958 Y-15.4244 F60.00
G01 X16.9075 Y-15.4015 F60.00
G01 X16.9186 Y-15.3783 F60.00
G01 X16.9291 Y-15.3549 F60.00
G01 X16.9391 Y-15.3312 F60.00
G01 X16.9484 Y-15.3072 F60.00
G01 X16.9572 Y-15.2831 F60.00
G01 X16.9653 Y-15.2587 F60.00
G01 X16.9729 Y-15.2341 F60.00
G01 X16.9992 Y-15.1434 F60.00
G01 X17.0053 Y-15.1195 F60.00
G01 X17.0108 Y-15.0955 F60.00
G01 X17.0158 Y-15.0714 F60.00
G01 X17.0202 Y-15.0471 F60.00
G01 X17.0240 Y-15.0228 F60.00
G01 X17.0272 Y-14.9984 F60.00
G01 X17.0298 Y-14.9739 F60.00
G01 X17.0319 Y-14.9493 F60.00
G01 X17.0333 Y-14.9247 F60.00
G01 X17.0342 Y-14.9001 F60.00
G01 X17.0345 Y-14.8755 F60.00
G01 X17.0345 Y-0.1245 F60.00
G01 X17.0342 Y-0.0999 F60.00
G01 X17.0333 Y-0.0753 F60.00
G01 X17.0319 Y-0.0507 F60.00
G01 X17.0298 Y-0.0261 F60.00
G01 X17.0272 Y-0.0016 F60.00
G01 X17.0240 Y0.0228 F60.00
G01 X17.0202 Y0.0471 F60.00
G01 X17.0158 Y0.0714 F60.00
G01 X16.9996 Y0.1470 F60.00
G01 X16.9938 Y0.1722 F60.00
G01 X16.9874 Y0.1973 F60.00
G01 X16.9803 Y0.2222 F60.00
G01 X16.9726 Y0.2469 F60.00
G01 X16.9643 Y0.2713 F60.00
G01 X16.9554 Y0.2956 F60.00
G01 X16.9459 Y0.3197 F60.00
G01 X16.9358 Y0.3435 F60.00
G01 X16.9251 Y0.3670 F60.00
G01 X16.9138 Y0.3903 F60.00
G01 X16.9019 Y0.4133 F60.00
G01 X16.8895 Y0.4360 F60.00
G01 X16.8765 Y0.4583 F60.00
G01 X16.8630 Y0.4803 F60.00
G01 X16.8489 Y0.5020 F60.00
G01 X16.8342 Y0.5234 F60.00
G01 X16.8191 Y0.5443 F60.00
G01 X16.8034 Y0.5649 F60.00
G01 X16.7872 Y0.5850 F60.00
G01 X16.7705 Y0.6048 F60.00
G01 X16.7077 Y0.6768 F60.00
G01 X16.6901 Y0.6956 F60.00
G01 X16.6721 Y0.7139 F60.00
G01 X16.6537 Y0.7318 F60.00
G01 X16.6348 Y0.7493 F60.00
G01 X16.6155 Y0.7662 F60.00
G01 X16.5957 Y0.7827 F60.00
G01 X16.5756 Y0.7986 F60.00
G01 X16.5551 Y0.8141 F60.00
G01 X16.5341 Y0.8291 F60.00
G01 X16.5129 Y0.8435 F60.00
G01 X16.4913 Y0.8574 F60.00
G01 X16.4693 Y0.8707 F60.00
G01 X16.4470 Y0.8836 F60.00
G01 X16.4244 Y0.8958 F60.00
G01 X16.4015 Y0.9075 F60.00
G01 X16.3783 Y0.9186 F60.00
G01 X16.3549 Y0.9291 F60.00
G01 X16.3312 Y0.9391 F60.00
G01 X16.3072 Y0.9484 F60.00
G01 X16.2831 Y0.9572 F60.00
G01 X16.2587 Y0.9653 F60.00
G01 X16.2341 Y0.9729 F60.00
G01 X16.1434 Y0.9992 F60.00
G01 X16.1195 Y1.0053 F60.00
G01 X16.0955 Y1.0108 F60.00
G01 X16.0714 Y1.0158 F60.00
G01 X16.0471 Y1.0202 F60.00
G01 X16.0228 Y1.0240 F60.00
G01 X15.9984 Y1.0272 F60.00
G01 X15.9739 Y1.0298 F60.00
G01 X15.9493 Y1.0319 F60.00
G01 X15.9247 Y1.0333 F60.00
G01 X15.9001 Y1.0342 F60.00
G01 X15.8755 Y1.0345 F60.00
G01 X6.5607 Y1.0345 F60.00
G01 X6.5378 Y1.0342 F60.00
G01 X6.5149 Y1.0335 F60.00
G01 X6.4920 Y1.0322 F60.00
G01 X6.4473 Y1.0285 F60.00
G01 X6.4216 Y1.0259 F60.00
G01 X6.3960 Y1.0227 F60.00
G01 X6.3704 Y1.0188 F60.00
G01 X6.3450 Y1.0143 F60.00
G01 X6.3197 Y1.0091 F60.00
G01 X6.2946 Y1.0033 F60.00
G01 X6.2696 Y0.9969 F60.00
G01 X6.2447 Y0.9899 F60.00
G01 X6.2200 Y0.9822 F60.00
G01 X6.1956 Y0.9740 F60.00
G01 X6.1713 Y0.9651 F60.00
G01 X6.1473 Y0.9556 F60.00
G01 X6.1235 Y0.9456 F60.00
G01 X6.1000 Y0.9349 F60.00
G01 X6.0768 Y0.9237 F60.00
G01 X5.9914 Y0.8807 F60.00
G01 X5.9688 Y0.8684 F60.00
G01 X5.9466 Y0.8555 F60.00
G01 X5.9263 Y0.8431 F60.00
G01 X5.8912 Y0.8480 F60.00
G01 X5.8660 Y0.8508 F60.00
G01 X5.8406 Y0.8530 F60.00
G01 X5.7908 Y0.8558 F60.00
G01 X5.7654 Y0.8567 F60.00
G01 X5.7400 Y0.8570 F60.00
G01 X5.2150 Y0.8570 F60.00
G01 X5.1896 Y0.8567 F60.00
G01 X5.1397 Y0.8545 F60.00
G01 X5.1144 Y0.8530 F60.00
G01 X5.0890 Y0.8508 F60.00
G01 X5.0638 Y0.8480 F60.00
G01 X5.0316 Y0.8436 F60.00
G01 X5.0101 Y0.8574 F60.00
G01 X4.9881 Y0.8707 F60.00
G01 X4.9658 Y0.8836 F60.00
G01 X4.9432 Y0.8958 F60.00
G01 X4.9203 Y0.9075 F60.00
G01 X4.8971 Y0.9186 F60.00
G01 X4.8737 Y0.9291 F60.00
G01 X4.8500 Y0.9391 F60.00
G01 X4.8261 Y0.9484 F60.00
G01 X4.8019 Y0.9572 F60.00
G01 X4.7775 Y0.9653 F60.00
G01 X4.7529 Y0.9729 F60.00
G01 X4.6622 Y0.9992 F60.00
G01 X4.6383 Y1.0053 F60.00
G01 X4.6143 Y1.0108 F60.00
G01 X4.5902 Y1.0158 F60.00
G01 X4.5659 Y1.0202 F60.00
G01 X4.5416 Y1.0240 F60.00
G01 X4.5172 Y1.0272 F60.00
G01 X4.4927 Y1.0298 F60.00
G01 X4.4681 Y1.0319 F60.00
G01 X4.4436 Y1.0333 F60.00
G01 X4.4189 Y1.0342 F60.00
G01 X4.3943 Y1.0345 F60.00
G01 X-1.8755 Y1.0345 F60.00
G01 X-1.9001 Y1.0342 F60.00
G01 X-1.9247 Y1.0333 F60.00
G01 X-1.9493 Y1.0319 F60.00
G01 X-1.9739 Y1.0298 F60.00
G01 X-1.9984 Y1.0272 F60.00
G01 X-2.0228 Y1.0240 F60.00
G01 X-2.0471 Y1.0202 F60.00
G01 X-2.0714 Y1.0158 F60.00
G01 X-2.0955 Y1.0108 F60.00
G01 X-2.1722 Y0.9938 F60.00
G01 X-2.1973 Y0.9874 F60.00
G01 X-2.2222 Y0.9803 F60.00
G01 X-2.2469 Y0.9726 F60.00
G01 X-2.2713 Y0.9643 F60.00
G01 X-2.2956 Y0.9554 F60.00
G01 X-2.3197 Y0.9459 F60.00
G01 X-2.3435 Y0.9358 F60.00
G01 X-2.3670 Y0.9251 F60.00
G01 X-2.3903 Y0.9138 F60.00
G01 X-2.4133 Y0.9019 F60.00
G01 X-2.4360 Y0.8895 F60.00
G01 X-2.4583 Y0.8765 F60.00
G01 X-2.4803 Y0.8630 F60.00
G01 X-2.5020 Y0.8489 F60.00
G01 X-2.5234 Y0.8342 F60.00
G01 X-2.5443 Y0.8191 F60.00
G01 X-2.5649 Y0.8034 F60.00
G01 X-2.5850 Y0.7872 F60.00
G01 X-2.6576 Y0.7247 F60.00
G01 X-2.6768 Y0.7077 F60.00
G01 X-2.6956 Y0.6901 F60.00
G01 X-2.7139 Y0.6721 F60.00
G01 X-2.7318 Y0.6537 F60.00
G01 X-2.7493 Y0.6348 F60.00
G01 X-2.7662 Y0.6155 F60.00
G01 X-2.7827 Y0.5957 F60.00
G01 X-2.7986 Y0.5756 F60.00
G01 X-2.8141 Y0.5551 F60.00
G01 X-2.8291 Y0.5341 F60.00
G01 X-2.8435 Y0.5129 F60.00
G01 X-2.8574 Y0.4913 F60.00
G01 X-2.8707 Y0.4693 F60.00
G01 X-2.8836 Y0.4470 F60.00
G01 X-2.8958 Y0.4244 F60.00
G01 X-2.9075 Y0.4015 F60.00
G01 X-2.9186 Y0.3783 F60.00
G01 X-2.9291 Y0.3549 F60.00
G01 X-2.9391 Y0.3312 F60.00
G01 X-2.9484 Y0.3072 F60.00
G01 X-2.9572 Y0.2831 F60.00
G01 X-2.9653 Y0.2587 F60.00
G01 X-2.9926 Y0.1671 F60.00
G01 X-2.9992 Y0.1434 F60.00
G01 X-3.0053 Y0.1195 F60.00
G01 X-3.0108 Y0.0955 F60.00
G01 X-3.0158 Y0.0714 F60.00
G01 X-3.0202 Y0.0471 F60.00
G01 X-3.0240 Y0.0228 F60.00
G01 X-3.0272 Y-0.0016 F60.00
G01 X-3.0298 Y-0.0261 F60.00
G01 X-3.0319 Y-0.0507 F60.00
G01 X-3.0333 Y-0.0753 F60.00
G01 X-3.0342 Y-0.0999 F60.00
G01 X-3.0345 Y-0.1245 F60.00
G00 Z2.0000
G00 X1.0550 Y-2.4100
G01 F60.00
G01 Z-0.6531
G01 F60.00
G01 X1.0550 Y-3.4100 F60.00
G01 X1.0556 Y-3.4266 F60.00
G01 X1.0567 Y-3.4375 F60.00
G01 X1.0583 Y-3.4485 F60.00
G01 X1.0617 Y-3.4647 F60.00
G01 X1.0664 Y-3.4806 F60.00
G01 X1.0721 Y-3.4961 F60.00
G01 X1.0790 Y-3.5112 F60.00
G01 X1.0870 Y-3.5257 F60.00
G01 X1.0960 Y-3.5396 F60.00
G01 X1.1061 Y-3.5527 F60.00
G01 X1.1170 Y-3.5651 F60.00
G01 X1.1289 Y-3.5767 F60.00
G01 X1.1373 Y-3.5839 F60.00
G01 X1.1504 Y-3.5940 F60.00
G01 X1.1643 Y-3.6030 F60.00
G01 X1.1788 Y-3.6110 F60.00
G01 X1.1939 Y-3.6179 F60.00
G01 X1.2094 Y-3.6236 F60.00
G01 X1.2253 Y-3.6283 F60.00
G01 X1.2415 Y-3.6317 F60.00
G01 X1.2525 Y-3.6333 F60.00
G01 X1.2634 Y-3.6344 F60.00
G01 X1.2800 Y-3.6350 F60.00
G01 X2.3300 Y-3.6350 F60.00
G01 X2.3466 Y-3.6344 F60.00
G01 X2.3630 Y-3.6326 F60.00
G01 X2.3739 Y-3.6307 F60.00
G01 X2.3847 Y-3.6283 F60.00
G01 X2.3953 Y-3.6253 F60.00
G01 X2.4058 Y-3.6218 F60.00
G01 X2.4161 Y-3.6179 F60.00
G01 X2.4262 Y-3.6134 F60.00
G01 X2.4409 Y-3.6058 F60.00
G01 X2.4504 Y-3.6001 F60.00
G01 X2.4596 Y-3.5940 F60.00
G01 X2.4684 Y-3.5874 F60.00
G01 X2.4770 Y-3.5804 F60.00
G01 X2.4851 Y-3.5730 F60.00
G01 X2.4930 Y-3.5651 F60.00
G01 X2.5004 Y-3.5570 F60.00
G01 X2.5074 Y-3.5484 F60.00
G01 X2.5140 Y-3.5396 F60.00
G01 X2.5201 Y-3.5304 F60.00
G01 X2.5284 Y-3.5161 F60.00
G01 X2.5334 Y-3.5062 F60.00
G01 X2.5379 Y-3.4961 F60.00
G01 X2.5418 Y-3.4858 F60.00
G01 X2.5453 Y-3.4753 F60.00
G01 X2.5483 Y-3.4647 F60.00
G01 X2.5507 Y-3.4539 F60.00
G01 X2.5526 Y-3.4430 F60.00
G01 X2.5539 Y-3.4321 F60.00
G01 X2.5549 Y-3.4155 F60.00
G01 X2.5550 Y-3.3851 F60.00
G01 X2.8900 Y-3.3851 F60.00
G01 X2.8915 Y-3.4205 F60.00
G01 X2.8923 Y-3.4316 F60.00
G01 X2.8972 Y-3.4668 F60.00
G01 X2.9003 Y-3.4831 F60.00
G01 X2.9105 Y-3.5229 F60.00
G01 X2.9241 Y-3.5616 F60.00
G01 X2.9306 Y-3.5769 F60.00
G01 X2.9461 Y-3.6089 F60.00
G01 X2.9641 Y-3.6396 F60.00
G01 X2.9732 Y-3.6534 F60.00
G01 X2.9978 Y-3.6863 F60.00
G01 X3.0253 Y-3.7169 F60.00
G01 X3.0371 Y-3.7285 F60.00
G01 X3.0637 Y-3.7522 F60.00
G01 X3.0966 Y-3.7768 F60.00
G01 X3.1057 Y-3.7830 F60.00
G01 X3.1315 Y-3.7985 F60.00
G01 X3.1411 Y-3.8039 F60.00
G01 X3.1510 Y-3.8089 F60.00
G01 X3.1781 Y-3.8217 F60.00
G01 X3.1884 Y-3.8259 F60.00
G01 X3.2166 Y-3.8361 F60.00
G01 X3.2324 Y-3.8411 F60.00
G01 X3.2723 Y-3.8509 F60.00
G01 X3.3075 Y-3.8564 F60.00
G01 X3.3239 Y-3.8582 F60.00
G01 X3.3650 Y-3.8600 F60.00
G01 X3.8705 Y-3.8599 F60.00
G01 X3.9116 Y-3.8577 F60.00
G01 X3.9468 Y-3.8528 F60.00
G01 X3.9577 Y-3.8509 F60.00
G01 X3.9684 Y-3.8485 F60.00
G01 X3.9976 Y-3.8411 F60.00
G01 X4.0081 Y-3.8379 F60.00
G01 X4.0468 Y-3.8238 F60.00
G01 X4.0840 Y-3.8065 F60.00
G01 X4.0938 Y-3.8012 F60.00
G01 X4.1196 Y-3.7859 F60.00
G01 X4.1289 Y-3.7799 F60.00
G01 X4.1379 Y-3.7736 F60.00
G01 X4.1663 Y-3.7522 F60.00
G01 X4.1929 Y-3.7285 F60.00
G01 X4.2009 Y-3.7209 F60.00
G01 X4.2085 Y-3.7129 F60.00
G01 X4.2322 Y-3.6863 F60.00
G01 X4.2536 Y-3.6579 F60.00
G01 X4.2599 Y-3.6489 F60.00
G01 X4.2659 Y-3.6396 F60.00
G01 X4.2812 Y-3.6138 F60.00
G01 X4.2865 Y-3.6040 F60.00
G01 X4.3038 Y-3.5668 F60.00
G01 X4.3179 Y-3.5281 F60.00
G01 X4.3211 Y-3.5176 F60.00
G01 X4.3285 Y-3.4884 F60.00
G01 X4.3309 Y-3.4777 F60.00
G01 X4.3328 Y-3.4668 F60.00
G01 X4.3377 Y-3.4316 F60.00
G01 X4.3385 Y-3.4205 F60.00
G01 X4.3400 Y-3.3850 F60.00
G01 X4.3400 Y-2.4350 F60.00
G01 X4.3385 Y-2.3995 F60.00
G01 X4.3377 Y-2.3884 F60.00
G01 X4.3364 Y-2.3775 F60.00
G01 X4.3309 Y-2.3423 F60.00
G01 X4.3211 Y-2.3024 F60.00
G01 X4.3161 Y-2.2866 F60.00
G01 X4.3038 Y-2.2532 F60.00
G01 X4.2889 Y-2.2210 F60.00
G01 X4.2812 Y-2.2062 F60.00
G01 X4.2599 Y-2.1711 F60.00
G01 X4.2356 Y-2.1380 F60.00
G01 X4.2250 Y-2.1253 F60.00
G01 X4.2009 Y-2.0991 F60.00
G01 X4.1747 Y-2.0750 F60.00
G01 X4.1620 Y-2.0644 F60.00
G01 X4.1289 Y-2.0401 F60.00
G01 X4.0938 Y-2.0188 F60.00
G01 X4.0790 Y-2.0111 F60.00
G01 X4.0468 Y-1.9962 F60.00
G01 X4.0081 Y-1.9821 F60.00
G01 X3.9976 Y-1.9789 F60.00
G01 X3.9684 Y-1.9715 F60.00
G01 X3.9577 Y-1.9691 F60.00
G01 X3.9468 Y-1.9672 F60.00
G01 X3.9116 Y-1.9623 F60.00
G01 X3.8705 Y-1.9601 F60.00
G01 X3.3595 Y-1.9601 F60.00
G01 X3.3184 Y-1.9623 F60.00
G01 X3.3075 Y-1.9636 F60.00
G01 X3.2723 Y-1.9691 F60.00
G01 X3.2616 Y-1.9715 F60.00
G01 X3.2271 Y-1.9805 F60.00
G01 X3.2166 Y-1.9839 F60.00
G01 X3.1832 Y-1.9962 F60.00
G01 X3.1510 Y-2.0111 F60.00
G01 X3.1411 Y-2.0161 F60.00
G01 X3.1104 Y-2.0341 F60.00
G01 X3.0966 Y-2.0432 F60.00
G01 X3.0637 Y-2.0678 F60.00
G01 X3.0331 Y-2.0953 F60.00
G01 X3.0215 Y-2.1071 F60.00
G01 X2.9978 Y-2.1337 F60.00
G01 X2.9764 Y-2.1621 F60.00
G01 X2.9701 Y-2.1711 F60.00
G01 X2.9488 Y-2.2062 F60.00
G01 X2.9411 Y-2.2210 F60.00
G01 X2.9262 Y-2.2532 F60.00
G01 X2.9222 Y-2.2635 F60.00
G01 X2.9105 Y-2.2971 F60.00
G01 X2.9003 Y-2.3369 F60.00
G01 X2.8972 Y-2.3532 F60.00
G01 X2.8923 Y-2.3884 F60.00
G01 X2.8915 Y-2.3995 F60.00
G01 X2.8900 Y-2.4349 F60.00
G01 X2.5550 Y-2.4349 F60.00
G01 X2.5549 Y-2.4045 F60.00
G01 X2.5544 Y-2.3934 F60.00
G01 X2.5533 Y-2.3825 F60.00
G01 X2.5517 Y-2.3715 F60.00
G01 X2.5495 Y-2.3607 F60.00
G01 X2.5468 Y-2.3500 F60.00
G01 X2.5436 Y-2.3394 F60.00
G01 X2.5399 Y-2.3290 F60.00
G01 X2.5357 Y-2.3188 F60.00
G01 X2.5310 Y-2.3088 F60.00
G01 X2.5258 Y-2.2991 F60.00
G01 X2.5201 Y-2.2896 F60.00
G01 X2.5140 Y-2.2804 F60.00
G01 X2.5074 Y-2.2716 F60.00
G01 X2.5004 Y-2.2630 F60.00
G01 X2.4930 Y-2.2549 F60.00
G01 X2.4851 Y-2.2470 F60.00
G01 X2.4727 Y-2.2361 F60.00
G01 X2.4640 Y-2.2293 F60.00
G01 X2.4550 Y-2.2229 F60.00
G01 X2.4457 Y-2.2170 F60.00
G01 X2.4361 Y-2.2116 F60.00
G01 X2.4262 Y-2.2066 F60.00
G01 X2.4161 Y-2.2021 F60.00
G01 X2.4058 Y-2.1982 F60.00
G01 X2.3953 Y-2.1947 F60.00
G01 X2.3793 Y-2.1905 F60.00
G01 X2.3685 Y-2.1883 F60.00
G01 X2.3575 Y-2.1867 F60.00
G01 X2.3466 Y-2.1856 F60.00
G01 X2.3355 Y-2.1851 F60.00
G01 X1.2800 Y-2.1850 F60.00
G01 X1.2634 Y-2.1856 F60.00
G01 X1.2525 Y-2.1867 F60.00
G01 X1.2415 Y-2.1883 F60.00
G01 X1.2253 Y-2.1917 F60.00
G01 X1.2147 Y-2.1947 F60.00
G01 X1.2042 Y-2.1982 F60.00
G01 X1.1939 Y-2.2021 F60.00
G01 X1.1838 Y-2.2066 F60.00
G01 X1.1691 Y-2.2142 F60.00
G01 X1.1550 Y-2.2229 F60.00
G01 X1.1460 Y-2.2293 F60.00
G01 X1.1373 Y-2.2361 F60.00
G01 X1.1289 Y-2.2433 F60.00
G01 X1.1209 Y-2.2509 F60.00
G01 X1.1096 Y-2.2630 F60.00
G01 X1.1026 Y-2.2716 F60.00
G01 X1.0960 Y-2.2804 F60.00
G01 X1.0870 Y-2.2943 F60.00
G01 X1.0790 Y-2.3088 F60.00
G01 X1.0743 Y-2.3188 F60.00
G01 X1.0701 Y-2.3290 F60.00
G01 X1.0647 Y-2.3447 F60.00
G01 X1.0617 Y-2.3553 F60.00
G01 X1.0593 Y-2.3661 F60.00
G01 X1.0574 Y-2.3770 F60.00
G01 X1.0561 Y-2.3879 F60.00
G01 X1.0553 Y-2.3990 F60.00
G01 X1.0550 Y-2.4100 F60.00
G00 Z2.0000
G00 X4.7900 Y-2.4350
G01 F60.00
G01 Z-0.6531
G01 F60.00
G01 X4.7900 Y-3.3850 F60.00
G01 X4.7915 Y-3.4205 F60.00
G01 X4.7923 Y-3.4316 F60.00
G01 X4.7972 Y-3.4668 F60.00
G01 X4.8003 Y-3.4831 F60.00
G01 X4.8105 Y-3.5229 F60.00
G01 X4.8222 Y-3.5565 F60.00
G01 X4.8283 Y-3.5719 F60.00
G01 X4.8461 Y-3.6089 F60.00
G01 X4.8670 Y-3.6443 F60.00
G01 X4.8764 Y-3.6579 F60.00
G01 X4.8978 Y-3.6863 F60.00
G01 X4.9215 Y-3.7129 F60.00
G01 X4.9331 Y-3.7247 F60.00
G01 X4.9637 Y-3.7522 F60.00
G01 X4.9921 Y-3.7736 F60.00
G01 X5.0057 Y-3.7830 F60.00
G01 X5.0411 Y-3.8039 F60.00
G01 X5.0731 Y-3.8194 F60.00
G01 X5.0884 Y-3.8259 F60.00
G01 X5.1219 Y-3.8379 F60.00
G01 X5.1219 Y-4.2670 F60.00
G01 X5.1086 Y-4.2766 F60.00
G01 X5.1000 Y-4.2836 F60.00
G01 X5.0879 Y-4.2949 F60.00
G01 X5.0803 Y-4.3029 F60.00
G01 X5.0696 Y-4.3156 F60.00
G01 X5.0630 Y-4.3244 F60.00
G01 X5.0569 Y-4.3336 F60.00
G01 X5.0512 Y-4.3431 F60.00
G01 X5.0460 Y-4.3528 F60.00
G01 X5.0391 Y-4.3679 F60.00
G01 X5.0352 Y-4.3782 F60.00
G01 X5.0317 Y-4.3887 F60.00
G01 X5.0287 Y-4.3993 F60.00
G01 X5.0253 Y-4.4155 F60.00
G01 X5.0237 Y-4.4265 F60.00
G01 X5.0226 Y-4.4374 F60.00
G01 X5.0220 Y-4.4540 F60.00
G01 X5.0221 Y-5.0595 F60.00
G01 X5.0226 Y-5.0706 F60.00
G01 X5.0237 Y-5.0815 F60.00
G01 X5.0253 Y-5.0925 F60.00
G01 X5.0275 Y-5.1033 F60.00
G01 X5.0302 Y-5.1140 F60.00
G01 X5.0334 Y-5.1246 F60.00
G01 X5.0371 Y-5.1350 F60.00
G01 X5.0413 Y-5.1452 F60.00
G01 X5.0460 Y-5.1552 F60.00
G01 X5.0540 Y-5.1697 F60.00
G01 X5.0630 Y-5.1836 F60.00
G01 X5.0696 Y-5.1924 F60.00
G01 X5.0766 Y-5.2010 F60.00
G01 X5.0879 Y-5.2131 F60.00
G01 X5.1000 Y-5.2244 F60.00
G01 X5.1130 Y-5.2347 F60.00
G01 X5.1266 Y-5.2441 F60.00
G01 X5.1409 Y-5.2524 F60.00
G01 X5.1508 Y-5.2574 F60.00
G01 X5.1660 Y-5.2639 F60.00
G01 X5.1764 Y-5.2676 F60.00
G01 X5.1923 Y-5.2723 F60.00
G01 X5.2085 Y-5.2757 F60.00
G01 X5.2195 Y-5.2773 F60.00
G01 X5.2304 Y-5.2784 F60.00
G01 X5.2470 Y-5.2790 F60.00
G01 X5.9525 Y-5.2789 F60.00
G01 X5.9636 Y-5.2784 F60.00
G01 X5.9745 Y-5.2773 F60.00
G01 X5.9855 Y-5.2757 F60.00
G01 X5.9963 Y-5.2735 F60.00
G01 X6.0070 Y-5.2708 F60.00
G01 X6.0176 Y-5.2676 F60.00
G01 X6.0280 Y-5.2639 F60.00
G01 X6.0382 Y-5.2597 F60.00
G01 X6.0531 Y-5.2524 F60.00
G01 X6.0627 Y-5.2470 F60.00
G01 X6.0766 Y-5.2380 F60.00
G01 X6.0897 Y-5.2279 F60.00
G01 X6.1021 Y-5.2170 F60.00
G01 X6.1137 Y-5.2051 F60.00
G01 X6.1244 Y-5.1924 F60.00
G01 X6.1310 Y-5.1836 F60.00
G01 X6.1400 Y-5.1697 F60.00
G01 X6.1480 Y-5.1552 F60.00
G01 X6.1527 Y-5.1452 F60.00
G01 X6.1588 Y-5.1298 F60.00
G01 X6.1638 Y-5.1140 F60.00
G01 X6.1677 Y-5.0979 F60.00
G01 X6.1696 Y-5.0870 F60.00
G01 X6.1714 Y-5.0706 F60.00
G01 X6.1720 Y-5.0540 F60.00
G01 X6.1720 Y-4.4540 F60.00
G01 X6.1714 Y-4.4374 F60.00
G01 X6.1703 Y-4.4265 F60.00
G01 X6.1687 Y-4.4155 F60.00
G01 X6.1665 Y-4.4047 F60.00
G01 X6.1623 Y-4.3887 F60.00
G01 X6.1588 Y-4.3782 F60.00
G01 X6.1549 Y-4.3679 F60.00
G01 X6.1480 Y-4.3528 F60.00
G01 X6.1428 Y-4.3431 F60.00
G01 X6.1341 Y-4.3290 F60.00
G01 X6.1277 Y-4.3200 F60.00
G01 X6.1209 Y-4.3113 F60.00
G01 X6.1137 Y-4.3029 F60.00
G01 X6.1061 Y-4.2949 F60.00
G01 X6.0940 Y-4.2836 F60.00
G01 X6.0854 Y-4.2766 F60.00
G01 X6.0721 Y-4.2670 F60.00
G01 X6.0721 Y-3.7472 F60.00
G01 X6.1009 Y-3.7209 F60.00
G01 X6.1085 Y-3.7129 F60.00
G01 X6.1322 Y-3.6863 F60.00
G01 X6.1536 Y-3.6579 F60.00
G01 X6.1599 Y-3.6489 F60.00
G01 X6.1659 Y-3.6396 F60.00
G01 X6.1839 Y-3.6089 F60.00
G01 X6.1994 Y-3.5769 F60.00
G01 X6.2038 Y-3.5668 F60.00
G01 X6.2078 Y-3.5565 F60.00
G01 X6.2195 Y-3.5229 F60.00
G01 X6.2285 Y-3.4884 F60.00
G01 X6.2309 Y-3.4777 F60.00
G01 X6.2371 Y-3.4370 F60.00
G01 X6.2385 Y-3.4205 F60.00
G01 X6.2400 Y-3.3850 F60.00
G01 X6.2399 Y-2.4295 F60.00
G01 X6.2377 Y-2.3884 F60.00
G01 X6.2328 Y-2.3532 F60.00
G01 X6.2297 Y-2.3369 F60.00
G01 X6.2195 Y-2.2971 F60.00
G01 X6.2059 Y-2.2584 F60.00
G01 X6.1994 Y-2.2431 F60.00
G01 X6.1839 Y-2.2111 F60.00
G01 X6.1659 Y-2.1804 F60.00
G01 X6.1568 Y-2.1666 F60.00
G01 X6.1322 Y-2.1337 F60.00
G01 X6.1085 Y-2.1071 F60.00
G01 X6.0969 Y-2.0953 F60.00
G01 X6.0663 Y-2.0678 F60.00
G01 X6.0379 Y-2.0464 F60.00
G01 X6.0243 Y-2.0370 F60.00
G01 X5.9901 Y-2.0168 F60.00
G01 X5.9901 Y-1.7315 F60.00
G01 X6.0084 Y-1.7198 F60.00
G01 X6.0370 Y-1.6986 F60.00
G01 X6.0497 Y-1.6880 F60.00
G01 X6.0719 Y-1.6677 F60.00
G01 X6.0835 Y-1.6559 F60.00
G01 X6.1072 Y-1.6293 F60.00
G01 X6.1286 Y-1.6009 F60.00
G01 X6.1349 Y-1.5919 F60.00
G01 X6.1409 Y-1.5826 F60.00
G01 X6.1589 Y-1.5519 F60.00
G01 X6.1744 Y-1.5199 F60.00
G01 X6.1788 Y-1.5098 F60.00
G01 X6.1828 Y-1.4995 F60.00
G01 X6.1945 Y-1.4659 F60.00
G01 X6.2035 Y-1.4314 F60.00
G01 X6.2069 Y-1.4152 F60.00
G01 X6.2127 Y-1.3746 F60.00
G01 X6.2135 Y-1.3635 F60.00
G01 X6.2150 Y-1.3280 F60.00
G01 X6.2149 Y-0.4225 F60.00
G01 X6.2127 Y-0.3814 F60.00
G01 X6.2078 Y-0.3462 F60.00
G01 X6.2047 Y-0.3299 F60.00
G01 X6.1945 Y-0.2901 F60.00
G01 X6.1809 Y-0.2514 F60.00
G01 X6.1744 Y-0.2361 F60.00
G01 X6.1589 Y-0.2041 F60.00
G01 X6.1380 Y-0.1687 F60.00
G01 X6.1286 Y-0.1551 F60.00
G01 X6.1106 Y-0.1310 F60.00
G01 X6.1036 Y-0.1224 F60.00
G01 X6.0759 Y-0.0921 F60.00
G01 X6.0497 Y-0.0680 F60.00
G01 X6.0370 Y-0.0574 F60.00
G01 X6.0039 Y-0.0331 F60.00
G01 X5.9688 Y-0.0118 F60.00
G01 X5.9540 Y-0.0041 F60.00
G01 X5.9269 Y0.0087 F60.00
G01 X5.9166 Y0.0129 F60.00
G01 X5.8884 Y0.0231 F60.00
G01 X5.8726 Y0.0281 F60.00
G01 X5.8434 Y0.0355 F60.00
G01 X5.8272 Y0.0389 F60.00
G01 X5.7920 Y0.0441 F60.00
G01 X5.7755 Y0.0455 F60.00
G01 X5.7400 Y0.0470 F60.00
G01 X5.2150 Y0.0470 F60.00
G01 X5.1795 Y0.0455 F60.00
G01 X5.1684 Y0.0447 F60.00
G01 X5.1278 Y0.0389 F60.00
G01 X5.1116 Y0.0355 F60.00
G01 X5.0771 Y0.0265 F60.00
G01 X5.0435 Y0.0148 F60.00
G01 X5.0281 Y0.0087 F60.00
G01 X4.9960 Y-0.0065 F60.00
G01 X4.9815 Y-0.0145 F60.00
G01 X4.9511 Y-0.0331 F60.00
G01 X4.9224 Y-0.0540 F60.00
G01 X4.9094 Y-0.0644 F60.00
G01 X4.8831 Y-0.0883 F60.00
G01 X4.8715 Y-0.1001 F60.00
G01 X4.8478 Y-0.1267 F60.00
G01 X4.8264 Y-0.1551 F60.00
G01 X4.8170 Y-0.1687 F60.00
G01 X4.7988 Y-0.1992 F60.00
G01 X4.7911 Y-0.2140 F60.00
G01 X4.7783 Y-0.2411 F60.00
G01 X4.7722 Y-0.2565 F60.00
G01 X4.7605 Y-0.2901 F60.00
G01 X4.7515 Y-0.3246 F60.00
G01 X4.7481 Y-0.3408 F60.00
G01 X4.7429 Y-0.3760 F60.00
G01 X4.7418 Y-0.3869 F60.00
G01 X4.7403 Y-0.4170 F60.00
G01 X4.7400 Y-0.4280 F60.00
G01 X4.7400 Y-1.3280 F60.00
G01 X4.7418 Y-1.3691 F60.00
G01 X4.7436 Y-1.3855 F60.00
G01 X4.7491 Y-1.4207 F60.00
G01 X4.7575 Y-1.4552 F60.00
G01 X4.7621 Y-1.4711 F60.00
G01 X4.7762 Y-1.5098 F60.00
G01 X4.7935 Y-1.5470 F60.00
G01 X4.8015 Y-1.5615 F60.00
G01 X4.8201 Y-1.5919 F60.00
G01 X4.8444 Y-1.6250 F60.00
G01 X4.8514 Y-1.6336 F60.00
G01 X4.8715 Y-1.6559 F60.00
G01 X4.8831 Y-1.6677 F60.00
G01 X4.9137 Y-1.6952 F60.00
G01 X4.9421 Y-1.7166 F60.00
G01 X4.9557 Y-1.7260 F60.00
G01 X4.9911 Y-1.7469 F60.00
G01 X5.0231 Y-1.7624 F60.00
G01 X5.0399 Y-1.7695 F60.00
G01 X5.0399 Y-2.0168 F60.00
G01 X5.0104 Y-2.0341 F60.00
G01 X5.0011 Y-2.0401 F60.00
G01 X4.9724 Y-2.0610 F60.00
G01 X4.9594 Y-2.0714 F60.00
G01 X4.9291 Y-2.0991 F60.00
G01 X4.9014 Y-2.1294 F60.00
G01 X4.8910 Y-2.1424 F60.00
G01 X4.8701 Y-2.1711 F60.00
G01 X4.8515 Y-2.2015 F60.00
G01 X4.8435 Y-2.2160 F60.00
G01 X4.8262 Y-2.2532 F60.00
G01 X4.8121 Y-2.2919 F60.00
G01 X4.8075 Y-2.3078 F60.00
G01 X4.7991 Y-2.3423 F60.00
G01 X4.7936 Y-2.3775 F60.00
G01 X4.7918 Y-2.3939 F60.00
G01 X4.7900 Y-2.4350 F60.00
G00 Z2.0000
G00 X7.2470 Y-5.6790
G01 F60.00
G01 Z-0.6531
G01 F60.00
G01 X7.9470 Y-5.6790 F60.00
G01 X7.9636 Y-5.6784 F60.00
G01 X7.9745 Y-5.6773 F60.00
G01 X7.9909 Y-5.6747 F60.00
G01 X8.0070 Y-5.6708 F60.00
G01 X8.0228 Y-5.6658 F60.00
G01 X8.0331 Y-5.6619 F60.00
G01 X8.0432 Y-5.6574 F60.00
G01 X8.0579 Y-5.6498 F60.00
G01 X8.0674 Y-5.6441 F60.00
G01 X8.0766 Y-5.6380 F60.00
G01 X8.0854 Y-5.6314 F60.00
G01 X8.0940 Y-5.6244 F60.00
G01 X8.1021 Y-5.6170 F60.00
G01 X8.1100 Y-5.6091 F60.00
G01 X8.1209 Y-5.5967 F60.00
G01 X8.1277 Y-5.5880 F60.00
G01 X8.1341 Y-5.5790 F60.00
G01 X8.1400 Y-5.5697 F60.00
G01 X8.1454 Y-5.5601 F60.00
G01 X8.1527 Y-5.5452 F60.00
G01 X8.1588 Y-5.5298 F60.00
G01 X8.1623 Y-5.5193 F60.00
G01 X8.1653 Y-5.5087 F60.00
G01 X8.1687 Y-5.4925 F60.00
G01 X8.1703 Y-5.4815 F60.00
G01 X8.1714 Y-5.4706 F60.00
G01 X8.1719 Y-5.4595 F60.00
G01 X8.1720 Y-5.4291 F60.00
G01 X8.4233 Y-5.4291 F60.00
G01 X8.4531 Y-5.4619 F60.00
G01 X8.4793 Y-5.4860 F60.00
G01 X8.4920 Y-5.4966 F60.00
G01 X8.5161 Y-5.5146 F60.00
G01 X8.5297 Y-5.5240 F60.00
G01 X8.5602 Y-5.5422 F60.00
G01 X8.5750 Y-5.5499 F60.00
G01 X8.6021 Y-5.5627 F60.00
G01 X8.6175 Y-5.5688 F60.00
G01 X8.6511 Y-5.5805 F60.00
G01 X8.6856 Y-5.5895 F60.00
G01 X8.7018 Y-5.5929 F60.00
G01 X8.7370 Y-5.5981 F60.00
G01 X8.7535 Y-5.5995 F60.00
G01 X8.7835 Y-5.6009 F60.00
G01 X9.7390 Y-5.6010 F60.00
G01 X9.7745 Y-5.5995 F60.00
G01 X9.7910 Y-5.5981 F60.00
G01 X9.8317 Y-5.5919 F60.00
G01 X9.8424 Y-5.5895 F60.00
G01 X9.8769 Y-5.5805 F60.00
G01 X9.8874 Y-5.5771 F60.00
G01 X9.9208 Y-5.5648 F60.00
G01 X9.9530 Y-5.5499 F60.00
G01 X9.9629 Y-5.5449 F60.00
G01 X9.9936 Y-5.5269 F60.00
G01 X10.0029 Y-5.5209 F60.00
G01 X10.0119 Y-5.5146 F60.00
G01 X10.0403 Y-5.4932 F60.00
G01 X10.0669 Y-5.4695 F60.00
G01 X10.0749 Y-5.4619 F60.00
G01 X10.1047 Y-5.4291 F60.00
G01 X10.5027 Y-5.4291 F60.00
G01 X10.5141 Y-5.4407 F60.00
G01 X10.5404 Y-5.4646 F60.00
G01 X10.5490 Y-5.4716 F60.00
G01 X10.5731 Y-5.4896 F60.00
G01 X10.5821 Y-5.4959 F60.00
G01 X10.5914 Y-5.5019 F60.00
G01 X10.6172 Y-5.5172 F60.00
G01 X10.6320 Y-5.5249 F60.00
G01 X10.6591 Y-5.5377 F60.00
G01 X10.6694 Y-5.5419 F60.00
G01 X10.6976 Y-5.5521 F60.00
G01 X10.7134 Y-5.5571 F60.00
G01 X10.7533 Y-5.5669 F60.00
G01 X10.7885 Y-5.5724 F60.00
G01 X10.8049 Y-5.5742 F60.00
G01 X10.8460 Y-5.5760 F60.00
G01 X11.7460 Y-5.5760 F60.00
G01 X11.7815 Y-5.5745 F60.00
G01 X11.7980 Y-5.5731 F60.00
G01 X11.8332 Y-5.5679 F60.00
G01 X11.8494 Y-5.5645 F60.00
G01 X11.8839 Y-5.5555 F60.00
G01 X11.9175 Y-5.5438 F60.00
G01 X11.9329 Y-5.5377 F60.00
G01 X11.9699 Y-5.5199 F60.00
G01 X12.0053 Y-5.4990 F60.00
G01 X12.0189 Y-5.4896 F60.00
G01 X12.0473 Y-5.4682 F60.00
G01 X12.0739 Y-5.4445 F60.00
G01 X12.0857 Y-5.4329 F60.00
G01 X12.1132 Y-5.4023 F60.00
G01 X12.1346 Y-5.3739 F60.00
G01 X12.1440 Y-5.3603 F60.00
G01 X12.1649 Y-5.3249 F60.00
G01 X12.1804 Y-5.2929 F60.00
G01 X12.1869 Y-5.2776 F60.00
G01 X12.1989 Y-5.2441 F60.00
G01 X12.2021 Y-5.2336 F60.00
G01 X12.2095 Y-5.2044 F60.00
G01 X12.2119 Y-5.1937 F60.00
G01 X12.2138 Y-5.1828 F60.00
G01 X12.2187 Y-5.1476 F60.00
G01 X12.2209 Y-5.1065 F60.00
G01 X12.2209 Y-4.5705 F60.00
G01 X12.2195 Y-4.5405 F60.00
G01 X12.2181 Y-4.5240 F60.00
G01 X12.2129 Y-4.4888 F60.00
G01 X12.2095 Y-4.4726 F60.00
G01 X12.2005 Y-4.4381 F60.00
G01 X12.1971 Y-4.4276 F60.00
G01 X12.1848 Y-4.3942 F60.00
G01 X12.1699 Y-4.3620 F60.00
G01 X12.1649 Y-4.3521 F60.00
G01 X12.1469 Y-4.3214 F60.00
G01 X12.1409 Y-4.3121 F60.00
G01 X12.1346 Y-4.3031 F60.00
G01 X12.1166 Y-4.2790 F60.00
G01 X12.1096 Y-4.2704 F60.00
G01 X12.0819 Y-4.2401 F60.00
G01 X12.0739 Y-4.2325 F60.00
G01 X12.0473 Y-4.2088 F60.00
G01 X12.0189 Y-4.1874 F60.00
G01 X12.0099 Y-4.1811 F60.00
G01 X11.9748 Y-4.1598 F60.00
G01 X11.9650 Y-4.1545 F60.00
G01 X11.9379 Y-4.1416 F60.00
G01 X11.9278 Y-4.1372 F60.00
G01 X11.9175 Y-4.1332 F60.00
G01 X11.8839 Y-4.1215 F60.00
G01 X11.8494 Y-4.1125 F60.00
G01 X11.8387 Y-4.1101 F60.00
G01 X11.8035 Y-4.1046 F60.00
G01 X11.7926 Y-4.1033 F60.00
G01 X11.7570 Y-4.1013 F60.00
G01 X11.7460 Y-4.1010 F60.00
G01 X10.8405 Y-4.1011 F60.00
G01 X10.8049 Y-4.1028 F60.00
G01 X10.7885 Y-4.1046 F60.00
G01 X10.7533 Y-4.1101 F60.00
G01 X10.7134 Y-4.1199 F60.00
G01 X10.6976 Y-4.1249 F60.00
G01 X10.6694 Y-4.1351 F60.00
G01 X10.6591 Y-4.1393 F60.00
G01 X10.6221 Y-4.1571 F60.00
G01 X10.5914 Y-4.1751 F60.00
G01 X10.5776 Y-4.1842 F60.00
G01 X10.5447 Y-4.2088 F60.00
G01 X10.5141 Y-4.2363 F60.00
G01 X10.5025 Y-4.2481 F60.00
G01 X10.4788 Y-4.2747 F60.00
G01 X10.4574 Y-4.3031 F60.00
G01 X10.4480 Y-4.3167 F60.00
G01 X10.4271 Y-4.3521 F60.00
G01 X10.4093 Y-4.3891 F60.00
G01 X10.4032 Y-4.4045 F60.00
G01 X10.3915 Y-4.4381 F60.00
G01 X10.3811 Y-4.4789 F60.00
G01 X10.1905 Y-4.4789 F60.00
G01 X10.1778 Y-4.4442 F60.00
G01 X10.1605 Y-4.4070 F60.00
G01 X10.1552 Y-4.3972 F60.00
G01 X10.1399 Y-4.3714 F60.00
G01 X10.1308 Y-4.3576 F60.00
G01 X10.1062 Y-4.3247 F60.00
G01 X10.0825 Y-4.2981 F60.00
G01 X10.0749 Y-4.2901 F60.00
G01 X10.0669 Y-4.2825 F60.00
G01 X10.0446 Y-4.2624 F60.00
G01 X10.0360 Y-4.2554 F60.00
G01 X10.0029 Y-4.2311 F60.00
G01 X9.9725 Y-4.2125 F60.00
G01 X9.9580 Y-4.2045 F60.00
G01 X9.9208 Y-4.1872 F60.00
G01 X9.9105 Y-4.1832 F60.00
G01 X9.8769 Y-4.1715 F60.00
G01 X9.8424 Y-4.1625 F60.00
G01 X9.8317 Y-4.1601 F60.00
G01 X9.8208 Y-4.1582 F60.00
G01 X9.7910 Y-4.1539 F60.00
G01 X9.7801 Y-4.1528 F60.00
G01 X9.7390 Y-4.1510 F60.00
G01 X8.7890 Y-4.1510 F60.00
G01 X8.7535 Y-4.1525 F60.00
G01 X8.7424 Y-4.1533 F60.00
G01 X8.7072 Y-4.1582 F60.00
G01 X8.6909 Y-4.1613 F60.00
G01 X8.6564 Y-4.1699 F60.00
G01 X8.6406 Y-4.1749 F60.00
G01 X8.6072 Y-4.1872 F60.00
G01 X8.5700 Y-4.2045 F60.00
G01 X8.5555 Y-4.2125 F60.00
G01 X8.5251 Y-4.2311 F60.00
G01 X8.4920 Y-4.2554 F60.00
G01 X8.4793 Y-4.2660 F60.00
G01 X8.4531 Y-4.2901 F60.00
G01 X8.4290 Y-4.3163 F60.00
G01 X8.4184 Y-4.3290 F60.00
G01 X8.3941 Y-4.3621 F60.00
G01 X8.3728 Y-4.3972 F60.00
G01 X8.3651 Y-4.4120 F60.00
G01 X8.3502 Y-4.4442 F60.00
G01 X8.3375 Y-4.4789 F60.00
G01 X8.1720 Y-4.4789 F60.00
G01 X8.1719 Y-4.4485 F60.00
G01 X8.1709 Y-4.4319 F60.00
G01 X8.1696 Y-4.4210 F60.00
G01 X8.1677 Y-4.4101 F60.00
G01 X8.1638 Y-4.3940 F60.00
G01 X8.1606 Y-4.3834 F60.00
G01 X8.1569 Y-4.3730 F60.00
G01 X8.1504 Y-4.3578 F60.00
G01 X8.1428 Y-4.3431 F60.00
G01 X8.1371 Y-4.3336 F60.00
G01 X8.1310 Y-4.3244 F60.00
G01 X8.1244 Y-4.3156 F60.00
G01 X8.1174 Y-4.3070 F60.00
G01 X8.1100 Y-4.2989 F60.00
G01 X8.1021 Y-4.2910 F60.00
G01 X8.0897 Y-4.2801 F60.00
G01 X8.0810 Y-4.2733 F60.00
G01 X8.0720 Y-4.2669 F60.00
G01 X8.0627 Y-4.2610 F60.00
G01 X8.0531 Y-4.2556 F60.00
G01 X8.0382 Y-4.2483 F60.00
G01 X8.0280 Y-4.2441 F60.00
G01 X8.0176 Y-4.2404 F60.00
G01 X8.0070 Y-4.2372 F60.00
G01 X7.9963 Y-4.2345 F60.00
G01 X7.9800 Y-4.2314 F60.00
G01 X7.9691 Y-4.2301 F60.00
G01 X7.9580 Y-4.2293 F60.00
G01 X7.9470 Y-4.2290 F60.00
G01 X7.2470 Y-4.2290 F60.00
G01 X7.2360 Y-4.2293 F60.00
G01 X7.2195 Y-4.2307 F60.00
G01 X7.2085 Y-4.2323 F60.00
G01 X7.1923 Y-4.2357 F60.00
G01 X7.1764 Y-4.2404 F60.00
G01 X7.1609 Y-4.2461 F60.00
G01 X7.1458 Y-4.2530 F60.00
G01 X7.1313 Y-4.2610 F60.00
G01 X7.1174 Y-4.2700 F60.00
G01 X7.1043 Y-4.2801 F60.00
G01 X7.0919 Y-4.2910 F60.00
G01 X7.0803 Y-4.3029 F60.00
G01 X7.0696 Y-4.3156 F60.00
G01 X7.0599 Y-4.3290 F60.00
G01 X7.0512 Y-4.3431 F60.00
G01 X7.0436 Y-4.3578 F60.00
G01 X7.0371 Y-4.3730 F60.00
G01 X7.0317 Y-4.3887 F60.00
G01 X7.0275 Y-4.4047 F60.00
G01 X7.0244 Y-4.4210 F60.00
G01 X7.0226 Y-4.4374 F60.00
G01 X7.0220 Y-4.4540 F60.00
G01 X7.0220 Y-5.4540 F60.00
G01 X7.0223 Y-5.4650 F60.00
G01 X7.0237 Y-5.4815 F60.00
G01 X7.0253 Y-5.4925 F60.00
G01 X7.0275 Y-5.5033 F60.00
G01 X7.0302 Y-5.5140 F60.00
G01 X7.0334 Y-5.5246 F60.00
G01 X7.0371 Y-5.5350 F60.00
G01 X7.0413 Y-5.5452 F60.00
G01 X7.0460 Y-5.5552 F60.00
G01 X7.0512 Y-5.5649 F60.00
G01 X7.0569 Y-5.5744 F60.00
G01 X7.0630 Y-5.5836 F60.00
G01 X7.0696 Y-5.5924 F60.00
G01 X7.0766 Y-5.6010 F60.00
G01 X7.0840 Y-5.6091 F60.00
G01 X7.0919 Y-5.6170 F60.00
G01 X7.1000 Y-5.6244 F60.00
G01 X7.1086 Y-5.6314 F60.00
G01 X7.1220 Y-5.6411 F60.00
G01 X7.1313 Y-5.6470 F60.00
G01 X7.1409 Y-5.6524 F60.00
G01 X7.1508 Y-5.6574 F60.00
G01 X7.1609 Y-5.6619 F60.00
G01 X7.1712 Y-5.6658 F60.00
G01 X7.1817 Y-5.6693 F60.00
G01 X7.1923 Y-5.6723 F60.00
G01 X7.2031 Y-5.6747 F60.00
G01 X7.2140 Y-5.6766 F60.00
G01 X7.2249 Y-5.6779 F60.00
G01 X7.2360 Y-5.6787 F60.00
G01 X7.2470 Y-5.6790 F60.00
G00 Z2.0000
G00 X6.9715 Y-6.9898
G01 F60.00
G01 Z-0.6531
G01 F60.00
G01 X6.9736 Y-7.0093 F60.00
G01 X7.0027 Y-7.0874 F60.00
G01 X7.0502 Y-7.1508 F60.00
G01 X7.1136 Y-7.1983 F60.00
G01 X7.1917 Y-7.2274 F60.00
G01 X7.2112 Y-7.2295 F60.00
G01 X7.9828 Y-7.2295 F60.00
G01 X8.0064 Y-7.2272 F60.00
G01 X8.0171 Y-7.2268 F60.00
G01 X8.0278 Y-7.2270 F60.00
G01 X8.0385 Y-7.2276 F60.00
G01 X8.0544 Y-7.2295 F60.00
G01 X8.1338 Y-7.2439 F60.00
G01 X8.1446 Y-7.2463 F60.00
G01 X8.1604 Y-7.2510 F60.00
G01 X8.1707 Y-7.2548 F60.00
G01 X8.1809 Y-7.2591 F60.00
G01 X8.1957 Y-7.2664 F60.00
G01 X8.2099 Y-7.2748 F60.00
G01 X8.2234 Y-7.2842 F60.00
G01 X8.2363 Y-7.2946 F60.00
G01 X8.2904 Y-7.3440 F60.00
G01 X8.2986 Y-7.3519 F60.00
G01 X8.3101 Y-7.3644 F60.00
G01 X8.3172 Y-7.3732 F60.00
G01 X8.3238 Y-7.3824 F60.00
G01 X8.3300 Y-7.3919 F60.00
G01 X8.3991 Y-7.5040 F60.00
G01 X8.4045 Y-7.5132 F60.00
G01 X8.4118 Y-7.5275 F60.00
G01 X8.4180 Y-7.5423 F60.00
G01 X8.4232 Y-7.5575 F60.00
G01 X8.4445 Y-7.6355 F60.00
G01 X8.4469 Y-7.6464 F60.00
G01 X8.4488 Y-7.6574 F60.00
G01 X8.4501 Y-7.6685 F60.00
G01 X8.4509 Y-7.6797 F60.00
G01 X8.4511 Y-7.6908 F60.00
G01 X8.4507 Y-7.7020 F60.00
G01 X8.4498 Y-7.7131 F60.00
G01 X8.4484 Y-7.7242 F60.00
G01 X8.4452 Y-7.7407 F60.00
G01 X8.4408 Y-7.7568 F60.00
G01 X8.4198 Y-7.8235 F60.00
G01 X8.4164 Y-7.8337 F60.00
G01 X8.4124 Y-7.8437 F60.00
G01 X8.4080 Y-7.8536 F60.00
G01 X8.4031 Y-7.8632 F60.00
G01 X8.3977 Y-7.8725 F60.00
G01 X8.3919 Y-7.8816 F60.00
G01 X8.3824 Y-7.8947 F60.00
G01 X8.3637 Y-7.9176 F60.00
G01 X8.3565 Y-7.9260 F60.00
G01 X8.3489 Y-7.9339 F60.00
G01 X8.2720 Y-8.0108 F60.00
G01 X8.2075 Y-8.1154 F60.00
G01 X8.1683 Y-8.2336 F60.00
G01 X8.1615 Y-8.3004 F60.00
G01 X8.1615 Y-8.9025 F60.00
G01 X8.1683 Y-8.9694 F60.00
G01 X8.2075 Y-9.0876 F60.00
G01 X8.2720 Y-9.1922 F60.00
G01 X8.3508 Y-9.2711 F60.00
G01 X8.3615 Y-9.2831 F60.00
G01 X8.3712 Y-9.2958 F60.00
G01 X8.3772 Y-9.3047 F60.00
G01 X8.3828 Y-9.3138 F60.00
G01 X8.4189 Y-9.3798 F60.00
G01 X8.4240 Y-9.3897 F60.00
G01 X8.4307 Y-9.4051 F60.00
G01 X8.4363 Y-9.4209 F60.00
G01 X8.4394 Y-9.4317 F60.00
G01 X8.4429 Y-9.4480 F60.00
G01 X8.4446 Y-9.4591 F60.00
G01 X8.4461 Y-9.4758 F60.00
G01 X8.4464 Y-9.4869 F60.00
G01 X8.4459 Y-9.5037 F60.00
G01 X8.4409 Y-9.5734 F60.00
G01 X8.4398 Y-9.5846 F60.00
G01 X8.4382 Y-9.5957 F60.00
G01 X8.4347 Y-9.6122 F60.00
G01 X8.4299 Y-9.6284 F60.00
G01 X8.4240 Y-9.6442 F60.00
G01 X8.4194 Y-9.6544 F60.00
G01 X8.4143 Y-9.6645 F60.00
G01 X8.4057 Y-9.6790 F60.00
G01 X8.3743 Y-9.7278 F60.00
G01 X8.3681 Y-9.7365 F60.00
G01 X8.3615 Y-9.7449 F60.00
G01 X8.3544 Y-9.7530 F60.00
G01 X8.3470 Y-9.7608 F60.00
G01 X8.2720 Y-9.8358 F60.00
G01 X8.2075 Y-9.9404 F60.00
G01 X8.1683 Y-10.0586 F60.00
G01 X8.1615 Y-10.1254 F60.00
G01 X8.1615 Y-10.7275 F60.00
G01 X8.1683 Y-10.7944 F60.00
G01 X8.2075 Y-10.9126 F60.00
G01 X8.2720 Y-11.0172 F60.00
G01 X8.3776 Y-11.1229 F60.00
G01 X8.3883 Y-11.1349 F60.00
G01 X8.3949 Y-11.1433 F60.00
G01 X8.4011 Y-11.1520 F60.00
G01 X8.4069 Y-11.1610 F60.00
G01 X8.4123 Y-11.1703 F60.00
G01 X8.4457 Y-11.2316 F60.00
G01 X8.4532 Y-11.2466 F60.00
G01 X8.4576 Y-11.2569 F60.00
G01 X8.4631 Y-11.2727 F60.00
G01 X8.4675 Y-11.2889 F60.00
G01 X8.4707 Y-11.3054 F60.00
G01 X8.4721 Y-11.3165 F60.00
G01 X8.4730 Y-11.3276 F60.00
G01 X8.4732 Y-11.3444 F60.00
G01 X8.4727 Y-11.3555 F60.00
G01 X8.4667 Y-11.4359 F60.00
G01 X8.4642 Y-11.4519 F60.00
G01 X8.4619 Y-11.4625 F60.00
G01 X8.4591 Y-11.4729 F60.00
G01 X8.4539 Y-11.4882 F60.00
G01 X8.4499 Y-11.4982 F60.00
G01 X8.4348 Y-11.5298 F60.00
G01 X8.4297 Y-11.5395 F60.00
G01 X8.3715 Y-11.6344 F60.00
G01 X8.3323 Y-11.7526 F60.00
G01 X8.3255 Y-11.8194 F60.00
G01 X8.3255 Y-12.7965 F60.00
G01 X8.3323 Y-12.8634 F60.00
G01 X8.3715 Y-12.9816 F60.00
G01 X8.4360 Y-13.0862 F60.00
G01 X8.5228 Y-13.1730 F60.00
G01 X8.6274 Y-13.2375 F60.00
G01 X8.7456 Y-13.2767 F60.00
G01 X8.8125 Y-13.2835 F60.00
G01 X9.4145 Y-13.2835 F60.00
G01 X9.4814 Y-13.2767 F60.00
G01 X9.5996 Y-13.2375 F60.00
G01 X9.7042 Y-13.1730 F60.00
G01 X9.7830 Y-13.0942 F60.00
G01 X9.7951 Y-13.0835 F60.00
G01 X9.8078 Y-13.0738 F60.00
G01 X9.8167 Y-13.0678 F60.00
G01 X9.8258 Y-13.0622 F60.00
G01 X9.8968 Y-13.0235 F60.00
G01 X9.9068 Y-13.0186 F60.00
G01 X9.9223 Y-13.0123 F60.00
G01 X9.9383 Y-13.0071 F60.00
G01 X9.9491 Y-13.0043 F60.00
G01 X9.9655 Y-13.0012 F60.00
G01 X9.9766 Y-12.9997 F60.00
G01 X9.9934 Y-12.9987 F60.00
G01 X10.0101 Y-12.9988 F60.00
G01 X10.0854 Y-13.0041 F60.00
G01 X10.0966 Y-13.0052 F60.00
G01 X10.1077 Y-13.0068 F60.00
G01 X10.1242 Y-13.0103 F60.00
G01 X10.1404 Y-13.0151 F60.00
G01 X10.1562 Y-13.0210 F60.00
G01 X10.1715 Y-13.0281 F60.00
G01 X10.1862 Y-13.0363 F60.00
G01 X10.2353 Y-13.0678 F60.00
G01 X10.2442 Y-13.0738 F60.00
G01 X10.2569 Y-13.0835 F60.00
G01 X10.2650 Y-13.0906 F60.00
G01 X10.2728 Y-13.0979 F60.00
G01 X10.3478 Y-13.1730 F60.00
G01 X10.4524 Y-13.2375 F60.00
G01 X10.5706 Y-13.2767 F60.00
G01 X10.6375 Y-13.2835 F60.00
G01 X11.2395 Y-13.2835 F60.00
G01 X11.3064 Y-13.2767 F60.00
G01 X11.4246 Y-13.2375 F60.00
G01 X11.5292 Y-13.1730 F60.00
G01 X11.6160 Y-13.0862 F60.00
G01 X11.6342 Y-13.0567 F60.00
G01 X11.6431 Y-13.0433 F60.00
G01 X11.6529 Y-13.0306 F60.00
G01 X11.6637 Y-13.0187 F60.00
G01 X11.6752 Y-13.0075 F60.00
G01 X11.7272 Y-12.9608 F60.00
G01 X11.7357 Y-12.9535 F60.00
G01 X11.7490 Y-12.9435 F60.00
G01 X11.7584 Y-12.9373 F60.00
G01 X11.7680 Y-12.9316 F60.00
G01 X11.7829 Y-12.9240 F60.00
G01 X11.7984 Y-12.9175 F60.00
G01 X11.8143 Y-12.9122 F60.00
G01 X11.8251 Y-12.9093 F60.00
G01 X11.8360 Y-12.9070 F60.00
G01 X11.9105 Y-12.8948 F60.00
G01 X11.9215 Y-12.8933 F60.00
G01 X11.9382 Y-12.8920 F60.00
G01 X11.9494 Y-12.8919 F60.00
G01 X11.9606 Y-12.8923 F60.00
G01 X11.9773 Y-12.8940 F60.00
G01 X11.9883 Y-12.8958 F60.00
G01 X11.9992 Y-12.8981 F60.00
G01 X12.0153 Y-12.9026 F60.00
G01 X12.0311 Y-12.9083 F60.00
G01 X12.1003 Y-12.9383 F60.00
G01 X12.1106 Y-12.9431 F60.00
G01 X12.1206 Y-12.9484 F60.00
G01 X12.1351 Y-12.9572 F60.00
G01 X12.1443 Y-12.9637 F60.00
G01 X12.1532 Y-12.9706 F60.00
G01 X12.1618 Y-12.9780 F60.00
G01 X12.1700 Y-12.9858 F60.00
G01 X12.1804 Y-12.9967 F60.00
G01 X12.2546 Y-13.0523 F60.00
G01 X12.3327 Y-13.0814 F60.00
G01 X12.3522 Y-13.0835 F60.00
G01 X13.1960 Y-13.0835 F60.00
G01 X13.2084 Y-13.0740 F60.00
G01 X13.2223 Y-13.0650 F60.00
G01 X13.2368 Y-13.0570 F60.00
G01 X13.2468 Y-13.0523 F60.00
G01 X13.2570 Y-13.0481 F60.00
G01 X13.2727 Y-13.0427 F60.00
G01 X13.2887 Y-13.0385 F60.00
G01 X13.2995 Y-13.0363 F60.00
G01 X13.3105 Y-13.0347 F60.00
G01 X13.3214 Y-13.0336 F60.00
G01 X13.3380 Y-13.0330 F60.00
G01 X13.5972 Y-13.0330 F60.00
G01 X13.6348 Y-13.0048 F60.00
G01 X13.6823 Y-12.9414 F60.00
G01 X13.7114 Y-12.8633 F60.00
G01 X13.7135 Y-12.8438 F60.00
G01 X13.7135 Y-11.7722 F60.00
G01 X13.7114 Y-11.7527 F60.00
G01 X13.6823 Y-11.6746 F60.00
G01 X13.6348 Y-11.6112 F60.00
G01 X13.5972 Y-11.5830 F60.00
G01 X13.3380 Y-11.5830 F60.00
G01 X13.3270 Y-11.5827 F60.00
G01 X13.3105 Y-11.5813 F60.00
G01 X13.2941 Y-11.5787 F60.00
G01 X13.2833 Y-11.5763 F60.00
G01 X13.2674 Y-11.5716 F60.00
G01 X13.2519 Y-11.5659 F60.00
G01 X13.2368 Y-11.5590 F60.00
G01 X13.2223 Y-11.5510 F60.00
G01 X13.2084 Y-11.5420 F60.00
G01 X13.1960 Y-11.5325 F60.00
G01 X12.3819 Y-11.5325 F60.00
G01 X12.3712 Y-11.5322 F60.00
G01 X12.3605 Y-11.5315 F60.00
G01 X12.3499 Y-11.5302 F60.00
G01 X12.3393 Y-11.5284 F60.00
G01 X12.3236 Y-11.5248 F60.00
G01 X12.2461 Y-11.5021 F60.00
G01 X12.2356 Y-11.4984 F60.00
G01 X12.2252 Y-11.4942 F60.00
G01 X12.2151 Y-11.4895 F60.00
G01 X12.2052 Y-11.4843 F60.00
G01 X12.1956 Y-11.4786 F60.00
G01 X12.1862 Y-11.4724 F60.00
G01 X12.1772 Y-11.4658 F60.00
G01 X12.1686 Y-11.4588 F60.00
G01 X12.1602 Y-11.4513 F60.00
G01 X12.1485 Y-11.4393 F60.00
G01 X12.0990 Y-11.3824 F60.00
G01 X12.0885 Y-11.3693 F60.00
G01 X12.0821 Y-11.3602 F60.00
G01 X12.0733 Y-11.3459 F60.00
G01 X12.0656 Y-11.3310 F60.00
G01 X12.0611 Y-11.3208 F60.00
G01 X12.0571 Y-11.3104 F60.00
G01 X12.0521 Y-11.2944 F60.00
G01 X12.0494 Y-11.2835 F60.00
G01 X12.0472 Y-11.2726 F60.00
G01 X12.0357 Y-11.1924 F60.00
G01 X12.0344 Y-11.1759 F60.00
G01 X12.0341 Y-11.1649 F60.00
G01 X12.0345 Y-11.1538 F60.00
G01 X12.0360 Y-11.1374 F60.00
G01 X12.0376 Y-11.1264 F60.00
G01 X12.0411 Y-11.1103 F60.00
G01 X12.0458 Y-11.0944 F60.00
G01 X12.0648 Y-11.0417 F60.00
G01 X12.0713 Y-11.0257 F60.00
G01 X12.0790 Y-11.0102 F60.00
G01 X12.0848 Y-11.0003 F60.00
G01 X12.1235 Y-10.9376 F60.00
G01 X12.1627 Y-10.8194 F60.00
G01 X12.1695 Y-10.7525 F60.00
G01 X12.1695 Y-10.1755 F60.00
G01 X12.1627 Y-10.1086 F60.00
G01 X12.1235 Y-9.9904 F60.00
G01 X12.0590 Y-9.8858 F60.00
G01 X11.9722 Y-9.7990 F60.00
G01 X11.8676 Y-9.7345 F60.00
G01 X11.7494 Y-9.6953 F60.00
G01 X11.6825 Y-9.6885 F60.00
G01 X10.6555 Y-9.6885 F60.00
G01 X10.5886 Y-9.6953 F60.00
G01 X10.4704 Y-9.7345 F60.00
G01 X10.3648 Y-9.7993 F60.00
G01 X10.3553 Y-9.8043 F60.00
G01 X10.3456 Y-9.8088 F60.00
G01 X10.3357 Y-9.8128 F60.00
G01 X10.3256 Y-9.8164 F60.00
G01 X10.2480 Y-9.8379 F60.00
G01 X10.2371 Y-9.8405 F60.00
G01 X10.2261 Y-9.8427 F60.00
G01 X10.2095 Y-9.8449 F60.00
G01 X10.1928 Y-9.8458 F60.00
G01 X10.1760 Y-9.8455 F60.00
G01 X10.1649 Y-9.8446 F60.00
G01 X10.1483 Y-9.8422 F60.00
G01 X10.1374 Y-9.8399 F60.00
G01 X10.1265 Y-9.8371 F60.00
G01 X10.0545 Y-9.8146 F60.00
G01 X10.0387 Y-9.8090 F60.00
G01 X10.0234 Y-9.8022 F60.00
G01 X10.0135 Y-9.7971 F60.00
G01 X10.0038 Y-9.7914 F60.00
G01 X9.9899 Y-9.7821 F60.00
G01 X9.9767 Y-9.7718 F60.00
G01 X9.9683 Y-9.7644 F60.00
G01 X9.9604 Y-9.7565 F60.00
G01 X9.9492 Y-9.7441 F60.00
G01 X9.9009 Y-9.6861 F60.00
G01 X9.8941 Y-9.6772 F60.00
G01 X9.8879 Y-9.6679 F60.00
G01 X9.8821 Y-9.6584 F60.00
G01 X9.8767 Y-9.6486 F60.00
G01 X9.8719 Y-9.6385 F60.00
G01 X9.8676 Y-9.6282 F60.00
G01 X9.8638 Y-9.6177 F60.00
G01 X9.8605 Y-9.6070 F60.00
G01 X9.8577 Y-9.5962 F60.00
G01 X9.8555 Y-9.5852 F60.00
G01 X9.8539 Y-9.5742 F60.00
G01 X9.8446 Y-9.4993 F60.00
G01 X9.8438 Y-9.4881 F60.00
G01 X9.8435 Y-9.4714 F60.00
G01 X9.8446 Y-9.4547 F60.00
G01 X9.8460 Y-9.4436 F60.00
G01 X9.8479 Y-9.4326 F60.00
G01 X9.8504 Y-9.4217 F60.00
G01 X9.8534 Y-9.4109 F60.00
G01 X9.8569 Y-9.4003 F60.00
G01 X9.8610 Y-9.3899 F60.00
G01 X9.8982 Y-9.3119 F60.00
G01 X9.9033 Y-9.3024 F60.00
G01 X9.9118 Y-9.2886 F60.00
G01 X9.9180 Y-9.2798 F60.00
G01 X9.9247 Y-9.2713 F60.00
G01 X9.9354 Y-9.2591 F60.00
G01 X10.0020 Y-9.1922 F60.00
G01 X10.0665 Y-9.0876 F60.00
G01 X10.1057 Y-8.9694 F60.00
G01 X10.1125 Y-8.9025 F60.00
G01 X10.1125 Y-8.3005 F60.00
G01 X10.1057 Y-8.2336 F60.00
G01 X10.0656 Y-8.1124 F60.00
G01 X10.0627 Y-8.1021 F60.00
G01 X10.0593 Y-8.0864 F60.00
G01 X10.0570 Y-8.0705 F60.00
G01 X10.0559 Y-8.0545 F60.00
G01 X10.0535 Y-7.9846 F60.00
G01 X10.0534 Y-7.9735 F60.00
G01 X10.0539 Y-7.9623 F60.00
G01 X10.0549 Y-7.9512 F60.00
G01 X10.0564 Y-7.9401 F60.00
G01 X10.0598 Y-7.9237 F60.00
G01 X10.0643 Y-7.9076 F60.00
G01 X10.0701 Y-7.8918 F60.00
G01 X10.0746 Y-7.8816 F60.00
G01 X10.0822 Y-7.8667 F60.00
G01 X10.1208 Y-7.8018 F60.00
G01 X10.1267 Y-7.7923 F60.00
G01 X10.1365 Y-7.7787 F60.00
G01 X10.1473 Y-7.7659 F60.00
G01 X10.1550 Y-7.7578 F60.00
G01 X10.1673 Y-7.7464 F60.00
G01 X10.1759 Y-7.7393 F60.00
G01 X10.1849 Y-7.7327 F60.00
G01 X10.1990 Y-7.7236 F60.00
G01 X10.2137 Y-7.7155 F60.00
G01 X10.2762 Y-7.6843 F60.00
G01 X10.2911 Y-7.6776 F60.00
G01 X10.3013 Y-7.6737 F60.00
G01 X10.3169 Y-7.6687 F60.00
G01 X10.3275 Y-7.6661 F60.00
G01 X10.3383 Y-7.6640 F60.00
G01 X10.3545 Y-7.6618 F60.00
G01 X10.3654 Y-7.6610 F60.00
G01 X10.3763 Y-7.6607 F60.00
G01 X10.3927 Y-7.6612 F60.00
G01 X10.4535 Y-7.6656 F60.00
G01 X10.4647 Y-7.6667 F60.00
G01 X10.4812 Y-7.6693 F60.00
G01 X10.4922 Y-7.6718 F60.00
G01 X10.5083 Y-7.6764 F60.00
G01 X10.6206 Y-7.7137 F60.00
G01 X10.6875 Y-7.7205 F60.00
G01 X11.2645 Y-7.7205 F60.00
G01 X11.3314 Y-7.7137 F60.00
G01 X11.4496 Y-7.6745 F60.00
G01 X11.5542 Y-7.6100 F60.00
G01 X11.6410 Y-7.5232 F60.00
G01 X11.6592 Y-7.4937 F60.00
G01 X11.6681 Y-7.4803 F60.00
G01 X11.6780 Y-7.4676 F60.00
G01 X11.6887 Y-7.4557 F60.00
G01 X11.7002 Y-7.4445 F60.00
G01 X11.7564 Y-7.3941 F60.00
G01 X11.7695 Y-7.3837 F60.00
G01 X11.7834 Y-7.3743 F60.00
G01 X11.7979 Y-7.3659 F60.00
G01 X11.8130 Y-7.3587 F60.00
G01 X11.8286 Y-7.3526 F60.00
G01 X11.8447 Y-7.3477 F60.00
G01 X11.8555 Y-7.3451 F60.00
G01 X11.8665 Y-7.3430 F60.00
G01 X11.9465 Y-7.3302 F60.00
G01 X11.9632 Y-7.3290 F60.00
G01 X11.9743 Y-7.3289 F60.00
G01 X11.9854 Y-7.3293 F60.00
G01 X12.0021 Y-7.3309 F60.00
G01 X12.0131 Y-7.3327 F60.00
G01 X12.0240 Y-7.3350 F60.00
G01 X12.0347 Y-7.3379 F60.00
G01 X12.0506 Y-7.3432 F60.00
G01 X12.1147 Y-7.3690 F60.00
G01 X12.1340 Y-7.3778 F60.00
G01 X12.1478 Y-7.3856 F60.00
G01 X12.1568 Y-7.3913 F60.00
G01 X12.2546 Y-7.4643 F60.00
G01 X12.3327 Y-7.4934 F60.00
G01 X12.3522 Y-7.4955 F60.00
G01 X13.1960 Y-7.4955 F60.00
G01 X13.2084 Y-7.4860 F60.00
G01 X13.2223 Y-7.4770 F60.00
G01 X13.2368 Y-7.4690 F60.00
G01 X13.2519 Y-7.4621 F60.00
G01 X13.2674 Y-7.4564 F60.00
G01 X13.2833 Y-7.4517 F60.00
G01 X13.2995 Y-7.4483 F60.00
G01 X13.3105 Y-7.4467 F60.00
G01 X13.3270 Y-7.4453 F60.00
G01 X13.3380 Y-7.4450 F60.00
G01 X13.5972 Y-7.4450 F60.00
G01 X13.6348 Y-7.4168 F60.00
G01 X13.6823 Y-7.3534 F60.00
G01 X13.7114 Y-7.2753 F60.00
G01 X13.7135 Y-7.2558 F60.00
G01 X13.7135 Y-6.1842 F60.00
G01 X13.7114 Y-6.1647 F60.00
G01 X13.6823 Y-6.0866 F60.00
G01 X13.6348 Y-6.0232 F60.00
G01 X13.5972 Y-5.9950 F60.00
G01 X13.3380 Y-5.9950 F60.00
G01 X13.3214 Y-5.9944 F60.00
G01 X13.3105 Y-5.9933 F60.00
G01 X13.2995 Y-5.9917 F60.00
G01 X13.2887 Y-5.9895 F60.00
G01 X13.2727 Y-5.9853 F60.00
G01 X13.2570 Y-5.9799 F60.00
G01 X13.2468 Y-5.9757 F60.00
G01 X13.2319 Y-5.9684 F60.00
G01 X13.2223 Y-5.9630 F60.00
G01 X13.2084 Y-5.9540 F60.00
G01 X13.1960 Y-5.9445 F60.00
G01 X12.4685 Y-5.9445 F60.00
G01 X12.4578 Y-5.9442 F60.00
G01 X12.4471 Y-5.9435 F60.00
G01 X12.4364 Y-5.9422 F60.00
G01 X12.4259 Y-5.9404 F60.00
G01 X12.4154 Y-5.9382 F60.00
G01 X12.4051 Y-5.9354 F60.00
G01 X12.3380 Y-5.9157 F60.00
G01 X12.3221 Y-5.9104 F60.00
G01 X12.3118 Y-5.9062 F60.00
G01 X12.2967 Y-5.8989 F60.00
G01 X12.2869 Y-5.8935 F60.00
G01 X12.2728 Y-5.8844 F60.00
G01 X12.2638 Y-5.8778 F60.00
G01 X12.2551 Y-5.8708 F60.00
G01 X12.2468 Y-5.8633 F60.00
G01 X12.2389 Y-5.8554 F60.00
G01 X12.1856 Y-5.7944 F60.00
G01 X12.1751 Y-5.7813 F60.00
G01 X12.1687 Y-5.7722 F60.00
G01 X12.1627 Y-5.7627 F60.00
G01 X12.1546 Y-5.7480 F60.00
G01 X12.1477 Y-5.7328 F60.00
G01 X12.1437 Y-5.7224 F60.00
G01 X12.1386 Y-5.7064 F60.00
G01 X12.1360 Y-5.6955 F60.00
G01 X12.1330 Y-5.6790 F60.00
G01 X12.1230 Y-5.6099 F60.00
G01 X12.1213 Y-5.5934 F60.00
G01 X12.1208 Y-5.5824 F60.00
G01 X12.1208 Y-5.5714 F60.00
G01 X12.1219 Y-5.5548 F60.00
G01 X12.1233 Y-5.5439 F60.00
G01 X12.1252 Y-5.5330 F60.00
G01 X12.1291 Y-5.5169 F60.00
G01 X12.1342 Y-5.5012 F60.00
G01 X12.1534 Y-5.4483 F60.00
G01 X12.1603 Y-5.4325 F60.00
G01 X12.1656 Y-5.4223 F60.00
G01 X12.1714 Y-5.4123 F60.00
G01 X12.2255 Y-5.3246 F60.00
G01 X12.2647 Y-5.2064 F60.00
G01 X12.2715 Y-5.1395 F60.00
G01 X12.2715 Y-4.5375 F60.00
G01 X12.2647 Y-4.4706 F60.00
G01 X12.2255 Y-4.3524 F60.00
G01 X12.1610 Y-4.2478 F60.00
G01 X12.0742 Y-4.1610 F60.00
G01 X11.9696 Y-4.0965 F60.00
G01 X11.8514 Y-4.0573 F60.00
G01 X11.7845 Y-4.0505 F60.00
G01 X10.8075 Y-4.0505 F60.00
G01 X10.7406 Y-4.0573 F60.00
G01 X10.6224 Y-4.0965 F60.00
G01 X10.5178 Y-4.1610 F60.00
G01 X10.5063 Y-4.1725 F60.00
G01 X10.4943 Y-4.1831 F60.00
G01 X10.4815 Y-4.1929 F60.00
G01 X10.4727 Y-4.1989 F60.00
G01 X10.4588 Y-4.2071 F60.00
G01 X10.3975 Y-4.2406 F60.00
G01 X10.3825 Y-4.2481 F60.00
G01 X10.3722 Y-4.2524 F60.00
G01 X10.3617 Y-4.2563 F60.00
G01 X10.3511 Y-4.2596 F60.00
G01 X10.3348 Y-4.2635 F60.00
G01 X10.3238 Y-4.2655 F60.00
G01 X10.3127 Y-4.2669 F60.00
G01 X10.3016 Y-4.2678 F60.00
G01 X10.2904 Y-4.2681 F60.00
G01 X10.2792 Y-4.2679 F60.00
G01 X10.1986 Y-4.2621 F60.00
G01 X10.1879 Y-4.2608 F60.00
G01 X10.1772 Y-4.2590 F60.00
G01 X10.1667 Y-4.2567 F60.00
G01 X10.1511 Y-4.2523 F60.00
G01 X10.1359 Y-4.2468 F60.00
G01 X10.1260 Y-4.2426 F60.00
G01 X10.0896 Y-4.2245 F60.00
G01 X9.9626 Y-4.1465 F60.00
G01 X9.8444 Y-4.1073 F60.00
G01 X9.7775 Y-4.1005 F60.00
G01 X8.7505 Y-4.1005 F60.00
G01 X8.6836 Y-4.1073 F60.00
G01 X8.5654 Y-4.1465 F60.00
G01 X8.4508 Y-4.2171 F60.00
G01 X8.4366 Y-4.2247 F60.00
G01 X8.4220 Y-4.2313 F60.00
G01 X8.4120 Y-4.2351 F60.00
G01 X8.4018 Y-4.2384 F60.00
G01 X8.3238 Y-4.2597 F60.00
G01 X8.3129 Y-4.2621 F60.00
G01 X8.3019 Y-4.2640 F60.00
G01 X8.2908 Y-4.2653 F60.00
G01 X8.2797 Y-4.2661 F60.00
G01 X8.2685 Y-4.2663 F60.00
G01 X8.2573 Y-4.2659 F60.00
G01 X8.2406 Y-4.2644 F60.00
G01 X8.2241 Y-4.2616 F60.00
G01 X8.2078 Y-4.2576 F60.00
G01 X8.1256 Y-4.2316 F60.00
G01 X8.1156 Y-4.2276 F60.00
G01 X8.1057 Y-4.2232 F60.00
G01 X8.0961 Y-4.2182 F60.00
G01 X8.0835 Y-4.2109 F60.00
G01 X8.0023 Y-4.1806 F60.00
G01 X7.9828 Y-4.1785 F60.00
G01 X7.2112 Y-4.1785 F60.00
G01 X7.1917 Y-4.1806 F60.00
G01 X7.1136 Y-4.2097 F60.00
G01 X7.0502 Y-4.2572 F60.00
G01 X7.0027 Y-4.3206 F60.00
G01 X6.9736 Y-4.3987 F60.00
G01 X6.9715 Y-4.4182 F60.00
G01 X6.9715 Y-5.4898 F60.00
G01 X6.9736 Y-5.5093 F60.00
G01 X7.0027 Y-5.5874 F60.00
G01 X7.0612 Y-5.6655 F60.00
G01 X7.0711 Y-5.6772 F60.00
G01 X7.0806 Y-5.6902 F60.00
G01 X7.0864 Y-5.6992 F60.00
G01 X7.0917 Y-5.7085 F60.00
G01 X7.1303 Y-5.7797 F60.00
G01 X7.1349 Y-5.7899 F60.00
G01 X7.1390 Y-5.8003 F60.00
G01 X7.1426 Y-5.8109 F60.00
G01 X7.1470 Y-5.8271 F60.00
G01 X7.1492 Y-5.8380 F60.00
G01 X7.1509 Y-5.8491 F60.00
G01 X7.1524 Y-5.8658 F60.00
G01 X7.1527 Y-5.8769 F60.00
G01 X7.1521 Y-5.8937 F60.00
G01 X7.1472 Y-5.9634 F60.00
G01 X7.1453 Y-5.9801 F60.00
G01 X7.1422 Y-5.9967 F60.00
G01 X7.1395 Y-6.0076 F60.00
G01 X7.1362 Y-6.0184 F60.00
G01 X7.1303 Y-6.0342 F60.00
G01 X7.1232 Y-6.0495 F60.00
G01 X7.1150 Y-6.0642 F60.00
G01 X7.0806 Y-6.1178 F60.00
G01 X7.0711 Y-6.1308 F60.00
G01 X7.0612 Y-6.1425 F60.00
G01 X7.0027 Y-6.2206 F60.00
G01 X6.9736 Y-6.2987 F60.00
G01 X6.9715 Y-6.3182 F60.00
G01 X6.9715 Y-6.9898 F60.00
G00 Z2.0000
G00 X7.2470 Y-7.1790
G01 F60.00
G01 Z-0.6531
G01 F60.00
G01 X7.9470 Y-7.1790 F60.00
G01 X7.9580 Y-7.1787 F60.00
G01 X7.9745 Y-7.1773 F60.00
G01 X7.9909 Y-7.1747 F60.00
G01 X8.0070 Y-7.1708 F60.00
G01 X8.0176 Y-7.1676 F60.00
G01 X8.0280 Y-7.1639 F60.00
G01 X8.0432 Y-7.1574 F60.00
G01 X8.0579 Y-7.1498 F60.00
G01 X8.0720 Y-7.1411 F60.00
G01 X8.0882 Y-7.1291 F60.00
G01 X8.3510 Y-7.1291 F60.00
G01 X8.3511 Y-7.2005 F60.00
G01 X8.3525 Y-7.2305 F60.00
G01 X8.3539 Y-7.2470 F60.00
G01 X8.3601 Y-7.2877 F60.00
G01 X8.3699 Y-7.3276 F60.00
G01 X8.3749 Y-7.3434 F60.00
G01 X8.3872 Y-7.3768 F60.00
G01 X8.4045 Y-7.4140 F60.00
G01 X8.4098 Y-7.4238 F60.00
G01 X8.4251 Y-7.4496 F60.00
G01 X8.4311 Y-7.4589 F60.00
G01 X8.4374 Y-7.4679 F60.00
G01 X8.4588 Y-7.4963 F60.00
G01 X8.4825 Y-7.5229 F60.00
G01 X8.4901 Y-7.5309 F60.00
G01 X8.5204 Y-7.5586 F60.00
G01 X8.5334 Y-7.5690 F60.00
G01 X8.5621 Y-7.5899 F60.00
G01 X8.5714 Y-7.5959 F60.00
G01 X8.6009 Y-7.6132 F60.00
G01 X8.6009 Y-7.8719 F60.00
G01 X8.5889 Y-7.8743 F60.00
G01 X8.5598 Y-7.8815 F60.00
G01 X8.5491 Y-7.8845 F60.00
G01 X8.5386 Y-7.8879 F60.00
G01 X8.5052 Y-7.9002 F60.00
G01 X8.4730 Y-7.9151 F60.00
G01 X8.4631 Y-7.9201 F60.00
G01 X8.4324 Y-7.9381 F60.00
G01 X8.4231 Y-7.9441 F60.00
G01 X8.3944 Y-7.9650 F60.00
G01 X8.3857 Y-7.9718 F60.00
G01 X8.3773 Y-7.9790 F60.00
G01 X8.3551 Y-7.9993 F60.00
G01 X8.3473 Y-8.0071 F60.00
G01 X8.3198 Y-8.0377 F60.00
G01 X8.2952 Y-8.0706 F60.00
G01 X8.2890 Y-8.0797 F60.00
G01 X8.2735 Y-8.1055 F60.00
G01 X8.2681 Y-8.1151 F60.00
G01 X8.2631 Y-8.1250 F60.00
G01 X8.2482 Y-8.1572 F60.00
G01 X8.2442 Y-8.1675 F60.00
G01 X8.2325 Y-8.2011 F60.00
G01 X8.2235 Y-8.2356 F60.00
G01 X8.2211 Y-8.2463 F60.00
G01 X8.2149 Y-8.2870 F60.00
G01 X8.2135 Y-8.3035 F60.00
G01 X8.2120 Y-8.3390 F60.00
G01 X8.2120 Y-8.8640 F60.00
G01 X8.2135 Y-8.8995 F60.00
G01 X8.2143 Y-8.9106 F60.00
G01 X8.2156 Y-8.9215 F60.00
G01 X8.2211 Y-8.9567 F60.00
G01 X8.2235 Y-8.9674 F60.00
G01 X8.2325 Y-9.0019 F60.00
G01 X8.2359 Y-9.0124 F60.00
G01 X8.2482 Y-9.0458 F60.00
G01 X8.2631 Y-9.0780 F60.00
G01 X8.2681 Y-9.0879 F60.00
G01 X8.2861 Y-9.1186 F60.00
G01 X8.2921 Y-9.1279 F60.00
G01 X8.2984 Y-9.1369 F60.00
G01 X8.3198 Y-9.1653 F60.00
G01 X8.3435 Y-9.1919 F60.00
G01 X8.3511 Y-9.1999 F60.00
G01 X8.3591 Y-9.2075 F60.00
G01 X8.3857 Y-9.2312 F60.00
G01 X8.4186 Y-9.2558 F60.00
G01 X8.4324 Y-9.2649 F60.00
G01 X8.4631 Y-9.2829 F60.00
G01 X8.5001 Y-9.3007 F60.00
G01 X8.5155 Y-9.3068 F60.00
G01 X8.5491 Y-9.3185 F60.00
G01 X8.5889 Y-9.3287 F60.00
G01 X8.5998 Y-9.3309 F60.00
G01 X8.6295 Y-9.3354 F60.00
G01 X8.6459 Y-9.3372 F60.00
G01 X8.6870 Y-9.3390 F60.00
G01 X9.5870 Y-9.3390 F60.00
G01 X9.6281 Y-9.3372 F60.00
G01 X9.6445 Y-9.3354 F60.00
G01 X9.6797 Y-9.3299 F60.00
G01 X9.6904 Y-9.3275 F60.00
G01 X9.7249 Y-9.3185 F60.00
G01 X9.7585 Y-9.3068 F60.00
G01 X9.7739 Y-9.3007 F60.00
G01 X9.8060 Y-9.2855 F60.00
G01 X9.8205 Y-9.2775 F60.00
G01 X9.8463 Y-9.2620 F60.00
G01 X9.8599 Y-9.2526 F60.00
G01 X9.8883 Y-9.2312 F60.00
G01 X9.9149 Y-9.2075 F60.00
G01 X9.9267 Y-9.1959 F60.00
G01 X9.9506 Y-9.1696 F60.00
G01 X9.9610 Y-9.1566 F60.00
G01 X9.9788 Y-9.1324 F60.00
G01 X9.9879 Y-9.1186 F60.00
G01 X10.0059 Y-9.0879 F60.00
G01 X10.0237 Y-9.0509 F60.00
G01 X10.0298 Y-9.0355 F60.00
G01 X10.0415 Y-9.0019 F60.00
G01 X10.0517 Y-8.9621 F60.00
G01 X10.0539 Y-8.9512 F60.00
G01 X10.0584 Y-8.9215 F60.00
G01 X10.0602 Y-8.9051 F60.00
G01 X10.0620 Y-8.8640 F60.00
G01 X10.0619 Y-8.3335 F60.00
G01 X10.0597 Y-8.2924 F60.00
G01 X10.0548 Y-8.2572 F60.00
G01 X10.0529 Y-8.2463 F60.00
G01 X10.0505 Y-8.2356 F60.00
G01 X10.0431 Y-8.2064 F60.00
G01 X10.0399 Y-8.1959 F60.00
G01 X10.0258 Y-8.1572 F60.00
G01 X10.0109 Y-8.1250 F60.00
G01 X10.0059 Y-8.1151 F60.00
G01 X9.9879 Y-8.0844 F60.00
G01 X9.9819 Y-8.0751 F60.00
G01 X9.9610 Y-8.0464 F60.00
G01 X9.9542 Y-8.0377 F60.00
G01 X9.9470 Y-8.0293 F60.00
G01 X9.9267 Y-8.0071 F60.00
G01 X9.9189 Y-7.9993 F60.00
G01 X9.8883 Y-7.9718 F60.00
G01 X9.8599 Y-7.9504 F60.00
G01 X9.8509 Y-7.9441 F60.00
G01 X9.8416 Y-7.9381 F60.00
G01 X9.8109 Y-7.9201 F60.00
G01 X9.7789 Y-7.9046 F60.00
G01 X9.7688 Y-7.9002 F60.00
G01 X9.7585 Y-7.8962 F60.00
G01 X9.7301 Y-7.8861 F60.00
G01 X9.7196 Y-7.8829 F60.00
G01 X9.6797 Y-7.8731 F60.00
G01 X9.6390 Y-7.8669 F60.00
G01 X9.6225 Y-7.8655 F60.00
G01 X9.5925 Y-7.8641 F60.00
G01 X9.5511 Y-7.8640 F60.00
G01 X9.5511 Y-7.6132 F60.00
G01 X9.5853 Y-7.5930 F60.00
G01 X9.5989 Y-7.5836 F60.00
G01 X9.6273 Y-7.5622 F60.00
G01 X9.6579 Y-7.5347 F60.00
G01 X9.6695 Y-7.5229 F60.00
G01 X9.6932 Y-7.4963 F60.00
G01 X9.7178 Y-7.4634 F60.00
G01 X9.7269 Y-7.4496 F60.00
G01 X9.7449 Y-7.4189 F60.00
G01 X9.7604 Y-7.3869 F60.00
G01 X9.7669 Y-7.3716 F60.00
G01 X9.7805 Y-7.3329 F60.00
G01 X9.7907 Y-7.2931 F60.00
G01 X9.7938 Y-7.2768 F60.00
G01 X9.7987 Y-7.2416 F60.00
G01 X9.8009 Y-7.2005 F60.00
G01 X9.8010 Y-6.2450 F60.00
G01 X9.7995 Y-6.2095 F60.00
G01 X9.7987 Y-6.1984 F60.00
G01 X9.7938 Y-6.1632 F60.00
G01 X9.7907 Y-6.1469 F60.00
G01 X9.7821 Y-6.1124 F60.00
G01 X9.7771 Y-6.0966 F60.00
G01 X9.7669 Y-6.0684 F60.00
G01 X9.7604 Y-6.0531 F60.00
G01 X9.7449 Y-6.0211 F60.00
G01 X9.7240 Y-5.9857 F60.00
G01 X9.7146 Y-5.9721 F60.00
G01 X9.6932 Y-5.9437 F60.00
G01 X9.6695 Y-5.9171 F60.00
G01 X9.6619 Y-5.9091 F60.00
G01 X9.6539 Y-5.9015 F60.00
G01 X9.6273 Y-5.8778 F60.00
G01 X9.5944 Y-5.8532 F60.00
G01 X9.5806 Y-5.8441 F60.00
G01 X9.5499 Y-5.8261 F60.00
G01 X9.5129 Y-5.8083 F60.00
G01 X9.4975 Y-5.8022 F60.00
G01 X9.4639 Y-5.7905 F60.00
G01 X9.4294 Y-5.7815 F60.00
G01 X9.4132 Y-5.7781 F60.00
G01 X9.3726 Y-5.7723 F60.00
G01 X9.3615 Y-5.7715 F60.00
G01 X9.3260 Y-5.7700 F60.00
G01 X8.8260 Y-5.7700 F60.00
G01 X8.7905 Y-5.7715 F60.00
G01 X8.7740 Y-5.7729 F60.00
G01 X8.7333 Y-5.7791 F60.00
G01 X8.7226 Y-5.7815 F60.00
G01 X8.6881 Y-5.7905 F60.00
G01 X8.6776 Y-5.7939 F60.00
G01 X8.6442 Y-5.8062 F60.00
G01 X8.6120 Y-5.8211 F60.00
G01 X8.6021 Y-5.8261 F60.00
G01 X8.5925 Y-5.8315 F60.00
G01 X8.5667 Y-5.8470 F60.00
G01 X8.5576 Y-5.8532 F60.00
G01 X8.5247 Y-5.8778 F60.00
G01 X8.4941 Y-5.9053 F60.00
G01 X8.4825 Y-5.9171 F60.00
G01 X8.4624 Y-5.9394 F60.00
G01 X8.4554 Y-5.9480 F60.00
G01 X8.4374 Y-5.9721 F60.00
G01 X8.4311 Y-5.9811 F60.00
G01 X8.4251 Y-5.9904 F60.00
G01 X8.4098 Y-6.0162 F60.00
G01 X8.4045 Y-6.0260 F60.00
G01 X8.3872 Y-6.0632 F60.00
G01 X8.3731 Y-6.1019 F60.00
G01 X8.3685 Y-6.1178 F60.00
G01 X8.3613 Y-6.1469 F60.00
G01 X8.3591 Y-6.1578 F60.00
G01 X8.3559 Y-6.1789 F60.00
G01 X8.0882 Y-6.1789 F60.00
G01 X8.0720 Y-6.1669 F60.00
G01 X8.0579 Y-6.1582 F60.00
G01 X8.0482 Y-6.1530 F60.00
G01 X8.0382 Y-6.1483 F60.00
G01 X8.0228 Y-6.1422 F60.00
G01 X8.0070 Y-6.1372 F60.00
G01 X7.9963 Y-6.1345 F60.00
G01 X7.9855 Y-6.1323 F60.00
G01 X7.9691 Y-6.1301 F60.00
G01 X7.9525 Y-6.1291 F60.00
G01 X7.2415 Y-6.1291 F60.00
G01 X7.2249 Y-6.1301 F60.00
G01 X7.2140 Y-6.1314 F60.00
G01 X7.1977 Y-6.1345 F60.00
G01 X7.1870 Y-6.1372 F60.00
G01 X7.1764 Y-6.1404 F60.00
G01 X7.1609 Y-6.1461 F60.00
G01 X7.1458 Y-6.1530 F60.00
G01 X7.1361 Y-6.1582 F60.00
G01 X7.1266 Y-6.1639 F60.00
G01 X7.1130 Y-6.1733 F60.00
G01 X7.1043 Y-6.1801 F60.00
G01 X7.0919 Y-6.1910 F60.00
G01 X7.0840 Y-6.1989 F60.00
G01 X7.0731 Y-6.2113 F60.00
G01 X7.0663 Y-6.2200 F60.00
G01 X7.0599 Y-6.2290 F60.00
G01 X7.0540 Y-6.2383 F60.00
G01 X7.0486 Y-6.2479 F60.00
G01 X7.0436 Y-6.2578 F60.00
G01 X7.0371 Y-6.2730 F60.00
G01 X7.0334 Y-6.2834 F60.00
G01 X7.0302 Y-6.2940 F60.00
G01 X7.0263 Y-6.3101 F60.00
G01 X7.0244 Y-6.3210 F60.00
G01 X7.0226 Y-6.3374 F60.00
G01 X7.0220 Y-6.3540 F60.00
G01 X7.0220 Y-6.9540 F60.00
G01 X7.0223 Y-6.9650 F60.00
G01 X7.0231 Y-6.9761 F60.00
G01 X7.0244 Y-6.9870 F60.00
G01 X7.0263 Y-6.9979 F60.00
G01 X7.0302 Y-7.0140 F60.00
G01 X7.0334 Y-7.0246 F60.00
G01 X7.0371 Y-7.0350 F60.00
G01 X7.0413 Y-7.0452 F60.00
G01 X7.0460 Y-7.0552 F60.00
G01 X7.0512 Y-7.0649 F60.00
G01 X7.0569 Y-7.0744 F60.00
G01 X7.0630 Y-7.0836 F60.00
G01 X7.0696 Y-7.0924 F60.00
G01 X7.0803 Y-7.1051 F60.00
G01 X7.0879 Y-7.1131 F60.00
G01 X7.0959 Y-7.1207 F60.00
G01 X7.1043 Y-7.1279 F60.00
G01 X7.1130 Y-7.1347 F60.00
G01 X7.1220 Y-7.1411 F60.00
G01 X7.1313 Y-7.1470 F60.00
G01 X7.1458 Y-7.1550 F60.00
G01 X7.1558 Y-7.1597 F60.00
G01 X7.1660 Y-7.1639 F60.00
G01 X7.1764 Y-7.1676 F60.00
G01 X7.1870 Y-7.1708 F60.00
G01 X7.1977 Y-7.1735 F60.00
G01 X7.2085 Y-7.1757 F60.00
G01 X7.2195 Y-7.1773 F60.00
G01 X7.2304 Y-7.1784 F60.00
G01 X7.2470 Y-7.1790 F60.00
G00 Z2.0000
G00 X10.2510 Y-6.2450
G01 F60.00
G01 Z-0.6531
G01 F60.00
G01 X10.2510 Y-7.1950 F60.00
G01 X10.2525 Y-7.2305 F60.00
G01 X10.2539 Y-7.2470 F60.00
G01 X10.2591 Y-7.2822 F60.00
G01 X10.2625 Y-7.2984 F60.00
G01 X10.2715 Y-7.3329 F60.00
G01 X10.2832 Y-7.3665 F60.00
G01 X10.2893 Y-7.3819 F60.00
G01 X10.3071 Y-7.4189 F60.00
G01 X10.3280 Y-7.4543 F60.00
G01 X10.3374 Y-7.4679 F60.00
G01 X10.3588 Y-7.4963 F60.00
G01 X10.3825 Y-7.5229 F60.00
G01 X10.3941 Y-7.5347 F60.00
G01 X10.4247 Y-7.5622 F60.00
G01 X10.4576 Y-7.5868 F60.00
G01 X10.4714 Y-7.5959 F60.00
G01 X10.5021 Y-7.6139 F60.00
G01 X10.5341 Y-7.6294 F60.00
G01 X10.5494 Y-7.6359 F60.00
G01 X10.5881 Y-7.6495 F60.00
G01 X10.6279 Y-7.6597 F60.00
G01 X10.6442 Y-7.6628 F60.00
G01 X10.6794 Y-7.6677 F60.00
G01 X10.7205 Y-7.6699 F60.00
G01 X11.2315 Y-7.6699 F60.00
G01 X11.2726 Y-7.6677 F60.00
G01 X11.2835 Y-7.6664 F60.00
G01 X11.3187 Y-7.6609 F60.00
G01 X11.3294 Y-7.6585 F60.00
G01 X11.3639 Y-7.6495 F60.00
G01 X11.3744 Y-7.6461 F60.00
G01 X11.4078 Y-7.6338 F60.00
G01 X11.4400 Y-7.6189 F60.00
G01 X11.4499 Y-7.6139 F60.00
G01 X11.4806 Y-7.5959 F60.00
G01 X11.4944 Y-7.5868 F60.00
G01 X11.5273 Y-7.5622 F60.00
G01 X11.5579 Y-7.5347 F60.00
G01 X11.5695 Y-7.5229 F60.00
G01 X11.5932 Y-7.4963 F60.00
G01 X11.6146 Y-7.4679 F60.00
G01 X11.6209 Y-7.4589 F60.00
G01 X11.6422 Y-7.4238 F60.00
G01 X11.6499 Y-7.4090 F60.00
G01 X11.6648 Y-7.3768 F60.00
G01 X11.6688 Y-7.3665 F60.00
G01 X11.6805 Y-7.3329 F60.00
G01 X11.6907 Y-7.2931 F60.00
G01 X11.6938 Y-7.2768 F60.00
G01 X11.6987 Y-7.2416 F60.00
G01 X11.6995 Y-7.2305 F60.00
G01 X11.7010 Y-7.1951 F60.00
G01 X12.1630 Y-7.1951 F60.00
G01 X12.1631 Y-7.2255 F60.00
G01 X12.1636 Y-7.2366 F60.00
G01 X12.1647 Y-7.2475 F60.00
G01 X12.1663 Y-7.2585 F60.00
G01 X12.1685 Y-7.2693 F60.00
G01 X12.1712 Y-7.2800 F60.00
G01 X12.1744 Y-7.2906 F60.00
G01 X12.1781 Y-7.3010 F60.00
G01 X12.1823 Y-7.3112 F60.00
G01 X12.1870 Y-7.3212 F60.00
G01 X12.1922 Y-7.3309 F60.00
G01 X12.1979 Y-7.3404 F60.00
G01 X12.2040 Y-7.3496 F60.00
G01 X12.2106 Y-7.3584 F60.00
G01 X12.2176 Y-7.3670 F60.00
G01 X12.2250 Y-7.3751 F60.00
G01 X12.2329 Y-7.3830 F60.00
G01 X12.2410 Y-7.3904 F60.00
G01 X12.2496 Y-7.3974 F60.00
G01 X12.2584 Y-7.4040 F60.00
G01 X12.2676 Y-7.4101 F60.00
G01 X12.2771 Y-7.4158 F60.00
G01 X12.2868 Y-7.4210 F60.00
G01 X12.2968 Y-7.4257 F60.00
G01 X12.3122 Y-7.4318 F60.00
G01 X12.3227 Y-7.4353 F60.00
G01 X12.3333 Y-7.4383 F60.00
G01 X12.3441 Y-7.4407 F60.00
G01 X12.3550 Y-7.4426 F60.00
G01 X12.3659 Y-7.4439 F60.00
G01 X12.3770 Y-7.4447 F60.00
G01 X12.3880 Y-7.4450 F60.00
G01 X13.4380 Y-7.4450 F60.00
G01 X13.4490 Y-7.4447 F60.00
G01 X13.4655 Y-7.4433 F60.00
G01 X13.4819 Y-7.4407 F60.00
G01 X13.4980 Y-7.4368 F60.00
G01 X13.5138 Y-7.4318 F60.00
G01 X13.5292 Y-7.4257 F60.00
G01 X13.5441 Y-7.4184 F60.00
G01 X13.5584 Y-7.4101 F60.00
G01 X13.5720 Y-7.4007 F60.00
G01 X13.5850 Y-7.3904 F60.00
G01 X13.5971 Y-7.3791 F60.00
G01 X13.6084 Y-7.3670 F60.00
G01 X13.6187 Y-7.3540 F60.00
G01 X13.6281 Y-7.3404 F60.00
G01 X13.6364 Y-7.3261 F60.00
G01 X13.6414 Y-7.3162 F60.00
G01 X13.6479 Y-7.3010 F60.00
G01 X13.6533 Y-7.2853 F60.00
G01 X13.6575 Y-7.2693 F60.00
G01 X13.6606 Y-7.2530 F60.00
G01 X13.6624 Y-7.2366 F60.00
G01 X13.6630 Y-7.2200 F60.00
G01 X13.6630 Y-6.2200 F60.00
G01 X13.6627 Y-6.2090 F60.00
G01 X13.6613 Y-6.1925 F60.00
G01 X13.6587 Y-6.1761 F60.00
G01 X13.6563 Y-6.1653 F60.00
G01 X13.6516 Y-6.1494 F60.00
G01 X13.6459 Y-6.1339 F60.00
G01 X13.6390 Y-6.1188 F60.00
G01 X13.6310 Y-6.1043 F60.00
G01 X13.6220 Y-6.0904 F60.00
G01 X13.6119 Y-6.0773 F60.00
G01 X13.6010 Y-6.0649 F60.00
G01 X13.5891 Y-6.0533 F60.00
G01 X13.5764 Y-6.0426 F60.00
G01 X13.5630 Y-6.0329 F60.00
G01 X13.5489 Y-6.0242 F60.00
G01 X13.5342 Y-6.0166 F60.00
G01 X13.5190 Y-6.0101 F60.00
G01 X13.5033 Y-6.0047 F60.00
G01 X13.4873 Y-6.0005 F60.00
G01 X13.4710 Y-5.9974 F60.00
G01 X13.4546 Y-5.9956 F60.00
G01 X13.4380 Y-5.9950 F60.00
G01 X12.3880 Y-5.9950 F60.00
G01 X12.3770 Y-5.9953 F60.00
G01 X12.3605 Y-5.9967 F60.00
G01 X12.3495 Y-5.9983 F60.00
G01 X12.3387 Y-6.0005 F60.00
G01 X12.3280 Y-6.0032 F60.00
G01 X12.3174 Y-6.0064 F60.00
G01 X12.3070 Y-6.0101 F60.00
G01 X12.2968 Y-6.0143 F60.00
G01 X12.2868 Y-6.0190 F60.00
G01 X12.2771 Y-6.0242 F60.00
G01 X12.2676 Y-6.0299 F60.00
G01 X12.2584 Y-6.0360 F60.00
G01 X12.2496 Y-6.0426 F60.00
G01 X12.2410 Y-6.0496 F60.00
G01 X12.2329 Y-6.0570 F60.00
G01 X12.2250 Y-6.0649 F60.00
G01 X12.2176 Y-6.0730 F60.00
G01 X12.2106 Y-6.0816 F60.00
G01 X12.2009 Y-6.0950 F60.00
G01 X12.1950 Y-6.1043 F60.00
G01 X12.1896 Y-6.1139 F60.00
G01 X12.1846 Y-6.1238 F60.00
G01 X12.1801 Y-6.1339 F60.00
G01 X12.1762 Y-6.1442 F60.00
G01 X12.1727 Y-6.1547 F60.00
G01 X12.1697 Y-6.1653 F60.00
G01 X12.1673 Y-6.1761 F60.00
G01 X12.1654 Y-6.1870 F60.00
G01 X12.1641 Y-6.1979 F60.00
G01 X12.1631 Y-6.2145 F60.00
G01 X12.1630 Y-6.2449 F60.00
G01 X11.7010 Y-6.2449 F60.00
G01 X11.6995 Y-6.2095 F60.00
G01 X11.6987 Y-6.1984 F60.00
G01 X11.6938 Y-6.1632 F60.00
G01 X11.6907 Y-6.1469 F60.00
G01 X11.6805 Y-6.1071 F60.00
G01 X11.6771 Y-6.0966 F60.00
G01 X11.6648 Y-6.0632 F60.00
G01 X11.6499 Y-6.0310 F60.00
G01 X11.6422 Y-6.0162 F60.00
G01 X11.6209 Y-5.9811 F60.00
G01 X11.6146 Y-5.9721 F60.00
G01 X11.5932 Y-5.9437 F60.00
G01 X11.5695 Y-5.9171 F60.00
G01 X11.5579 Y-5.9053 F60.00
G01 X11.5273 Y-5.8778 F60.00
G01 X11.4944 Y-5.8532 F60.00
G01 X11.4806 Y-5.8441 F60.00
G01 X11.4499 Y-5.8261 F60.00
G01 X11.4179 Y-5.8106 F60.00
G01 X11.4026 Y-5.8041 F60.00
G01 X11.3691 Y-5.7921 F60.00
G01 X11.3586 Y-5.7889 F60.00
G01 X11.3294 Y-5.7815 F60.00
G01 X11.3132 Y-5.7781 F60.00
G01 X11.2835 Y-5.7736 F60.00
G01 X11.2726 Y-5.7723 F60.00
G01 X11.2615 Y-5.7715 F60.00
G01 X11.2260 Y-5.7700 F60.00
G01 X10.7260 Y-5.7700 F60.00
G01 X10.6849 Y-5.7718 F60.00
G01 X10.6685 Y-5.7736 F60.00
G01 X10.6333 Y-5.7791 F60.00
G01 X10.5934 Y-5.7889 F60.00
G01 X10.5776 Y-5.7939 F60.00
G01 X10.5494 Y-5.8041 F60.00
G01 X10.5391 Y-5.8083 F60.00
G01 X10.5120 Y-5.8211 F60.00
G01 X10.4972 Y-5.8288 F60.00
G01 X10.4714 Y-5.8441 F60.00
G01 X10.4621 Y-5.8501 F60.00
G01 X10.4531 Y-5.8564 F60.00
G01 X10.4290 Y-5.8744 F60.00
G01 X10.4204 Y-5.8814 F60.00
G01 X10.3941 Y-5.9053 F60.00
G01 X10.3825 Y-5.9171 F60.00
G01 X10.3588 Y-5.9437 F60.00
G01 X10.3374 Y-5.9721 F60.00
G01 X10.3311 Y-5.9811 F60.00
G01 X10.3251 Y-5.9904 F60.00
G01 X10.3071 Y-6.0211 F60.00
G01 X10.2916 Y-6.0531 F60.00
G01 X10.2872 Y-6.0632 F60.00
G01 X10.2832 Y-6.0735 F60.00
G01 X10.2715 Y-6.1071 F60.00
G01 X10.2625 Y-6.1416 F60.00
G01 X10.2601 Y-6.1523 F60.00
G01 X10.2546 Y-6.1875 F60.00
G01 X10.2533 Y-6.1984 F60.00
G01 X10.2525 Y-6.2095 F60.00
G01 X10.2510 Y-6.2450 F60.00
G00 Z2.0000
G00 X8.6619 Y-11.4224
G01 F60.00
G01 Z-0.6531
G01 F60.00
G01 X8.6271 Y-11.4391 F60.00
G01 X8.5964 Y-11.4571 F60.00
G01 X8.5826 Y-11.4662 F60.00
G01 X8.5540 Y-11.4874 F60.00
G01 X8.5413 Y-11.4980 F60.00
G01 X8.5151 Y-11.5221 F60.00
G01 X8.4910 Y-11.5483 F60.00
G01 X8.4804 Y-11.5610 F60.00
G01 X8.4592 Y-11.5896 F60.00
G01 X8.4501 Y-11.6034 F60.00
G01 X8.4321 Y-11.6341 F60.00
G01 X8.4143 Y-11.6711 F60.00
G01 X8.4082 Y-11.6865 F60.00
G01 X8.3965 Y-11.7201 F60.00
G01 X8.3863 Y-11.7599 F60.00
G01 X8.3832 Y-11.7762 F60.00
G01 X8.3783 Y-11.8114 F60.00
G01 X8.3775 Y-11.8225 F60.00
G01 X8.3760 Y-11.8580 F60.00
G01 X8.3760 Y-12.7580 F60.00
G01 X8.3763 Y-12.7690 F60.00
G01 X8.3778 Y-12.7991 F60.00
G01 X8.3796 Y-12.8155 F60.00
G01 X8.3851 Y-12.8507 F60.00
G01 X8.3935 Y-12.8852 F60.00
G01 X8.3981 Y-12.9011 F60.00
G01 X8.4101 Y-12.9346 F60.00
G01 X8.4166 Y-12.9499 F60.00
G01 X8.4295 Y-12.9770 F60.00
G01 X8.4375 Y-12.9915 F60.00
G01 X8.4561 Y-13.0219 F60.00
G01 X8.4624 Y-13.0309 F60.00
G01 X8.4838 Y-13.0593 F60.00
G01 X8.5075 Y-13.0859 F60.00
G01 X8.5191 Y-13.0977 F60.00
G01 X8.5454 Y-13.1216 F60.00
G01 X8.5584 Y-13.1320 F60.00
G01 X8.5826 Y-13.1498 F60.00
G01 X8.5964 Y-13.1589 F60.00
G01 X8.6271 Y-13.1769 F60.00
G01 X8.6591 Y-13.1924 F60.00
G01 X8.6744 Y-13.1989 F60.00
G01 X8.7079 Y-13.2109 F60.00
G01 X8.7238 Y-13.2155 F60.00
G01 X8.7583 Y-13.2239 F60.00
G01 X8.7935 Y-13.2294 F60.00
G01 X8.8044 Y-13.2307 F60.00
G01 X8.8455 Y-13.2329 F60.00
G01 X9.3815 Y-13.2329 F60.00
G01 X9.4226 Y-13.2307 F60.00
G01 X9.4335 Y-13.2294 F60.00
G01 X9.4687 Y-13.2239 F60.00
G01 X9.4794 Y-13.2215 F60.00
G01 X9.5139 Y-13.2125 F60.00
G01 X9.5244 Y-13.2091 F60.00
G01 X9.5578 Y-13.1968 F60.00
G01 X9.5900 Y-13.1819 F60.00
G01 X9.5999 Y-13.1769 F60.00
G01 X9.6306 Y-13.1589 F60.00
G01 X9.6444 Y-13.1498 F60.00
G01 X9.6773 Y-13.1252 F60.00
G01 X9.7079 Y-13.0977 F60.00
G01 X9.7195 Y-13.0859 F60.00
G01 X9.7432 Y-13.0593 F60.00
G01 X9.7646 Y-13.0309 F60.00
G01 X9.7709 Y-13.0219 F60.00
G01 X9.7922 Y-12.9868 F60.00
G01 X9.7999 Y-12.9720 F60.00
G01 X9.8148 Y-12.9398 F60.00
G01 X9.8188 Y-12.9295 F60.00
G01 X9.8305 Y-12.8959 F60.00
G01 X9.8407 Y-12.8561 F60.00
G01 X9.8438 Y-12.8398 F60.00
G01 X9.8487 Y-12.8046 F60.00
G01 X9.8509 Y-12.7635 F60.00
G01 X9.8510 Y-11.8580 F60.00
G01 X9.8495 Y-11.8225 F60.00
G01 X9.8487 Y-11.8114 F60.00
G01 X9.8438 Y-11.7762 F60.00
G01 X9.8407 Y-11.7599 F60.00
G01 X9.8321 Y-11.7254 F60.00
G01 X9.8271 Y-11.7096 F60.00
G01 X9.8148 Y-11.6762 F60.00
G01 X9.7999 Y-11.6440 F60.00
G01 X9.7949 Y-11.6341 F60.00
G01 X9.7769 Y-11.6034 F60.00
G01 X9.7678 Y-11.5896 F60.00
G01 X9.7500 Y-11.5654 F60.00
G01 X9.7396 Y-11.5524 F60.00
G01 X9.7157 Y-11.5261 F60.00
G01 X9.7039 Y-11.5145 F60.00
G01 X9.6816 Y-11.4944 F60.00
G01 X9.6686 Y-11.4840 F60.00
G01 X9.6399 Y-11.4631 F60.00
G01 X9.6121 Y-11.4461 F60.00
G01 X9.6121 Y-11.1630 F60.00
G01 X9.6281 Y-11.1622 F60.00
G01 X9.6390 Y-11.1611 F60.00
G01 X9.6742 Y-11.1559 F60.00
G01 X9.6904 Y-11.1525 F60.00
G01 X9.7196 Y-11.1451 F60.00
G01 X9.7301 Y-11.1419 F60.00
G01 X9.7688 Y-11.1278 F60.00
G01 X9.8010 Y-11.1129 F60.00
G01 X9.8158 Y-11.1052 F60.00
G01 X9.8509 Y-11.0839 F60.00
G01 X9.8840 Y-11.0596 F60.00
G01 X9.8967 Y-11.0490 F60.00
G01 X9.9229 Y-11.0249 F60.00
G01 X9.9506 Y-10.9946 F60.00
G01 X9.9610 Y-10.9816 F60.00
G01 X9.9819 Y-10.9529 F60.00
G01 X10.0032 Y-10.9178 F60.00
G01 X10.0116 Y-10.9016 F60.00
G01 X10.2577 Y-10.9016 F60.00
G01 X10.2751 Y-10.9379 F60.00
G01 X10.2931 Y-10.9686 F60.00
G01 X10.3022 Y-10.9824 F60.00
G01 X10.3234 Y-11.0110 F60.00
G01 X10.3340 Y-11.0237 F60.00
G01 X10.3581 Y-11.0499 F60.00
G01 X10.3884 Y-11.0776 F60.00
G01 X10.4014 Y-11.0880 F60.00
G01 X10.4301 Y-11.1089 F60.00
G01 X10.4605 Y-11.1275 F60.00
G01 X10.4750 Y-11.1355 F60.00
G01 X10.5122 Y-11.1528 F60.00
G01 X10.5509 Y-11.1669 F60.00
G01 X10.5668 Y-11.1715 F60.00
G01 X10.6013 Y-11.1799 F60.00
G01 X10.6365 Y-11.1854 F60.00
G01 X10.6529 Y-11.1872 F60.00
G01 X10.6940 Y-11.1890 F60.00
G01 X11.6495 Y-11.1889 F60.00
G01 X11.6906 Y-11.1867 F60.00
G01 X11.7015 Y-11.1854 F60.00
G01 X11.7367 Y-11.1799 F60.00
G01 X11.7474 Y-11.1775 F60.00
G01 X11.7819 Y-11.1685 F60.00
G01 X11.8155 Y-11.1568 F60.00
G01 X11.8309 Y-11.1507 F60.00
G01 X11.8630 Y-11.1355 F60.00
G01 X11.8775 Y-11.1275 F60.00
G01 X11.9079 Y-11.1089 F60.00
G01 X11.9366 Y-11.0880 F60.00
G01 X11.9496 Y-11.0776 F60.00
G01 X11.9759 Y-11.0537 F60.00
G01 X11.9875 Y-11.0419 F60.00
G01 X12.0112 Y-11.0153 F60.00
G01 X12.0326 Y-10.9869 F60.00
G01 X12.0420 Y-10.9733 F60.00
G01 X12.0602 Y-10.9428 F60.00
G01 X12.0679 Y-10.9280 F60.00
G01 X12.0828 Y-10.8958 F60.00
G01 X12.0951 Y-10.8624 F60.00
G01 X12.1001 Y-10.8466 F60.00
G01 X12.1087 Y-10.8121 F60.00
G01 X12.1118 Y-10.7958 F60.00
G01 X12.1167 Y-10.7606 F60.00
G01 X12.1189 Y-10.7195 F60.00
G01 X12.1189 Y-10.2085 F60.00
G01 X12.1167 Y-10.1674 F60.00
G01 X12.1154 Y-10.1565 F60.00
G01 X12.1099 Y-10.1213 F60.00
G01 X12.1075 Y-10.1106 F60.00
G01 X12.0985 Y-10.0761 F60.00
G01 X12.0951 Y-10.0656 F60.00
G01 X12.0828 Y-10.0322 F60.00
G01 X12.0679 Y-10.0000 F60.00
G01 X12.0629 Y-9.9901 F60.00
G01 X12.0449 Y-9.9594 F60.00
G01 X12.0358 Y-9.9456 F60.00
G01 X12.0112 Y-9.9127 F60.00
G01 X11.9837 Y-9.8821 F60.00
G01 X11.9719 Y-9.8705 F60.00
G01 X11.9453 Y-9.8468 F60.00
G01 X11.9169 Y-9.8254 F60.00
G01 X11.9033 Y-9.8160 F60.00
G01 X11.8679 Y-9.7951 F60.00
G01 X11.8309 Y-9.7773 F60.00
G01 X11.8155 Y-9.7712 F60.00
G01 X11.7819 Y-9.7595 F60.00
G01 X11.7421 Y-9.7493 F60.00
G01 X11.7312 Y-9.7471 F60.00
G01 X11.7015 Y-9.7426 F60.00
G01 X11.6851 Y-9.7408 F60.00
G01 X11.6440 Y-9.7390 F60.00
G01 X10.6940 Y-9.7390 F60.00
G01 X10.6585 Y-9.7405 F60.00
G01 X10.6420 Y-9.7419 F60.00
G01 X10.6122 Y-9.7462 F60.00
G01 X10.5959 Y-9.7493 F60.00
G01 X10.5614 Y-9.7579 F60.00
G01 X10.5456 Y-9.7629 F60.00
G01 X10.5122 Y-9.7752 F60.00
G01 X10.4800 Y-9.7901 F60.00
G01 X10.4652 Y-9.7978 F60.00
G01 X10.4394 Y-9.8131 F60.00
G01 X10.4256 Y-9.8222 F60.00
G01 X10.3970 Y-9.8434 F60.00
G01 X10.3843 Y-9.8540 F60.00
G01 X10.3581 Y-9.8781 F60.00
G01 X10.3505 Y-9.8861 F60.00
G01 X10.3268 Y-9.9127 F60.00
G01 X10.3054 Y-9.9411 F60.00
G01 X10.2982 Y-9.9514 F60.00
G01 X10.0116 Y-9.9514 F60.00
G01 X10.0032 Y-9.9352 F60.00
G01 X9.9850 Y-9.9047 F60.00
G01 X9.9756 Y-9.8911 F60.00
G01 X9.9542 Y-9.8627 F60.00
G01 X9.9305 Y-9.8361 F60.00
G01 X9.9189 Y-9.8243 F60.00
G01 X9.8926 Y-9.8004 F60.00
G01 X9.8796 Y-9.7900 F60.00
G01 X9.8509 Y-9.7691 F60.00
G01 X9.8205 Y-9.7505 F60.00
G01 X9.8060 Y-9.7425 F60.00
G01 X9.7739 Y-9.7273 F60.00
G01 X9.7585 Y-9.7212 F60.00
G01 X9.7249 Y-9.7095 F60.00
G01 X9.6851 Y-9.6993 F60.00
G01 X9.6688 Y-9.6962 F60.00
G01 X9.6336 Y-9.6913 F60.00
G01 X9.6225 Y-9.6905 F60.00
G01 X9.5870 Y-9.6890 F60.00
G01 X8.6815 Y-9.6891 F60.00
G01 X8.6404 Y-9.6913 F60.00
G01 X8.6295 Y-9.6926 F60.00
G01 X8.5943 Y-9.6981 F60.00
G01 X8.5836 Y-9.7005 F60.00
G01 X8.5491 Y-9.7095 F60.00
G01 X8.5386 Y-9.7129 F60.00
G01 X8.5052 Y-9.7252 F60.00
G01 X8.4730 Y-9.7401 F60.00
G01 X8.4582 Y-9.7478 F60.00
G01 X8.4277 Y-9.7660 F60.00
G01 X8.4141 Y-9.7754 F60.00
G01 X8.3857 Y-9.7968 F60.00
G01 X8.3591 Y-9.8205 F60.00
G01 X8.3473 Y-9.8321 F60.00
G01 X8.3270 Y-9.8543 F60.00
G01 X8.3164 Y-9.8670 F60.00
G01 X8.2952 Y-9.8956 F60.00
G01 X8.2861 Y-9.9094 F60.00
G01 X8.2681 Y-9.9401 F60.00
G01 X8.2526 Y-9.9721 F60.00
G01 X8.2482 Y-9.9822 F60.00
G01 X8.2359 Y-10.0156 F60.00
G01 X8.2309 Y-10.0314 F60.00
G01 X8.2211 Y-10.0713 F60.00
G01 X8.2156 Y-10.1065 F60.00
G01 X8.2138 Y-10.1229 F60.00
G01 X8.2121 Y-10.1585 F60.00
G01 X8.2120 Y-10.6890 F60.00
G01 X8.2135 Y-10.7245 F60.00
G01 X8.2143 Y-10.7356 F60.00
G01 X8.2156 Y-10.7465 F60.00
G01 X8.2211 Y-10.7817 F60.00
G01 X8.2235 Y-10.7924 F60.00
G01 X8.2325 Y-10.8269 F60.00
G01 X8.2359 Y-10.8374 F60.00
G01 X8.2482 Y-10.8708 F60.00
G01 X8.2631 Y-10.9030 F60.00
G01 X8.2708 Y-10.9178 F60.00
G01 X8.2861 Y-10.9436 F60.00
G01 X8.2921 Y-10.9529 F60.00
G01 X8.2984 Y-10.9619 F60.00
G01 X8.3164 Y-10.9860 F60.00
G01 X8.3234 Y-10.9946 F60.00
G01 X8.3435 Y-11.0169 F60.00
G01 X8.3551 Y-11.0287 F60.00
G01 X8.3857 Y-11.0562 F60.00
G01 X8.4141 Y-11.0776 F60.00
G01 X8.4231 Y-11.0839 F60.00
G01 X8.4324 Y-11.0899 F60.00
G01 X8.4631 Y-11.1079 F60.00
G01 X8.5001 Y-11.1257 F60.00
G01 X8.5155 Y-11.1318 F60.00
G01 X8.5491 Y-11.1435 F60.00
G01 X8.5889 Y-11.1537 F60.00
G01 X8.6052 Y-11.1568 F60.00
G01 X8.6350 Y-11.1611 F60.00
G01 X8.6459 Y-11.1622 F60.00
G01 X8.6619 Y-11.1630 F60.00
G01 X8.6619 Y-11.4224 F60.00
G00 Z2.0000
G00 X11.6750 Y-11.8329
G01 F60.00
G01 Z-0.6531
G01 F60.00
G01 X11.6742 Y-11.8169 F60.00
G01 X11.6731 Y-11.8060 F60.00
G01 X11.6688 Y-11.7762 F60.00
G01 X11.6657 Y-11.7599 F60.00
G01 X11.6555 Y-11.7201 F60.00
G01 X11.6419 Y-11.6814 F60.00
G01 X11.6354 Y-11.6661 F60.00
G01 X11.6225 Y-11.6390 F60.00
G01 X11.6172 Y-11.6292 F60.00
G01 X11.6019 Y-11.6034 F60.00
G01 X11.5959 Y-11.5941 F60.00
G01 X11.5896 Y-11.5851 F60.00
G01 X11.5716 Y-11.5610 F60.00
G01 X11.5646 Y-11.5524 F60.00
G01 X11.5369 Y-11.5221 F60.00
G01 X11.5066 Y-11.4944 F60.00
G01 X11.4980 Y-11.4874 F60.00
G01 X11.4739 Y-11.4694 F60.00
G01 X11.4649 Y-11.4631 F60.00
G01 X11.4556 Y-11.4571 F60.00
G01 X11.4249 Y-11.4391 F60.00
G01 X11.3929 Y-11.4236 F60.00
G01 X11.3828 Y-11.4192 F60.00
G01 X11.3725 Y-11.4152 F60.00
G01 X11.3389 Y-11.4035 F60.00
G01 X11.2991 Y-11.3933 F60.00
G01 X11.2828 Y-11.3902 F60.00
G01 X11.2476 Y-11.3853 F60.00
G01 X11.2365 Y-11.3845 F60.00
G01 X11.2010 Y-11.3830 F60.00
G01 X10.6760 Y-11.3830 F60.00
G01 X10.6405 Y-11.3845 F60.00
G01 X10.6240 Y-11.3859 F60.00
G01 X10.5833 Y-11.3921 F60.00
G01 X10.5726 Y-11.3945 F60.00
G01 X10.5381 Y-11.4035 F60.00
G01 X10.5276 Y-11.4069 F60.00
G01 X10.4942 Y-11.4192 F60.00
G01 X10.4620 Y-11.4341 F60.00
G01 X10.4521 Y-11.4391 F60.00
G01 X10.4425 Y-11.4445 F60.00
G01 X10.4167 Y-11.4600 F60.00
G01 X10.4076 Y-11.4662 F60.00
G01 X10.3747 Y-11.4908 F60.00
G01 X10.3441 Y-11.5183 F60.00
G01 X10.3325 Y-11.5301 F60.00
G01 X10.3088 Y-11.5567 F60.00
G01 X10.2874 Y-11.5851 F60.00
G01 X10.2811 Y-11.5941 F60.00
G01 X10.2751 Y-11.6034 F60.00
G01 X10.2571 Y-11.6341 F60.00
G01 X10.2416 Y-11.6661 F60.00
G01 X10.2372 Y-11.6762 F60.00
G01 X10.2332 Y-11.6865 F60.00
G01 X10.2215 Y-11.7201 F60.00
G01 X10.2125 Y-11.7546 F60.00
G01 X10.2101 Y-11.7653 F60.00
G01 X10.2046 Y-11.8005 F60.00
G01 X10.2033 Y-11.8114 F60.00
G01 X10.2025 Y-11.8225 F60.00
G01 X10.2010 Y-11.8580 F60.00
G01 X10.2010 Y-12.7580 F60.00
G01 X10.2025 Y-12.7935 F60.00
G01 X10.2033 Y-12.8046 F60.00
G01 X10.2046 Y-12.8155 F60.00
G01 X10.2101 Y-12.8507 F60.00
G01 X10.2199 Y-12.8906 F60.00
G01 X10.2231 Y-12.9011 F60.00
G01 X10.2332 Y-12.9295 F60.00
G01 X10.2372 Y-12.9398 F60.00
G01 X10.2416 Y-12.9499 F60.00
G01 X10.2571 Y-12.9819 F60.00
G01 X10.2751 Y-13.0126 F60.00
G01 X10.2811 Y-13.0219 F60.00
G01 X10.2874 Y-13.0309 F60.00
G01 X10.3088 Y-13.0593 F60.00
G01 X10.3363 Y-13.0899 F60.00
G01 X10.3481 Y-13.1015 F60.00
G01 X10.3704 Y-13.1216 F60.00
G01 X10.3790 Y-13.1286 F60.00
G01 X10.4031 Y-13.1466 F60.00
G01 X10.4121 Y-13.1529 F60.00
G01 X10.4214 Y-13.1589 F60.00
G01 X10.4472 Y-13.1742 F60.00
G01 X10.4570 Y-13.1795 F60.00
G01 X10.4942 Y-13.1968 F60.00
G01 X10.5045 Y-13.2008 F60.00
G01 X10.5381 Y-13.2125 F60.00
G01 X10.5726 Y-13.2215 F60.00
G01 X10.5833 Y-13.2239 F60.00
G01 X10.6185 Y-13.2294 F60.00
G01 X10.6349 Y-13.2312 F60.00
G01 X10.6760 Y-13.2330 F60.00
G01 X11.2010 Y-13.2330 F60.00
G01 X11.2365 Y-13.2315 F60.00
G01 X11.2476 Y-13.2307 F60.00
G01 X11.2828 Y-13.2258 F60.00
G01 X11.2991 Y-13.2227 F60.00
G01 X11.3389 Y-13.2125 F60.00
G01 X11.3494 Y-13.2091 F60.00
G01 X11.3828 Y-13.1968 F60.00
G01 X11.4150 Y-13.1819 F60.00
G01 X11.4249 Y-13.1769 F60.00
G01 X11.4556 Y-13.1589 F60.00
G01 X11.4649 Y-13.1529 F60.00
G01 X11.4739 Y-13.1466 F60.00
G01 X11.4980 Y-13.1286 F60.00
G01 X11.5066 Y-13.1216 F60.00
G01 X11.5369 Y-13.0939 F60.00
G01 X11.5646 Y-13.0636 F60.00
G01 X11.5716 Y-13.0550 F60.00
G01 X11.5896 Y-13.0309 F60.00
G01 X11.5959 Y-13.0219 F60.00
G01 X11.6019 Y-13.0126 F60.00
G01 X11.6172 Y-12.9868 F60.00
G01 X11.6225 Y-12.9770 F60.00
G01 X11.6354 Y-12.9499 F60.00
G01 X11.6419 Y-12.9346 F60.00
G01 X11.6555 Y-12.8959 F60.00
G01 X11.6657 Y-12.8561 F60.00
G01 X11.6688 Y-12.8398 F60.00
G01 X11.6731 Y-12.8100 F60.00
G01 X11.6742 Y-12.7991 F60.00
G01 X11.6750 Y-12.7831 F60.00
G01 X12.1630 Y-12.7831 F60.00
G01 X12.1631 Y-12.8135 F60.00
G01 X12.1641 Y-12.8301 F60.00
G01 X12.1654 Y-12.8410 F60.00
G01 X12.1673 Y-12.8519 F60.00
G01 X12.1697 Y-12.8627 F60.00
G01 X12.1727 Y-12.8733 F60.00
G01 X12.1762 Y-12.8838 F60.00
G01 X12.1801 Y-12.8941 F60.00
G01 X12.1846 Y-12.9042 F60.00
G01 X12.1896 Y-12.9141 F60.00
G01 X12.1950 Y-12.9237 F60.00
G01 X12.2009 Y-12.9330 F60.00
G01 X12.2073 Y-12.9420 F60.00
G01 X12.2141 Y-12.9507 F60.00
G01 X12.2213 Y-12.9591 F60.00
G01 X12.2289 Y-12.9671 F60.00
G01 X12.2369 Y-12.9747 F60.00
G01 X12.2453 Y-12.9819 F60.00
G01 X12.2540 Y-12.9887 F60.00
G01 X12.2630 Y-12.9951 F60.00
G01 X12.2723 Y-13.0010 F60.00
G01 X12.2819 Y-13.0064 F60.00
G01 X12.2918 Y-13.0114 F60.00
G01 X12.3019 Y-13.0159 F60.00
G01 X12.3174 Y-13.0216 F60.00
G01 X12.3280 Y-13.0248 F60.00
G01 X12.3387 Y-13.0275 F60.00
G01 X12.3495 Y-13.0297 F60.00
G01 X12.3605 Y-13.0313 F60.00
G01 X12.3714 Y-13.0324 F60.00
G01 X12.3880 Y-13.0330 F60.00
G01 X13.4380 Y-13.0330 F60.00
G01 X13.4490 Y-13.0327 F60.00
G01 X13.4601 Y-13.0319 F60.00
G01 X13.4765 Y-13.0297 F60.00
G01 X13.4873 Y-13.0275 F60.00
G01 X13.5033 Y-13.0233 F60.00
G01 X13.5138 Y-13.0198 F60.00
G01 X13.5241 Y-13.0159 F60.00
G01 X13.5392 Y-13.0090 F60.00
G01 X13.5489 Y-13.0038 F60.00
G01 X13.5630 Y-12.9951 F60.00
G01 X13.5764 Y-12.9854 F60.00
G01 X13.5850 Y-12.9784 F60.00
G01 X13.5931 Y-12.9710 F60.00
G01 X13.6047 Y-12.9591 F60.00
G01 X13.6119 Y-12.9507 F60.00
G01 X13.6187 Y-12.9420 F60.00
G01 X13.6281 Y-12.9284 F60.00
G01 X13.6338 Y-12.9189 F60.00
G01 X13.6414 Y-12.9042 F60.00
G01 X13.6459 Y-12.8941 F60.00
G01 X13.6498 Y-12.8838 F60.00
G01 X13.6548 Y-12.8680 F60.00
G01 X13.6575 Y-12.8573 F60.00
G01 X13.6606 Y-12.8410 F60.00
G01 X13.6619 Y-12.8301 F60.00
G01 X13.6629 Y-12.8135 F60.00
G01 X13.6630 Y-11.8080 F60.00
G01 X13.6624 Y-11.7914 F60.00
G01 X13.6613 Y-11.7805 F60.00
G01 X13.6587 Y-11.7641 F60.00
G01 X13.6563 Y-11.7533 F60.00
G01 X13.6516 Y-11.7374 F60.00
G01 X13.6479 Y-11.7270 F60.00
G01 X13.6414 Y-11.7118 F60.00
G01 X13.6338 Y-11.6971 F60.00
G01 X13.6281 Y-11.6876 F60.00
G01 X13.6220 Y-11.6784 F60.00
G01 X13.6119 Y-11.6653 F60.00
G01 X13.6047 Y-11.6569 F60.00
G01 X13.5931 Y-11.6450 F60.00
G01 X13.5850 Y-11.6376 F60.00
G01 X13.5720 Y-11.6273 F60.00
G01 X13.5584 Y-11.6179 F60.00
G01 X13.5489 Y-11.6122 F60.00
G01 X13.5342 Y-11.6046 F60.00
G01 X13.5241 Y-11.6001 F60.00
G01 X13.5138 Y-11.5962 F60.00
G01 X13.4980 Y-11.5912 F60.00
G01 X13.4873 Y-11.5885 F60.00
G01 X13.4710 Y-11.5854 F60.00
G01 X13.4601 Y-11.5841 F60.00
G01 X13.4435 Y-11.5831 F60.00
G01 X12.3880 Y-11.5830 F60.00
G01 X12.3714 Y-11.5836 F60.00
G01 X12.3605 Y-11.5847 F60.00
G01 X12.3495 Y-11.5863 F60.00
G01 X12.3387 Y-11.5885 F60.00
G01 X12.3280 Y-11.5912 F60.00
G01 X12.3174 Y-11.5944 F60.00
G01 X12.3070 Y-11.5981 F60.00
G01 X12.2968 Y-11.6023 F60.00
G01 X12.2868 Y-11.6070 F60.00
G01 X12.2771 Y-11.6122 F60.00
G01 X12.2676 Y-11.6179 F60.00
G01 X12.2584 Y-11.6240 F60.00
G01 X12.2496 Y-11.6306 F60.00
G01 X12.2410 Y-11.6376 F60.00
G01 X12.2329 Y-11.6450 F60.00
G01 X12.2250 Y-11.6529 F60.00
G01 X12.2176 Y-11.6610 F60.00
G01 X12.2106 Y-11.6696 F60.00
G01 X12.2040 Y-11.6784 F60.00
G01 X12.1979 Y-11.6876 F60.00
G01 X12.1922 Y-11.6971 F60.00
G01 X12.1870 Y-11.7068 F60.00
G01 X12.1823 Y-11.7168 F60.00
G01 X12.1781 Y-11.7270 F60.00
