(G-CODE GENERATED BY FLATCAM v8.994 - www.flatcam.org - Version Date: 2020/11/7)

(Name: ControlBoard.drl_cnc)
(Type: G-code from Geometry)
(Units: MM)

(Created on Sunday, 08 October 2023 at 09:30)

(This preprocessor is used with a motion controller loaded with GRBL firmware.)
(It is configured to be compatible with almost any version of GRBL firmware.)


(TOOLS DIAMETER: )
(Tool: 1 -> Dia: 0.4)
(Tool: 2 -> Dia: 0.762)
(Tool: 3 -> Dia: 0.8)
(Tool: 4 -> Dia: 1.0)
(Tool: 5 -> Dia: 1.5)
(Tool: 6 -> Dia: 2.0)
(Tool: 7 -> Dia: 3.2)

(FEEDRATE Z: )
(Tool: 1 -> Feedrate: 300)
(Tool: 2 -> Feedrate: 300)
(Tool: 3 -> Feedrate: 300)
(Tool: 4 -> Feedrate: 300)
(Tool: 5 -> Feedrate: 300)
(Tool: 6 -> Feedrate: 300)
(Tool: 7 -> Feedrate: 300)

(FEEDRATE RAPIDS: )
(Tool: 1 -> Feedrate Rapids: 1500)
(Tool: 2 -> Feedrate Rapids: 1500)
(Tool: 3 -> Feedrate Rapids: 1500)
(Tool: 4 -> Feedrate Rapids: 1500)
(Tool: 5 -> Feedrate Rapids: 1500)
(Tool: 6 -> Feedrate Rapids: 1500)
(Tool: 7 -> Feedrate Rapids: 1500)

(Z_CUT: )
(Tool: 1 -> Z_Cut: -1.7)
(Tool: 2 -> Z_Cut: -1.7)
(Tool: 3 -> Z_Cut: -1.7)
(Tool: 4 -> Z_Cut: -1.7)
(Tool: 5 -> Z_Cut: -1.7)
(Tool: 6 -> Z_Cut: -1.7)
(Tool: 7 -> Z_Cut: -1.7)

(Tools Offset: )
(Tool: 1 -> Offset Z: 0.0)

(Z_MOVE: )
(Tool: 1 -> Z_Move: 2)
(Tool: 2 -> Z_Move: 2)
(Tool: 3 -> Z_Move: 2)
(Tool: 4 -> Z_Move: 2)
(Tool: 5 -> Z_Move: 2)
(Tool: 6 -> Z_Move: 2)
(Tool: 7 -> Z_Move: 2)

(Z Toolchange: 25.0 mm)
(X,Y Toolchange: 0.0000, 0.0000 mm)
(Z Start: None mm)
(Z End: 0.5 mm)
(X,Y End: None mm)
(Steps per circle: 64)
(Steps per circle: 64)
(Preprocessor Excellon: GRBL_11_no_M6)

(X range:    2.1620 ...   98.7500  mm)
(Y range:  -53.3110 ...   -1.1200  mm)

(Spindle Speed: 12000 RPM)
G21
G90
G17
G94


G01 F300.00

M5             
G00 Z25.0000
G00 X0.0000 Y0.0000                
T1
(MSG, Change to Tool Dia = 0.4000 ||| Total drills for tool T1 = 32)
M0
G00 Z25.0000
        
G01 F300.00
M03 S12000
G00 X2.3620 Y-12.8770
G01 Z-1.7000
G01 Z0
G00 Z2.0000
G00 X16.8650 Y-18.5670
G01 Z-1.7000
G01 Z0
G00 Z2.0000
G00 X23.3680 Y-31.2420
G01 Z-1.7000
G01 Z0
G00 Z2.0000
G00 X32.0290 Y-31.1910
G01 Z-1.7000
G01 Z0
G00 Z2.0000
G00 X38.2520 Y-25.1710
G01 Z-1.7000
G01 Z0
G00 Z2.0000
G00 X39.6240 Y-22.2250
G01 Z-1.7000
G01 Z0
G00 Z2.0000
G00 X36.1950 Y-15.9000
G01 Z-1.7000
G01 Z0
G00 Z2.0000
G00 X39.6750 Y-9.4480
G01 Z-1.7000
G01 Z0
G00 Z2.0000
G00 X39.7250 Y-1.8790
G01 Z-1.7000
G01 Z0
G00 Z2.0000
G00 X47.8280 Y-15.7980
G01 Z-1.7000
G01 Z0
G00 Z2.0000
G00 X57.8610 Y-15.7480
G01 Z-1.7000
G01 Z0
G00 Z2.0000
G00 X66.4460 Y-9.4480
G01 Z-1.7000
G01 Z0
G00 Z2.0000
G00 X66.4210 Y-1.8790
G01 Z-1.7000
G01 Z0
G00 Z2.0000
G00 X86.8170 Y-1.3200
G01 Z-1.7000
G01 Z0
G00 Z2.0000
G00 X69.6970 Y-15.6210
G01 Z-1.7000
G01 Z0
G00 Z2.0000
G00 X71.9330 Y-26.1110
G01 Z-1.7000
G01 Z0
G00 Z2.0000
G00 X60.0960 Y-26.2120
G01 Z-1.7000
G01 Z0
G00 Z2.0000
G00 X54.8380 Y-28.2440
G01 Z-1.7000
G01 Z0
G00 Z2.0000
G00 X60.0960 Y-37.6170
G01 Z-1.7000
G01 Z0
G00 Z2.0000
G00 X72.0090 Y-39.5980
G01 Z-1.7000
G01 Z0
G00 Z2.0000
G00 X78.4600 Y-53.0860
G01 Z-1.7000
G01 Z0
G00 Z2.0000
G00 X63.0680 Y-53.0350
G01 Z-1.7000
G01 Z0
G00 Z2.0000
G00 X48.9200 Y-53.1110
G01 Z-1.7000
G01 Z0
G00 Z2.0000
G00 X42.7600 Y-48.3870
G01 Z-1.7000
G01 Z0
G00 Z2.0000
G00 X48.9460 Y-43.6880
G01 Z-1.7000
G01 Z0
G00 Z2.0000
G00 X48.9460 Y-40.4110
G01 Z-1.7000
G01 Z0
G00 Z2.0000
G00 X46.5330 Y-37.5660
G01 Z-1.7000
G01 Z0
G00 Z2.0000
G00 X42.7600 Y-37.7690
G01 Z-1.7000
G01 Z0
G00 Z2.0000
G00 X39.1410 Y-36.4740
G01 Z-1.7000
G01 Z0
G00 Z2.0000
G00 X31.8510 Y-43.5350
G01 Z-1.7000
G01 Z0
G00 Z2.0000
G00 X32.6130 Y-52.9590
G01 Z-1.7000
G01 Z0
G00 Z2.0000
G00 X2.4640 Y-37.7440
G01 Z-1.7000
G01 Z0
G00 Z2.0000
M05
G00 Z0.50


