(G-CODE GENERATED BY FLATCAM v8.994 - www.flatcam.org - Version Date: 2020/11/7)

(Name: ControlBoard-F_Cu.gbr_iso_combined_cnc)
(Type: G-code from Geometry)
(Units: MM)

(Created on Sunday, 08 October 2023 at 09:04)

(This preprocessor is the default preprocessor used by FlatCAM.)
(It is made to work with MACH3 compatible motion controllers.)

(TOOL DIAMETER: 0.1839 mm)
(Feedrate_XY: 30.0 mm/min)
(Feedrate_Z: 10.0 mm/min)
(Feedrate rapids 1500.0 mm/min)

(Z_Cut: -0.05 mm)
(Z_Move: 2.0 mm)
(Z Start: None mm)
(Z End: 15.0 mm)
(X,Y End: None mm)
(Steps per circle: 64)
(Preprocessor Geometry: default)

(X range:   -0.2570 ...  100.2570  mm)
(Y range:  -55.2570 ...    0.2570  mm)

(Spindle Speed: 12000.0 RPM)
G21
G90
G94

G01 F30.00

M5
G00 Z15.0000
G00 X0.0000 Y0.0000
T2
(M6)    
(MSG, Change to Tool Dia = 0.1839)
M0
G00 Z15.0000

G00 Z2.0000
M03 S12000.0
G4 P1.0
G01 F30.00
G00 X-0.0914 Y-0.1245
G01 F10.00
G01 Z-0.0500
G01 F30.00
G01 X-0.0914 Y-54.8755
G01 X-0.0910 Y-54.8842
G01 X-0.0898 Y-54.8929
G01 X-0.0776 Y-54.9488
G01 X-0.0742 Y-54.9598
G01 X-0.0715 Y-54.9661
G01 X-0.0684 Y-54.9722
G01 X-0.0634 Y-54.9800
G01 X-0.0593 Y-54.9855
G01 X-0.0105 Y-55.0417
G01 X-0.0057 Y-55.0466
G01 X0.0012 Y-55.0526
G01 X0.0068 Y-55.0565
G01 X0.0126 Y-55.0601
G01 X0.0208 Y-55.0642
G01 X0.0294 Y-55.0674
G01 X0.1007 Y-55.0883
G01 X0.1114 Y-55.0905
G01 X0.1245 Y-55.0914
G01 X99.8755 Y-55.0914
G01 X99.8842 Y-55.0910
G01 X99.8929 Y-55.0898
G01 X99.9488 Y-55.0776
G01 X99.9598 Y-55.0742
G01 X99.9661 Y-55.0715
G01 X99.9722 Y-55.0684
G01 X99.9781 Y-55.0647
G01 X99.9855 Y-55.0593
G01 X100.0417 Y-55.0105
G01 X100.0482 Y-55.0040
G01 X100.0526 Y-54.9988
G01 X100.0565 Y-54.9932
G01 X100.0601 Y-54.9874
G01 X100.0642 Y-54.9792
G01 X100.0674 Y-54.9706
G01 X100.0883 Y-54.8993
G01 X100.0908 Y-54.8864
G01 X100.0914 Y-54.8755
G01 X100.0914 Y-0.1245
G01 X100.0910 Y-0.1158
G01 X100.0898 Y-0.1071
G01 X100.0776 Y-0.0512
G01 X100.0757 Y-0.0446
G01 X100.0734 Y-0.0381
G01 X100.0684 Y-0.0278
G01 X100.0634 Y-0.0200
G01 X100.0593 Y-0.0145
G01 X100.0105 Y0.0417
G01 X100.0057 Y0.0466
G01 X99.9988 Y0.0526
G01 X99.9932 Y0.0565
G01 X99.9874 Y0.0601
G01 X99.9792 Y0.0642
G01 X99.9706 Y0.0674
G01 X99.8993 Y0.0883
G01 X99.8886 Y0.0905
G01 X99.8755 Y0.0914
G01 X0.1245 Y0.0914
G01 X0.1158 Y0.0910
G01 X0.1071 Y0.0898
G01 X0.0534 Y0.0781
G01 X0.0424 Y0.0750
G01 X0.0318 Y0.0705
G01 X0.0238 Y0.0660
G01 X0.0145 Y0.0593
G01 X-0.0450 Y0.0074
G01 X-0.0511 Y0.0006
G01 X-0.0578 Y-0.0087
G01 X-0.0632 Y-0.0187
G01 X-0.0666 Y-0.0272
G01 X-0.0889 Y-0.1028
G01 X-0.0908 Y-0.1136
G01 X-0.0914 Y-0.1245
G00 Z2.0000
G00 X-0.2570 Y-0.1245
G01 F10.00
G01 Z-0.0500
G01 F30.00
G01 X-0.2570 Y-54.8755
G01 X-0.2563 Y-54.8939
G01 X-0.2551 Y-54.9061
G01 X-0.2534 Y-54.9182
G01 X-0.2511 Y-54.9302
G01 X-0.2384 Y-54.9880
G01 X-0.2332 Y-55.0066
G01 X-0.2265 Y-55.0247
G01 X-0.2213 Y-55.0365
G01 X-0.2125 Y-55.0536
G01 X-0.2024 Y-55.0700
G01 X-0.1950 Y-55.0806
G01 X-0.1870 Y-55.0907
G01 X-0.1371 Y-55.1484
G01 X-0.1285 Y-55.1579
G01 X-0.1147 Y-55.1712
G01 X-0.1000 Y-55.1835
G01 X-0.0844 Y-55.1947
G01 X-0.0680 Y-55.2046
G01 X-0.0567 Y-55.2106
G01 X-0.0451 Y-55.2160
G01 X-0.0273 Y-55.2229
G01 X-0.0151 Y-55.2268
G01 X0.0579 Y-55.2482
G01 X0.0758 Y-55.2523
G01 X0.0939 Y-55.2551
G01 X0.1122 Y-55.2567
G01 X0.1245 Y-55.2570
G01 X99.8755 Y-55.2570
G01 X99.8939 Y-55.2563
G01 X99.9061 Y-55.2551
G01 X99.9182 Y-55.2534
G01 X99.9302 Y-55.2511
G01 X99.9880 Y-55.2384
G01 X100.0066 Y-55.2332
G01 X100.0247 Y-55.2265
G01 X100.0365 Y-55.2213
G01 X100.0536 Y-55.2125
G01 X100.0700 Y-55.2024
G01 X100.0806 Y-55.1950
G01 X100.0907 Y-55.1870
G01 X100.1484 Y-55.1371
G01 X100.1579 Y-55.1285
G01 X100.1712 Y-55.1147
G01 X100.1835 Y-55.1000
G01 X100.1947 Y-55.0844
G01 X100.2046 Y-55.0680
G01 X100.2133 Y-55.0509
G01 X100.2184 Y-55.0392
G01 X100.2229 Y-55.0273
G01 X100.2268 Y-55.0151
G01 X100.2482 Y-54.9421
G01 X100.2523 Y-54.9242
G01 X100.2551 Y-54.9061
G01 X100.2563 Y-54.8939
G01 X100.2570 Y-54.8755
G01 X100.2570 Y-0.1245
G01 X100.2567 Y-0.1122
G01 X100.2558 Y-0.1000
G01 X100.2534 Y-0.0818
G01 X100.2511 Y-0.0698
G01 X100.2384 Y-0.0120
G01 X100.2332 Y0.0066
G01 X100.2265 Y0.0247
G01 X100.2213 Y0.0365
G01 X100.2125 Y0.0536
G01 X100.2024 Y0.0700
G01 X100.1950 Y0.0806
G01 X100.1870 Y0.0907
G01 X100.1371 Y0.1484
G01 X100.1285 Y0.1579
G01 X100.1147 Y0.1712
G01 X100.1000 Y0.1835
G01 X100.0844 Y0.1947
G01 X100.0680 Y0.2046
G01 X100.0509 Y0.2133
G01 X100.0392 Y0.2184
G01 X100.0273 Y0.2229
G01 X100.0151 Y0.2268
G01 X99.9421 Y0.2482
G01 X99.9242 Y0.2523
G01 X99.9121 Y0.2543
G01 X99.8939 Y0.2563
G01 X99.8755 Y0.2570
G01 X0.1245 Y0.2570
G01 X0.1061 Y0.2563
G01 X0.0939 Y0.2551
G01 X0.0818 Y0.2534
G01 X0.0183 Y0.2399
G01 X0.0058 Y0.2368
G01 X-0.0066 Y0.2332
G01 X-0.0187 Y0.2289
G01 X-0.0365 Y0.2213
G01 X-0.0480 Y0.2156
G01 X-0.0647 Y0.2059
G01 X-0.0754 Y0.1987
G01 X-0.0857 Y0.1910
G01 X-0.0956 Y0.1829
G01 X-0.1484 Y0.1371
G01 X-0.1624 Y0.1240
G01 X-0.1754 Y0.1099
G01 X-0.1835 Y0.1000
G01 X-0.1911 Y0.0897
G01 X-0.1981 Y0.0790
G01 X-0.2046 Y0.0680
G01 X-0.2106 Y0.0567
G01 X-0.2160 Y0.0451
G01 X-0.2208 Y0.0333
G01 X-0.2268 Y0.0151
G01 X-0.2465 Y-0.0520
G01 X-0.2511 Y-0.0698
G01 X-0.2534 Y-0.0818
G01 X-0.2558 Y-0.1000
G01 X-0.2567 Y-0.1122
G01 X-0.2570 Y-0.1245
G00 Z2.0000
G00 X10.3441 Y-3.4127
G01 F10.00
G01 Z-0.0500
G01 F30.00
G01 X10.3530 Y-3.5774
G01 X10.3972 Y-3.7364
G01 X10.4745 Y-3.8822
G01 X10.5743 Y-3.9997
G01 X10.5813 Y-4.0080
G01 X10.7126 Y-4.1078
G01 X10.8624 Y-4.1771
G01 X11.0235 Y-4.2126
G01 X11.9471 Y-4.2126
G01 X12.0700 Y-4.1992
G01 X12.2264 Y-4.1465
G01 X12.3678 Y-4.0614
G01 X12.4912 Y-3.9445
G01 X12.5001 Y-3.9351
G01 X12.5089 Y-3.9279
G01 X12.5178 Y-3.9223
G01 X12.5527 Y-3.8935
G01 X12.5599 Y-3.8882
G01 X12.5656 Y-3.8846
G01 X12.5736 Y-3.8806
G01 X12.5820 Y-3.8773
G01 X12.5884 Y-3.8754
G01 X12.6438 Y-3.8640
G01 X12.6530 Y-3.8628
G01 X12.6600 Y-3.8626
G01 X16.1962 Y-3.8626
G01 X16.2050 Y-3.8630
G01 X16.2115 Y-3.8638
G01 X16.2200 Y-3.8657
G01 X16.2957 Y-3.8881
G01 X16.3040 Y-3.8918
G01 X16.3120 Y-3.8962
G01 X16.3195 Y-3.9014
G01 X16.3264 Y-3.9074
G01 X16.3327 Y-3.9140
G01 X16.3828 Y-3.9721
G01 X16.3878 Y-3.9796
G01 X16.3921 Y-3.9876
G01 X16.3973 Y-3.9999
G01 X16.4029 Y-4.0147
G01 X16.4690 Y-4.1030
G01 X16.5066 Y-4.1312
G01 X16.5164 Y-4.1400
G01 X16.5234 Y-4.1484
G01 X16.5666 Y-4.2061
G01 X16.5715 Y-4.2137
G01 X16.5755 Y-4.2217
G01 X16.5781 Y-4.2279
G01 X16.5807 Y-4.2365
G01 X16.5904 Y-4.2887
G01 X16.5912 Y-4.2957
G01 X16.5914 Y-4.3028
G01 X16.5913 Y-11.8299
G01 X16.5905 Y-11.8386
G01 X16.5883 Y-11.8493
G01 X16.5680 Y-11.9184
G01 X16.5659 Y-11.9249
G01 X16.5632 Y-11.9313
G01 X16.5578 Y-11.9413
G01 X16.5511 Y-11.9506
G01 X16.5466 Y-11.9557
G01 X16.5417 Y-11.9605
G01 X16.4855 Y-12.0093
G01 X16.4781 Y-12.0147
G01 X16.4722 Y-12.0184
G01 X16.4619 Y-12.0234
G01 X16.4510 Y-12.0271
G01 X16.3950 Y-12.0393
G01 X16.3842 Y-12.0410
G01 X16.3755 Y-12.0414
G01 X16.1844 Y-12.0414
G01 X16.1381 Y-12.0506
G01 X16.0857 Y-12.0857
G01 X16.0506 Y-12.1381
G01 X16.0414 Y-12.1844
G01 X16.0414 Y-13.8156
G01 X16.0506 Y-13.8619
G01 X16.0857 Y-13.9143
G01 X16.1381 Y-13.9494
G01 X16.1844 Y-13.9585
G01 X17.8156 Y-13.9586
G01 X17.8619 Y-13.9494
G01 X17.9143 Y-13.9143
G01 X17.9494 Y-13.8619
G01 X17.9586 Y-13.8156
G01 X17.9586 Y-12.1844
G01 X17.9494 Y-12.1381
G01 X17.9143 Y-12.0857
G01 X17.8619 Y-12.0506
G01 X17.8156 Y-12.0414
G01 X17.6245 Y-12.0414
G01 X17.6136 Y-12.0408
G01 X17.6007 Y-12.0383
G01 X17.5316 Y-12.0180
G01 X17.5229 Y-12.0150
G01 X17.5126 Y-12.0101
G01 X17.5049 Y-12.0053
G01 X17.4994 Y-12.0011
G01 X17.4943 Y-11.9966
G01 X17.4895 Y-11.9917
G01 X17.4407 Y-11.9355
G01 X17.4353 Y-11.9281
G01 X17.4316 Y-11.9222
G01 X17.4266 Y-11.9119
G01 X17.4243 Y-11.9054
G01 X17.4224 Y-11.8988
G01 X17.4102 Y-11.8429
G01 X17.4092 Y-11.8364
G01 X17.4086 Y-11.8277
G01 X17.4086 Y-4.2500
G01 X17.4095 Y-4.2391
G01 X17.4117 Y-4.2284
G01 X17.4326 Y-4.1571
G01 X17.4349 Y-4.1508
G01 X17.4387 Y-4.1426
G01 X17.4458 Y-4.1311
G01 X17.5331 Y-4.0147
G01 X17.5722 Y-3.9098
G01 X17.5765 Y-3.8696
G01 X17.5765 Y-3.0384
G01 X17.5722 Y-2.9982
G01 X17.5331 Y-2.8933
G01 X17.4670 Y-2.8050
G01 X17.3787 Y-2.7389
G01 X17.2738 Y-2.6998
G01 X17.2336 Y-2.6954
G01 X16.7024 Y-2.6954
G01 X16.6622 Y-2.6998
G01 X16.5573 Y-2.7389
G01 X16.4690 Y-2.8050
G01 X16.4029 Y-2.8933
G01 X16.3978 Y-2.9070
G01 X16.3951 Y-2.9130
G01 X16.3920 Y-2.9188
G01 X16.3873 Y-2.9262
G01 X16.3427 Y-2.9857
G01 X16.3383 Y-2.9909
G01 X16.3318 Y-2.9973
G01 X16.3247 Y-3.0031
G01 X16.3190 Y-3.0069
G01 X16.3131 Y-3.0103
G01 X16.3048 Y-3.0141
G01 X16.2351 Y-3.0401
G01 X16.2241 Y-3.0431
G01 X16.2129 Y-3.0448
G01 X16.1962 Y-3.0454
G01 X12.6520 Y-3.0454
G01 X12.6411 Y-3.0445
G01 X12.6303 Y-3.0423
G01 X12.5612 Y-3.0220
G01 X12.5508 Y-3.0183
G01 X12.5390 Y-3.0122
G01 X12.5282 Y-3.0044
G01 X12.4941 Y-2.9743
G01 X12.4307 Y-2.9000
G01 X12.2994 Y-2.8002
G01 X12.1496 Y-2.7309
G01 X11.9885 Y-2.6954
G01 X11.0649 Y-2.6954
G01 X10.9420 Y-2.7088
G01 X10.7856 Y-2.7615
G01 X10.6442 Y-2.8466
G01 X10.5245 Y-2.9600
G01 X10.4319 Y-3.0966
G01 X10.3708 Y-3.2499
G01 X10.3441 Y-3.4127
G00 Z2.0000
G00 X11.1060 Y-4.1459
G01 F10.00
G01 Z-0.0500
G01 F30.00
G01 X11.9083 Y-4.1459
G01 X11.9738 Y-4.1426
G01 X12.0365 Y-4.1334
G01 X12.0454 Y-4.1317
G01 X12.1069 Y-4.1162
G01 X12.1708 Y-4.0933
G01 X12.2322 Y-4.0642
G01 X12.2866 Y-4.0317
G01 X12.2941 Y-4.0267
G01 X12.3450 Y-3.9889
G01 X12.3920 Y-3.9464
G01 X12.3984 Y-3.9400
G01 X12.4379 Y-3.8964
G01 X12.4437 Y-3.8894
G01 X12.4813 Y-3.8384
G01 X12.5068 Y-3.7961
G01 X16.4261 Y-3.7961
G01 X16.4261 Y-3.8313
G01 X16.4276 Y-3.8601
G01 X16.4321 Y-3.8908
G01 X16.4385 Y-3.9167
G01 X16.4404 Y-3.9232
G01 X16.4486 Y-3.9461
G01 X16.4520 Y-3.9544
G01 X16.4635 Y-3.9784
G01 X16.4795 Y-4.0051
G01 X16.4980 Y-4.0301
G01 X16.5189 Y-4.0531
G01 X16.5419 Y-4.0740
G01 X16.5632 Y-4.0899
G01 X16.5688 Y-4.0938
G01 X16.5916 Y-4.1074
G01 X16.6176 Y-4.1200
G01 X16.6238 Y-4.1227
G01 X16.6467 Y-4.1309
G01 X16.6579 Y-4.1342
G01 X16.6579 Y-12.1081
G01 X16.2000 Y-12.1081
G01 X16.1887 Y-12.1087
G01 X16.1755 Y-12.1114
G01 X16.1648 Y-12.1150
G01 X16.1527 Y-12.1211
G01 X16.1417 Y-12.1289
G01 X16.1319 Y-12.1383
G01 X16.1235 Y-12.1489
G01 X16.1169 Y-12.1607
G01 X16.1127 Y-12.1712
G01 X16.1108 Y-12.1777
G01 X16.1090 Y-12.1865
G01 X16.1081 Y-12.2000
G01 X16.1081 Y-13.8000
G01 X16.1090 Y-13.8135
G01 X16.1108 Y-13.8223
G01 X16.1127 Y-13.8288
G01 X16.1159 Y-13.8373
G01 X16.1189 Y-13.8433
G01 X16.1223 Y-13.8492
G01 X16.1275 Y-13.8566
G01 X16.1334 Y-13.8634
G01 X16.1383 Y-13.8681
G01 X16.1434 Y-13.8725
G01 X16.1508 Y-13.8777
G01 X16.1567 Y-13.8811
G01 X16.1648 Y-13.8850
G01 X16.1733 Y-13.8880
G01 X16.1821 Y-13.8902
G01 X16.1910 Y-13.8915
G01 X16.1977 Y-13.8919
G01 X17.8000 Y-13.8919
G01 X17.8090 Y-13.8915
G01 X17.8157 Y-13.8906
G01 X17.8288 Y-13.8873
G01 X17.8413 Y-13.8821
G01 X17.8529 Y-13.8752
G01 X17.8617 Y-13.8681
G01 X17.8696 Y-13.8601
G01 X17.8765 Y-13.8511
G01 X17.8811 Y-13.8433
G01 X17.8858 Y-13.8331
G01 X17.8892 Y-13.8223
G01 X17.8910 Y-13.8135
G01 X17.8919 Y-13.8023
G01 X17.8919 Y-12.2000
G01 X17.8910 Y-12.1865
G01 X17.8886 Y-12.1755
G01 X17.8841 Y-12.1627
G01 X17.8777 Y-12.1508
G01 X17.8696 Y-12.1399
G01 X17.8601 Y-12.1304
G01 X17.8492 Y-12.1223
G01 X17.8373 Y-12.1159
G01 X17.8245 Y-12.1114
G01 X17.8113 Y-12.1087
G01 X17.8000 Y-12.1081
G01 X17.3421 Y-12.1081
G01 X17.3421 Y-4.1087
G01 X17.3691 Y-4.0925
G01 X17.3905 Y-4.0768
G01 X17.3975 Y-4.0711
G01 X17.4171 Y-4.0531
G01 X17.4351 Y-4.0335
G01 X17.4408 Y-4.0265
G01 X17.4565 Y-4.0051
G01 X17.4725 Y-3.9784
G01 X17.4840 Y-3.9544
G01 X17.4874 Y-3.9461
G01 X17.4963 Y-3.9210
G01 X17.5029 Y-3.8952
G01 X17.5046 Y-3.8864
G01 X17.5084 Y-3.8601
G01 X17.5099 Y-3.8290
G01 X17.5099 Y-3.0790
G01 X17.5088 Y-3.0524
G01 X17.5079 Y-3.0435
G01 X17.5039 Y-3.0172
G01 X17.4975 Y-2.9913
G01 X17.4949 Y-2.9827
G01 X17.4858 Y-2.9577
G01 X17.4746 Y-2.9336
G01 X17.4703 Y-2.9257
G01 X17.4553 Y-2.9011
G01 X17.4380 Y-2.8779
G01 X17.4171 Y-2.8549
G01 X17.3941 Y-2.8340
G01 X17.3691 Y-2.8155
G01 X17.3424 Y-2.7995
G01 X17.3143 Y-2.7862
G01 X17.2850 Y-2.7757
G01 X17.2548 Y-2.7681
G01 X17.2241 Y-2.7636
G01 X17.1930 Y-2.7621
G01 X16.7385 Y-2.7622
G01 X16.7119 Y-2.7636
G01 X16.6790 Y-2.7686
G01 X16.6510 Y-2.7757
G01 X16.6259 Y-2.7846
G01 X16.6176 Y-2.7880
G01 X16.5916 Y-2.8006
G01 X16.5688 Y-2.8142
G01 X16.5632 Y-2.8181
G01 X16.5419 Y-2.8340
G01 X16.5222 Y-2.8518
G01 X16.5173 Y-2.8565
G01 X16.5009 Y-2.8745
G01 X16.4952 Y-2.8815
G01 X16.4795 Y-2.9029
G01 X16.4635 Y-2.9296
G01 X16.4502 Y-2.9577
G01 X16.4397 Y-2.9870
G01 X16.4321 Y-3.0172
G01 X16.4276 Y-3.0479
G01 X16.4261 Y-3.0767
G01 X16.4261 Y-3.1119
G01 X12.5068 Y-3.1119
G01 X12.4813 Y-3.0696
G01 X12.4437 Y-3.0186
G01 X12.4379 Y-3.0116
G01 X12.3984 Y-2.9680
G01 X12.3920 Y-2.9616
G01 X12.3450 Y-2.9191
G01 X12.2941 Y-2.8813
G01 X12.2866 Y-2.8763
G01 X12.2322 Y-2.8438
G01 X12.1708 Y-2.8147
G01 X12.1069 Y-2.7918
G01 X12.0432 Y-2.7758
G01 X11.9738 Y-2.7654
G01 X11.9060 Y-2.7621
G01 X11.1037 Y-2.7621
G01 X11.0382 Y-2.7654
G01 X10.9710 Y-2.7753
G01 X10.9051 Y-2.7918
G01 X10.8412 Y-2.8147
G01 X10.7798 Y-2.8438
G01 X10.7216 Y-2.8787
G01 X10.6670 Y-2.9191
G01 X10.6167 Y-2.9647
G01 X10.5711 Y-3.0150
G01 X10.5333 Y-3.0659
G01 X10.5283 Y-3.0734
G01 X10.4958 Y-3.1278
G01 X10.4686 Y-3.1851
G01 X10.4651 Y-3.1934
G01 X10.4453 Y-3.2489
G01 X10.4426 Y-3.2575
G01 X10.4273 Y-3.3190
G01 X10.4174 Y-3.3862
G01 X10.4141 Y-3.4540
G01 X10.4174 Y-3.5218
G01 X10.4273 Y-3.5890
G01 X10.4438 Y-3.6549
G01 X10.4667 Y-3.7188
G01 X10.4958 Y-3.7802
G01 X10.5307 Y-3.8384
G01 X10.5711 Y-3.8930
G01 X10.6167 Y-3.9433
G01 X10.6636 Y-3.9859
G01 X10.6706 Y-3.9917
G01 X10.7179 Y-4.0267
G01 X10.7254 Y-4.0317
G01 X10.7798 Y-4.0642
G01 X10.8371 Y-4.0914
G01 X10.8454 Y-4.0949
G01 X10.9051 Y-4.1162
G01 X10.9710 Y-4.1327
G01 X11.0382 Y-4.1426
G01 X11.1060 Y-4.1459
G00 Z2.0000
G00 X10.3441 Y-5.9527
G01 F10.00
G01 Z-0.0500
G01 F30.00
G01 X10.3530 Y-6.1174
G01 X10.3972 Y-6.2764
G01 X10.4745 Y-6.4222
G01 X10.5306 Y-6.4883
G01 X10.5813 Y-6.5480
G01 X10.7126 Y-6.6478
G01 X10.8624 Y-6.7171
G01 X11.0235 Y-6.7526
G01 X11.9471 Y-6.7526
G01 X12.0700 Y-6.7392
G01 X12.2264 Y-6.6865
G01 X12.3678 Y-6.6014
G01 X12.4875 Y-6.4880
G01 X12.5801 Y-6.3514
G01 X12.5851 Y-6.3389
G01 X12.6412 Y-6.1981
G01 X12.6679 Y-6.0353
G01 X12.6590 Y-5.8706
G01 X12.6148 Y-5.7116
G01 X12.5375 Y-5.5658
G01 X12.4307 Y-5.4400
G01 X12.2994 Y-5.3402
G01 X12.1496 Y-5.2709
G01 X11.9885 Y-5.2354
G01 X11.0649 Y-5.2354
G01 X10.9420 Y-5.2488
G01 X10.7856 Y-5.3015
G01 X10.6442 Y-5.3866
G01 X10.5245 Y-5.5000
G01 X10.4319 Y-5.6366
G01 X10.3708 Y-5.7899
G01 X10.3441 Y-5.9527
G00 Z2.0000
G00 X11.1060 Y-6.6859
G01 F10.00
G01 Z-0.0500
G01 F30.00
G01 X11.9060 Y-6.6859
G01 X11.9761 Y-6.6824
G01 X12.0410 Y-6.6727
G01 X12.1025 Y-6.6574
G01 X12.1111 Y-6.6547
G01 X12.1708 Y-6.6333
G01 X12.2322 Y-6.6042
G01 X12.2866 Y-6.5717
G01 X12.2941 Y-6.5667
G01 X12.3467 Y-6.5274
G01 X12.3953 Y-6.4833
G01 X12.4409 Y-6.4330
G01 X12.4813 Y-6.3784
G01 X12.5162 Y-6.3202
G01 X12.5453 Y-6.2588
G01 X12.5682 Y-6.1949
G01 X12.5847 Y-6.1290
G01 X12.5946 Y-6.0618
G01 X12.5979 Y-5.9940
G01 X12.5946 Y-5.9262
G01 X12.5847 Y-5.8590
G01 X12.5682 Y-5.7931
G01 X12.5453 Y-5.7292
G01 X12.5162 Y-5.6678
G01 X12.4813 Y-5.6096
G01 X12.4394 Y-5.5533
G01 X12.3953 Y-5.5047
G01 X12.3450 Y-5.4591
G01 X12.2904 Y-5.4187
G01 X12.2322 Y-5.3838
G01 X12.1708 Y-5.3547
G01 X12.1069 Y-5.3318
G01 X12.0410 Y-5.3153
G01 X11.9783 Y-5.3059
G01 X11.9693 Y-5.3051
G01 X11.9060 Y-5.3021
G01 X11.1060 Y-5.3021
G01 X11.0359 Y-5.3056
G01 X10.9710 Y-5.3153
G01 X10.9095 Y-5.3306
G01 X10.9009 Y-5.3333
G01 X10.8412 Y-5.3547
G01 X10.7798 Y-5.3838
G01 X10.7254 Y-5.4163
G01 X10.7179 Y-5.4213
G01 X10.6653 Y-5.4606
G01 X10.6167 Y-5.5047
G01 X10.5741 Y-5.5516
G01 X10.5683 Y-5.5586
G01 X10.5307 Y-5.6096
G01 X10.4958 Y-5.6678
G01 X10.4686 Y-5.7251
G01 X10.4651 Y-5.7334
G01 X10.4453 Y-5.7889
G01 X10.4426 Y-5.7975
G01 X10.4273 Y-5.8590
G01 X10.4179 Y-5.9217
G01 X10.4171 Y-5.9307
G01 X10.4142 Y-5.9895
G01 X10.4142 Y-5.9985
G01 X10.4174 Y-6.0618
G01 X10.4273 Y-6.1290
G01 X10.4438 Y-6.1949
G01 X10.4651 Y-6.2546
G01 X10.4686 Y-6.2629
G01 X10.4937 Y-6.3162
G01 X10.4980 Y-6.3241
G01 X10.5307 Y-6.3784
G01 X10.5711 Y-6.4330
G01 X10.6167 Y-6.4833
G01 X10.6636 Y-6.5259
G01 X10.6706 Y-6.5317
G01 X10.7216 Y-6.5693
G01 X10.7798 Y-6.6042
G01 X10.8371 Y-6.6314
G01 X10.8454 Y-6.6349
G01 X10.9051 Y-6.6562
G01 X10.9710 Y-6.6727
G01 X11.0337 Y-6.6821
G01 X11.0427 Y-6.6829
G01 X11.1060 Y-6.6859
G00 Z2.0000
G00 X10.3441 Y-8.4927
G01 F10.00
G01 Z-0.0500
G01 F30.00
G01 X10.3530 Y-8.6574
G01 X10.3972 Y-8.8164
G01 X10.4745 Y-8.9622
G01 X10.5306 Y-9.0283
G01 X10.5813 Y-9.0880
G01 X10.7126 Y-9.1878
G01 X10.8624 Y-9.2571
G01 X11.0235 Y-9.2926
G01 X11.9471 Y-9.2926
G01 X12.0700 Y-9.2792
G01 X12.2264 Y-9.2265
G01 X12.3678 Y-9.1414
G01 X12.4875 Y-9.0280
G01 X12.5801 Y-8.8914
G01 X12.6412 Y-8.7381
G01 X12.6679 Y-8.5753
G01 X12.6590 Y-8.4106
G01 X12.6148 Y-8.2516
G01 X12.5375 Y-8.1058
G01 X12.4307 Y-7.9800
G01 X12.2994 Y-7.8802
G01 X12.1496 Y-7.8109
G01 X11.9885 Y-7.7754
G01 X11.0649 Y-7.7754
G01 X10.9420 Y-7.7888
G01 X10.7856 Y-7.8415
G01 X10.6442 Y-7.9266
G01 X10.5245 Y-8.0400
G01 X10.4319 Y-8.1766
G01 X10.3708 Y-8.3299
G01 X10.3441 Y-8.4927
G00 Z2.0000
G00 X11.1060 Y-9.2259
G01 F10.00
G01 Z-0.0500
G01 F30.00
G01 X11.9060 Y-9.2259
G01 X11.9761 Y-9.2224
G01 X12.0410 Y-9.2127
G01 X12.1025 Y-9.1974
G01 X12.1111 Y-9.1947
G01 X12.1708 Y-9.1733
G01 X12.2322 Y-9.1442
G01 X12.2866 Y-9.1117
G01 X12.2941 Y-9.1067
G01 X12.3467 Y-9.0674
G01 X12.3953 Y-9.0233
G01 X12.4409 Y-8.9730
G01 X12.4813 Y-8.9184
G01 X12.5162 Y-8.8602
G01 X12.5453 Y-8.7988
G01 X12.5682 Y-8.7349
G01 X12.5847 Y-8.6690
G01 X12.5946 Y-8.6018
G01 X12.5979 Y-8.5340
G01 X12.5946 Y-8.4662
G01 X12.5847 Y-8.3990
G01 X12.5682 Y-8.3331
G01 X12.5453 Y-8.2692
G01 X12.5162 Y-8.2078
G01 X12.4813 Y-8.1496
G01 X12.4394 Y-8.0933
G01 X12.3953 Y-8.0447
G01 X12.3450 Y-7.9991
G01 X12.2904 Y-7.9587
G01 X12.2322 Y-7.9238
G01 X12.1708 Y-7.8947
G01 X12.1069 Y-7.8718
G01 X12.0410 Y-7.8553
G01 X11.9783 Y-7.8459
G01 X11.9693 Y-7.8451
G01 X11.9060 Y-7.8421
G01 X11.1060 Y-7.8421
G01 X11.0359 Y-7.8456
G01 X10.9710 Y-7.8553
G01 X10.9095 Y-7.8706
G01 X10.9009 Y-7.8733
G01 X10.8412 Y-7.8947
G01 X10.7798 Y-7.9238
G01 X10.7254 Y-7.9563
G01 X10.7179 Y-7.9613
G01 X10.6653 Y-8.0006
G01 X10.6167 Y-8.0447
G01 X10.5741 Y-8.0916
G01 X10.5683 Y-8.0986
G01 X10.5307 Y-8.1496
G01 X10.4958 Y-8.2078
G01 X10.4686 Y-8.2651
G01 X10.4651 Y-8.2734
G01 X10.4453 Y-8.3289
G01 X10.4426 Y-8.3375
G01 X10.4273 Y-8.3990
G01 X10.4179 Y-8.4617
G01 X10.4171 Y-8.4707
G01 X10.4142 Y-8.5295
G01 X10.4142 Y-8.5385
G01 X10.4174 Y-8.6018
G01 X10.4273 Y-8.6690
G01 X10.4438 Y-8.7349
G01 X10.4651 Y-8.7946
G01 X10.4686 Y-8.8029
G01 X10.4937 Y-8.8562
G01 X10.4980 Y-8.8641
G01 X10.5307 Y-8.9184
G01 X10.5711 Y-8.9730
G01 X10.6167 Y-9.0233
G01 X10.6636 Y-9.0659
G01 X10.6706 Y-9.0717
G01 X10.7216 Y-9.1093
G01 X10.7798 Y-9.1442
G01 X10.8371 Y-9.1714
G01 X10.8454 Y-9.1749
G01 X10.9051 Y-9.1962
G01 X10.9710 Y-9.2127
G01 X11.0337 Y-9.2221
G01 X11.0427 Y-9.2229
G01 X11.1060 Y-9.2259
G00 Z2.0000
G00 X10.3441 Y-11.0327
G01 F10.00
G01 Z-0.0500
G01 F30.00
G01 X10.3530 Y-11.1974
G01 X10.3972 Y-11.3564
G01 X10.4745 Y-11.5022
G01 X10.5499 Y-11.5910
G01 X10.5813 Y-11.6280
G01 X10.7126 Y-11.7278
G01 X10.8624 Y-11.7971
G01 X11.0235 Y-11.8326
G01 X11.9471 Y-11.8326
G01 X12.0700 Y-11.8192
G01 X12.2264 Y-11.7665
G01 X12.3678 Y-11.6814
G01 X12.4875 Y-11.5680
G01 X12.5801 Y-11.4314
G01 X12.5964 Y-11.3906
G01 X12.6412 Y-11.2781
G01 X12.6679 Y-11.1153
G01 X12.6590 Y-10.9506
G01 X12.6148 Y-10.7916
G01 X12.5375 Y-10.6458
G01 X12.4307 Y-10.5200
G01 X12.2994 Y-10.4202
G01 X12.1496 Y-10.3509
G01 X11.9885 Y-10.3154
G01 X11.0649 Y-10.3154
G01 X10.9420 Y-10.3288
G01 X10.7856 Y-10.3815
G01 X10.6442 Y-10.4666
G01 X10.5245 Y-10.5800
G01 X10.4319 Y-10.7166
G01 X10.3708 Y-10.8699
G01 X10.3441 Y-11.0327
G00 Z2.0000
G00 X11.1060 Y-11.7659
G01 F10.00
G01 Z-0.0500
G01 F30.00
G01 X11.9060 Y-11.7659
G01 X11.9761 Y-11.7624
G01 X12.0410 Y-11.7527
G01 X12.1025 Y-11.7374
G01 X12.1111 Y-11.7347
G01 X12.1708 Y-11.7133
G01 X12.2322 Y-11.6842
G01 X12.2866 Y-11.6517
G01 X12.2941 Y-11.6467
G01 X12.3467 Y-11.6074
G01 X12.3953 Y-11.5633
G01 X12.4409 Y-11.5130
G01 X12.4813 Y-11.4584
G01 X12.5162 Y-11.4002
G01 X12.5453 Y-11.3388
G01 X12.5682 Y-11.2749
G01 X12.5847 Y-11.2090
G01 X12.5946 Y-11.1418
G01 X12.5979 Y-11.0740
G01 X12.5946 Y-11.0062
G01 X12.5847 Y-10.9390
G01 X12.5682 Y-10.8731
G01 X12.5453 Y-10.8092
G01 X12.5162 Y-10.7478
G01 X12.4813 Y-10.6896
G01 X12.4394 Y-10.6333
G01 X12.3953 Y-10.5847
G01 X12.3450 Y-10.5391
G01 X12.2904 Y-10.4987
G01 X12.2322 Y-10.4638
G01 X12.1708 Y-10.4347
G01 X12.1069 Y-10.4118
G01 X12.0410 Y-10.3953
G01 X11.9783 Y-10.3859
G01 X11.9693 Y-10.3851
G01 X11.9060 Y-10.3821
G01 X11.1060 Y-10.3821
G01 X11.0359 Y-10.3856
G01 X10.9710 Y-10.3953
G01 X10.9095 Y-10.4106
G01 X10.9009 Y-10.4133
G01 X10.8412 Y-10.4347
G01 X10.7798 Y-10.4638
G01 X10.7254 Y-10.4963
G01 X10.7179 Y-10.5013
G01 X10.6653 Y-10.5406
G01 X10.6167 Y-10.5847
G01 X10.5741 Y-10.6316
G01 X10.5683 Y-10.6386
G01 X10.5307 Y-10.6896
G01 X10.4958 Y-10.7478
G01 X10.4686 Y-10.8051
G01 X10.4651 Y-10.8134
G01 X10.4453 Y-10.8689
G01 X10.4426 Y-10.8775
G01 X10.4273 Y-10.9390
G01 X10.4179 Y-11.0017
G01 X10.4171 Y-11.0107
G01 X10.4142 Y-11.0695
G01 X10.4142 Y-11.0785
G01 X10.4174 Y-11.1418
G01 X10.4273 Y-11.2090
G01 X10.4438 Y-11.2749
G01 X10.4651 Y-11.3346
G01 X10.4686 Y-11.3429
G01 X10.4937 Y-11.3962
G01 X10.4980 Y-11.4041
G01 X10.5307 Y-11.4584
G01 X10.5711 Y-11.5130
G01 X10.6167 Y-11.5633
G01 X10.6636 Y-11.6059
G01 X10.6706 Y-11.6117
G01 X10.7216 Y-11.6493
G01 X10.7798 Y-11.6842
G01 X10.8371 Y-11.7114
G01 X10.8454 Y-11.7149
G01 X10.9051 Y-11.7362
G01 X10.9710 Y-11.7527
G01 X11.0337 Y-11.7621
G01 X11.0427 Y-11.7629
G01 X11.1060 Y-11.7659
G00 Z2.0000
G00 X10.3441 Y-13.5727
G01 F10.00
G01 Z-0.0500
G01 F30.00
G01 X10.3530 Y-13.7374
G01 X10.3972 Y-13.8964
G01 X10.4745 Y-14.0422
G01 X10.5306 Y-14.1083
G01 X10.5813 Y-14.1680
G01 X10.7126 Y-14.2678
G01 X10.8624 Y-14.3371
G01 X11.0235 Y-14.3726
G01 X11.9471 Y-14.3726
G01 X12.0700 Y-14.3592
G01 X12.2264 Y-14.3065
G01 X12.3678 Y-14.2214
G01 X12.4875 Y-14.1080
G01 X12.5801 Y-13.9714
G01 X12.6412 Y-13.8181
G01 X12.6679 Y-13.6553
G01 X12.6590 Y-13.4906
G01 X12.6148 Y-13.3316
G01 X12.5375 Y-13.1858
G01 X12.4307 Y-13.0600
G01 X12.2994 Y-12.9602
G01 X12.1496 Y-12.8909
G01 X11.9885 Y-12.8554
G01 X11.0649 Y-12.8554
G01 X10.9420 Y-12.8688
G01 X10.7856 Y-12.9215
G01 X10.6442 Y-13.0066
G01 X10.5245 Y-13.1200
G01 X10.4319 Y-13.2566
G01 X10.3708 Y-13.4099
G01 X10.3441 Y-13.5727
G00 Z2.0000
G00 X11.1060 Y-14.3059
G01 F10.00
G01 Z-0.0500
G01 F30.00
G01 X11.9060 Y-14.3059
G01 X11.9761 Y-14.3024
G01 X12.0410 Y-14.2927
G01 X12.1025 Y-14.2774
G01 X12.1111 Y-14.2747
G01 X12.1708 Y-14.2533
G01 X12.2322 Y-14.2242
G01 X12.2866 Y-14.1917
G01 X12.2941 Y-14.1867
G01 X12.3467 Y-14.1474
G01 X12.3953 Y-14.1033
G01 X12.4409 Y-14.0530
G01 X12.4813 Y-13.9984
G01 X12.5162 Y-13.9402
G01 X12.5453 Y-13.8788
G01 X12.5682 Y-13.8149
G01 X12.5847 Y-13.7490
G01 X12.5946 Y-13.6818
G01 X12.5979 Y-13.6140
G01 X12.5946 Y-13.5462
G01 X12.5847 Y-13.4790
G01 X12.5682 Y-13.4131
G01 X12.5453 Y-13.3492
G01 X12.5162 Y-13.2878
G01 X12.4813 Y-13.2296
G01 X12.4394 Y-13.1733
G01 X12.3953 Y-13.1247
G01 X12.3450 Y-13.0791
G01 X12.2904 Y-13.0387
G01 X12.2322 Y-13.0038
G01 X12.1708 Y-12.9747
G01 X12.1069 Y-12.9518
G01 X12.0410 Y-12.9353
G01 X11.9783 Y-12.9259
G01 X11.9693 Y-12.9251
G01 X11.9060 Y-12.9221
G01 X11.1060 Y-12.9221
G01 X11.0359 Y-12.9256
G01 X10.9710 Y-12.9353
G01 X10.9095 Y-12.9506
G01 X10.9009 Y-12.9533
G01 X10.8412 Y-12.9747
G01 X10.7798 Y-13.0038
G01 X10.7254 Y-13.0363
G01 X10.7179 Y-13.0413
G01 X10.6653 Y-13.0806
G01 X10.6167 Y-13.1247
G01 X10.5741 Y-13.1716
G01 X10.5683 Y-13.1786
G01 X10.5307 Y-13.2296
G01 X10.4958 Y-13.2878
G01 X10.4686 Y-13.3451
G01 X10.4651 Y-13.3534
G01 X10.4453 Y-13.4089
G01 X10.4426 Y-13.4175
G01 X10.4273 Y-13.4790
G01 X10.4179 Y-13.5417
G01 X10.4171 Y-13.5507
G01 X10.4142 Y-13.6095
G01 X10.4142 Y-13.6185
G01 X10.4174 Y-13.6818
G01 X10.4273 Y-13.7490
G01 X10.4438 Y-13.8149
G01 X10.4651 Y-13.8746
G01 X10.4686 Y-13.8829
G01 X10.4937 Y-13.9362
G01 X10.4980 Y-13.9441
G01 X10.5307 Y-13.9984
G01 X10.5711 Y-14.0530
G01 X10.6167 Y-14.1033
G01 X10.6636 Y-14.1459
G01 X10.6706 Y-14.1517
G01 X10.7216 Y-14.1893
G01 X10.7798 Y-14.2242
G01 X10.8371 Y-14.2514
G01 X10.8454 Y-14.2549
G01 X10.9051 Y-14.2762
G01 X10.9710 Y-14.2927
G01 X11.0337 Y-14.3021
G01 X11.0427 Y-14.3029
G01 X11.1060 Y-14.3059
G00 Z2.0000
G00 X10.3441 Y-16.1127
G01 F10.00
G01 Z-0.0500
G01 F30.00
G01 X10.3530 Y-16.2774
G01 X10.3972 Y-16.4364
G01 X10.4745 Y-16.5822
G01 X10.5306 Y-16.6483
G01 X10.5813 Y-16.7080
G01 X10.7126 Y-16.8078
G01 X10.8624 Y-16.8771
G01 X11.0235 Y-16.9126
G01 X11.9471 Y-16.9126
G01 X12.0700 Y-16.8992
G01 X12.2264 Y-16.8465
G01 X12.3678 Y-16.7614
G01 X12.4875 Y-16.6480
G01 X12.5801 Y-16.5114
G01 X12.6412 Y-16.3581
G01 X12.6679 Y-16.1953
G01 X12.6590 Y-16.0306
G01 X12.6148 Y-15.8716
G01 X12.5375 Y-15.7258
G01 X12.4307 Y-15.6000
G01 X12.2994 Y-15.5002
G01 X12.1496 Y-15.4309
G01 X11.9885 Y-15.3954
G01 X11.0649 Y-15.3954
G01 X10.9420 Y-15.4088
G01 X10.7856 Y-15.4615
G01 X10.6442 Y-15.5466
G01 X10.5245 Y-15.6600
G01 X10.4319 Y-15.7966
G01 X10.3708 Y-15.9499
G01 X10.3441 Y-16.1127
G00 Z2.0000
G00 X11.1060 Y-16.8459
G01 F10.00
G01 Z-0.0500
G01 F30.00
G01 X11.9060 Y-16.8459
G01 X11.9761 Y-16.8424
G01 X12.0410 Y-16.8327
G01 X12.1025 Y-16.8174
G01 X12.1111 Y-16.8147
G01 X12.1708 Y-16.7933
G01 X12.2322 Y-16.7642
G01 X12.2866 Y-16.7317
G01 X12.2941 Y-16.7267
G01 X12.3467 Y-16.6874
G01 X12.3953 Y-16.6433
G01 X12.4409 Y-16.5930
G01 X12.4813 Y-16.5384
G01 X12.5162 Y-16.4802
G01 X12.5453 Y-16.4188
G01 X12.5682 Y-16.3549
G01 X12.5847 Y-16.2890
G01 X12.5946 Y-16.2218
G01 X12.5979 Y-16.1540
G01 X12.5946 Y-16.0862
G01 X12.5847 Y-16.0190
G01 X12.5682 Y-15.9531
G01 X12.5453 Y-15.8892
G01 X12.5162 Y-15.8278
G01 X12.4813 Y-15.7696
G01 X12.4394 Y-15.7133
G01 X12.3953 Y-15.6647
G01 X12.3450 Y-15.6191
G01 X12.2904 Y-15.5787
G01 X12.2322 Y-15.5438
G01 X12.1708 Y-15.5147
G01 X12.1069 Y-15.4918
G01 X12.0410 Y-15.4753
G01 X11.9783 Y-15.4659
G01 X11.9693 Y-15.4651
G01 X11.9060 Y-15.4621
G01 X11.1060 Y-15.4621
G01 X11.0359 Y-15.4656
G01 X10.9710 Y-15.4753
G01 X10.9095 Y-15.4906
G01 X10.9009 Y-15.4933
G01 X10.8412 Y-15.5147
G01 X10.7798 Y-15.5438
G01 X10.7254 Y-15.5763
G01 X10.7179 Y-15.5813
G01 X10.6653 Y-15.6206
G01 X10.6167 Y-15.6647
G01 X10.5741 Y-15.7116
G01 X10.5683 Y-15.7186
G01 X10.5307 Y-15.7696
G01 X10.4958 Y-15.8278
G01 X10.4686 Y-15.8851
G01 X10.4651 Y-15.8934
G01 X10.4453 Y-15.9489
G01 X10.4426 Y-15.9575
G01 X10.4273 Y-16.0190
G01 X10.4179 Y-16.0817
G01 X10.4171 Y-16.0907
G01 X10.4142 Y-16.1495
G01 X10.4142 Y-16.1585
G01 X10.4174 Y-16.2218
G01 X10.4273 Y-16.2890
G01 X10.4438 Y-16.3549
G01 X10.4651 Y-16.4146
G01 X10.4686 Y-16.4229
G01 X10.4937 Y-16.4762
G01 X10.4980 Y-16.4841
G01 X10.5307 Y-16.5384
G01 X10.5711 Y-16.5930
G01 X10.6167 Y-16.6433
G01 X10.6636 Y-16.6859
G01 X10.6706 Y-16.6917
G01 X10.7216 Y-16.7293
G01 X10.7798 Y-16.7642
G01 X10.8371 Y-16.7914
G01 X10.8454 Y-16.7949
G01 X10.9051 Y-16.8162
G01 X10.9710 Y-16.8327
G01 X11.0337 Y-16.8421
G01 X11.0427 Y-16.8429
G01 X11.1060 Y-16.8459
G00 Z2.0000
G00 X10.3441 Y-18.6527
G01 F10.00
G01 Z-0.0500
G01 F30.00
G01 X10.3530 Y-18.8174
G01 X10.3972 Y-18.9764
G01 X10.4745 Y-19.1222
G01 X10.5498 Y-19.2109
G01 X10.5813 Y-19.2480
G01 X10.7126 Y-19.3478
G01 X10.8624 Y-19.4171
G01 X11.0235 Y-19.4526
G01 X11.9471 Y-19.4526
G01 X12.0700 Y-19.4392
G01 X12.2264 Y-19.3865
G01 X12.3678 Y-19.3014
G01 X12.4875 Y-19.1880
G01 X12.5801 Y-19.0514
G01 X12.5821 Y-19.0466
G01 X12.6412 Y-18.8981
G01 X12.6679 Y-18.7353
G01 X12.6590 Y-18.5706
G01 X12.6148 Y-18.4116
G01 X12.5375 Y-18.2658
G01 X12.4307 Y-18.1400
G01 X12.2994 Y-18.0402
G01 X12.1496 Y-17.9709
G01 X11.9885 Y-17.9354
G01 X11.0649 Y-17.9354
G01 X10.9420 Y-17.9488
G01 X10.7856 Y-18.0015
G01 X10.6442 Y-18.0866
G01 X10.5245 Y-18.2000
G01 X10.4319 Y-18.3366
G01 X10.3708 Y-18.4899
G01 X10.3441 Y-18.6527
G00 Z2.0000
G00 X11.1060 Y-19.3859
G01 F10.00
G01 Z-0.0500
G01 F30.00
G01 X11.9060 Y-19.3859
G01 X11.9761 Y-19.3824
G01 X12.0410 Y-19.3727
G01 X12.1025 Y-19.3574
G01 X12.1111 Y-19.3547
G01 X12.1708 Y-19.3333
G01 X12.2322 Y-19.3042
G01 X12.2866 Y-19.2717
G01 X12.2941 Y-19.2667
G01 X12.3467 Y-19.2274
G01 X12.3953 Y-19.1833
G01 X12.4409 Y-19.1330
G01 X12.4813 Y-19.0784
G01 X12.5162 Y-19.0202
G01 X12.5453 Y-18.9588
G01 X12.5682 Y-18.8949
G01 X12.5847 Y-18.8290
G01 X12.5946 Y-18.7618
G01 X12.5979 Y-18.6940
G01 X12.5946 Y-18.6262
G01 X12.5847 Y-18.5590
G01 X12.5682 Y-18.4931
G01 X12.5453 Y-18.4292
G01 X12.5162 Y-18.3678
G01 X12.4813 Y-18.3096
G01 X12.4394 Y-18.2533
G01 X12.3953 Y-18.2047
G01 X12.3450 Y-18.1591
G01 X12.2904 Y-18.1187
G01 X12.2322 Y-18.0838
G01 X12.1708 Y-18.0547
G01 X12.1069 Y-18.0318
G01 X12.0410 Y-18.0153
G01 X11.9783 Y-18.0059
G01 X11.9693 Y-18.0051
G01 X11.9060 Y-18.0021
G01 X11.1060 Y-18.0021
G01 X11.0359 Y-18.0056
G01 X10.9710 Y-18.0153
G01 X10.9095 Y-18.0306
G01 X10.9009 Y-18.0333
G01 X10.8412 Y-18.0547
G01 X10.7798 Y-18.0838
G01 X10.7254 Y-18.1163
G01 X10.7179 Y-18.1213
G01 X10.6653 Y-18.1606
G01 X10.6167 Y-18.2047
G01 X10.5741 Y-18.2516
G01 X10.5683 Y-18.2586
G01 X10.5307 Y-18.3096
G01 X10.4958 Y-18.3678
G01 X10.4686 Y-18.4251
G01 X10.4651 Y-18.4334
G01 X10.4453 Y-18.4889
G01 X10.4426 Y-18.4975
G01 X10.4273 Y-18.5590
G01 X10.4179 Y-18.6217
G01 X10.4171 Y-18.6307
G01 X10.4142 Y-18.6895
G01 X10.4142 Y-18.6985
G01 X10.4174 Y-18.7618
G01 X10.4273 Y-18.8290
G01 X10.4438 Y-18.8949
G01 X10.4651 Y-18.9546
G01 X10.4686 Y-18.9629
G01 X10.4937 Y-19.0162
G01 X10.4980 Y-19.0241
G01 X10.5307 Y-19.0784
G01 X10.5711 Y-19.1330
G01 X10.6167 Y-19.1833
G01 X10.6636 Y-19.2259
G01 X10.6706 Y-19.2317
G01 X10.7216 Y-19.2693
G01 X10.7798 Y-19.3042
G01 X10.8371 Y-19.3314
G01 X10.8454 Y-19.3349
G01 X10.9051 Y-19.3562
G01 X10.9710 Y-19.3727
G01 X11.0337 Y-19.3821
G01 X11.0427 Y-19.3829
G01 X11.1060 Y-19.3859
G00 Z2.0000
G00 X10.3441 Y-21.1927
G01 F10.00
G01 Z-0.0500
G01 F30.00
G01 X10.3530 Y-21.3574
G01 X10.3972 Y-21.5164
G01 X10.4745 Y-21.6622
G01 X10.5306 Y-21.7283
G01 X10.5813 Y-21.7880
G01 X10.7126 Y-21.8878
G01 X10.8624 Y-21.9571
G01 X11.0235 Y-21.9926
G01 X11.9471 Y-21.9926
G01 X12.0700 Y-21.9792
G01 X12.2264 Y-21.9265
G01 X12.3678 Y-21.8414
G01 X12.4875 Y-21.7280
G01 X12.5801 Y-21.5914
G01 X12.5956 Y-21.5527
G01 X12.6412 Y-21.4381
G01 X12.6679 Y-21.2753
G01 X12.6590 Y-21.1106
G01 X12.6148 Y-20.9516
G01 X12.5375 Y-20.8058
G01 X12.4307 Y-20.6801
G01 X12.2994 Y-20.5802
G01 X12.1496 Y-20.5109
G01 X11.9885 Y-20.4754
G01 X11.0649 Y-20.4754
G01 X10.9420 Y-20.4888
G01 X10.7856 Y-20.5415
G01 X10.6442 Y-20.6266
G01 X10.5245 Y-20.7400
G01 X10.4319 Y-20.8766
G01 X10.3708 Y-21.0299
G01 X10.3441 Y-21.1927
G00 Z2.0000
G00 X11.1060 Y-21.9259
G01 F10.00
G01 Z-0.0500
G01 F30.00
G01 X11.9060 Y-21.9259
G01 X11.9761 Y-21.9224
G01 X12.0410 Y-21.9127
G01 X12.1025 Y-21.8974
G01 X12.1111 Y-21.8947
G01 X12.1708 Y-21.8733
G01 X12.2322 Y-21.8442
G01 X12.2866 Y-21.8117
G01 X12.2941 Y-21.8067
G01 X12.3467 Y-21.7674
G01 X12.3953 Y-21.7233
G01 X12.4409 Y-21.6730
G01 X12.4813 Y-21.6184
G01 X12.5162 Y-21.5602
G01 X12.5453 Y-21.4988
G01 X12.5682 Y-21.4349
G01 X12.5847 Y-21.3690
G01 X12.5946 Y-21.3018
G01 X12.5979 Y-21.2340
G01 X12.5946 Y-21.1662
G01 X12.5847 Y-21.0990
G01 X12.5682 Y-21.0331
G01 X12.5453 Y-20.9692
G01 X12.5162 Y-20.9078
G01 X12.4813 Y-20.8496
G01 X12.4394 Y-20.7933
G01 X12.3953 Y-20.7447
G01 X12.3450 Y-20.6991
G01 X12.2904 Y-20.6587
G01 X12.2322 Y-20.6238
G01 X12.1708 Y-20.5947
G01 X12.1069 Y-20.5718
G01 X12.0410 Y-20.5553
G01 X11.9783 Y-20.5459
G01 X11.9693 Y-20.5451
G01 X11.9060 Y-20.5421
G01 X11.1060 Y-20.5421
G01 X11.0359 Y-20.5456
G01 X10.9710 Y-20.5553
G01 X10.9095 Y-20.5706
G01 X10.9009 Y-20.5733
G01 X10.8412 Y-20.5947
G01 X10.7798 Y-20.6238
G01 X10.7254 Y-20.6563
G01 X10.7179 Y-20.6613
G01 X10.6653 Y-20.7006
G01 X10.6167 Y-20.7447
G01 X10.5741 Y-20.7916
G01 X10.5683 Y-20.7986
G01 X10.5307 Y-20.8496
G01 X10.4958 Y-20.9078
G01 X10.4686 Y-20.9651
G01 X10.4651 Y-20.9734
G01 X10.4453 Y-21.0289
G01 X10.4426 Y-21.0375
G01 X10.4273 Y-21.0990
G01 X10.4179 Y-21.1617
G01 X10.4171 Y-21.1707
G01 X10.4142 Y-21.2295
G01 X10.4142 Y-21.2385
G01 X10.4174 Y-21.3018
G01 X10.4273 Y-21.3690
G01 X10.4438 Y-21.4349
G01 X10.4651 Y-21.4946
G01 X10.4686 Y-21.5029
G01 X10.4937 Y-21.5562
G01 X10.4980 Y-21.5641
G01 X10.5307 Y-21.6184
G01 X10.5711 Y-21.6730
G01 X10.6167 Y-21.7233
G01 X10.6636 Y-21.7659
G01 X10.6706 Y-21.7717
G01 X10.7216 Y-21.8093
G01 X10.7798 Y-21.8442
G01 X10.8371 Y-21.8714
G01 X10.8454 Y-21.8749
G01 X10.9051 Y-21.8962
G01 X10.9710 Y-21.9127
G01 X11.0337 Y-21.9221
G01 X11.0427 Y-21.9229
G01 X11.1060 Y-21.9259
G00 Z2.0000
G00 X10.3441 Y-23.7327
G01 F10.00
G01 Z-0.0500
G01 F30.00
G01 X10.3530 Y-23.8974
G01 X10.3972 Y-24.0564
G01 X10.4745 Y-24.2022
G01 X10.5306 Y-24.2683
G01 X10.5813 Y-24.3280
G01 X10.7126 Y-24.4278
G01 X10.8624 Y-24.4971
G01 X11.0235 Y-24.5326
G01 X11.9471 Y-24.5326
G01 X12.0700 Y-24.5192
G01 X12.2264 Y-24.4665
G01 X12.3678 Y-24.3814
G01 X12.4875 Y-24.2680
G01 X12.5801 Y-24.1314
G01 X12.6412 Y-23.9781
G01 X12.6679 Y-23.8153
G01 X12.6590 Y-23.6506
G01 X12.6148 Y-23.4916
G01 X12.5375 Y-23.3458
G01 X12.4307 Y-23.2200
G01 X12.2994 Y-23.1202
G01 X12.1496 Y-23.0509
G01 X11.9885 Y-23.0154
G01 X11.0649 Y-23.0154
G01 X10.9420 Y-23.0288
G01 X10.7856 Y-23.0815
G01 X10.6442 Y-23.1666
G01 X10.5245 Y-23.2800
G01 X10.4319 Y-23.4166
G01 X10.3708 Y-23.5699
G01 X10.3441 Y-23.7327
G00 Z2.0000
G00 X11.1060 Y-24.4659
G01 F10.00
G01 Z-0.0500
G01 F30.00
G01 X11.9060 Y-24.4659
G01 X11.9761 Y-24.4624
G01 X12.0410 Y-24.4527
G01 X12.1025 Y-24.4374
G01 X12.1111 Y-24.4347
G01 X12.1708 Y-24.4133
G01 X12.2322 Y-24.3842
G01 X12.2866 Y-24.3517
G01 X12.2941 Y-24.3467
G01 X12.3467 Y-24.3074
G01 X12.3953 Y-24.2633
G01 X12.4409 Y-24.2130
G01 X12.4813 Y-24.1584
G01 X12.5162 Y-24.1002
G01 X12.5453 Y-24.0388
G01 X12.5682 Y-23.9749
G01 X12.5847 Y-23.9090
G01 X12.5946 Y-23.8418
G01 X12.5979 Y-23.7740
G01 X12.5946 Y-23.7062
G01 X12.5847 Y-23.6390
G01 X12.5682 Y-23.5731
G01 X12.5453 Y-23.5092
G01 X12.5162 Y-23.4478
G01 X12.4813 Y-23.3896
G01 X12.4394 Y-23.3333
G01 X12.3953 Y-23.2847
G01 X12.3450 Y-23.2391
G01 X12.2904 Y-23.1987
G01 X12.2322 Y-23.1638
G01 X12.1708 Y-23.1347
G01 X12.1069 Y-23.1118
G01 X12.0410 Y-23.0953
G01 X11.9783 Y-23.0859
G01 X11.9693 Y-23.0851
G01 X11.9060 Y-23.0821
G01 X11.1060 Y-23.0821
G01 X11.0359 Y-23.0856
G01 X10.9710 Y-23.0953
G01 X10.9095 Y-23.1106
G01 X10.9009 Y-23.1133
G01 X10.8412 Y-23.1347
G01 X10.7798 Y-23.1638
G01 X10.7254 Y-23.1963
G01 X10.7179 Y-23.2013
G01 X10.6653 Y-23.2406
G01 X10.6167 Y-23.2847
G01 X10.5741 Y-23.3316
G01 X10.5683 Y-23.3386
G01 X10.5307 Y-23.3896
G01 X10.4958 Y-23.4478
G01 X10.4686 Y-23.5051
G01 X10.4651 Y-23.5134
G01 X10.4453 Y-23.5689
G01 X10.4426 Y-23.5775
G01 X10.4273 Y-23.6390
G01 X10.4179 Y-23.7017
G01 X10.4171 Y-23.7107
G01 X10.4142 Y-23.7695
G01 X10.4142 Y-23.7785
G01 X10.4174 Y-23.8418
G01 X10.4273 Y-23.9090
G01 X10.4438 Y-23.9749
G01 X10.4651 Y-24.0346
G01 X10.4686 Y-24.0429
G01 X10.4937 Y-24.0962
G01 X10.4980 Y-24.1041
G01 X10.5307 Y-24.1584
G01 X10.5711 Y-24.2130
G01 X10.6167 Y-24.2633
G01 X10.6636 Y-24.3059
G01 X10.6706 Y-24.3117
G01 X10.7216 Y-24.3493
G01 X10.7798 Y-24.3842
G01 X10.8371 Y-24.4114
G01 X10.8454 Y-24.4149
G01 X10.9051 Y-24.4362
G01 X10.9710 Y-24.4527
G01 X11.0337 Y-24.4621
G01 X11.0427 Y-24.4629
G01 X11.1060 Y-24.4659
G00 Z2.0000
G00 X10.3441 Y-26.2727
G01 F10.00
G01 Z-0.0500
G01 F30.00
G01 X10.3530 Y-26.4374
G01 X10.3972 Y-26.5964
G01 X10.4745 Y-26.7422
G01 X10.5813 Y-26.8680
G01 X10.7126 Y-26.9678
G01 X10.8624 Y-27.0371
G01 X11.0235 Y-27.0726
G01 X11.9471 Y-27.0726
G01 X12.0700 Y-27.0592
G01 X12.2264 Y-27.0065
G01 X12.3678 Y-26.9214
G01 X12.4875 Y-26.8080
G01 X12.5801 Y-26.6714
G01 X12.6412 Y-26.5181
G01 X12.6679 Y-26.3553
G01 X12.6590 Y-26.1906
G01 X12.6148 Y-26.0316
G01 X12.5375 Y-25.8858
G01 X12.4307 Y-25.7600
G01 X12.2994 Y-25.6602
G01 X12.1496 Y-25.5909
G01 X11.9885 Y-25.5554
G01 X11.0649 Y-25.5554
G01 X10.9420 Y-25.5688
G01 X10.7856 Y-25.6215
G01 X10.6442 Y-25.7066
G01 X10.5245 Y-25.8200
G01 X10.4319 Y-25.9566
G01 X10.3708 Y-26.1099
G01 X10.3441 Y-26.2727
G00 Z2.0000
G00 X11.1060 Y-27.0059
G01 F10.00
G01 Z-0.0500
G01 F30.00
G01 X11.9060 Y-27.0059
G01 X11.9761 Y-27.0024
G01 X12.0410 Y-26.9927
G01 X12.1025 Y-26.9774
G01 X12.1111 Y-26.9747
G01 X12.1708 Y-26.9533
G01 X12.2322 Y-26.9242
G01 X12.2866 Y-26.8917
G01 X12.2941 Y-26.8867
G01 X12.3467 Y-26.8474
G01 X12.3953 Y-26.8033
G01 X12.4409 Y-26.7530
G01 X12.4813 Y-26.6984
G01 X12.5162 Y-26.6402
G01 X12.5453 Y-26.5788
G01 X12.5682 Y-26.5149
G01 X12.5847 Y-26.4490
G01 X12.5946 Y-26.3818
G01 X12.5979 Y-26.3140
G01 X12.5946 Y-26.2462
G01 X12.5847 Y-26.1790
G01 X12.5682 Y-26.1131
G01 X12.5453 Y-26.0492
G01 X12.5162 Y-25.9878
G01 X12.4813 Y-25.9296
G01 X12.4394 Y-25.8733
G01 X12.3953 Y-25.8247
G01 X12.3450 Y-25.7791
G01 X12.2904 Y-25.7387
G01 X12.2322 Y-25.7038
G01 X12.1708 Y-25.6747
G01 X12.1069 Y-25.6518
G01 X12.0410 Y-25.6353
G01 X11.9783 Y-25.6259
G01 X11.9693 Y-25.6251
G01 X11.9060 Y-25.6221
G01 X11.1060 Y-25.6221
G01 X11.0359 Y-25.6256
G01 X10.9710 Y-25.6353
G01 X10.9095 Y-25.6506
G01 X10.9009 Y-25.6533
G01 X10.8412 Y-25.6747
G01 X10.7798 Y-25.7038
G01 X10.7254 Y-25.7363
G01 X10.7179 Y-25.7413
G01 X10.6653 Y-25.7806
G01 X10.6167 Y-25.8247
G01 X10.5741 Y-25.8716
G01 X10.5683 Y-25.8786
G01 X10.5307 Y-25.9296
G01 X10.4958 Y-25.9878
G01 X10.4686 Y-26.0451
G01 X10.4651 Y-26.0534
G01 X10.4453 Y-26.1089
G01 X10.4426 Y-26.1175
G01 X10.4273 Y-26.1790
G01 X10.4179 Y-26.2417
G01 X10.4171 Y-26.2507
G01 X10.4142 Y-26.3095
G01 X10.4142 Y-26.3185
G01 X10.4174 Y-26.3818
G01 X10.4273 Y-26.4490
G01 X10.4438 Y-26.5149
G01 X10.4651 Y-26.5746
G01 X10.4686 Y-26.5829
G01 X10.4937 Y-26.6362
G01 X10.4980 Y-26.6441
G01 X10.5307 Y-26.6984
G01 X10.5711 Y-26.7530
G01 X10.6167 Y-26.8033
G01 X10.6636 Y-26.8459
G01 X10.6706 Y-26.8517
G01 X10.7216 Y-26.8893
G01 X10.7798 Y-26.9242
G01 X10.8371 Y-26.9514
G01 X10.8454 Y-26.9549
G01 X10.9051 Y-26.9762
G01 X10.9710 Y-26.9927
G01 X11.0337 Y-27.0021
G01 X11.0427 Y-27.0029
G01 X11.1060 Y-27.0059
G00 Z2.0000
G00 X10.3441 Y-28.8127
G01 F10.00
G01 Z-0.0500
G01 F30.00
G01 X10.3530 Y-28.9774
G01 X10.3972 Y-29.1364
G01 X10.4745 Y-29.2822
G01 X10.5306 Y-29.3483
G01 X10.5813 Y-29.4080
G01 X10.7126 Y-29.5078
G01 X10.8624 Y-29.5771
G01 X11.0235 Y-29.6126
G01 X11.9471 Y-29.6126
G01 X12.0700 Y-29.5992
G01 X12.2264 Y-29.5465
G01 X12.3678 Y-29.4614
G01 X12.4875 Y-29.3480
G01 X12.5801 Y-29.2114
G01 X12.6412 Y-29.0581
G01 X12.6679 Y-28.8953
G01 X12.6590 Y-28.7306
G01 X12.6148 Y-28.5716
G01 X12.5375 Y-28.4258
G01 X12.4307 Y-28.3000
G01 X12.2994 Y-28.2002
G01 X12.1496 Y-28.1309
G01 X11.9885 Y-28.0954
G01 X11.0649 Y-28.0954
G01 X10.9420 Y-28.1088
G01 X10.7856 Y-28.1615
G01 X10.6442 Y-28.2466
G01 X10.5245 Y-28.3600
G01 X10.4319 Y-28.4966
G01 X10.3708 Y-28.6499
G01 X10.3441 Y-28.8127
G00 Z2.0000
G00 X11.1060 Y-29.5459
G01 F10.00
G01 Z-0.0500
G01 F30.00
G01 X11.9060 Y-29.5459
G01 X11.9761 Y-29.5424
G01 X12.0410 Y-29.5327
G01 X12.1025 Y-29.5174
G01 X12.1111 Y-29.5147
G01 X12.1708 Y-29.4933
G01 X12.2322 Y-29.4642
G01 X12.2866 Y-29.4317
G01 X12.2941 Y-29.4267
G01 X12.3467 Y-29.3874
G01 X12.3953 Y-29.3433
G01 X12.4409 Y-29.2930
G01 X12.4813 Y-29.2384
G01 X12.5162 Y-29.1802
G01 X12.5453 Y-29.1188
G01 X12.5682 Y-29.0549
G01 X12.5847 Y-28.9890
G01 X12.5946 Y-28.9218
G01 X12.5979 Y-28.8540
G01 X12.5946 Y-28.7862
G01 X12.5847 Y-28.7190
G01 X12.5682 Y-28.6531
G01 X12.5453 Y-28.5892
G01 X12.5162 Y-28.5278
G01 X12.4813 Y-28.4696
G01 X12.4394 Y-28.4133
G01 X12.3953 Y-28.3647
G01 X12.3450 Y-28.3191
G01 X12.2904 Y-28.2787
G01 X12.2322 Y-28.2438
G01 X12.1708 Y-28.2147
G01 X12.1069 Y-28.1918
G01 X12.0410 Y-28.1753
G01 X11.9783 Y-28.1659
G01 X11.9693 Y-28.1651
G01 X11.9060 Y-28.1621
G01 X11.1060 Y-28.1621
G01 X11.0359 Y-28.1656
G01 X10.9710 Y-28.1753
G01 X10.9095 Y-28.1906
G01 X10.9009 Y-28.1933
G01 X10.8412 Y-28.2147
G01 X10.7798 Y-28.2438
G01 X10.7254 Y-28.2763
G01 X10.7179 Y-28.2813
G01 X10.6653 Y-28.3206
G01 X10.6167 Y-28.3647
G01 X10.5741 Y-28.4116
G01 X10.5683 Y-28.4186
G01 X10.5307 Y-28.4696
G01 X10.4958 Y-28.5278
G01 X10.4686 Y-28.5851
G01 X10.4651 Y-28.5934
G01 X10.4453 Y-28.6489
G01 X10.4426 Y-28.6575
G01 X10.4273 Y-28.7190
G01 X10.4179 Y-28.7817
G01 X10.4171 Y-28.7907
G01 X10.4142 Y-28.8495
G01 X10.4142 Y-28.8585
G01 X10.4174 Y-28.9218
G01 X10.4273 Y-28.9890
G01 X10.4438 Y-29.0549
G01 X10.4651 Y-29.1146
G01 X10.4686 Y-29.1229
G01 X10.4937 Y-29.1762
G01 X10.4980 Y-29.1841
G01 X10.5307 Y-29.2384
G01 X10.5711 Y-29.2930
G01 X10.6167 Y-29.3433
G01 X10.6636 Y-29.3859
G01 X10.6706 Y-29.3917
G01 X10.7216 Y-29.4293
G01 X10.7798 Y-29.4642
G01 X10.8371 Y-29.4914
G01 X10.8454 Y-29.4949
G01 X10.9051 Y-29.5162
G01 X10.9710 Y-29.5327
G01 X11.0337 Y-29.5421
G01 X11.0427 Y-29.5429
G01 X11.1060 Y-29.5459
G00 Z2.0000
G00 X10.3441 Y-31.3527
G01 F10.00
G01 Z-0.0500
G01 F30.00
G01 X10.3530 Y-31.5174
G01 X10.3972 Y-31.6764
G01 X10.4745 Y-31.8222
G01 X10.5306 Y-31.8883
G01 X10.5813 Y-31.9480
G01 X10.7126 Y-32.0478
G01 X10.8624 Y-32.1171
G01 X11.0235 Y-32.1526
G01 X11.9471 Y-32.1526
G01 X12.0700 Y-32.1392
G01 X12.2264 Y-32.0865
G01 X12.3678 Y-32.0014
G01 X12.4875 Y-31.8880
G01 X12.5801 Y-31.7514
G01 X12.6412 Y-31.5981
G01 X12.6679 Y-31.4353
G01 X12.6590 Y-31.2706
G01 X12.6148 Y-31.1116
G01 X12.5375 Y-30.9658
G01 X12.4307 Y-30.8400
G01 X12.2994 Y-30.7402
G01 X12.1496 Y-30.6709
G01 X11.9885 Y-30.6354
G01 X11.0649 Y-30.6354
G01 X10.9420 Y-30.6488
G01 X10.7856 Y-30.7015
G01 X10.6442 Y-30.7866
G01 X10.5245 Y-30.9000
G01 X10.4319 Y-31.0366
G01 X10.3708 Y-31.1899
G01 X10.3441 Y-31.3527
G00 Z2.0000
G00 X11.1060 Y-32.0859
G01 F10.00
G01 Z-0.0500
G01 F30.00
G01 X11.9060 Y-32.0859
G01 X11.9761 Y-32.0824
G01 X12.0410 Y-32.0727
G01 X12.1025 Y-32.0574
G01 X12.1111 Y-32.0547
G01 X12.1708 Y-32.0333
G01 X12.2322 Y-32.0042
G01 X12.2866 Y-31.9717
G01 X12.2941 Y-31.9667
G01 X12.3467 Y-31.9274
G01 X12.3953 Y-31.8833
G01 X12.4409 Y-31.8330
G01 X12.4813 Y-31.7784
G01 X12.5162 Y-31.7202
G01 X12.5453 Y-31.6588
G01 X12.5682 Y-31.5949
G01 X12.5847 Y-31.5290
G01 X12.5946 Y-31.4618
G01 X12.5979 Y-31.3940
G01 X12.5946 Y-31.3262
G01 X12.5847 Y-31.2590
G01 X12.5682 Y-31.1931
G01 X12.5453 Y-31.1292
G01 X12.5162 Y-31.0678
G01 X12.4813 Y-31.0096
G01 X12.4394 Y-30.9533
G01 X12.3953 Y-30.9047
G01 X12.3450 Y-30.8591
G01 X12.2904 Y-30.8187
G01 X12.2322 Y-30.7838
G01 X12.1708 Y-30.7547
G01 X12.1069 Y-30.7318
G01 X12.0410 Y-30.7153
G01 X11.9783 Y-30.7059
G01 X11.9693 Y-30.7051
G01 X11.9060 Y-30.7021
G01 X11.1060 Y-30.7021
G01 X11.0359 Y-30.7056
G01 X10.9710 Y-30.7153
G01 X10.9095 Y-30.7306
G01 X10.9009 Y-30.7333
G01 X10.8412 Y-30.7547
G01 X10.7798 Y-30.7838
G01 X10.7254 Y-30.8163
G01 X10.7179 Y-30.8213
G01 X10.6653 Y-30.8606
G01 X10.6167 Y-30.9047
G01 X10.5741 Y-30.9516
G01 X10.5683 Y-30.9586
G01 X10.5307 Y-31.0096
G01 X10.4958 Y-31.0678
G01 X10.4686 Y-31.1251
G01 X10.4651 Y-31.1334
G01 X10.4453 Y-31.1889
G01 X10.4426 Y-31.1975
G01 X10.4273 Y-31.2590
G01 X10.4179 Y-31.3217
G01 X10.4171 Y-31.3307
G01 X10.4142 Y-31.3895
G01 X10.4142 Y-31.3985
G01 X10.4174 Y-31.4618
G01 X10.4273 Y-31.5290
G01 X10.4438 Y-31.5949
G01 X10.4651 Y-31.6546
G01 X10.4686 Y-31.6629
G01 X10.4937 Y-31.7162
G01 X10.4980 Y-31.7241
G01 X10.5307 Y-31.7784
G01 X10.5711 Y-31.8330
G01 X10.6167 Y-31.8833
G01 X10.6636 Y-31.9259
G01 X10.6706 Y-31.9317
G01 X10.7216 Y-31.9693
G01 X10.7798 Y-32.0042
G01 X10.8371 Y-32.0314
G01 X10.8454 Y-32.0349
G01 X10.9051 Y-32.0562
G01 X10.9710 Y-32.0727
G01 X11.0337 Y-32.0821
G01 X11.0427 Y-32.0829
G01 X11.1060 Y-32.0859
G00 Z2.0000
G00 X10.3441 Y-33.8927
G01 F10.00
G01 Z-0.0500
G01 F30.00
G01 X10.3530 Y-34.0574
G01 X10.3972 Y-34.2164
G01 X10.4745 Y-34.3622
G01 X10.5306 Y-34.4283
G01 X10.5813 Y-34.4880
G01 X10.7126 Y-34.5878
G01 X10.8624 Y-34.6571
G01 X11.0235 Y-34.6926
G01 X11.9471 Y-34.6926
G01 X12.0700 Y-34.6792
G01 X12.2264 Y-34.6265
G01 X12.3678 Y-34.5414
G01 X12.4875 Y-34.4280
G01 X12.5801 Y-34.2914
G01 X12.6412 Y-34.1381
G01 X12.6679 Y-33.9753
G01 X12.6590 Y-33.8106
G01 X12.6148 Y-33.6516
G01 X12.5375 Y-33.5058
G01 X12.4307 Y-33.3800
G01 X12.2994 Y-33.2802
G01 X12.1496 Y-33.2109
G01 X11.9885 Y-33.1754
G01 X11.0649 Y-33.1754
G01 X10.9420 Y-33.1888
G01 X10.7856 Y-33.2415
G01 X10.6442 Y-33.3266
G01 X10.5245 Y-33.4400
G01 X10.4319 Y-33.5766
G01 X10.3708 Y-33.7299
G01 X10.3441 Y-33.8927
G00 Z2.0000
G00 X11.1060 Y-34.6259
G01 F10.00
G01 Z-0.0500
G01 F30.00
G01 X11.9060 Y-34.6259
G01 X11.9761 Y-34.6224
G01 X12.0410 Y-34.6127
G01 X12.1025 Y-34.5974
G01 X12.1111 Y-34.5947
G01 X12.1708 Y-34.5733
G01 X12.2322 Y-34.5442
G01 X12.2866 Y-34.5117
G01 X12.2941 Y-34.5067
G01 X12.3467 Y-34.4674
G01 X12.3953 Y-34.4233
G01 X12.4409 Y-34.3730
G01 X12.4813 Y-34.3184
G01 X12.5162 Y-34.2602
G01 X12.5453 Y-34.1988
G01 X12.5682 Y-34.1349
G01 X12.5847 Y-34.0690
G01 X12.5946 Y-34.0018
G01 X12.5979 Y-33.9340
G01 X12.5946 Y-33.8662
G01 X12.5847 Y-33.7990
G01 X12.5682 Y-33.7331
G01 X12.5453 Y-33.6692
G01 X12.5162 Y-33.6078
G01 X12.4813 Y-33.5496
G01 X12.4394 Y-33.4933
G01 X12.3953 Y-33.4447
G01 X12.3450 Y-33.3991
G01 X12.2904 Y-33.3587
G01 X12.2322 Y-33.3238
G01 X12.1708 Y-33.2947
G01 X12.1069 Y-33.2718
G01 X12.0410 Y-33.2553
G01 X11.9783 Y-33.2459
G01 X11.9693 Y-33.2451
G01 X11.9060 Y-33.2421
G01 X11.1060 Y-33.2421
G01 X11.0359 Y-33.2456
G01 X10.9710 Y-33.2553
G01 X10.9095 Y-33.2706
G01 X10.9009 Y-33.2733
G01 X10.8412 Y-33.2947
G01 X10.7798 Y-33.3238
G01 X10.7254 Y-33.3563
G01 X10.7179 Y-33.3613
G01 X10.6653 Y-33.4006
G01 X10.6167 Y-33.4447
G01 X10.5741 Y-33.4916
G01 X10.5683 Y-33.4986
G01 X10.5307 Y-33.5496
G01 X10.4958 Y-33.6078
G01 X10.4686 Y-33.6651
G01 X10.4651 Y-33.6734
G01 X10.4453 Y-33.7289
G01 X10.4426 Y-33.7375
G01 X10.4273 Y-33.7990
G01 X10.4179 Y-33.8617
G01 X10.4171 Y-33.8707
G01 X10.4142 Y-33.9295
G01 X10.4142 Y-33.9385
G01 X10.4174 Y-34.0018
G01 X10.4273 Y-34.0690
G01 X10.4438 Y-34.1349
G01 X10.4651 Y-34.1946
G01 X10.4686 Y-34.2029
G01 X10.4937 Y-34.2562
G01 X10.4980 Y-34.2641
G01 X10.5307 Y-34.3184
G01 X10.5711 Y-34.3730
G01 X10.6167 Y-34.4233
G01 X10.6636 Y-34.4659
G01 X10.6706 Y-34.4717
G01 X10.7216 Y-34.5093
G01 X10.7798 Y-34.5442
G01 X10.8371 Y-34.5714
G01 X10.8454 Y-34.5749
G01 X10.9051 Y-34.5962
G01 X10.9710 Y-34.6127
G01 X11.0337 Y-34.6221
G01 X11.0427 Y-34.6229
G01 X11.1060 Y-34.6259
G00 Z2.0000
G00 X6.4031 Y-35.9990
G01 F10.00
G01 Z-0.0500
G01 F30.00
G01 X6.4031 Y-36.9490
G01 X6.4047 Y-36.9825
G01 X6.4088 Y-37.0113
G01 X6.4106 Y-37.0201
G01 X6.4178 Y-37.0483
G01 X6.4291 Y-37.0799
G01 X6.4434 Y-37.1102
G01 X6.4583 Y-37.1352
G01 X6.4633 Y-37.1427
G01 X6.4821 Y-37.1677
G01 X6.5032 Y-37.1908
G01 X6.5247 Y-37.2104
G01 X6.5298 Y-37.2147
G01 X6.5513 Y-37.2307
G01 X6.5588 Y-37.2357
G01 X6.5838 Y-37.2506
G01 X6.6141 Y-37.2649
G01 X6.6457 Y-37.2762
G01 X6.6739 Y-37.2834
G01 X6.6827 Y-37.2852
G01 X6.7115 Y-37.2893
G01 X6.7450 Y-37.2909
G01 X7.2450 Y-37.2909
G01 X7.2740 Y-37.2896
G01 X7.2830 Y-37.2888
G01 X7.3117 Y-37.2844
G01 X7.3443 Y-37.2762
G01 X7.3759 Y-37.2649
G01 X7.4062 Y-37.2506
G01 X7.4350 Y-37.2333
G01 X7.4584 Y-37.2161
G01 X7.4637 Y-37.2119
G01 X7.4835 Y-37.1939
G01 X7.4899 Y-37.1875
G01 X7.5093 Y-37.1659
G01 X7.5293 Y-37.1390
G01 X7.5466 Y-37.1102
G01 X7.5609 Y-37.0799
G01 X7.5722 Y-37.0483
G01 X7.5794 Y-37.0201
G01 X7.5812 Y-37.0113
G01 X7.5853 Y-36.9825
G01 X7.5869 Y-36.9490
G01 X7.5869 Y-36.8161
G01 X10.5052 Y-36.8161
G01 X10.5307 Y-36.8584
G01 X10.5683 Y-36.9094
G01 X10.5741 Y-36.9164
G01 X10.6167 Y-36.9633
G01 X10.6636 Y-37.0059
G01 X10.6706 Y-37.0117
G01 X10.7216 Y-37.0493
G01 X10.7778 Y-37.0832
G01 X10.8412 Y-37.1133
G01 X10.9009 Y-37.1347
G01 X10.9095 Y-37.1374
G01 X10.9710 Y-37.1527
G01 X11.0337 Y-37.1621
G01 X11.0427 Y-37.1629
G01 X11.1060 Y-37.1659
G01 X11.9083 Y-37.1659
G01 X11.9738 Y-37.1626
G01 X12.0365 Y-37.1534
G01 X12.0454 Y-37.1517
G01 X12.1069 Y-37.1362
G01 X12.1708 Y-37.1133
G01 X12.2322 Y-37.0842
G01 X12.2866 Y-37.0517
G01 X12.2941 Y-37.0467
G01 X12.3450 Y-37.0089
G01 X12.3920 Y-36.9664
G01 X12.3984 Y-36.9600
G01 X12.4379 Y-36.9164
G01 X12.4437 Y-36.9094
G01 X12.4813 Y-36.8584
G01 X12.5068 Y-36.8161
G01 X14.0531 Y-36.8161
G01 X14.0532 Y-36.9285
G01 X14.0547 Y-36.9575
G01 X14.0601 Y-36.9929
G01 X14.0678 Y-37.0233
G01 X14.0775 Y-37.0506
G01 X14.0809 Y-37.0590
G01 X14.0934 Y-37.0852
G01 X14.1083 Y-37.1102
G01 X14.1120 Y-37.1158
G01 X14.1279 Y-37.1374
G01 X14.1336 Y-37.1443
G01 X14.1532 Y-37.1658
G01 X14.1781 Y-37.1883
G01 X14.2050 Y-37.2083
G01 X14.2299 Y-37.2233
G01 X14.2378 Y-37.2276
G01 X14.2621 Y-37.2390
G01 X14.2684 Y-37.2415
G01 X14.2957 Y-37.2512
G01 X14.3239 Y-37.2584
G01 X14.3327 Y-37.2602
G01 X14.3615 Y-37.2643
G01 X14.3927 Y-37.2659
G01 X14.9223 Y-37.2659
G01 X14.9535 Y-37.2643
G01 X14.9823 Y-37.2602
G01 X14.9911 Y-37.2584
G01 X15.0171 Y-37.2519
G01 X15.0235 Y-37.2498
G01 X15.0509 Y-37.2399
G01 X15.0772 Y-37.2276
G01 X15.0851 Y-37.2233
G01 X15.1100 Y-37.2083
G01 X15.1369 Y-37.1883
G01 X15.1585 Y-37.1689
G01 X15.1649 Y-37.1625
G01 X15.1843 Y-37.1409
G01 X15.2017 Y-37.1177
G01 X15.2067 Y-37.1102
G01 X15.2216 Y-37.0852
G01 X15.2359 Y-37.0549
G01 X15.2472 Y-37.0233
G01 X15.2544 Y-36.9951
G01 X15.2562 Y-36.9863
G01 X15.2603 Y-36.9575
G01 X15.2619 Y-36.9240
G01 X15.2619 Y-36.0240
G01 X15.2603 Y-35.9905
G01 X15.2562 Y-35.9617
G01 X15.2544 Y-35.9529
G01 X15.2472 Y-35.9247
G01 X15.2359 Y-35.8931
G01 X15.2216 Y-35.8628
G01 X15.2067 Y-35.8378
G01 X15.2017 Y-35.8303
G01 X15.1829 Y-35.8053
G01 X15.1618 Y-35.7822
G01 X15.1403 Y-35.7626
G01 X15.1352 Y-35.7583
G01 X15.1137 Y-35.7423
G01 X15.1062 Y-35.7373
G01 X15.0812 Y-35.7224
G01 X15.0509 Y-35.7081
G01 X15.0193 Y-35.6968
G01 X14.9911 Y-35.6896
G01 X14.9823 Y-35.6878
G01 X14.9535 Y-35.6837
G01 X14.9200 Y-35.6821
G01 X14.3950 Y-35.6821
G01 X14.3660 Y-35.6834
G01 X14.3570 Y-35.6842
G01 X14.3283 Y-35.6886
G01 X14.2957 Y-35.6968
G01 X14.2641 Y-35.7081
G01 X14.2358 Y-35.7214
G01 X14.2050 Y-35.7397
G01 X14.1816 Y-35.7569
G01 X14.1763 Y-35.7611
G01 X14.1565 Y-35.7791
G01 X14.1501 Y-35.7855
G01 X14.1307 Y-35.8071
G01 X14.1107 Y-35.8340
G01 X14.0934 Y-35.8628
G01 X14.0800 Y-35.8911
G01 X14.0692 Y-35.9205
G01 X14.0666 Y-35.9291
G01 X14.0596 Y-35.9573
G01 X14.0549 Y-35.9882
G01 X14.0531 Y-36.0217
G01 X14.0531 Y-36.1319
G01 X12.5068 Y-36.1319
G01 X12.4813 Y-36.0896
G01 X12.4437 Y-36.0386
G01 X12.4379 Y-36.0316
G01 X12.3953 Y-35.9847
G01 X12.3484 Y-35.9421
G01 X12.3414 Y-35.9363
G01 X12.2904 Y-35.8987
G01 X12.2342 Y-35.8648
G01 X12.1708 Y-35.8347
G01 X12.1111 Y-35.8133
G01 X12.1025 Y-35.8106
G01 X12.0410 Y-35.7953
G01 X11.9783 Y-35.7859
G01 X11.9693 Y-35.7851
G01 X11.9060 Y-35.7821
G01 X11.1037 Y-35.7821
G01 X11.0382 Y-35.7854
G01 X10.9755 Y-35.7946
G01 X10.9666 Y-35.7963
G01 X10.9051 Y-35.8118
G01 X10.8412 Y-35.8347
G01 X10.7798 Y-35.8638
G01 X10.7254 Y-35.8963
G01 X10.7179 Y-35.9013
G01 X10.6670 Y-35.9391
G01 X10.6200 Y-35.9816
G01 X10.6136 Y-35.9880
G01 X10.5741 Y-36.0316
G01 X10.5683 Y-36.0386
G01 X10.5307 Y-36.0896
G01 X10.5052 Y-36.1319
G01 X7.5869 Y-36.1319
G01 X7.5869 Y-35.9967
G01 X7.5853 Y-35.9655
G01 X7.5808 Y-35.9345
G01 X7.5722 Y-35.8997
G01 X7.5609 Y-35.8681
G01 X7.5466 Y-35.8378
G01 X7.5280 Y-35.8072
G01 X7.5121 Y-35.7856
G01 X7.5064 Y-35.7787
G01 X7.4868 Y-35.7572
G01 X7.4653 Y-35.7376
G01 X7.4584 Y-35.7319
G01 X7.4350 Y-35.7147
G01 X7.4062 Y-35.6974
G01 X7.3759 Y-35.6831
G01 X7.3485 Y-35.6732
G01 X7.3399 Y-35.6706
G01 X7.3117 Y-35.6636
G01 X7.2830 Y-35.6592
G01 X7.2740 Y-35.6584
G01 X7.2473 Y-35.6571
G01 X6.7405 Y-35.6572
G01 X6.7115 Y-35.6587
G01 X6.6783 Y-35.6636
G01 X6.6457 Y-35.6718
G01 X6.6141 Y-35.6831
G01 X6.5838 Y-35.6974
G01 X6.5588 Y-35.7123
G01 X6.5513 Y-35.7173
G01 X6.5281 Y-35.7347
G01 X6.5065 Y-35.7541
G01 X6.5001 Y-35.7605
G01 X6.4807 Y-35.7821
G01 X6.4607 Y-35.8090
G01 X6.4457 Y-35.8339
G01 X6.4414 Y-35.8418
G01 X6.4291 Y-35.8681
G01 X6.4178 Y-35.8997
G01 X6.4096 Y-35.9323
G01 X6.4052 Y-35.9610
G01 X6.4044 Y-35.9700
G01 X6.4031 Y-35.9990
G00 Z2.0000
G00 X6.3364 Y-36.9919
G01 F10.00
G01 Z-0.0500
G01 F30.00
G01 X6.3411 Y-37.0352
G01 X6.3827 Y-37.1468
G01 X6.4531 Y-37.2409
G01 X6.5472 Y-37.3113
G01 X6.6588 Y-37.3529
G01 X6.7021 Y-37.3576
G01 X7.2879 Y-37.3575
G01 X7.3312 Y-37.3529
G01 X7.4428 Y-37.3113
G01 X7.5369 Y-37.2409
G01 X7.6073 Y-37.1468
G01 X7.6535 Y-37.0230
G01 X7.6579 Y-37.0130
G01 X7.6647 Y-37.0018
G01 X7.7107 Y-36.9405
G01 X7.7185 Y-36.9322
G01 X7.7254 Y-36.9263
G01 X7.7349 Y-36.9199
G01 X7.7430 Y-36.9157
G01 X7.8169 Y-36.8879
G01 X7.8279 Y-36.8849
G01 X7.8391 Y-36.8832
G01 X7.8558 Y-36.8826
G01 X10.3579 Y-36.8826
G01 X10.3666 Y-36.8830
G01 X10.3731 Y-36.8838
G01 X10.3817 Y-36.8857
G01 X10.4529 Y-36.9066
G01 X10.4652 Y-36.9116
G01 X10.4749 Y-36.9170
G01 X10.4854 Y-36.9250
G01 X10.5129 Y-36.9490
G01 X10.5194 Y-36.9553
G01 X10.5813 Y-37.0280
G01 X10.7126 Y-37.1278
G01 X10.8624 Y-37.1971
G01 X11.0235 Y-37.2326
G01 X11.9471 Y-37.2326
G01 X12.0700 Y-37.2192
G01 X12.2264 Y-37.1665
G01 X12.3678 Y-37.0814
G01 X12.4912 Y-36.9645
G01 X12.5001 Y-36.9551
G01 X12.5089 Y-36.9479
G01 X12.5178 Y-36.9423
G01 X12.5527 Y-36.9135
G01 X12.5599 Y-36.9082
G01 X12.5676 Y-36.9035
G01 X12.5736 Y-36.9006
G01 X12.5863 Y-36.8960
G01 X12.6438 Y-36.8840
G01 X12.6530 Y-36.8828
G01 X12.6600 Y-36.8826
G01 X13.7979 Y-36.8827
G01 X13.8088 Y-36.8838
G01 X13.8174 Y-36.8857
G01 X13.8930 Y-36.9081
G01 X13.9034 Y-36.9128
G01 X13.9132 Y-36.9187
G01 X13.9204 Y-36.9243
G01 X13.9286 Y-36.9323
G01 X13.9773 Y-36.9885
G01 X13.9814 Y-36.9939
G01 X13.9852 Y-36.9996
G01 X13.9904 Y-37.0097
G01 X13.9959 Y-37.0230
G01 X14.0327 Y-37.1218
G01 X14.1031 Y-37.2159
G01 X14.1972 Y-37.2863
G01 X14.3088 Y-37.3279
G01 X14.3521 Y-37.3326
G01 X14.9629 Y-37.3325
G01 X15.0062 Y-37.3279
G01 X15.1178 Y-37.2863
G01 X15.2119 Y-37.2159
G01 X15.2823 Y-37.1218
G01 X15.3239 Y-37.0102
G01 X15.3286 Y-36.9669
G01 X15.3285 Y-35.9811
G01 X15.3239 Y-35.9378
G01 X15.2823 Y-35.8262
G01 X15.2119 Y-35.7321
G01 X15.1178 Y-35.6617
G01 X15.0062 Y-35.6201
G01 X14.9629 Y-35.6154
G01 X14.3521 Y-35.6154
G01 X14.3088 Y-35.6201
G01 X14.1972 Y-35.6617
G01 X14.1031 Y-35.7321
G01 X14.0327 Y-35.8262
G01 X13.9959 Y-35.9250
G01 X13.9915 Y-35.9350
G01 X13.9883 Y-35.9407
G01 X13.9834 Y-35.9479
G01 X13.9372 Y-36.0092
G01 X13.9308 Y-36.0158
G01 X13.9221 Y-36.0231
G01 X13.9144 Y-36.0281
G01 X13.9042 Y-36.0332
G01 X13.8302 Y-36.0608
G01 X13.8192 Y-36.0636
G01 X13.8080 Y-36.0650
G01 X13.7936 Y-36.0654
G01 X12.6541 Y-36.0654
G01 X12.6432 Y-36.0648
G01 X12.6303 Y-36.0623
G01 X12.5591 Y-36.0414
G01 X12.5488 Y-36.0374
G01 X12.5371 Y-36.0310
G01 X12.5266 Y-36.0230
G01 X12.4991 Y-35.9990
G01 X12.4926 Y-35.9927
G01 X12.4307 Y-35.9200
G01 X12.2994 Y-35.8202
G01 X12.1496 Y-35.7509
G01 X11.9885 Y-35.7154
G01 X11.0649 Y-35.7154
G01 X10.9420 Y-35.7288
G01 X10.7856 Y-35.7815
G01 X10.6442 Y-35.8666
G01 X10.5208 Y-35.9835
G01 X10.5119 Y-35.9929
G01 X10.5031 Y-36.0000
G01 X10.4942 Y-36.0057
G01 X10.4593 Y-36.0345
G01 X10.4521 Y-36.0398
G01 X10.4444 Y-36.0445
G01 X10.4384 Y-36.0474
G01 X10.4257 Y-36.0520
G01 X10.3705 Y-36.0636
G01 X10.3613 Y-36.0650
G01 X10.3520 Y-36.0654
G01 X7.8514 Y-36.0653
G01 X7.8405 Y-36.0642
G01 X7.8320 Y-36.0623
G01 X7.7563 Y-36.0399
G01 X7.7479 Y-36.0362
G01 X7.7381 Y-36.0305
G01 X7.7307 Y-36.0251
G01 X7.7223 Y-36.0174
G01 X7.6720 Y-35.9595
G01 X7.6666 Y-35.9522
G01 X7.6619 Y-35.9444
G01 X7.6589 Y-35.9383
G01 X7.6534 Y-35.9250
G01 X7.6073 Y-35.8012
G01 X7.5369 Y-35.7071
G01 X7.4428 Y-35.6367
G01 X7.3312 Y-35.5951
G01 X7.2879 Y-35.5904
G01 X6.7021 Y-35.5904
G01 X6.6588 Y-35.5951
G01 X6.5472 Y-35.6367
G01 X6.4531 Y-35.7071
G01 X6.3827 Y-35.8012
G01 X6.3411 Y-35.9128
G01 X6.3365 Y-35.9560
G01 X6.3364 Y-36.9919
G00 Z2.0000
G00 X6.3364 Y-39.5319
G01 F10.00
G01 Z-0.0500
G01 F30.00
G01 X6.3411 Y-39.5752
G01 X6.3827 Y-39.6868
G01 X6.4531 Y-39.7809
G01 X6.5472 Y-39.8513
G01 X6.6588 Y-39.8929
G01 X6.7021 Y-39.8976
G01 X7.2879 Y-39.8975
G01 X7.3312 Y-39.8929
G01 X7.4428 Y-39.8513
G01 X7.5369 Y-39.7809
G01 X7.6073 Y-39.6868
G01 X7.6534 Y-39.5630
G01 X7.6579 Y-39.5530
G01 X7.6647 Y-39.5418
G01 X7.7107 Y-39.4805
G01 X7.7185 Y-39.4722
G01 X7.7254 Y-39.4663
G01 X7.7349 Y-39.4599
G01 X7.7430 Y-39.4557
G01 X7.8169 Y-39.4279
G01 X7.8279 Y-39.4249
G01 X7.8391 Y-39.4232
G01 X7.8558 Y-39.4226
G01 X10.3579 Y-39.4226
G01 X10.3666 Y-39.4230
G01 X10.3731 Y-39.4238
G01 X10.3817 Y-39.4257
G01 X10.4529 Y-39.4466
G01 X10.4652 Y-39.4516
G01 X10.4749 Y-39.4570
G01 X10.4854 Y-39.4650
G01 X10.5129 Y-39.4890
G01 X10.5194 Y-39.4953
G01 X10.5813 Y-39.5680
G01 X10.7126 Y-39.6678
G01 X10.8624 Y-39.7371
G01 X11.0235 Y-39.7726
G01 X11.9471 Y-39.7726
G01 X12.0700 Y-39.7592
G01 X12.2264 Y-39.7065
G01 X12.3678 Y-39.6214
G01 X12.4912 Y-39.5045
G01 X12.5001 Y-39.4951
G01 X12.5089 Y-39.4879
G01 X12.5178 Y-39.4823
G01 X12.5527 Y-39.4535
G01 X12.5599 Y-39.4482
G01 X12.5676 Y-39.4435
G01 X12.5736 Y-39.4406
G01 X12.5863 Y-39.4360
G01 X12.6438 Y-39.4240
G01 X12.6530 Y-39.4228
G01 X12.6600 Y-39.4226
G01 X13.7979 Y-39.4227
G01 X13.8088 Y-39.4238
G01 X13.8174 Y-39.4257
G01 X13.8930 Y-39.4481
G01 X13.9034 Y-39.4528
G01 X13.9132 Y-39.4587
G01 X13.9204 Y-39.4643
G01 X13.9286 Y-39.4723
G01 X13.9773 Y-39.5285
G01 X13.9814 Y-39.5339
G01 X13.9852 Y-39.5396
G01 X13.9904 Y-39.5497
G01 X13.9959 Y-39.5630
G01 X14.0327 Y-39.6618
G01 X14.1031 Y-39.7559
G01 X14.1972 Y-39.8263
G01 X14.3088 Y-39.8679
G01 X14.3521 Y-39.8726
G01 X14.9629 Y-39.8725
G01 X15.0062 Y-39.8679
G01 X15.1178 Y-39.8263
G01 X15.2119 Y-39.7559
G01 X15.2823 Y-39.6618
G01 X15.3239 Y-39.5502
G01 X15.3286 Y-39.5069
G01 X15.3285 Y-38.5211
G01 X15.3239 Y-38.4778
G01 X15.2823 Y-38.3662
G01 X15.2119 Y-38.2721
G01 X15.1178 Y-38.2017
G01 X15.0062 Y-38.1601
G01 X14.9629 Y-38.1554
G01 X14.3521 Y-38.1554
G01 X14.3088 Y-38.1601
G01 X14.1972 Y-38.2017
G01 X14.1031 Y-38.2721
G01 X14.0327 Y-38.3662
G01 X13.9959 Y-38.4650
G01 X13.9915 Y-38.4750
G01 X13.9883 Y-38.4807
G01 X13.9834 Y-38.4879
G01 X13.9372 Y-38.5492
G01 X13.9308 Y-38.5558
G01 X13.9221 Y-38.5631
G01 X13.9144 Y-38.5681
G01 X13.9042 Y-38.5732
G01 X13.8302 Y-38.6008
G01 X13.8192 Y-38.6036
G01 X13.8080 Y-38.6050
G01 X13.7936 Y-38.6054
G01 X12.6541 Y-38.6054
G01 X12.6432 Y-38.6048
G01 X12.6303 Y-38.6023
G01 X12.5591 Y-38.5814
G01 X12.5488 Y-38.5774
G01 X12.5371 Y-38.5710
G01 X12.5266 Y-38.5630
G01 X12.4991 Y-38.5390
G01 X12.4926 Y-38.5327
G01 X12.4307 Y-38.4600
G01 X12.2994 Y-38.3602
G01 X12.1496 Y-38.2909
G01 X11.9885 Y-38.2554
G01 X11.0649 Y-38.2554
G01 X10.9420 Y-38.2688
G01 X10.7856 Y-38.3215
G01 X10.6442 Y-38.4066
G01 X10.5208 Y-38.5235
G01 X10.5119 Y-38.5329
G01 X10.5031 Y-38.5400
G01 X10.4942 Y-38.5457
G01 X10.4593 Y-38.5745
G01 X10.4521 Y-38.5798
G01 X10.4444 Y-38.5845
G01 X10.4384 Y-38.5874
G01 X10.4257 Y-38.5920
G01 X10.3705 Y-38.6036
G01 X10.3613 Y-38.6050
G01 X10.3520 Y-38.6054
G01 X7.8514 Y-38.6053
G01 X7.8405 Y-38.6042
G01 X7.8320 Y-38.6023
G01 X7.7563 Y-38.5799
G01 X7.7479 Y-38.5762
G01 X7.7381 Y-38.5705
G01 X7.7307 Y-38.5651
G01 X7.7223 Y-38.5574
G01 X7.6720 Y-38.4995
G01 X7.6666 Y-38.4922
G01 X7.6619 Y-38.4844
G01 X7.6589 Y-38.4783
G01 X7.6534 Y-38.4650
G01 X7.6073 Y-38.3412
G01 X7.5369 Y-38.2471
G01 X7.4428 Y-38.1767
G01 X7.3312 Y-38.1351
G01 X7.2879 Y-38.1304
G01 X6.7021 Y-38.1304
G01 X6.6588 Y-38.1351
G01 X6.5472 Y-38.1767
G01 X6.4531 Y-38.2471
G01 X6.3827 Y-38.3412
G01 X6.3411 Y-38.4528
G01 X6.3365 Y-38.4960
G01 X6.3364 Y-39.5319
G00 Z2.0000
G00 X7.5869 Y-39.4890
G01 F10.00
G01 Z-0.0500
G01 F30.00
G01 X7.5869 Y-39.3561
G01 X10.5052 Y-39.3561
G01 X10.5307 Y-39.3984
G01 X10.5683 Y-39.4494
G01 X10.5741 Y-39.4564
G01 X10.6136 Y-39.5000
G01 X10.6200 Y-39.5064
G01 X10.6670 Y-39.5489
G01 X10.7179 Y-39.5867
G01 X10.7254 Y-39.5917
G01 X10.7798 Y-39.6242
G01 X10.8412 Y-39.6533
G01 X10.9051 Y-39.6762
G01 X10.9666 Y-39.6917
G01 X10.9755 Y-39.6934
G01 X11.0382 Y-39.7026
G01 X11.1037 Y-39.7059
G01 X11.9083 Y-39.7059
G01 X11.9693 Y-39.7029
G01 X11.9783 Y-39.7021
G01 X12.0410 Y-39.6927
G01 X12.1025 Y-39.6774
G01 X12.1111 Y-39.6747
G01 X12.1708 Y-39.6533
G01 X12.2282 Y-39.6263
G01 X12.2361 Y-39.6220
G01 X12.2904 Y-39.5893
G01 X12.3414 Y-39.5517
G01 X12.3484 Y-39.5459
G01 X12.3953 Y-39.5033
G01 X12.4379 Y-39.4564
G01 X12.4437 Y-39.4494
G01 X12.4813 Y-39.3984
G01 X12.5068 Y-39.3561
G01 X14.0531 Y-39.3561
G01 X14.0531 Y-39.4663
G01 X14.0549 Y-39.4998
G01 X14.0596 Y-39.5307
G01 X14.0666 Y-39.5589
G01 X14.0692 Y-39.5675
G01 X14.0800 Y-39.5969
G01 X14.0934 Y-39.6252
G01 X14.1107 Y-39.6540
G01 X14.1307 Y-39.6809
G01 X14.1501 Y-39.7025
G01 X14.1565 Y-39.7089
G01 X14.1763 Y-39.7269
G01 X14.1816 Y-39.7311
G01 X14.2050 Y-39.7483
G01 X14.2358 Y-39.7666
G01 X14.2641 Y-39.7799
G01 X14.2957 Y-39.7912
G01 X14.3283 Y-39.7994
G01 X14.3570 Y-39.8038
G01 X14.3660 Y-39.8046
G01 X14.3950 Y-39.8059
G01 X14.9200 Y-39.8059
G01 X14.9558 Y-39.8041
G01 X14.9867 Y-39.7994
G01 X15.0149 Y-39.7924
G01 X15.0235 Y-39.7898
G01 X15.0509 Y-39.7799
G01 X15.0812 Y-39.7656
G01 X15.1062 Y-39.7507
G01 X15.1137 Y-39.7457
G01 X15.1352 Y-39.7297
G01 X15.1403 Y-39.7254
G01 X15.1618 Y-39.7058
G01 X15.1829 Y-39.6827
G01 X15.2017 Y-39.6577
G01 X15.2067 Y-39.6502
G01 X15.2216 Y-39.6252
G01 X15.2359 Y-39.5949
G01 X15.2472 Y-39.5633
G01 X15.2544 Y-39.5351
G01 X15.2562 Y-39.5263
G01 X15.2603 Y-39.4975
G01 X15.2619 Y-39.4640
G01 X15.2619 Y-38.5640
G01 X15.2601 Y-38.5282
G01 X15.2554 Y-38.4973
G01 X15.2484 Y-38.4691
G01 X15.2458 Y-38.4605
G01 X15.2359 Y-38.4331
G01 X15.2216 Y-38.4028
G01 X15.2067 Y-38.3778
G01 X15.2017 Y-38.3703
G01 X15.1843 Y-38.3471
G01 X15.1649 Y-38.3255
G01 X15.1585 Y-38.3191
G01 X15.1369 Y-38.2997
G01 X15.1100 Y-38.2797
G01 X15.0851 Y-38.2647
G01 X15.0772 Y-38.2604
G01 X15.0509 Y-38.2481
G01 X15.0235 Y-38.2382
G01 X15.0171 Y-38.2361
G01 X14.9911 Y-38.2296
G01 X14.9823 Y-38.2278
G01 X14.9535 Y-38.2237
G01 X14.9223 Y-38.2221
G01 X14.3927 Y-38.2221
G01 X14.3615 Y-38.2237
G01 X14.3327 Y-38.2278
G01 X14.3239 Y-38.2296
G01 X14.2979 Y-38.2361
G01 X14.2915 Y-38.2382
G01 X14.2641 Y-38.2481
G01 X14.2378 Y-38.2604
G01 X14.2299 Y-38.2647
G01 X14.2050 Y-38.2797
G01 X14.1781 Y-38.2997
G01 X14.1532 Y-38.3222
G01 X14.1336 Y-38.3437
G01 X14.1279 Y-38.3506
G01 X14.1120 Y-38.3722
G01 X14.1083 Y-38.3778
G01 X14.0934 Y-38.4028
G01 X14.0809 Y-38.4290
G01 X14.0775 Y-38.4374
G01 X14.0678 Y-38.4647
G01 X14.0601 Y-38.4951
G01 X14.0547 Y-38.5305
G01 X14.0532 Y-38.5595
G01 X14.0531 Y-38.6719
G01 X12.5068 Y-38.6719
G01 X12.4813 Y-38.6296
G01 X12.4437 Y-38.5786
G01 X12.4379 Y-38.5716
G01 X12.3953 Y-38.5247
G01 X12.3484 Y-38.4821
G01 X12.3414 Y-38.4763
G01 X12.2904 Y-38.4387
G01 X12.2342 Y-38.4048
G01 X12.1708 Y-38.3747
G01 X12.1111 Y-38.3533
G01 X12.1025 Y-38.3506
G01 X12.0410 Y-38.3353
G01 X11.9783 Y-38.3259
G01 X11.9693 Y-38.3251
G01 X11.9060 Y-38.3221
G01 X11.1037 Y-38.3221
G01 X11.0382 Y-38.3254
G01 X10.9755 Y-38.3346
G01 X10.9666 Y-38.3363
G01 X10.9051 Y-38.3518
G01 X10.8412 Y-38.3747
G01 X10.7798 Y-38.4038
G01 X10.7254 Y-38.4363
G01 X10.7179 Y-38.4413
G01 X10.6670 Y-38.4791
G01 X10.6200 Y-38.5216
G01 X10.6136 Y-38.5280
G01 X10.5741 Y-38.5716
G01 X10.5683 Y-38.5786
G01 X10.5307 Y-38.6296
G01 X10.5052 Y-38.6719
G01 X7.5869 Y-38.6719
G01 X7.5869 Y-38.5390
G01 X7.5851 Y-38.5032
G01 X7.5804 Y-38.4723
G01 X7.5722 Y-38.4397
G01 X7.5609 Y-38.4081
G01 X7.5486 Y-38.3818
G01 X7.5455 Y-38.3758
G01 X7.5317 Y-38.3528
G01 X7.5267 Y-38.3453
G01 X7.5079 Y-38.3203
G01 X7.4899 Y-38.3005
G01 X7.4835 Y-38.2941
G01 X7.4619 Y-38.2747
G01 X7.4350 Y-38.2547
G01 X7.4062 Y-38.2374
G01 X7.3738 Y-38.2222
G01 X7.3443 Y-38.2118
G01 X7.3117 Y-38.2036
G01 X7.2785 Y-38.1987
G01 X7.2473 Y-38.1971
G01 X6.7450 Y-38.1971
G01 X6.7137 Y-38.1985
G01 X6.6827 Y-38.2028
G01 X6.6739 Y-38.2046
G01 X6.6457 Y-38.2118
G01 X6.6141 Y-38.2231
G01 X6.5838 Y-38.2374
G01 X6.5588 Y-38.2523
G01 X6.5513 Y-38.2573
G01 X6.5263 Y-38.2761
G01 X6.5032 Y-38.2972
G01 X6.4836 Y-38.3187
G01 X6.4779 Y-38.3256
G01 X6.4620 Y-38.3472
G01 X6.4583 Y-38.3528
G01 X6.4434 Y-38.3778
G01 X6.4309 Y-38.4040
G01 X6.4275 Y-38.4124
G01 X6.4178 Y-38.4397
G01 X6.4096 Y-38.4723
G01 X6.4047 Y-38.5055
G01 X6.4031 Y-38.5367
G01 X6.4031 Y-39.4890
G01 X6.4045 Y-39.5203
G01 X6.4088 Y-39.5513
G01 X6.4106 Y-39.5601
G01 X6.4178 Y-39.5883
G01 X6.4291 Y-39.6199
G01 X6.4434 Y-39.6502
G01 X6.4583 Y-39.6752
G01 X6.4633 Y-39.6827
G01 X6.4821 Y-39.7077
G01 X6.5032 Y-39.7308
G01 X6.5281 Y-39.7533
G01 X6.5550 Y-39.7733
G01 X6.5838 Y-39.7906
G01 X6.6141 Y-39.8049
G01 X6.6457 Y-39.8162
G01 X6.6783 Y-39.8244
G01 X6.7070 Y-39.8288
G01 X6.7160 Y-39.8296
G01 X6.7450 Y-39.8309
G01 X7.2450 Y-39.8309
G01 X7.2785 Y-39.8293
G01 X7.3117 Y-39.8244
G01 X7.3443 Y-39.8162
G01 X7.3759 Y-39.8049
G01 X7.4062 Y-39.7906
G01 X7.4312 Y-39.7757
G01 X7.4387 Y-39.7707
G01 X7.4602 Y-39.7547
G01 X7.4653 Y-39.7504
G01 X7.4868 Y-39.7308
G01 X7.5093 Y-39.7059
G01 X7.5293 Y-39.6790
G01 X7.5443 Y-39.6541
G01 X7.5476 Y-39.6482
G01 X7.5591 Y-39.6240
G01 X7.5625 Y-39.6156
G01 X7.5722 Y-39.5883
G01 X7.5804 Y-39.5557
G01 X7.5853 Y-39.5225
G01 X7.5869 Y-39.4890
G00 Z2.0000
G00 X10.3441 Y-41.5127
G01 F10.00
G01 Z-0.0500
G01 F30.00
G01 X10.3530 Y-41.6774
G01 X10.3972 Y-41.8364
G01 X10.4745 Y-41.9822
G01 X10.5306 Y-42.0483
G01 X10.5813 Y-42.1080
G01 X10.7126 Y-42.2078
G01 X10.8624 Y-42.2771
G01 X11.0235 Y-42.3126
G01 X11.9471 Y-42.3126
G01 X12.0700 Y-42.2992
G01 X12.2264 Y-42.2465
G01 X12.3678 Y-42.1614
G01 X12.4875 Y-42.0480
G01 X12.5801 Y-41.9114
G01 X12.6412 Y-41.7581
G01 X12.6679 Y-41.5953
G01 X12.6590 Y-41.4306
G01 X12.6148 Y-41.2716
G01 X12.5375 Y-41.1258
G01 X12.4307 Y-41.0000
G01 X12.2994 Y-40.9002
G01 X12.1496 Y-40.8309
G01 X11.9885 Y-40.7954
G01 X11.0649 Y-40.7954
G01 X10.9420 Y-40.8088
G01 X10.7856 Y-40.8615
G01 X10.6442 Y-40.9466
G01 X10.5245 Y-41.0600
G01 X10.4319 Y-41.1966
G01 X10.3708 Y-41.3499
G01 X10.3441 Y-41.5127
G00 Z2.0000
G00 X11.1060 Y-42.2459
G01 F10.00
G01 Z-0.0500
G01 F30.00
G01 X11.9060 Y-42.2459
G01 X11.9761 Y-42.2424
G01 X12.0410 Y-42.2327
G01 X12.1025 Y-42.2174
G01 X12.1111 Y-42.2147
G01 X12.1708 Y-42.1933
G01 X12.2322 Y-42.1642
G01 X12.2866 Y-42.1317
G01 X12.2941 Y-42.1267
G01 X12.3467 Y-42.0874
G01 X12.3953 Y-42.0433
G01 X12.4409 Y-41.9930
G01 X12.4813 Y-41.9384
G01 X12.5162 Y-41.8802
G01 X12.5453 Y-41.8188
G01 X12.5682 Y-41.7549
G01 X12.5847 Y-41.6890
G01 X12.5946 Y-41.6218
G01 X12.5979 Y-41.5540
G01 X12.5946 Y-41.4862
G01 X12.5847 Y-41.4190
G01 X12.5682 Y-41.3531
G01 X12.5453 Y-41.2892
G01 X12.5162 Y-41.2278
G01 X12.4813 Y-41.1696
G01 X12.4394 Y-41.1133
G01 X12.3953 Y-41.0647
G01 X12.3450 Y-41.0191
G01 X12.2904 Y-40.9787
G01 X12.2322 Y-40.9438
G01 X12.1708 Y-40.9147
G01 X12.1069 Y-40.8918
G01 X12.0410 Y-40.8753
G01 X11.9783 Y-40.8659
G01 X11.9693 Y-40.8651
G01 X11.9060 Y-40.8621
G01 X11.1060 Y-40.8621
G01 X11.0359 Y-40.8656
G01 X10.9710 Y-40.8753
G01 X10.9095 Y-40.8906
G01 X10.9009 Y-40.8933
G01 X10.8412 Y-40.9147
G01 X10.7798 Y-40.9438
G01 X10.7254 Y-40.9763
G01 X10.7179 Y-40.9813
G01 X10.6653 Y-41.0206
G01 X10.6167 Y-41.0647
G01 X10.5741 Y-41.1116
G01 X10.5683 Y-41.1186
G01 X10.5307 Y-41.1696
G01 X10.4958 Y-41.2278
G01 X10.4686 Y-41.2851
G01 X10.4651 Y-41.2934
G01 X10.4453 Y-41.3489
G01 X10.4426 Y-41.3575
G01 X10.4273 Y-41.4190
G01 X10.4179 Y-41.4817
G01 X10.4171 Y-41.4907
G01 X10.4142 Y-41.5495
G01 X10.4142 Y-41.5585
G01 X10.4174 Y-41.6218
G01 X10.4273 Y-41.6890
G01 X10.4438 Y-41.7549
G01 X10.4651 Y-41.8146
G01 X10.4686 Y-41.8229
G01 X10.4937 Y-41.8762
G01 X10.4980 Y-41.8841
G01 X10.5307 Y-41.9384
G01 X10.5711 Y-41.9930
G01 X10.6167 Y-42.0433
G01 X10.6636 Y-42.0859
G01 X10.6706 Y-42.0917
G01 X10.7216 Y-42.1293
G01 X10.7798 Y-42.1642
G01 X10.8371 Y-42.1914
G01 X10.8454 Y-42.1949
G01 X10.9051 Y-42.2162
G01 X10.9710 Y-42.2327
G01 X11.0337 Y-42.2421
G01 X11.0427 Y-42.2429
G01 X11.1060 Y-42.2459
G00 Z2.0000
G00 X10.3441 Y-46.5927
G01 F10.00
G01 Z-0.0500
G01 F30.00
G01 X10.3530 Y-46.7574
G01 X10.3972 Y-46.9164
G01 X10.4745 Y-47.0622
G01 X10.5306 Y-47.1283
G01 X10.5813 Y-47.1880
G01 X10.7126 Y-47.2878
G01 X10.8624 Y-47.3571
G01 X11.0235 Y-47.3926
G01 X11.9471 Y-47.3926
G01 X12.0700 Y-47.3792
G01 X12.2264 Y-47.3265
G01 X12.3678 Y-47.2414
G01 X12.4875 Y-47.1280
G01 X12.5801 Y-46.9914
G01 X12.6412 Y-46.8381
G01 X12.6679 Y-46.6753
G01 X12.6590 Y-46.5106
G01 X12.6148 Y-46.3516
G01 X12.5375 Y-46.2058
G01 X12.4307 Y-46.0800
G01 X12.2994 Y-45.9802
G01 X12.1496 Y-45.9109
G01 X11.9885 Y-45.8754
G01 X11.0649 Y-45.8754
G01 X10.9420 Y-45.8888
G01 X10.7856 Y-45.9415
G01 X10.6442 Y-46.0266
G01 X10.5245 Y-46.1400
G01 X10.4319 Y-46.2766
G01 X10.3708 Y-46.4299
G01 X10.3441 Y-46.5927
G00 Z2.0000
G00 X11.1060 Y-47.3259
G01 F10.00
G01 Z-0.0500
G01 F30.00
G01 X11.9060 Y-47.3259
G01 X11.9761 Y-47.3224
G01 X12.0410 Y-47.3127
G01 X12.1025 Y-47.2974
G01 X12.1111 Y-47.2947
G01 X12.1708 Y-47.2733
G01 X12.2322 Y-47.2442
G01 X12.2866 Y-47.2117
G01 X12.2941 Y-47.2067
G01 X12.3467 Y-47.1674
G01 X12.3953 Y-47.1233
G01 X12.4409 Y-47.0730
G01 X12.4813 Y-47.0184
G01 X12.5162 Y-46.9602
G01 X12.5453 Y-46.8988
G01 X12.5682 Y-46.8349
G01 X12.5847 Y-46.7690
G01 X12.5946 Y-46.7018
G01 X12.5979 Y-46.6340
G01 X12.5946 Y-46.5662
G01 X12.5847 Y-46.4990
G01 X12.5682 Y-46.4331
G01 X12.5453 Y-46.3692
G01 X12.5162 Y-46.3078
G01 X12.4813 Y-46.2496
G01 X12.4394 Y-46.1933
G01 X12.3953 Y-46.1447
G01 X12.3450 Y-46.0991
G01 X12.2904 Y-46.0587
G01 X12.2322 Y-46.0238
G01 X12.1708 Y-45.9947
G01 X12.1069 Y-45.9718
G01 X12.0410 Y-45.9553
G01 X11.9783 Y-45.9459
G01 X11.9693 Y-45.9451
G01 X11.9060 Y-45.9421
G01 X11.1060 Y-45.9421
G01 X11.0359 Y-45.9456
G01 X10.9710 Y-45.9553
G01 X10.9095 Y-45.9706
G01 X10.9009 Y-45.9733
G01 X10.8412 Y-45.9947
G01 X10.7798 Y-46.0238
G01 X10.7254 Y-46.0563
G01 X10.7179 Y-46.0613
G01 X10.6653 Y-46.1006
G01 X10.6167 Y-46.1447
G01 X10.5741 Y-46.1916
G01 X10.5683 Y-46.1986
G01 X10.5307 Y-46.2496
G01 X10.4958 Y-46.3078
G01 X10.4686 Y-46.3651
G01 X10.4651 Y-46.3734
G01 X10.4453 Y-46.4289
G01 X10.4426 Y-46.4375
G01 X10.4273 Y-46.4990
G01 X10.4179 Y-46.5617
G01 X10.4171 Y-46.5707
G01 X10.4142 Y-46.6295
G01 X10.4142 Y-46.6385
G01 X10.4174 Y-46.7018
G01 X10.4273 Y-46.7690
G01 X10.4438 Y-46.8349
G01 X10.4651 Y-46.8946
G01 X10.4686 Y-46.9029
G01 X10.4937 Y-46.9562
G01 X10.4980 Y-46.9641
G01 X10.5307 Y-47.0184
G01 X10.5711 Y-47.0730
G01 X10.6167 Y-47.1233
G01 X10.6636 Y-47.1659
G01 X10.6706 Y-47.1717
G01 X10.7216 Y-47.2093
G01 X10.7798 Y-47.2442
G01 X10.8371 Y-47.2714
G01 X10.8454 Y-47.2749
G01 X10.9051 Y-47.2962
G01 X10.9710 Y-47.3127
G01 X11.0337 Y-47.3221
G01 X11.0427 Y-47.3229
G01 X11.1060 Y-47.3259
G00 Z2.0000
G00 X10.3441 Y-51.6727
G01 F10.00
G01 Z-0.0500
G01 F30.00
G01 X10.3530 Y-51.8374
G01 X10.3972 Y-51.9964
G01 X10.4745 Y-52.1422
G01 X10.5813 Y-52.2680
G01 X10.7126 Y-52.3678
G01 X10.8624 Y-52.4371
G01 X11.0235 Y-52.4726
G01 X11.9471 Y-52.4726
G01 X12.0700 Y-52.4592
G01 X12.2264 Y-52.4065
G01 X12.2374 Y-52.4002
G01 X12.2435 Y-52.3973
G01 X12.2499 Y-52.3950
G01 X12.3204 Y-52.3753
G01 X12.3292 Y-52.3736
G01 X12.3405 Y-52.3726
G01 X14.5118 Y-52.3726
G01 X14.5227 Y-52.3732
G01 X14.5334 Y-52.3751
G01 X14.6090 Y-52.3973
G01 X14.6194 Y-52.4017
G01 X14.6311 Y-52.4085
G01 X14.6571 Y-52.4292
G01 X14.6645 Y-52.4358
G01 X15.6633 Y-53.4346
G01 X15.6811 Y-53.4548
G01 X15.6917 Y-53.4690
G01 X15.7250 Y-53.4970
G01 X15.7355 Y-53.5068
G01 X15.7591 Y-53.5255
G01 X15.8138 Y-53.5714
G01 X15.8185 Y-53.5745
G01 X15.8210 Y-53.5760
G01 X15.8882 Y-53.6074
G01 X15.9520 Y-53.6395
G01 X15.9602 Y-53.6423
G01 X16.0302 Y-53.6567
G01 X16.1038 Y-53.6740
G01 X16.1108 Y-53.6747
G01 X16.1849 Y-53.6726
G01 X28.1509 Y-53.6726
G01 X28.1778 Y-53.6743
G01 X28.1953 Y-53.6768
G01 X28.2387 Y-53.6730
G01 X28.2529 Y-53.6726
G01 X28.2829 Y-53.6691
G01 X28.3540 Y-53.6629
G01 X28.3624 Y-53.6610
G01 X28.4296 Y-53.6366
G01 X28.4999 Y-53.6132
G01 X28.5051 Y-53.6108
G01 X28.5076 Y-53.6095
G01 X28.5696 Y-53.5688
G01 X28.6304 Y-53.5313
G01 X28.6371 Y-53.5258
G01 X28.6880 Y-53.4720
G01 X33.0515 Y-49.1084
G01 X33.0597 Y-49.1011
G01 X33.0687 Y-49.0949
G01 X33.1358 Y-49.0582
G01 X33.1419 Y-49.0553
G01 X33.1504 Y-49.0522
G01 X33.1636 Y-49.0491
G01 X33.1944 Y-49.0457
G01 X33.2042 Y-49.0452
G01 X59.4229 Y-49.0452
G01 X59.4498 Y-49.0469
G01 X59.4673 Y-49.0494
G01 X59.5107 Y-49.0456
G01 X59.5249 Y-49.0452
G01 X59.5549 Y-49.0417
G01 X59.6260 Y-49.0355
G01 X59.6344 Y-49.0336
G01 X59.7016 Y-49.0092
G01 X59.7719 Y-48.9858
G01 X59.7771 Y-48.9834
G01 X59.7796 Y-48.9821
G01 X59.8416 Y-48.9414
G01 X59.9024 Y-48.9039
G01 X59.9091 Y-48.8984
G01 X59.9600 Y-48.8446
G01 X64.6237 Y-44.1808
G01 X64.6336 Y-44.1722
G01 X64.6428 Y-44.1662
G01 X64.7060 Y-44.1316
G01 X64.7141 Y-44.1277
G01 X64.7226 Y-44.1246
G01 X64.7335 Y-44.1219
G01 X64.7715 Y-44.1177
G01 X69.1945 Y-44.1176
G01 X69.2054 Y-44.1182
G01 X69.2162 Y-44.1201
G01 X69.2896 Y-44.1416
G01 X69.2961 Y-44.1440
G01 X69.3043 Y-44.1478
G01 X69.3122 Y-44.1525
G01 X69.3196 Y-44.1579
G01 X69.3247 Y-44.1624
G01 X69.3295 Y-44.1673
G01 X69.3768 Y-44.2218
G01 X69.3824 Y-44.2290
G01 X69.3885 Y-44.2388
G01 X69.3932 Y-44.2492
G01 X69.3966 Y-44.2602
G01 X69.4088 Y-44.3161
G01 X69.4100 Y-44.3248
G01 X69.4104 Y-44.3313
G01 X69.4104 Y-48.5019
G01 X69.4151 Y-48.5452
G01 X69.4567 Y-48.6568
G01 X69.5271 Y-48.7509
G01 X69.6212 Y-48.8213
G01 X69.7328 Y-48.8629
G01 X69.7761 Y-48.8676
G01 X70.3619 Y-48.8675
G01 X70.4052 Y-48.8629
G01 X70.5168 Y-48.8213
G01 X70.6109 Y-48.7509
G01 X70.6813 Y-48.6568
G01 X70.7229 Y-48.5452
G01 X70.7276 Y-48.5019
G01 X70.7276 Y-43.5997
G01 X70.7293 Y-43.5728
G01 X70.7318 Y-43.5553
G01 X70.7280 Y-43.5120
G01 X70.7276 Y-43.4976
G01 X70.7241 Y-43.4677
G01 X70.7179 Y-43.3966
G01 X70.7160 Y-43.3882
G01 X70.7129 Y-43.3793
G01 X70.7106 Y-43.3704
G01 X70.7027 Y-43.3258
G01 X70.7015 Y-43.3144
G01 X70.7013 Y-42.9411
G01 X70.6967 Y-42.8978
G01 X70.6551 Y-42.7862
G01 X70.5847 Y-42.6921
G01 X70.4906 Y-42.6217
G01 X70.3790 Y-42.5801
G01 X70.3357 Y-42.5754
G01 X69.7499 Y-42.5754
G01 X69.7066 Y-42.5801
G01 X69.5950 Y-42.6217
G01 X69.5009 Y-42.6921
G01 X69.4819 Y-42.7174
G01 X69.4729 Y-42.7268
G01 X69.4661 Y-42.7324
G01 X69.4047 Y-42.7781
G01 X69.3989 Y-42.7815
G01 X69.3908 Y-42.7854
G01 X69.3780 Y-42.7897
G01 X69.3281 Y-42.7990
G01 X69.3165 Y-42.8003
G01 X64.6943 Y-42.8003
G01 X64.6856 Y-42.7995
G01 X64.6749 Y-42.7973
G01 X64.6057 Y-42.7770
G01 X64.5992 Y-42.7749
G01 X64.5929 Y-42.7722
G01 X64.5868 Y-42.7691
G01 X64.5810 Y-42.7655
G01 X64.5719 Y-42.7587
G01 X64.5637 Y-42.7507
G01 X64.5164 Y-42.6962
G01 X64.5121 Y-42.6909
G01 X64.5070 Y-42.6833
G01 X64.5037 Y-42.6773
G01 X64.5009 Y-42.6711
G01 X64.4972 Y-42.6603
G01 X64.4952 Y-42.6514
G01 X64.4846 Y-42.5777
G01 X64.4841 Y-42.5708
G01 X64.4840 Y-42.5640
G01 X64.4845 Y-42.5572
G01 X64.4855 Y-42.5504
G01 X64.4876 Y-42.5415
G01 X64.4914 Y-42.5307
G01 X64.5223 Y-42.4630
G01 X64.5255 Y-42.4570
G01 X64.5305 Y-42.4494
G01 X64.5361 Y-42.4423
G01 X64.5437 Y-42.4342
G01 X88.0060 Y-18.9718
G01 X88.0108 Y-18.9673
G01 X88.0177 Y-18.9619
G01 X88.0269 Y-18.9561
G01 X88.0883 Y-18.9226
G01 X88.1006 Y-18.9170
G01 X88.1092 Y-18.9143
G01 X88.1180 Y-18.9125
G01 X88.1488 Y-18.9091
G01 X88.1587 Y-18.9086
G01 X97.0312 Y-18.9088
G01 X97.0399 Y-18.9098
G01 X97.0484 Y-18.9117
G01 X97.1219 Y-18.9333
G01 X97.1303 Y-18.9367
G01 X97.1383 Y-18.9410
G01 X97.1459 Y-18.9459
G01 X97.1546 Y-18.9532
G01 X97.1609 Y-18.9597
G01 X97.2062 Y-19.0116
G01 X97.2121 Y-19.0190
G01 X97.2159 Y-19.0249
G01 X97.2193 Y-19.0311
G01 X97.2428 Y-19.0815
G01 X97.3591 Y-19.2475
G01 X97.5025 Y-19.3909
G01 X97.6685 Y-19.5072
G01 X97.8522 Y-19.5928
G01 X98.0481 Y-19.6453
G01 X98.2500 Y-19.6630
G01 X98.4519 Y-19.6453
G01 X98.6478 Y-19.5928
G01 X98.8315 Y-19.5072
G01 X98.9975 Y-19.3909
G01 X99.1409 Y-19.2475
G01 X99.2572 Y-19.0815
G01 X99.3428 Y-18.8978
G01 X99.3953 Y-18.7019
G01 X99.4130 Y-18.5000
G01 X99.3953 Y-18.2981
G01 X99.3428 Y-18.1022
G01 X99.2572 Y-17.9185
G01 X99.1409 Y-17.7525
G01 X98.9975 Y-17.6091
G01 X98.8315 Y-17.4928
G01 X98.6478 Y-17.4072
G01 X98.4519 Y-17.3547
G01 X98.2500 Y-17.3370
G01 X98.0481 Y-17.3547
G01 X97.8522 Y-17.4072
G01 X97.6685 Y-17.4928
G01 X97.5025 Y-17.6091
G01 X97.3591 Y-17.7525
G01 X97.2428 Y-17.9185
G01 X97.2194 Y-17.9687
G01 X97.2127 Y-17.9800
G01 X97.2060 Y-17.9887
G01 X97.1598 Y-18.0411
G01 X97.1535 Y-18.0476
G01 X97.1466 Y-18.0535
G01 X97.1391 Y-18.0586
G01 X97.1312 Y-18.0630
G01 X97.1228 Y-18.0665
G01 X97.0479 Y-18.0885
G01 X97.0387 Y-18.0904
G01 X97.0317 Y-18.0912
G01 X97.0246 Y-18.0914
G01 X87.9671 Y-18.0914
G01 X87.9598 Y-18.0912
G01 X87.9315 Y-18.0882
G01 X87.8909 Y-18.0911
G01 X87.8708 Y-18.0914
G01 X87.8508 Y-18.0939
G01 X87.8102 Y-18.0968
G01 X87.7856 Y-18.1031
G01 X87.7455 Y-18.1213
G01 X87.7002 Y-18.1385
G01 X87.6784 Y-18.1514
G01 X87.6476 Y-18.1781
G01 X87.6318 Y-18.1905
G01 X87.6173 Y-18.2044
G01 X87.5837 Y-18.2335
G01 X87.5750 Y-18.2401
G01 X87.5676 Y-18.2447
G01 X87.5617 Y-18.2476
G01 X87.4981 Y-18.2767
G01 X87.4875 Y-18.2807
G01 X87.4786 Y-18.2830
G01 X87.4696 Y-18.2845
G01 X87.4605 Y-18.2850
G01 X87.4514 Y-18.2846
G01 X87.3754 Y-18.2737
G01 X87.3665 Y-18.2718
G01 X87.3600 Y-18.2697
G01 X87.3515 Y-18.2662
G01 X87.3455 Y-18.2631
G01 X87.3378 Y-18.2582
G01 X87.3323 Y-18.2540
G01 X87.2761 Y-18.2053
G01 X87.2696 Y-18.1988
G01 X87.2625 Y-18.1899
G01 X87.2588 Y-18.1841
G01 X87.2556 Y-18.1781
G01 X87.2528 Y-18.1718
G01 X87.2504 Y-18.1654
G01 X87.2295 Y-18.0940
G01 X87.2275 Y-18.0851
G01 X87.2265 Y-18.0761
G01 X87.2263 Y-18.0693
G01 X87.2267 Y-18.0581
G01 X87.2288 Y-18.0275
G01 X87.2258 Y-17.9992
G01 X87.2256 Y-17.9919
G01 X87.2256 Y-14.7479
G01 X87.2258 Y-14.7406
G01 X87.2288 Y-14.7123
G01 X87.2259 Y-14.6717
G01 X87.2256 Y-14.6516
G01 X87.2231 Y-14.6316
G01 X87.2202 Y-14.5910
G01 X87.2139 Y-14.5664
G01 X87.1940 Y-14.5223
G01 X87.1785 Y-14.4810
G01 X87.1656 Y-14.4592
G01 X87.1389 Y-14.4284
G01 X87.1266 Y-14.4126
G01 X87.1126 Y-14.3981
G01 X87.0859 Y-14.3673
G01 X87.0638 Y-14.3494
G01 X87.0584 Y-14.3444
G01 X85.9726 Y-13.2586
G01 X85.9676 Y-13.2532
G01 X85.9497 Y-13.2311
G01 X85.9189 Y-13.2044
G01 X85.9044 Y-13.1904
G01 X85.8886 Y-13.1781
G01 X85.8578 Y-13.1514
G01 X85.8360 Y-13.1385
G01 X85.7947 Y-13.1230
G01 X85.7506 Y-13.1031
G01 X85.7260 Y-13.0968
G01 X85.6854 Y-13.0939
G01 X85.6654 Y-13.0914
G01 X85.6453 Y-13.0911
G01 X85.6047 Y-13.0882
G01 X85.5764 Y-13.0912
G01 X85.5691 Y-13.0914
G01 X85.1179 Y-13.0912
G01 X85.1093 Y-13.0902
G01 X85.1007 Y-13.0883
G01 X85.0272 Y-13.0666
G01 X85.0187 Y-13.0632
G01 X85.0107 Y-13.0590
G01 X85.0030 Y-13.0539
G01 X84.9960 Y-13.0482
G01 X84.9880 Y-13.0400
G01 X84.9407 Y-12.9855
G01 X84.9353 Y-12.9781
G01 X84.9305 Y-12.9702
G01 X84.9258 Y-12.9598
G01 X84.9229 Y-12.9510
G01 X84.9098 Y-12.8907
G01 X84.9090 Y-12.8842
G01 X84.9086 Y-12.8755
G01 X84.9086 Y-12.4844
G01 X84.8994 Y-12.4381
G01 X84.8643 Y-12.3857
G01 X84.8119 Y-12.3506
G01 X84.7656 Y-12.3414
G01 X82.7344 Y-12.3414
G01 X82.6881 Y-12.3506
G01 X82.6357 Y-12.3857
G01 X82.6006 Y-12.4381
G01 X82.5914 Y-12.4844
G01 X82.5914 Y-14.5156
G01 X82.6006 Y-14.5619
G01 X82.6357 Y-14.6143
G01 X82.6881 Y-14.6494
G01 X82.7344 Y-14.6585
G01 X84.7656 Y-14.6586
G01 X84.8119 Y-14.6494
G01 X84.8643 Y-14.6143
G01 X84.8994 Y-14.5619
G01 X84.9086 Y-14.5156
G01 X84.9086 Y-14.1245
G01 X84.9090 Y-14.1158
G01 X84.9098 Y-14.1093
G01 X84.9117 Y-14.1007
G01 X84.9334 Y-14.0272
G01 X84.9358 Y-14.0208
G01 X84.9388 Y-14.0147
G01 X84.9435 Y-14.0068
G01 X84.9474 Y-14.0012
G01 X84.9518 Y-13.9960
G01 X84.9583 Y-13.9895
G01 X85.0128 Y-13.9422
G01 X85.0200 Y-13.9366
G01 X85.0278 Y-13.9316
G01 X85.0381 Y-13.9266
G01 X85.0490 Y-13.9229
G01 X85.1050 Y-13.9107
G01 X85.1136 Y-13.9092
G01 X85.1245 Y-13.9086
G01 X85.3819 Y-13.9087
G01 X85.3906 Y-13.9095
G01 X85.4013 Y-13.9117
G01 X85.4705 Y-13.9320
G01 X85.4790 Y-13.9349
G01 X85.4872 Y-13.9387
G01 X85.4968 Y-13.9445
G01 X85.5266 Y-13.9684
G01 X86.3452 Y-14.7868
G01 X86.3511 Y-14.7933
G01 X86.3563 Y-14.8003
G01 X86.3609 Y-14.8077
G01 X86.3944 Y-14.8690
G01 X86.4000 Y-14.8814
G01 X86.4027 Y-14.8900
G01 X86.4045 Y-14.8988
G01 X86.4079 Y-14.9296
G01 X86.4084 Y-14.9395
G01 X86.4084 Y-17.8025
G01 X86.4075 Y-17.8134
G01 X86.4053 Y-17.8241
G01 X86.3844 Y-17.8954
G01 X86.3821 Y-17.9018
G01 X86.3783 Y-17.9100
G01 X86.3737 Y-17.9178
G01 X86.3698 Y-17.9233
G01 X86.3518 Y-17.9457
G01 X86.3452 Y-17.9530
G01 X85.2055 Y-19.0926
G01 X85.1987 Y-19.0982
G01 X85.1896 Y-19.1042
G01 X85.1263 Y-19.1388
G01 X85.1160 Y-19.1436
G01 X85.1052 Y-19.1471
G01 X85.0985 Y-19.1486
G01 X85.0917 Y-19.1495
G01 X85.0803 Y-19.1500
G01 X85.0038 Y-19.1446
G01 X84.9925 Y-19.1428
G01 X84.9837 Y-19.1404
G01 X84.9731 Y-19.1361
G01 X84.9631 Y-19.1306
G01 X84.8997 Y-19.0834
G01 X84.8929 Y-19.0774
G01 X84.8881 Y-19.0725
G01 X84.8837 Y-19.0672
G01 X84.8785 Y-19.0597
G01 X84.8741 Y-19.0517
G01 X84.8713 Y-19.0455
G01 X84.8453 Y-18.9757
G01 X84.8433 Y-18.9691
G01 X84.8414 Y-18.9600
G01 X84.8404 Y-18.9509
G01 X84.8405 Y-18.9393
G01 X84.8446 Y-18.8961
G01 X84.8463 Y-18.8853
G01 X84.8953 Y-18.7019
G01 X84.9130 Y-18.5000
G01 X84.8953 Y-18.2981
G01 X84.8428 Y-18.1022
G01 X84.7572 Y-17.9185
G01 X84.6409 Y-17.7525
G01 X84.4975 Y-17.6091
G01 X84.3315 Y-17.4928
G01 X84.1478 Y-17.4072
G01 X83.9519 Y-17.3547
G01 X83.7500 Y-17.3370
G01 X83.5481 Y-17.3547
G01 X83.3522 Y-17.4072
G01 X83.1685 Y-17.4928
G01 X83.0025 Y-17.6091
G01 X82.8591 Y-17.7525
G01 X82.7428 Y-17.9185
G01 X82.6572 Y-18.1022
G01 X82.6047 Y-18.2980
G01 X82.5870 Y-18.5000
G01 X82.6047 Y-18.7019
G01 X82.6572 Y-18.8978
G01 X82.7428 Y-19.0815
G01 X82.8591 Y-19.2475
G01 X83.0025 Y-19.3909
G01 X83.0192 Y-19.4027
G01 X83.0258 Y-19.4084
G01 X83.0305 Y-19.4131
G01 X83.0811 Y-19.4763
G01 X83.0872 Y-19.4859
G01 X83.0903 Y-19.4920
G01 X83.0929 Y-19.4984
G01 X83.0956 Y-19.5071
G01 X83.0977 Y-19.5183
G01 X83.1052 Y-19.5901
G01 X83.1056 Y-19.5969
G01 X83.1056 Y-19.6037
G01 X83.1050 Y-19.6106
G01 X83.1039 Y-19.6173
G01 X83.1010 Y-19.6284
G01 X83.0968 Y-19.6390
G01 X83.0643 Y-19.7034
G01 X83.0584 Y-19.7133
G01 X83.0543 Y-19.7189
G01 X83.0498 Y-19.7242
G01 X57.8820 Y-44.8922
G01 X57.8738 Y-44.8995
G01 X57.8649 Y-44.9057
G01 X57.7997 Y-44.9414
G01 X57.7874 Y-44.9470
G01 X57.7744 Y-44.9507
G01 X57.7678 Y-44.9518
G01 X57.7392 Y-44.9549
G01 X57.7293 Y-44.9554
G01 X27.8772 Y-44.9553
G01 X27.8663 Y-44.9542
G01 X27.8578 Y-44.9523
G01 X27.7822 Y-44.9299
G01 X27.7717 Y-44.9252
G01 X27.7620 Y-44.9193
G01 X27.7531 Y-44.9122
G01 X27.7466 Y-44.9057
G01 X27.6964 Y-44.8477
G01 X27.6899 Y-44.8383
G01 X27.6847 Y-44.8282
G01 X27.6807 Y-44.8175
G01 X27.6781 Y-44.8064
G01 X27.6678 Y-44.7349
G01 X27.6669 Y-44.7236
G01 X27.6672 Y-44.7144
G01 X27.6680 Y-44.7076
G01 X27.6699 Y-44.6987
G01 X27.6726 Y-44.6900
G01 X27.7042 Y-44.6201
G01 X27.7083 Y-44.6123
G01 X27.7157 Y-44.6014
G01 X27.7267 Y-44.5893
G01 X27.8201 Y-44.4514
G01 X27.8812 Y-44.2981
G01 X27.9079 Y-44.1353
G01 X27.8990 Y-43.9706
G01 X27.8548 Y-43.8116
G01 X27.7775 Y-43.6658
G01 X27.6707 Y-43.5400
G01 X27.5394 Y-43.4402
G01 X27.3896 Y-43.3709
G01 X27.2285 Y-43.3354
G01 X26.3049 Y-43.3354
G01 X26.1820 Y-43.3488
G01 X26.0256 Y-43.4015
G01 X25.8842 Y-43.4866
G01 X25.7645 Y-43.6000
G01 X25.6719 Y-43.7366
G01 X25.6108 Y-43.8899
G01 X25.5841 Y-44.0527
G01 X25.5933 Y-44.2225
G01 X25.5944 Y-44.2319
G01 X25.5946 Y-44.2407
G01 X25.5939 Y-44.2494
G01 X25.5847 Y-44.3232
G01 X25.5827 Y-44.3322
G01 X25.5806 Y-44.3387
G01 X25.5780 Y-44.3450
G01 X25.5750 Y-44.3512
G01 X25.5702 Y-44.3590
G01 X25.5662 Y-44.3645
G01 X25.5186 Y-44.4217
G01 X25.5122 Y-44.4283
G01 X25.5070 Y-44.4328
G01 X25.5016 Y-44.4368
G01 X25.4958 Y-44.4405
G01 X25.4877 Y-44.4447
G01 X25.4792 Y-44.4481
G01 X25.4038 Y-44.4716
G01 X25.3948 Y-44.4733
G01 X25.3834 Y-44.4741
G01 X25.3743 Y-44.4737
G01 X25.3630 Y-44.4719
G01 X25.2912 Y-44.4525
G01 X25.2845 Y-44.4504
G01 X25.2781 Y-44.4478
G01 X25.2698 Y-44.4437
G01 X25.2602 Y-44.4373
G01 X25.2340 Y-44.4166
G01 X25.2276 Y-44.4108
G01 X17.2153 Y-36.3985
G01 X17.2082 Y-36.3901
G01 X17.2022 Y-36.3810
G01 X17.1666 Y-36.3158
G01 X17.1637 Y-36.3096
G01 X17.1606 Y-36.3012
G01 X17.1583 Y-36.2924
G01 X17.1572 Y-36.2858
G01 X17.1541 Y-36.2572
G01 X17.1535 Y-36.2473
G01 X17.1535 Y-35.9811
G01 X17.1489 Y-35.9378
G01 X17.1073 Y-35.8262
G01 X17.0369 Y-35.7321
G01 X16.9428 Y-35.6617
G01 X16.8312 Y-35.6201
G01 X16.7879 Y-35.6154
G01 X16.1771 Y-35.6154
G01 X16.1338 Y-35.6201
G01 X16.0222 Y-35.6617
G01 X15.9281 Y-35.7321
G01 X15.8577 Y-35.8262
G01 X15.8161 Y-35.9378
G01 X15.8115 Y-35.9810
G01 X15.8114 Y-36.9669
G01 X15.8161 Y-37.0102
G01 X15.8577 Y-37.1218
G01 X15.9281 Y-37.2159
G01 X16.0222 Y-37.2863
G01 X16.1338 Y-37.3279
G01 X16.1771 Y-37.3326
G01 X16.7879 Y-37.3325
G01 X16.8369 Y-37.3273
G01 X16.8455 Y-37.3255
G01 X16.8545 Y-37.3245
G01 X16.8658 Y-37.3245
G01 X16.8749 Y-37.3256
G01 X16.9136 Y-37.3228
G01 X16.9228 Y-37.3228
G01 X16.9319 Y-37.3238
G01 X16.9408 Y-37.3256
G01 X16.9495 Y-37.3283
G01 X16.9579 Y-37.3318
G01 X17.0252 Y-37.3685
G01 X17.0326 Y-37.3732
G01 X17.0395 Y-37.3786
G01 X25.2666 Y-45.6054
G01 X25.2716 Y-45.6108
G01 X25.2895 Y-45.6329
G01 X25.3203 Y-45.6596
G01 X25.3348 Y-45.6736
G01 X25.3506 Y-45.6859
G01 X25.3814 Y-45.7126
G01 X25.4032 Y-45.7255
G01 X25.4485 Y-45.7427
G01 X25.4886 Y-45.7609
G01 X25.5132 Y-45.7672
G01 X25.5538 Y-45.7701
G01 X25.5738 Y-45.7726
G01 X25.5906 Y-45.7728
G01 X25.6259 Y-45.7753
G01 X25.6346 Y-45.7765
G01 X25.6431 Y-45.7786
G01 X25.7148 Y-45.8051
G01 X25.7211 Y-45.8077
G01 X25.7292 Y-45.8119
G01 X25.7368 Y-45.8169
G01 X25.7422 Y-45.8212
G01 X25.7488 Y-45.8274
G01 X25.7562 Y-45.8361
G01 X25.7995 Y-45.8939
G01 X25.8032 Y-45.8996
G01 X25.8065 Y-45.9056
G01 X25.8094 Y-45.9118
G01 X25.8118 Y-45.9182
G01 X25.8147 Y-45.9293
G01 X25.8160 Y-45.9383
G01 X25.8212 Y-46.0103
G01 X25.8213 Y-46.0217
G01 X25.8207 Y-46.0285
G01 X25.8196 Y-46.0353
G01 X25.8166 Y-46.0463
G01 X25.8123 Y-46.0568
G01 X25.7832 Y-46.1102
G01 X25.7797 Y-46.1178
G01 X25.7764 Y-46.1236
G01 X25.7726 Y-46.1293
G01 X25.7660 Y-46.1378
G01 X25.6719 Y-46.2766
G01 X25.6108 Y-46.4299
G01 X25.5841 Y-46.5927
G01 X25.5930 Y-46.7574
G01 X25.6372 Y-46.9164
G01 X25.7243 Y-47.0810
G01 X25.7291 Y-47.0937
G01 X25.7308 Y-47.1002
G01 X25.7321 Y-47.1070
G01 X25.7466 Y-47.1523
G01 X25.7494 Y-47.1633
G01 X25.7506 Y-47.1724
G01 X25.7509 Y-47.1838
G01 X25.7501 Y-47.1929
G01 X25.7484 Y-47.2018
G01 X25.7278 Y-47.2781
G01 X25.7253 Y-47.2845
G01 X25.7224 Y-47.2907
G01 X25.7189 Y-47.2966
G01 X25.7137 Y-47.3041
G01 X25.7093 Y-47.3093
G01 X25.7046 Y-47.3143
G01 X25.6495 Y-47.3644
G01 X25.6405 Y-47.3713
G01 X25.6306 Y-47.3770
G01 X25.6201 Y-47.3815
G01 X25.6136 Y-47.3836
G01 X25.6069 Y-47.3851
G01 X25.5290 Y-47.3981
G01 X25.5176 Y-47.3984
G01 X25.5062 Y-47.3974
G01 X25.4951 Y-47.3949
G01 X25.4843 Y-47.3911
G01 X25.4201 Y-47.3636
G01 X25.4122 Y-47.3598
G01 X25.4047 Y-47.3552
G01 X25.3994 Y-47.3514
G01 X25.3839 Y-47.3376
G01 X17.2153 Y-39.1690
G01 X17.2082 Y-39.1606
G01 X17.2022 Y-39.1515
G01 X17.1676 Y-39.0882
G01 X17.1637 Y-39.0801
G01 X17.1599 Y-39.0695
G01 X17.1579 Y-39.0607
G01 X17.1541 Y-39.0277
G01 X17.1535 Y-39.0178
G01 X17.1535 Y-38.5211
G01 X17.1489 Y-38.4778
G01 X17.1073 Y-38.3662
G01 X17.0369 Y-38.2721
G01 X16.9428 Y-38.2017
G01 X16.8312 Y-38.1601
G01 X16.7879 Y-38.1554
G01 X16.1771 Y-38.1554
G01 X16.1338 Y-38.1601
G01 X16.0222 Y-38.2017
G01 X15.9281 Y-38.2721
G01 X15.8577 Y-38.3662
G01 X15.8161 Y-38.4778
G01 X15.8115 Y-38.5210
G01 X15.8114 Y-39.5069
G01 X15.8161 Y-39.5502
G01 X15.8577 Y-39.6618
G01 X15.9281 Y-39.7559
G01 X16.0222 Y-39.8263
G01 X16.1338 Y-39.8679
G01 X16.1771 Y-39.8726
G01 X16.6738 Y-39.8725
G01 X16.6826 Y-39.8730
G01 X16.6912 Y-39.8742
G01 X16.6997 Y-39.8763
G01 X16.7668 Y-39.8960
G01 X16.7774 Y-39.8998
G01 X16.7874 Y-39.9049
G01 X16.7950 Y-39.9098
G01 X16.8229 Y-39.9324
G01 X25.0107 Y-48.1200
G01 X25.0157 Y-48.1254
G01 X25.0336 Y-48.1475
G01 X25.0644 Y-48.1742
G01 X25.0789 Y-48.1882
G01 X25.0947 Y-48.2005
G01 X25.1255 Y-48.2272
G01 X25.1473 Y-48.2401
G01 X25.1926 Y-48.2573
G01 X25.2327 Y-48.2755
G01 X25.2573 Y-48.2818
G01 X25.2979 Y-48.2847
G01 X25.3179 Y-48.2872
G01 X25.3380 Y-48.2875
G01 X25.3786 Y-48.2904
G01 X25.4069 Y-48.2874
G01 X25.4142 Y-48.2872
G01 X25.6372 Y-48.2872
G01 X25.6460 Y-48.2876
G01 X25.6546 Y-48.2888
G01 X25.6610 Y-48.2903
G01 X25.7367 Y-48.3127
G01 X25.7471 Y-48.3174
G01 X25.7549 Y-48.3221
G01 X25.7623 Y-48.3275
G01 X25.7707 Y-48.3352
G01 X25.8224 Y-48.3949
G01 X25.8264 Y-48.4004
G01 X25.8300 Y-48.4063
G01 X25.8332 Y-48.4124
G01 X25.8359 Y-48.4187
G01 X25.8387 Y-48.4273
G01 X25.8407 Y-48.4362
G01 X25.8513 Y-48.5099
G01 X25.8518 Y-48.5168
G01 X25.8518 Y-48.5259
G01 X25.8508 Y-48.5350
G01 X25.8495 Y-48.5417
G01 X25.8470 Y-48.5505
G01 X25.8436 Y-48.5589
G01 X25.8146 Y-48.6225
G01 X25.8082 Y-48.6341
G01 X25.8031 Y-48.6412
G01 X25.7974 Y-48.6479
G01 X25.7873 Y-48.6583
G01 X25.7645 Y-48.6800
G01 X25.6719 Y-48.8166
G01 X25.6108 Y-48.9699
G01 X25.5841 Y-49.1327
G01 X25.5930 Y-49.2974
G01 X25.6372 Y-49.4564
G01 X25.6604 Y-49.5003
G01 X25.6639 Y-49.5083
G01 X25.6661 Y-49.5145
G01 X25.6682 Y-49.5230
G01 X25.6822 Y-49.5914
G01 X25.6836 Y-49.6005
G01 X25.6841 Y-49.6096
G01 X25.6837 Y-49.6187
G01 X25.6824 Y-49.6277
G01 X25.6802 Y-49.6366
G01 X25.6527 Y-49.7082
G01 X25.6490 Y-49.7166
G01 X25.6445 Y-49.7245
G01 X25.6392 Y-49.7319
G01 X25.6332 Y-49.7388
G01 X25.6265 Y-49.7451
G01 X25.5647 Y-49.7905
G01 X25.5554 Y-49.7965
G01 X25.5433 Y-49.8021
G01 X25.5306 Y-49.8059
G01 X25.4821 Y-49.8144
G01 X25.4709 Y-49.8154
G01 X22.7420 Y-49.8154
G01 X22.7311 Y-49.8145
G01 X22.7204 Y-49.8123
G01 X22.6491 Y-49.7914
G01 X22.6365 Y-49.7863
G01 X22.6286 Y-49.7819
G01 X22.6230 Y-49.7782
G01 X22.5988 Y-49.7588
G01 X22.5915 Y-49.7522
G01 X17.0868 Y-44.2474
G01 X17.0799 Y-44.2388
G01 X17.0752 Y-44.2315
G01 X17.0406 Y-44.1682
G01 X17.0367 Y-44.1601
G01 X17.0329 Y-44.1495
G01 X17.0309 Y-44.1407
G01 X17.0271 Y-44.1077
G01 X17.0265 Y-44.0978
G01 X17.0265 Y-43.6011
G01 X17.0219 Y-43.5578
G01 X16.9803 Y-43.4462
G01 X16.9099 Y-43.3521
G01 X16.8158 Y-43.2817
G01 X16.7042 Y-43.2401
G01 X16.6609 Y-43.2354
G01 X16.0501 Y-43.2354
G01 X16.0068 Y-43.2401
G01 X15.8952 Y-43.2817
G01 X15.8011 Y-43.3521
G01 X15.7307 Y-43.4462
G01 X15.6891 Y-43.5578
G01 X15.6845 Y-43.6010
G01 X15.6844 Y-44.5869
G01 X15.6891 Y-44.6302
G01 X15.7307 Y-44.7418
G01 X15.8011 Y-44.8359
G01 X15.8952 Y-44.9063
G01 X16.0068 Y-44.9479
G01 X16.0501 Y-44.9526
G01 X16.5468 Y-44.9525
G01 X16.5556 Y-44.9530
G01 X16.5642 Y-44.9542
G01 X16.5727 Y-44.9563
G01 X16.6398 Y-44.9760
G01 X16.6504 Y-44.9798
G01 X16.6604 Y-44.9849
G01 X16.6680 Y-44.9898
G01 X16.6959 Y-45.0124
G01 X22.1491 Y-50.4654
G01 X22.1541 Y-50.4708
G01 X22.1720 Y-50.4929
G01 X22.2028 Y-50.5196
G01 X22.2173 Y-50.5336
G01 X22.2331 Y-50.5459
G01 X22.2639 Y-50.5726
G01 X22.2857 Y-50.5855
G01 X22.3310 Y-50.6027
G01 X22.3711 Y-50.6209
G01 X22.3957 Y-50.6272
G01 X22.4363 Y-50.6301
G01 X22.4563 Y-50.6326
G01 X22.4764 Y-50.6329
G01 X22.5170 Y-50.6358
G01 X22.5453 Y-50.6328
G01 X22.5526 Y-50.6326
G01 X25.8943 Y-50.6326
G01 X25.9052 Y-50.6332
G01 X25.9160 Y-50.6351
G01 X25.9894 Y-50.6566
G01 X25.9958 Y-50.6590
G01 X26.0041 Y-50.6628
G01 X26.0101 Y-50.6662
G01 X26.0157 Y-50.6701
G01 X26.0228 Y-50.6758
G01 X26.0293 Y-50.6823
G01 X26.0808 Y-50.7421
G01 X26.0859 Y-50.7497
G01 X26.0912 Y-50.7598
G01 X26.0944 Y-50.7684
G01 X26.0973 Y-50.7794
G01 X26.1083 Y-50.8553
G01 X26.1090 Y-50.8667
G01 X26.1082 Y-50.8781
G01 X26.1060 Y-50.8893
G01 X26.1024 Y-50.9001
G01 X26.0707 Y-50.9699
G01 X26.0675 Y-50.9759
G01 X26.0638 Y-50.9817
G01 X26.0584 Y-50.9889
G01 X26.0538 Y-50.9939
G01 X26.0472 Y-51.0001
G01 X26.0117 Y-51.0296
G01 X26.0056 Y-51.0335
G01 X25.8842 Y-51.1066
G01 X25.7645 Y-51.2200
G01 X25.6719 Y-51.3566
G01 X25.6108 Y-51.5099
G01 X25.5841 Y-51.6727
G01 X25.5930 Y-51.8374
G01 X25.6372 Y-51.9964
G01 X25.6614 Y-52.0423
G01 X25.6647 Y-52.0503
G01 X25.6673 Y-52.0587
G01 X25.6822 Y-52.1314
G01 X25.6836 Y-52.1405
G01 X25.6841 Y-52.1519
G01 X25.6834 Y-52.1610
G01 X25.6814 Y-52.1722
G01 X25.6787 Y-52.1809
G01 X25.6527 Y-52.2482
G01 X25.6490 Y-52.2566
G01 X25.6445 Y-52.2645
G01 X25.6392 Y-52.2719
G01 X25.6332 Y-52.2788
G01 X25.6265 Y-52.2851
G01 X25.5629 Y-52.3318
G01 X25.5554 Y-52.3365
G01 X25.5474 Y-52.3404
G01 X25.5392 Y-52.3436
G01 X25.5284 Y-52.3464
G01 X25.4821 Y-52.3544
G01 X25.4709 Y-52.3554
G01 X16.5362 Y-52.3554
G01 X16.5275 Y-52.3550
G01 X16.5188 Y-52.3538
G01 X16.5103 Y-52.3517
G01 X16.4433 Y-52.3320
G01 X16.4327 Y-52.3282
G01 X16.4246 Y-52.3242
G01 X16.4151 Y-52.3182
G01 X16.3871 Y-52.2956
G01 X15.3847 Y-51.2934
G01 X15.3669 Y-51.2731
G01 X15.3563 Y-51.2590
G01 X15.3230 Y-51.2310
G01 X15.3125 Y-51.2212
G01 X15.2889 Y-51.2025
G01 X15.2342 Y-51.1566
G01 X15.2295 Y-51.1535
G01 X15.2270 Y-51.1520
G01 X15.1598 Y-51.1206
G01 X15.0959 Y-51.0885
G01 X15.0878 Y-51.0857
G01 X15.0178 Y-51.0713
G01 X14.9457 Y-51.0542
G01 X14.9372 Y-51.0533
G01 X14.8631 Y-51.0554
G01 X12.3322 Y-51.0553
G01 X12.3234 Y-51.0545
G01 X12.3169 Y-51.0533
G01 X12.2648 Y-51.0418
G01 X12.2542 Y-51.0388
G01 X12.2460 Y-51.0355
G01 X12.1496 Y-50.9909
G01 X11.9885 Y-50.9554
G01 X11.0649 Y-50.9554
G01 X10.9420 Y-50.9688
G01 X10.7856 Y-51.0215
G01 X10.6442 Y-51.1066
G01 X10.5245 Y-51.2200
G01 X10.4319 Y-51.3566
G01 X10.3708 Y-51.5099
G01 X10.3441 Y-51.6727
G00 Z2.0000
G00 X11.1060 Y-52.4059
G01 F10.00
G01 Z-0.0500
G01 F30.00
G01 X11.9060 Y-52.4059
G01 X11.9738 Y-52.4026
G01 X12.0410 Y-52.3927
G01 X12.1090 Y-52.3755
G01 X12.1729 Y-52.3524
G01 X12.2302 Y-52.3253
G01 X12.2625 Y-52.3062
G01 X14.6287 Y-52.3062
G01 X15.7553 Y-53.4327
G01 X15.7966 Y-53.4703
G01 X15.8413 Y-53.5038
G01 X15.8488 Y-53.5088
G01 X15.8948 Y-53.5363
G01 X15.9474 Y-53.5611
G01 X16.0021 Y-53.5807
G01 X16.0541 Y-53.5938
G01 X16.0629 Y-53.5956
G01 X16.1182 Y-53.6035
G01 X16.1740 Y-53.6062
G01 X28.2146 Y-53.6062
G01 X28.2704 Y-53.6035
G01 X28.3301 Y-53.5948
G01 X28.3822 Y-53.5819
G01 X28.3908 Y-53.5793
G01 X28.4370 Y-53.5627
G01 X28.4454 Y-53.5593
G01 X28.4938 Y-53.5363
G01 X28.5436 Y-53.5064
G01 X28.5903 Y-53.4718
G01 X28.6317 Y-53.4343
G01 X33.0873 Y-48.9788
G01 X59.4866 Y-48.9788
G01 X59.5446 Y-48.9759
G01 X59.5977 Y-48.9682
G01 X59.6065 Y-48.9664
G01 X59.6542 Y-48.9545
G01 X59.6628 Y-48.9519
G01 X59.7132 Y-48.9337
G01 X59.7658 Y-48.9089
G01 X59.8118 Y-48.8814
G01 X59.8193 Y-48.8764
G01 X59.8623 Y-48.8444
G01 X59.9037 Y-48.8069
G01 X64.6595 Y-44.0512
G01 X69.4719 Y-44.0512
G01 X69.4768 Y-44.0647
G01 X69.4771 Y-48.4590
G01 X69.4787 Y-48.4925
G01 X69.4836 Y-48.5257
G01 X69.4906 Y-48.5539
G01 X69.4932 Y-48.5625
G01 X69.5031 Y-48.5899
G01 X69.5174 Y-48.6202
G01 X69.5323 Y-48.6452
G01 X69.5373 Y-48.6527
G01 X69.5547 Y-48.6759
G01 X69.5741 Y-48.6975
G01 X69.5805 Y-48.7039
G01 X69.6021 Y-48.7233
G01 X69.6253 Y-48.7407
G01 X69.6328 Y-48.7457
G01 X69.6578 Y-48.7606
G01 X69.6840 Y-48.7731
G01 X69.6924 Y-48.7765
G01 X69.7197 Y-48.7862
G01 X69.7479 Y-48.7934
G01 X69.7567 Y-48.7952
G01 X69.7855 Y-48.7993
G01 X69.8167 Y-48.8009
G01 X70.3190 Y-48.8009
G01 X70.3525 Y-48.7993
G01 X70.3813 Y-48.7952
G01 X70.3901 Y-48.7934
G01 X70.4161 Y-48.7869
G01 X70.4225 Y-48.7848
G01 X70.4519 Y-48.7740
G01 X70.4762 Y-48.7626
G01 X70.4841 Y-48.7583
G01 X70.5090 Y-48.7433
G01 X70.5359 Y-48.7233
G01 X70.5608 Y-48.7008
G01 X70.5819 Y-48.6777
G01 X70.6033 Y-48.6490
G01 X70.6183 Y-48.6241
G01 X70.6216 Y-48.6182
G01 X70.6331 Y-48.5940
G01 X70.6365 Y-48.5856
G01 X70.6462 Y-48.5583
G01 X70.6544 Y-48.5257
G01 X70.6593 Y-48.4925
G01 X70.6608 Y-48.4635
G01 X70.6612 Y-46.9590
G01 X70.6612 Y-43.5360
G01 X70.6583 Y-43.4780
G01 X70.6506 Y-43.4249
G01 X70.6488 Y-43.4161
G01 X70.6369 Y-43.3684
G01 X70.6347 Y-43.3612
G01 X70.6347 Y-42.9817
G01 X70.6331 Y-42.9505
G01 X70.6290 Y-42.9217
G01 X70.6272 Y-42.9129
G01 X70.6207 Y-42.8869
G01 X70.6186 Y-42.8805
G01 X70.6078 Y-42.8511
G01 X70.5964 Y-42.8268
G01 X70.5921 Y-42.8189
G01 X70.5771 Y-42.7940
G01 X70.5571 Y-42.7671
G01 X70.5346 Y-42.7422
G01 X70.5097 Y-42.7197
G01 X70.4828 Y-42.6997
G01 X70.4540 Y-42.6824
G01 X70.4237 Y-42.6681
G01 X70.3963 Y-42.6582
G01 X70.3899 Y-42.6561
G01 X70.3639 Y-42.6496
G01 X70.3551 Y-42.6478
G01 X70.3263 Y-42.6437
G01 X70.2928 Y-42.6421
G01 X69.7905 Y-42.6421
G01 X69.7638 Y-42.6434
G01 X69.7548 Y-42.6442
G01 X69.7261 Y-42.6486
G01 X69.6957 Y-42.6561
G01 X69.6619 Y-42.6681
G01 X69.6356 Y-42.6804
G01 X69.6277 Y-42.6847
G01 X69.6028 Y-42.6997
G01 X69.5794 Y-42.7169
G01 X69.5725 Y-42.7226
G01 X69.5526 Y-42.7406
G01 X69.5285 Y-42.7671
G01 X69.5072 Y-42.7959
G01 X69.4902 Y-42.8248
G01 X69.4778 Y-42.8511
G01 X69.4719 Y-42.8668
G01 X64.4142 Y-42.8668
G01 X64.3562 Y-42.8697
G01 X64.2987 Y-42.8782
G01 X64.2423 Y-42.8923
G01 X64.1876 Y-42.9119
G01 X64.1350 Y-42.9367
G01 X64.0852 Y-42.9666
G01 X64.0385 Y-43.0012
G01 X63.9955 Y-43.0403
G01 X59.2413 Y-47.7944
G01 X32.8420 Y-47.7944
G01 X32.7840 Y-47.7973
G01 X32.7265 Y-47.8058
G01 X32.6744 Y-47.8187
G01 X32.6658 Y-47.8213
G01 X32.6196 Y-47.8379
G01 X32.6112 Y-47.8413
G01 X32.5628 Y-47.8643
G01 X32.5130 Y-47.8942
G01 X32.4663 Y-47.9288
G01 X32.4249 Y-47.9663
G01 X27.9693 Y-52.4218
G01 X16.4193 Y-52.4218
G01 X15.2895 Y-51.2921
G01 X15.2531 Y-51.2592
G01 X15.2461 Y-51.2534
G01 X15.2030 Y-51.2216
G01 X15.1571 Y-51.1940
G01 X15.1491 Y-51.1897
G01 X15.1006 Y-51.1669
G01 X15.0459 Y-51.1473
G01 X14.9939 Y-51.1342
G01 X14.9851 Y-51.1324
G01 X14.9320 Y-51.1247
G01 X14.8740 Y-51.1218
G01 X12.2625 Y-51.1218
G01 X12.2302 Y-51.1027
G01 X12.1729 Y-51.0756
G01 X12.1047 Y-51.0512
G01 X12.0410 Y-51.0353
G01 X11.9783 Y-51.0259
G01 X11.9693 Y-51.0251
G01 X11.9060 Y-51.0221
G01 X11.1037 Y-51.0221
G01 X11.0427 Y-51.0251
G01 X11.0337 Y-51.0259
G01 X10.9710 Y-51.0353
G01 X10.9095 Y-51.0506
G01 X10.9009 Y-51.0533
G01 X10.8412 Y-51.0747
G01 X10.7798 Y-51.1038
G01 X10.7216 Y-51.1387
G01 X10.6670 Y-51.1791
G01 X10.6167 Y-51.2247
G01 X10.5711 Y-51.2750
G01 X10.5307 Y-51.3296
G01 X10.4968 Y-51.3858
G01 X10.4667 Y-51.4492
G01 X10.4453 Y-51.5089
G01 X10.4426 Y-51.5175
G01 X10.4273 Y-51.5790
G01 X10.4179 Y-51.6417
G01 X10.4171 Y-51.6507
G01 X10.4141 Y-51.7140
G01 X10.4171 Y-51.7773
G01 X10.4179 Y-51.7863
G01 X10.4273 Y-51.8490
G01 X10.4426 Y-51.9105
G01 X10.4453 Y-51.9191
G01 X10.4667 Y-51.9788
G01 X10.4937 Y-52.0362
G01 X10.4980 Y-52.0441
G01 X10.5307 Y-52.0984
G01 X10.5683 Y-52.1494
G01 X10.5741 Y-52.1564
G01 X10.6167 Y-52.2033
G01 X10.6636 Y-52.2459
G01 X10.6706 Y-52.2517
G01 X10.7216 Y-52.2893
G01 X10.7759 Y-52.3220
G01 X10.7838 Y-52.3263
G01 X10.8412 Y-52.3533
G01 X10.9009 Y-52.3747
G01 X10.9095 Y-52.3774
G01 X10.9710 Y-52.3927
G01 X11.0337 Y-52.4021
G01 X11.0427 Y-52.4029
G01 X11.1060 Y-52.4059
G00 Z2.0000
G00 X6.3364 Y-44.6119
G01 F10.00
G01 Z-0.0500
G01 F30.00
G01 X6.3411 Y-44.6552
G01 X6.3827 Y-44.7668
G01 X6.4531 Y-44.8609
G01 X6.5472 Y-44.9313
G01 X6.6588 Y-44.9729
G01 X6.7021 Y-44.9776
G01 X7.2879 Y-44.9775
G01 X7.3312 Y-44.9729
G01 X7.4428 Y-44.9313
G01 X7.5369 Y-44.8609
G01 X7.6073 Y-44.7668
G01 X7.6535 Y-44.6430
G01 X7.6579 Y-44.6330
G01 X7.6647 Y-44.6218
G01 X7.7107 Y-44.5605
G01 X7.7185 Y-44.5522
G01 X7.7254 Y-44.5463
G01 X7.7349 Y-44.5399
G01 X7.7430 Y-44.5357
G01 X7.8169 Y-44.5079
G01 X7.8279 Y-44.5049
G01 X7.8391 Y-44.5032
G01 X7.8558 Y-44.5026
G01 X10.3579 Y-44.5026
G01 X10.3666 Y-44.5030
G01 X10.3731 Y-44.5038
G01 X10.3817 Y-44.5057
G01 X10.4529 Y-44.5266
G01 X10.4632 Y-44.5306
G01 X10.4749 Y-44.5370
G01 X10.4854 Y-44.5450
G01 X10.5129 Y-44.5690
G01 X10.5194 Y-44.5753
G01 X10.5813 Y-44.6480
G01 X10.7126 Y-44.7478
G01 X10.8624 Y-44.8171
G01 X11.0235 Y-44.8526
G01 X11.9471 Y-44.8526
G01 X12.0700 Y-44.8392
G01 X12.2264 Y-44.7865
G01 X12.3678 Y-44.7014
G01 X12.4912 Y-44.5845
G01 X12.5001 Y-44.5751
G01 X12.5089 Y-44.5679
G01 X12.5178 Y-44.5623
G01 X12.5527 Y-44.5335
G01 X12.5599 Y-44.5282
G01 X12.5716 Y-44.5215
G01 X12.5799 Y-44.5180
G01 X12.5863 Y-44.5160
G01 X12.6415 Y-44.5044
G01 X12.6507 Y-44.5030
G01 X12.6600 Y-44.5026
G01 X13.6709 Y-44.5027
G01 X13.6818 Y-44.5038
G01 X13.6904 Y-44.5057
G01 X13.7660 Y-44.5281
G01 X13.7764 Y-44.5328
G01 X13.7862 Y-44.5387
G01 X13.7951 Y-44.5458
G01 X13.8016 Y-44.5523
G01 X13.8503 Y-44.6085
G01 X13.8544 Y-44.6139
G01 X13.8582 Y-44.6196
G01 X13.8634 Y-44.6297
G01 X13.8689 Y-44.6430
G01 X13.9057 Y-44.7418
G01 X13.9761 Y-44.8359
G01 X14.0702 Y-44.9063
G01 X14.1818 Y-44.9479
G01 X14.2251 Y-44.9526
G01 X14.8359 Y-44.9525
G01 X14.8792 Y-44.9479
G01 X14.9908 Y-44.9063
G01 X15.0849 Y-44.8359
G01 X15.1553 Y-44.7418
G01 X15.1969 Y-44.6302
G01 X15.2016 Y-44.5869
G01 X15.2015 Y-43.6011
G01 X15.1969 Y-43.5578
G01 X15.1553 Y-43.4462
G01 X15.0849 Y-43.3521
G01 X14.9908 Y-43.2817
G01 X14.8792 Y-43.2401
G01 X14.8359 Y-43.2354
G01 X14.2251 Y-43.2354
G01 X14.1818 Y-43.2401
G01 X14.0702 Y-43.2817
G01 X13.9761 Y-43.3521
G01 X13.9057 Y-43.4462
G01 X13.8689 Y-43.5450
G01 X13.8645 Y-43.5550
G01 X13.8613 Y-43.5607
G01 X13.8564 Y-43.5679
G01 X13.8102 Y-43.6292
G01 X13.8038 Y-43.6358
G01 X13.7951 Y-43.6431
G01 X13.7874 Y-43.6481
G01 X13.7772 Y-43.6532
G01 X13.7032 Y-43.6808
G01 X13.6922 Y-43.6836
G01 X13.6810 Y-43.6850
G01 X13.6666 Y-43.6854
G01 X12.6541 Y-43.6854
G01 X12.6411 Y-43.6845
G01 X12.6282 Y-43.6817
G01 X12.5591 Y-43.6614
