(G-CODE GENERATED BY FLATCAM v8.994 - www.flatcam.org - Version Date: 2020/11/7)

(Name: ControlBoard.drl_cnc)
(Type: G-code from Geometry)
(Units: MM)

(Created on Sunday, 08 October 2023 at 09:33)

(This preprocessor is used with a motion controller loaded with GRBL firmware.)
(It is configured to be compatible with almost any version of GRBL firmware.)


(TOOLS DIAMETER: )
(Tool: 1 -> Dia: 0.4)
(Tool: 2 -> Dia: 0.762)
(Tool: 3 -> Dia: 0.8)
(Tool: 4 -> Dia: 1.0)
(Tool: 5 -> Dia: 1.5)
(Tool: 6 -> Dia: 2.0)
(Tool: 7 -> Dia: 3.2)

(FEEDRATE Z: )
(Tool: 1 -> Feedrate: 30.0)
(Tool: 2 -> Feedrate: 300)
(Tool: 3 -> Feedrate: 300)
(Tool: 4 -> Feedrate: 60.0)
(Tool: 5 -> Feedrate: 300)
(Tool: 6 -> Feedrate: 300.0)
(Tool: 7 -> Feedrate: 300)

(FEEDRATE RAPIDS: )
(Tool: 1 -> Feedrate Rapids: 1500.0)
(Tool: 2 -> Feedrate Rapids: 1500)
(Tool: 3 -> Feedrate Rapids: 1500)
(Tool: 4 -> Feedrate Rapids: 1500.0)
(Tool: 5 -> Feedrate Rapids: 1500)
(Tool: 6 -> Feedrate Rapids: 1500.0)
(Tool: 7 -> Feedrate Rapids: 1500)

(Z_CUT: )
(Tool: 1 -> Z_Cut: -1.7)
(Tool: 2 -> Z_Cut: -1.7)
(Tool: 3 -> Z_Cut: -1.7)
(Tool: 4 -> Z_Cut: -1.7)
(Tool: 5 -> Z_Cut: -1.7)
(Tool: 6 -> Z_Cut: -1.7)
(Tool: 7 -> Z_Cut: -1.7)

(Tools Offset: )
(Tool: 5 -> Offset Z: 0.0)

(Z_MOVE: )
(Tool: 1 -> Z_Move: 2.0)
(Tool: 2 -> Z_Move: 2)
(Tool: 3 -> Z_Move: 2)
(Tool: 4 -> Z_Move: 2.0)
(Tool: 5 -> Z_Move: 2)
(Tool: 6 -> Z_Move: 2.0)
(Tool: 7 -> Z_Move: 2)

(Z Toolchange: 25.0 mm)
(X,Y Toolchange: 0.0000, 0.0000 mm)
(Z Start: None mm)
(Z End: 0.5 mm)
(X,Y End: None mm)
(Steps per circle: 64)
(Steps per circle: 64)
(Preprocessor Excellon: GRBL_11_no_M6)

(X range:    2.1620 ...   98.7500  mm)
(Y range:  -53.3110 ...   -1.1200  mm)

(Spindle Speed: 12000 RPM)
G21
G90
G17
G94


G01 F300.00

M5             
G00 Z25.0000
G00 X0.0000 Y0.0000                
T5
(MSG, Change to Tool Dia = 1.5000 ||| Total drills for tool T5 = 4)
M0
G00 Z25.0000
        
G01 F300.00
M03 S12000
G00 X90.6000 Y-10.4000
G01 Z-1.7000
G01 Z0
G00 Z2.0000
G00 X91.6500 Y-10.4000
G01 Z-1.7000
G01 Z0
G00 Z2.0000
G00 X91.6500 Y-21.6000
G01 Z-1.7000
G01 Z0
G00 Z2.0000
G00 X90.6000 Y-21.6000
G01 Z-1.7000
G01 Z0
G00 Z2.0000
M05
G00 Z0.50


