(G-CODE GENERATED BY FLATCAM v8.994 - www.flatcam.org - Version Date: 2020/11/7)

(Name: ControlBoard.drl_cnc)
(Type: G-code from Geometry)
(Units: MM)

(Created on Sunday, 08 October 2023 at 09:30)

(This preprocessor is used with a motion controller loaded with GRBL firmware.)
(It is configured to be compatible with almost any version of GRBL firmware.)


(TOOLS DIAMETER: )
(Tool: 1 -> Dia: 0.4)
(Tool: 2 -> Dia: 0.762)
(Tool: 3 -> Dia: 0.8)
(Tool: 4 -> Dia: 1.0)
(Tool: 5 -> Dia: 1.5)
(Tool: 6 -> Dia: 2.0)
(Tool: 7 -> Dia: 3.2)

(FEEDRATE Z: )
(Tool: 1 -> Feedrate: 300)
(Tool: 2 -> Feedrate: 300)
(Tool: 3 -> Feedrate: 300)
(Tool: 4 -> Feedrate: 300)
(Tool: 5 -> Feedrate: 300)
(Tool: 6 -> Feedrate: 300)
(Tool: 7 -> Feedrate: 300)

(FEEDRATE RAPIDS: )
(Tool: 1 -> Feedrate Rapids: 1500)
(Tool: 2 -> Feedrate Rapids: 1500)
(Tool: 3 -> Feedrate Rapids: 1500)
(Tool: 4 -> Feedrate Rapids: 1500)
(Tool: 5 -> Feedrate Rapids: 1500)
(Tool: 6 -> Feedrate Rapids: 1500)
(Tool: 7 -> Feedrate Rapids: 1500)

(Z_CUT: )
(Tool: 1 -> Z_Cut: -1.7)
(Tool: 2 -> Z_Cut: -1.7)
(Tool: 3 -> Z_Cut: -1.7)
(Tool: 4 -> Z_Cut: -1.7)
(Tool: 5 -> Z_Cut: -1.7)
(Tool: 6 -> Z_Cut: -1.7)
(Tool: 7 -> Z_Cut: -1.7)

(Tools Offset: )
(Tool: 2 -> Offset Z: 0.0)
(Tool: 3 -> Offset Z: 0.0)

(Z_MOVE: )
(Tool: 1 -> Z_Move: 2)
(Tool: 2 -> Z_Move: 2)
(Tool: 3 -> Z_Move: 2)
(Tool: 4 -> Z_Move: 2)
(Tool: 5 -> Z_Move: 2)
(Tool: 6 -> Z_Move: 2)
(Tool: 7 -> Z_Move: 2)

(Z Toolchange: 25.0 mm)
(X,Y Toolchange: 0.0000, 0.0000 mm)
(Z Start: None mm)
(Z End: 0.5 mm)
(X,Y End: None mm)
(Steps per circle: 64)
(Steps per circle: 64)
(Preprocessor Excellon: GRBL_11_no_M6)

(X range:    2.1620 ...   98.7500  mm)
(Y range:  -53.3110 ...   -1.1200  mm)

(Spindle Speed: 12000 RPM)
G21
G90
G17
G94


G01 F300.00

M5             
G00 Z25.0000
G00 X0.0000 Y0.0000                
T2
(MSG, Change to Tool Dia = 0.7620 ||| Total drills for tool T2 = 53)
M0
G00 Z25.0000
        
G01 F300.00
M03 S12000
G00 X32.5700 Y-2.1900
G01 Z-1.7000
G01 Z0
G00 Z2.0000
G00 X32.5700 Y-4.7300
G01 Z-1.7000
G01 Z0
G00 Z2.0000
G00 X32.5700 Y-7.2700
G01 Z-1.7000
G01 Z0
G00 Z2.0000
G00 X32.5700 Y-9.8100
G01 Z-1.7000
G01 Z0
G00 Z2.0000
G00 X26.7460 Y-13.6140
G01 Z-1.7000
G01 Z0
G00 Z2.0000
G00 X26.7460 Y-16.1540
G01 Z-1.7000
G01 Z0
G00 Z2.0000
G00 X26.7460 Y-18.6940
G01 Z-1.7000
G01 Z0
G00 Z2.0000
G00 X26.7460 Y-21.2340
G01 Z-1.7000
G01 Z0
G00 Z2.0000
G00 X26.7460 Y-23.7740
G01 Z-1.7000
G01 Z0
G00 Z2.0000
G00 X26.7460 Y-26.3140
G01 Z-1.7000
G01 Z0
G00 Z2.0000
G00 X26.7460 Y-28.8540
G01 Z-1.7000
G01 Z0
G00 Z2.0000
G00 X42.7600 Y-34.3800
G01 Z-1.7000
G01 Z0
G00 Z2.0000
G00 X45.3000 Y-34.3800
G01 Z-1.7000
G01 Z0
G00 Z2.0000
G00 X47.8400 Y-34.3800
G01 Z-1.7000
G01 Z0
G00 Z2.0000
G00 X50.3800 Y-34.3800
G01 Z-1.7000
G01 Z0
G00 Z2.0000
G00 X52.9200 Y-34.3800
G01 Z-1.7000
G01 Z0
G00 Z2.0000
G00 X55.4600 Y-34.3800
G01 Z-1.7000
G01 Z0
G00 Z2.0000
G00 X58.0000 Y-34.3800
G01 Z-1.7000
G01 Z0
G00 Z2.0000
G00 X26.7460 Y-31.3940
G01 Z-1.7000
G01 Z0
G00 Z2.0000
G00 X26.7460 Y-33.9340
G01 Z-1.7000
G01 Z0
G00 Z2.0000
G00 X26.7460 Y-36.4740
G01 Z-1.7000
G01 Z0
G00 Z2.0000
G00 X26.7460 Y-39.0140
G01 Z-1.7000
G01 Z0
G00 Z2.0000
G00 X26.7460 Y-41.5540
G01 Z-1.7000
G01 Z0
G00 Z2.0000
G00 X26.7460 Y-44.0940
G01 Z-1.7000
G01 Z0
G00 Z2.0000
G00 X26.7460 Y-46.6340
G01 Z-1.7000
G01 Z0
G00 Z2.0000
G00 X26.7460 Y-49.1740
G01 Z-1.7000
G01 Z0
G00 Z2.0000
G00 X26.7460 Y-51.7140
G01 Z-1.7000
G01 Z0
G00 Z2.0000
G00 X11.5060 Y-51.7140
G01 Z-1.7000
G01 Z0
G00 Z2.0000
G00 X11.5060 Y-49.1740
G01 Z-1.7000
G01 Z0
G00 Z2.0000
G00 X11.5060 Y-46.6340
G01 Z-1.7000
G01 Z0
G00 Z2.0000
G00 X11.5060 Y-44.0940
G01 Z-1.7000
G01 Z0
G00 Z2.0000
G00 X11.5060 Y-41.5540
G01 Z-1.7000
G01 Z0
G00 Z2.0000
G00 X11.5060 Y-39.0140
G01 Z-1.7000
G01 Z0
G00 Z2.0000
G00 X11.5060 Y-36.4740
G01 Z-1.7000
G01 Z0
G00 Z2.0000
G00 X11.5060 Y-33.9340
G01 Z-1.7000
G01 Z0
G00 Z2.0000
G00 X11.5060 Y-31.3940
G01 Z-1.7000
G01 Z0
G00 Z2.0000
G00 X11.5060 Y-28.8540
G01 Z-1.7000
G01 Z0
G00 Z2.0000
G00 X11.5060 Y-26.3140
G01 Z-1.7000
G01 Z0
G00 Z2.0000
G00 X11.5060 Y-23.7740
G01 Z-1.7000
G01 Z0
G00 Z2.0000
G00 X11.5060 Y-21.2340
G01 Z-1.7000
G01 Z0
G00 Z2.0000
G00 X11.5060 Y-18.6940
G01 Z-1.7000
G01 Z0
G00 Z2.0000
G00 X11.5060 Y-16.1540
G01 Z-1.7000
G01 Z0
G00 Z2.0000
G00 X11.5060 Y-13.6140
G01 Z-1.7000
G01 Z0
G00 Z2.0000
G00 X11.5060 Y-11.0740
G01 Z-1.7000
G01 Z0
G00 Z2.0000
G00 X11.5060 Y-8.5340
G01 Z-1.7000
G01 Z0
G00 Z2.0000
G00 X11.5060 Y-5.9940
G01 Z-1.7000
G01 Z0
G00 Z2.0000
G00 X11.5060 Y-3.4540
G01 Z-1.7000
G01 Z0
G00 Z2.0000
G00 X17.0000 Y-13.0000
G01 Z-1.7000
G01 Z0
G00 Z2.0000
G00 X22.0000 Y-13.0000
G01 Z-1.7000
G01 Z0
G00 Z2.0000
G00 X26.7460 Y-11.0740
G01 Z-1.7000
G01 Z0
G00 Z2.0000
G00 X26.7460 Y-8.5340
G01 Z-1.7000
G01 Z0
G00 Z2.0000
G00 X26.7460 Y-5.9940
G01 Z-1.7000
G01 Z0
G00 Z2.0000
G00 X26.7460 Y-3.4540
G01 Z-1.7000
G01 Z0
G00 Z2.0000
M05
G00 Z0.50


