(G-CODE GENERATED BY FLATCAM v8.994 - www.flatcam.org - Version Date: 2020/11/7)

(Name: RF_PA-F_Cu.gbr_iso_combined_cnc)
(Type: G-code from Geometry)
(Units: MM)

(Created on Saturday, 18 November 2023 at 13:59)

(This preprocessor is used with a motion controller loaded with GRBL firmware.)
(It is configured to be compatible with almost any version of GRBL firmware.)

(TOOL DIAMETER: 0.1839 mm)
(Feedrate_XY: 30.0 mm/min)
(Feedrate_Z: 10.0 mm/min)
(Feedrate rapids 1500.0 mm/min)

(Z_Cut: -0.05 mm)
(DepthPerCut: 0.05 mm <=>1 passes)
(Z_Move: 2.0 mm)
(Z Start: None mm)
(Z End: 15.0 mm)
(X,Y End: None mm)
(Steps per circle: 64)
(Steps per circle: 64)
(Preprocessor Geometry: GRBL_11_no_M6)

(X range:   -0.7535 ...  100.7535  mm)
(Y range:  -55.7535 ...    0.7535  mm)

(Spindle Speed: 12000.0 RPM)
G21
G90
G17
G94


G01 F30.00

M5             
G00 Z15.0000
G00 X0.0000 Y0.0000                
T2
(MSG, Change to Tool Dia = 0.1839)
M0
G00 Z15.0000
        
G00 Z2.0000
M03 S12000.0
G4 P1.0
G01 F30.00
G00 X21.6889 Y-13.4086
G01 F10.00
G01 Z-0.0500
G01 F30.00
G01 X21.6889 Y-14.3586 F30.00
G01 X21.6902 Y-14.3876 F30.00
G01 X21.6910 Y-14.3966 F30.00
G01 X21.6954 Y-14.4253 F30.00
G01 X21.7024 Y-14.4535 F30.00
G01 X21.7050 Y-14.4621 F30.00
G01 X21.7149 Y-14.4895 F30.00
G01 X21.7292 Y-14.5197 F30.00
G01 X21.7441 Y-14.5448 F30.00
G01 X21.7491 Y-14.5523 F30.00
G01 X21.7679 Y-14.5773 F30.00
G01 X21.7890 Y-14.6004 F30.00
G01 X21.8105 Y-14.6200 F30.00
G01 X21.8174 Y-14.6257 F30.00
G01 X21.8427 Y-14.6442 F30.00
G01 X21.8696 Y-14.6602 F30.00
G01 X21.8979 Y-14.6736 F30.00
G01 X21.9273 Y-14.6844 F30.00
G01 X21.9387 Y-14.6877 F30.00
G01 X21.9387 Y-15.2112 F30.00
G01 X21.8892 Y-15.2409 F30.00
G01 X21.8246 Y-15.2888 F30.00
G01 X21.7601 Y-15.3473 F30.00
G01 X21.7062 Y-15.4069 F30.00
G01 X21.6595 Y-15.4695 F30.00
G01 X21.6545 Y-15.4771 F30.00
G01 X21.6134 Y-15.5461 F30.00
G01 X21.5791 Y-15.6188 F30.00
G01 X21.5527 Y-15.6923 F30.00
G01 X21.5501 Y-15.7009 F30.00
G01 X21.5312 Y-15.7767 F30.00
G01 X21.5191 Y-15.8585 F30.00
G01 X21.5152 Y-15.9365 F30.00
G01 X21.5152 Y-15.9455 F30.00
G01 X21.5194 Y-16.0258 F30.00
G01 X21.5312 Y-16.1053 F30.00
G01 X21.5501 Y-16.1811 F30.00
G01 X21.5527 Y-16.1897 F30.00
G01 X21.5791 Y-16.2632 F30.00
G01 X21.6124 Y-16.3339 F30.00
G01 X21.6167 Y-16.3418 F30.00
G01 X21.6569 Y-16.4088 F30.00
G01 X21.7062 Y-16.4751 F30.00
G01 X21.7617 Y-16.5363 F30.00
G01 X21.8195 Y-16.5889 F30.00
G01 X21.8264 Y-16.5946 F30.00
G01 X21.8892 Y-16.6411 F30.00
G01 X21.9562 Y-16.6813 F30.00
G01 X21.9641 Y-16.6856 F30.00
G01 X22.0348 Y-16.7189 F30.00
G01 X22.1083 Y-16.7453 F30.00
G01 X22.1169 Y-16.7479 F30.00
G01 X22.1927 Y-16.7668 F30.00
G01 X22.2745 Y-16.7789 F30.00
G01 X22.3570 Y-16.7829 F30.00
G01 X22.4395 Y-16.7789 F30.00
G01 X22.5213 Y-16.7668 F30.00
G01 X22.6014 Y-16.7467 F30.00
G01 X22.6792 Y-16.7189 F30.00
G01 X22.7539 Y-16.6835 F30.00
G01 X22.8248 Y-16.6411 F30.00
G01 X22.8911 Y-16.5918 F30.00
G01 X22.9523 Y-16.5363 F30.00
G01 X23.0078 Y-16.4751 F30.00
G01 X23.0571 Y-16.4088 F30.00
G01 X23.0995 Y-16.3379 F30.00
G01 X23.1349 Y-16.2632 F30.00
G01 X23.1627 Y-16.1854 F30.00
G01 X23.1828 Y-16.1053 F30.00
G01 X23.1949 Y-16.0235 F30.00
G01 X23.1989 Y-15.9410 F30.00
G01 X23.1949 Y-15.8587 F30.00
G01 X23.1828 Y-15.7767 F30.00
G01 X23.1627 Y-15.6966 F30.00
G01 X23.1349 Y-15.6188 F30.00
G01 X23.1006 Y-15.5461 F30.00
G01 X23.0571 Y-15.4732 F30.00
G01 X23.0078 Y-15.4069 F30.00
G01 X22.9523 Y-15.3457 F30.00
G01 X22.8929 Y-15.2916 F30.00
G01 X22.8248 Y-15.2409 F30.00
G01 X22.7559 Y-15.1996 F30.00
G01 X22.6792 Y-15.1631 F30.00
G01 X22.6229 Y-15.1429 F30.00
G01 X22.6229 Y-14.6877 F30.00
G01 X22.6322 Y-14.6851 F30.00
G01 X22.6596 Y-14.6754 F30.00
G01 X22.6919 Y-14.6602 F30.00
G01 X22.7208 Y-14.6429 F30.00
G01 X22.7477 Y-14.6229 F30.00
G01 X22.7726 Y-14.6004 F30.00
G01 X22.7951 Y-14.5755 F30.00
G01 X22.8151 Y-14.5486 F30.00
G01 X22.8324 Y-14.5198 F30.00
G01 X22.8467 Y-14.4895 F30.00
G01 X22.8580 Y-14.4579 F30.00
G01 X22.8662 Y-14.4253 F30.00
G01 X22.8706 Y-14.3966 F30.00
G01 X22.8714 Y-14.3876 F30.00
G01 X22.8727 Y-14.3609 F30.00
G01 X22.8727 Y-14.2235 F30.00
G01 X23.9719 Y-14.2235 F30.00
G01 X23.9719 Y-14.6814 F30.00
G01 X23.9725 Y-14.6927 F30.00
G01 X23.9752 Y-14.7059 F30.00
G01 X23.9780 Y-14.7145 F30.00
G01 X23.9807 Y-14.7207 F30.00
G01 X23.9873 Y-14.7325 F30.00
G01 X23.9957 Y-14.7431 F30.00
G01 X24.0055 Y-14.7525 F30.00
G01 X24.0127 Y-14.7579 F30.00
G01 X24.0185 Y-14.7614 F30.00
G01 X24.0307 Y-14.7672 F30.00
G01 X24.0393 Y-14.7700 F30.00
G01 X24.0459 Y-14.7716 F30.00
G01 X24.0548 Y-14.7729 F30.00
G01 X24.0638 Y-14.7733 F30.00
G01 X25.3683 Y-14.7732 F30.00
G01 X25.3817 Y-14.7716 F30.00
G01 X25.3948 Y-14.7680 F30.00
G01 X25.4071 Y-14.7625 F30.00
G01 X25.4186 Y-14.7553 F30.00
G01 X25.4288 Y-14.7464 F30.00
G01 X25.4377 Y-14.7362 F30.00
G01 X25.4449 Y-14.7247 F30.00
G01 X25.4504 Y-14.7124 F30.00
G01 X25.4530 Y-14.7037 F30.00
G01 X25.4544 Y-14.6971 F30.00
G01 X25.4553 Y-14.6904 F30.00
G01 X25.4557 Y-14.6814 F30.00
G01 X25.4557 Y-13.0791 F30.00
G01 X25.4544 Y-13.0657 F30.00
G01 X25.4530 Y-13.0591 F30.00
G01 X25.4504 Y-13.0504 F30.00
G01 X25.4449 Y-13.0381 F30.00
G01 X25.4377 Y-13.0266 F30.00
G01 X25.4288 Y-13.0164 F30.00
G01 X25.4186 Y-13.0075 F30.00
G01 X25.4071 Y-13.0003 F30.00
G01 X25.3948 Y-12.9948 F30.00
G01 X25.3883 Y-12.9928 F30.00
G01 X25.3795 Y-12.9908 F30.00
G01 X25.3728 Y-12.9899 F30.00
G01 X25.3638 Y-12.9895 F30.00
G01 X24.0638 Y-12.9895 F30.00
G01 X24.0548 Y-12.9899 F30.00
G01 X24.0459 Y-12.9912 F30.00
G01 X24.0393 Y-12.9928 F30.00
G01 X24.0307 Y-12.9956 F30.00
G01 X24.0205 Y-13.0003 F30.00
G01 X24.0090 Y-13.0075 F30.00
G01 X23.9988 Y-13.0164 F30.00
G01 X23.9899 Y-13.0266 F30.00
G01 X23.9827 Y-13.0381 F30.00
G01 X23.9780 Y-13.0483 F30.00
G01 X23.9746 Y-13.0591 F30.00
G01 X23.9723 Y-13.0724 F30.00
G01 X23.9719 Y-13.0814 F30.00
G01 X23.9719 Y-13.5393 F30.00
G01 X22.8727 Y-13.5393 F30.00
G01 X22.8727 Y-13.4063 F30.00
G01 X22.8711 Y-13.3751 F30.00
G01 X22.8666 Y-13.3441 F30.00
G01 X22.8580 Y-13.3093 F30.00
G01 X22.8467 Y-13.2777 F30.00
G01 X22.8324 Y-13.2475 F30.00
G01 X22.8151 Y-13.2186 F30.00
G01 X22.7951 Y-13.1917 F30.00
G01 X22.7757 Y-13.1701 F30.00
G01 X22.7693 Y-13.1637 F30.00
G01 X22.7495 Y-13.1457 F30.00
G01 X22.7442 Y-13.1415 F30.00
G01 X22.7208 Y-13.1243 F30.00
G01 X22.6959 Y-13.1093 F30.00
G01 X22.6880 Y-13.1050 F30.00
G01 X22.6617 Y-13.0927 F30.00
G01 X22.6301 Y-13.0814 F30.00
G01 X22.5975 Y-13.0732 F30.00
G01 X22.5688 Y-13.0688 F30.00
G01 X22.5598 Y-13.0680 F30.00
G01 X22.5308 Y-13.0667 F30.00
G01 X22.0285 Y-13.0667 F30.00
G01 X21.9973 Y-13.0683 F30.00
G01 X21.9641 Y-13.0732 F30.00
G01 X21.9315 Y-13.0814 F30.00
G01 X21.9020 Y-13.0918 F30.00
G01 X21.8736 Y-13.1050 F30.00
G01 X21.8658 Y-13.1092 F30.00
G01 X21.8408 Y-13.1243 F30.00
G01 X21.8139 Y-13.1443 F30.00
G01 X21.7890 Y-13.1668 F30.00
G01 X21.7694 Y-13.1883 F30.00
G01 X21.7637 Y-13.1952 F30.00
G01 X21.7465 Y-13.2186 F30.00
G01 X21.7315 Y-13.2435 F30.00
G01 X21.7272 Y-13.2514 F30.00
G01 X21.7149 Y-13.2777 F30.00
G01 X21.7036 Y-13.3093 F30.00
G01 X21.6964 Y-13.3375 F30.00
G01 X21.6946 Y-13.3463 F30.00
G01 X21.6905 Y-13.3751 F30.00
G01 X21.6889 Y-13.4086 F30.00
G00 Z2.0000
G00 X21.4441 Y-15.9410
G01 F10.00
G01 Z-0.0500
G01 F30.00
G01 X21.4616 Y-16.1191 F30.00
G01 X21.5135 Y-16.2904 F30.00
G01 X21.5979 Y-16.4482 F30.00
G01 X21.7114 Y-16.5866 F30.00
G01 X21.8498 Y-16.7001 F30.00
G01 X22.0076 Y-16.7844 F30.00
G01 X22.1789 Y-16.8364 F30.00
G01 X22.3570 Y-16.8539 F30.00
G01 X22.5351 Y-16.8364 F30.00
G01 X22.7064 Y-16.7845 F30.00
G01 X22.7125 Y-16.7812 F30.00
G01 X22.8642 Y-16.7001 F30.00
G01 X23.0026 Y-16.5866 F30.00
G01 X23.1161 Y-16.4482 F30.00
G01 X23.2004 Y-16.2904 F30.00
G01 X23.2524 Y-16.1191 F30.00
G01 X23.2699 Y-15.9410 F30.00
G01 X23.2524 Y-15.7629 F30.00
G01 X23.2005 Y-15.5916 F30.00
G01 X23.1161 Y-15.4338 F30.00
G01 X23.0025 Y-15.2954 F30.00
G01 X22.8642 Y-15.1819 F30.00
G01 X22.8017 Y-15.1485 F30.00
G01 X22.7907 Y-15.1412 F30.00
G01 X22.7824 Y-15.1340 F30.00
G01 X22.7326 Y-15.0850 F30.00
G01 X22.7264 Y-15.0784 F30.00
G01 X22.7210 Y-15.0712 F30.00
G01 X22.7163 Y-15.0635 F30.00
G01 X22.7133 Y-15.0574 F30.00
G01 X22.7100 Y-15.0490 F30.00
G01 X22.6923 Y-14.9822 F30.00
G01 X22.6901 Y-14.9707 F30.00
G01 X22.6893 Y-14.9590 F30.00
G01 X22.6893 Y-14.8583 F30.00
G01 X22.6903 Y-14.8453 F30.00
G01 X22.6931 Y-14.8324 F30.00
G01 X22.7128 Y-14.7654 F30.00
G01 X22.7157 Y-14.7569 F30.00
G01 X22.7195 Y-14.7488 F30.00
G01 X22.7253 Y-14.7392 F30.00
G01 X22.7307 Y-14.7320 F30.00
G01 X22.7670 Y-14.6931 F30.00
G01 X22.7759 Y-14.6855 F30.00
G01 X22.8227 Y-14.6505 F30.00
G01 X22.8931 Y-14.5564 F30.00
G01 X22.9403 Y-14.4299 F30.00
G01 X22.9451 Y-14.4193 F30.00
G01 X22.9486 Y-14.4132 F30.00
G01 X22.9526 Y-14.4075 F30.00
G01 X22.9959 Y-14.3497 F30.00
G01 X23.0003 Y-14.3445 F30.00
G01 X23.0051 Y-14.3396 F30.00
G01 X23.0103 Y-14.3351 F30.00
G01 X23.0158 Y-14.3310 F30.00
G01 X23.0255 Y-14.3251 F30.00
G01 X23.0338 Y-14.3213 F30.00
G01 X23.1057 Y-14.2946 F30.00
G01 X23.1145 Y-14.2923 F30.00
G01 X23.1212 Y-14.2911 F30.00
G01 X23.1280 Y-14.2904 F30.00
G01 X23.1424 Y-14.2900 F30.00
G01 X23.6937 Y-14.2901 F30.00
G01 X23.7045 Y-14.2912 F30.00
G01 X23.7152 Y-14.2937 F30.00
G01 X23.7844 Y-14.3140 F30.00
G01 X23.7909 Y-14.3164 F30.00
G01 X23.7971 Y-14.3192 F30.00
G01 X23.8051 Y-14.3236 F30.00
G01 X23.8108 Y-14.3275 F30.00
G01 X23.8161 Y-14.3317 F30.00
G01 X23.8212 Y-14.3364 F30.00
G01 X23.8731 Y-14.3959 F30.00
G01 X23.8785 Y-14.4033 F30.00
G01 X23.8843 Y-14.4132 F30.00
G01 X23.8880 Y-14.4216 F30.00
G01 X23.8909 Y-14.4304 F30.00
G01 X23.9031 Y-14.4864 F30.00
G01 X23.9050 Y-14.4993 F30.00
G01 X23.9052 Y-14.6970 F30.00
G01 X23.9144 Y-14.7433 F30.00
G01 X23.9495 Y-14.7957 F30.00
G01 X24.0019 Y-14.8308 F30.00
G01 X24.0482 Y-14.8399 F30.00
G01 X25.3794 Y-14.8400 F30.00
G01 X25.4257 Y-14.8308 F30.00
G01 X25.4781 Y-14.7957 F30.00
G01 X25.5132 Y-14.7433 F30.00
G01 X25.5224 Y-14.6970 F30.00
G01 X25.5224 Y-13.0658 F30.00
G01 X25.5132 Y-13.0195 F30.00
G01 X25.4781 Y-12.9671 F30.00
G01 X25.4257 Y-12.9320 F30.00
G01 X25.3794 Y-12.9228 F30.00
G01 X24.0482 Y-12.9228 F30.00
G01 X24.0019 Y-12.9320 F30.00
G01 X23.9495 Y-12.9671 F30.00
G01 X23.9144 Y-13.0195 F30.00
G01 X23.9052 Y-13.0658 F30.00
G01 X23.9052 Y-13.2569 F30.00
G01 X23.9046 Y-13.2678 F30.00
G01 X23.9021 Y-13.2807 F30.00
G01 X23.8818 Y-13.3498 F30.00
G01 X23.8788 Y-13.3585 F30.00
G01 X23.8739 Y-13.3688 F30.00
G01 X23.8691 Y-13.3765 F30.00
G01 X23.8649 Y-13.3820 F30.00
G01 X23.8604 Y-13.3871 F30.00
G01 X23.8555 Y-13.3919 F30.00
G01 X23.7993 Y-13.4407 F30.00
G01 X23.7919 Y-13.4461 F30.00
G01 X23.7860 Y-13.4498 F30.00
G01 X23.7757 Y-13.4548 F30.00
G01 X23.7692 Y-13.4571 F30.00
G01 X23.7626 Y-13.4590 F30.00
G01 X23.7067 Y-13.4712 F30.00
G01 X23.6980 Y-13.4724 F30.00
G01 X23.6915 Y-13.4728 F30.00
G01 X23.1364 Y-13.4727 F30.00
G01 X23.1255 Y-13.4716 F30.00
G01 X23.1169 Y-13.4697 F30.00
G01 X23.0478 Y-13.4494 F30.00
G01 X23.0371 Y-13.4456 F30.00
G01 X23.0309 Y-13.4426 F30.00
G01 X23.0230 Y-13.4379 F30.00
G01 X23.0157 Y-13.4325 F30.00
G01 X23.0089 Y-13.4264 F30.00
G01 X22.9585 Y-13.3686 F30.00
G01 X22.9542 Y-13.3633 F30.00
G01 X22.9503 Y-13.3577 F30.00
G01 X22.9448 Y-13.3478 F30.00
G01 X22.9384 Y-13.3324 F30.00
G01 X22.8931 Y-13.2108 F30.00
G01 X22.8227 Y-13.1167 F30.00
G01 X22.7286 Y-13.0463 F30.00
G01 X22.6170 Y-13.0047 F30.00
G01 X22.5737 Y-13.0000 F30.00
G01 X21.9879 Y-13.0000 F30.00
G01 X21.9446 Y-13.0047 F30.00
G01 X21.8330 Y-13.0463 F30.00
G01 X21.7389 Y-13.1167 F30.00
G01 X21.6685 Y-13.2108 F30.00
G01 X21.6269 Y-13.3224 F30.00
G01 X21.6223 Y-13.3656 F30.00
G01 X21.6222 Y-14.4015 F30.00
G01 X21.6269 Y-14.4448 F30.00
G01 X21.6685 Y-14.5564 F30.00
G01 X21.7389 Y-14.6505 F30.00
G01 X21.7888 Y-14.6879 F30.00
G01 X21.7954 Y-14.6939 F30.00
G01 X21.8014 Y-14.7005 F30.00
G01 X21.8487 Y-14.7636 F30.00
G01 X21.8544 Y-14.7732 F30.00
G01 X21.8589 Y-14.7835 F30.00
G01 X21.8609 Y-14.7899 F30.00
G01 X21.8630 Y-14.7987 F30.00
G01 X21.8712 Y-14.8443 F30.00
G01 X21.8721 Y-14.8537 F30.00
G01 X21.8722 Y-15.0613 F30.00
G01 X21.8713 Y-15.0744 F30.00
G01 X21.8685 Y-15.0873 F30.00
G01 X21.8482 Y-15.1564 F30.00
G01 X21.8431 Y-15.1690 F30.00
G01 X21.8363 Y-15.1807 F30.00
G01 X21.8293 Y-15.1895 F30.00
G01 X21.8036 Y-15.2183 F30.00
G01 X21.7969 Y-15.2251 F30.00
G01 X21.7114 Y-15.2954 F30.00
G01 X21.5979 Y-15.4338 F30.00
G01 X21.5135 Y-15.5916 F30.00
G01 X21.4616 Y-15.7629 F30.00
G01 X21.4441 Y-15.9410 F30.00
G00 Z2.0000
G00 X24.8052 Y-17.5970
G01 F10.00
G01 Z-0.0500
G01 F30.00
G01 X24.8144 Y-17.6433 F30.00
G01 X24.8495 Y-17.6957 F30.00
G01 X24.9019 Y-17.7308 F30.00
G01 X24.9482 Y-17.7399 F30.00
G01 X25.3459 Y-17.7402 F30.00
G01 X25.3545 Y-17.7412 F30.00
G01 X25.3652 Y-17.7437 F30.00
G01 X25.4322 Y-17.7634 F30.00
G01 X25.4387 Y-17.7655 F30.00
G01 X25.4451 Y-17.7682 F30.00
G01 X25.4531 Y-17.7724 F30.00
G01 X25.4589 Y-17.7761 F30.00
G01 X25.4661 Y-17.7817 F30.00
G01 X25.4728 Y-17.7880 F30.00
G01 X25.5216 Y-17.8442 F30.00
G01 X25.5259 Y-17.8495 F30.00
G01 X25.5298 Y-17.8552 F30.00
G01 X25.5333 Y-17.8612 F30.00
G01 X25.5363 Y-17.8674 F30.00
G01 X25.5388 Y-17.8738 F30.00
G01 X25.5409 Y-17.8804 F30.00
G01 X25.5540 Y-17.9407 F30.00
G01 X25.5550 Y-17.9493 F30.00
G01 X25.5552 Y-17.9559 F30.00
G01 X25.5552 Y-19.2842 F30.00
G01 X25.5543 Y-19.2973 F30.00
G01 X25.5515 Y-19.3102 F30.00
G01 X25.5312 Y-19.3793 F30.00
G01 X25.5261 Y-19.3918 F30.00
G01 X25.5193 Y-19.4034 F30.00
G01 X25.5109 Y-19.4139 F30.00
G01 X25.4759 Y-19.4511 F30.00
G01 X25.4687 Y-19.4571 F30.00
G01 X25.4219 Y-19.4921 F30.00
G01 X25.3515 Y-19.5862 F30.00
G01 X25.3099 Y-19.6978 F30.00
G01 X25.3053 Y-19.7410 F30.00
G01 X25.3052 Y-20.7769 F30.00
G01 X25.3099 Y-20.8202 F30.00
G01 X25.3515 Y-20.9318 F30.00
G01 X25.4219 Y-21.0259 F30.00
G01 X25.5160 Y-21.0963 F30.00
G01 X25.6276 Y-21.1379 F30.00
G01 X25.6709 Y-21.1426 F30.00
G01 X26.2567 Y-21.1425 F30.00
G01 X26.3000 Y-21.1379 F30.00
G01 X26.4116 Y-21.0963 F30.00
G01 X26.5057 Y-21.0259 F30.00
G01 X26.5761 Y-20.9318 F30.00
G01 X26.5892 Y-20.8969 F30.00
G01 X26.5934 Y-20.8885 F30.00
G01 X26.5984 Y-20.8807 F30.00
G01 X26.6431 Y-20.8210 F30.00
G01 X26.6507 Y-20.8125 F30.00
G01 X26.6593 Y-20.8050 F30.00
G01 X26.6687 Y-20.7986 F30.00
G01 X26.6789 Y-20.7935 F30.00
G01 X26.7486 Y-20.7674 F30.00
G01 X26.7573 Y-20.7646 F30.00
G01 X26.7640 Y-20.7631 F30.00
G01 X26.7708 Y-20.7621 F30.00
G01 X26.7799 Y-20.7616 F30.00
G01 X26.7890 Y-20.7619 F30.00
G01 X26.7981 Y-20.7632 F30.00
G01 X26.8730 Y-20.7796 F30.00
G01 X26.8796 Y-20.7816 F30.00
G01 X26.8880 Y-20.7851 F30.00
G01 X26.8941 Y-20.7882 F30.00
G01 X26.9018 Y-20.7931 F30.00
G01 X26.9090 Y-20.7987 F30.00
G01 X26.9141 Y-20.8034 F30.00
G01 X26.9635 Y-20.8528 F30.00
G01 X26.9707 Y-20.8609 F30.00
G01 X26.9758 Y-20.8681 F30.00
G01 X26.9802 Y-20.8757 F30.00
G01 X26.9903 Y-20.8977 F30.00
G01 X26.9938 Y-20.9068 F30.00
G01 X27.0642 Y-21.0009 F30.00
G01 X27.1583 Y-21.0713 F30.00
G01 X27.2699 Y-21.1129 F30.00
G01 X27.3132 Y-21.1176 F30.00
G01 X27.9240 Y-21.1175 F30.00
G01 X27.9673 Y-21.1129 F30.00
G01 X28.0789 Y-21.0713 F30.00
G01 X28.1730 Y-21.0009 F30.00
G01 X28.2434 Y-20.9068 F30.00
G01 X28.2850 Y-20.7952 F30.00
G01 X28.2897 Y-20.7519 F30.00
G01 X28.2896 Y-19.7661 F30.00
G01 X28.2850 Y-19.7228 F30.00
G01 X28.2434 Y-19.6112 F30.00
G01 X28.1730 Y-19.5171 F30.00
G01 X28.0789 Y-19.4467 F30.00
G01 X27.9673 Y-19.4051 F30.00
G01 X27.9240 Y-19.4004 F30.00
G01 X27.3132 Y-19.4004 F30.00
G01 X27.2699 Y-19.4051 F30.00
G01 X27.1583 Y-19.4467 F30.00
G01 X27.0642 Y-19.5171 F30.00
G01 X26.9938 Y-19.6112 F30.00
G01 X26.9880 Y-19.6253 F30.00
G01 X26.9834 Y-19.6335 F30.00
G01 X26.9794 Y-19.6392 F30.00
G01 X26.9347 Y-19.6987 F30.00
G01 X26.9269 Y-19.7071 F30.00
G01 X26.9181 Y-19.7143 F30.00
G01 X26.9085 Y-19.7205 F30.00
G01 X26.8982 Y-19.7254 F30.00
G01 X26.8263 Y-19.7521 F30.00
G01 X26.8174 Y-19.7544 F30.00
G01 X26.8084 Y-19.7559 F30.00
G01 X26.7993 Y-19.7564 F30.00
G01 X26.7902 Y-19.7560 F30.00
G01 X26.7789 Y-19.7543 F30.00
G01 X26.7084 Y-19.7390 F30.00
G01 X26.6975 Y-19.7356 F30.00
G01 X26.6871 Y-19.7309 F30.00
G01 X26.6774 Y-19.7249 F30.00
G01 X26.6685 Y-19.7178 F30.00
G01 X26.6158 Y-19.6652 F30.00
G01 X26.6072 Y-19.6553 F30.00
G01 X26.6034 Y-19.6499 F30.00
G01 X26.5990 Y-19.6423 F30.00
G01 X26.5881 Y-19.6183 F30.00
G01 X26.5761 Y-19.5862 F30.00
G01 X26.5057 Y-19.4921 F30.00
G01 X26.4571 Y-19.4558 F30.00
G01 X26.4505 Y-19.4501 F30.00
G01 X26.4431 Y-19.4421 F30.00
G01 X26.3947 Y-19.3771 F30.00
G01 X26.3902 Y-19.3694 F30.00
G01 X26.3865 Y-19.3612 F30.00
G01 X26.3837 Y-19.3527 F30.00
G01 X26.3821 Y-19.3461 F30.00
G01 X26.3734 Y-19.2983 F30.00
G01 X26.3726 Y-19.2913 F30.00
G01 X26.3724 Y-19.2843 F30.00
G01 X26.3724 Y-17.9559 F30.00
G01 X26.3733 Y-17.9428 F30.00
G01 X26.3755 Y-17.9321 F30.00
G01 X26.3958 Y-17.8630 F30.00
G01 X26.3996 Y-17.8522 F30.00
G01 X26.4037 Y-17.8440 F30.00
G01 X26.4099 Y-17.8344 F30.00
G01 X26.4172 Y-17.8257 F30.00
G01 X26.4238 Y-17.8194 F30.00
G01 X26.4819 Y-17.7693 F30.00
G01 X26.4896 Y-17.7642 F30.00
G01 X26.4956 Y-17.7609 F30.00
G01 X26.5019 Y-17.7580 F30.00
G01 X26.5106 Y-17.7550 F30.00
G01 X26.5709 Y-17.7416 F30.00
G01 X26.5774 Y-17.7406 F30.00
G01 X26.5861 Y-17.7400 F30.00
G01 X26.9794 Y-17.7400 F30.00
G01 X27.0257 Y-17.7308 F30.00
G01 X27.0781 Y-17.6957 F30.00
G01 X27.1132 Y-17.6433 F30.00
G01 X27.1224 Y-17.5970 F30.00
G01 X27.1224 Y-15.9658 F30.00
G01 X27.1132 Y-15.9195 F30.00
G01 X27.0781 Y-15.8671 F30.00
G01 X27.0257 Y-15.8320 F30.00
G01 X26.9794 Y-15.8228 F30.00
G01 X24.9482 Y-15.8228 F30.00
G01 X24.9019 Y-15.8320 F30.00
G01 X24.8495 Y-15.8671 F30.00
G01 X24.8144 Y-15.9195 F30.00
G01 X24.8052 Y-15.9658 F30.00
G01 X24.8052 Y-17.5970 F30.00
G00 Z2.0000
G00 X25.3719 Y-19.7840
G01 F10.00
G01 Z-0.0500
G01 F30.00
G01 X25.3719 Y-20.7340 F30.00
G01 X25.3735 Y-20.7675 F30.00
G01 X25.3780 Y-20.7985 F30.00
G01 X25.3866 Y-20.8333 F30.00
G01 X25.3963 Y-20.8606 F30.00
G01 X25.3997 Y-20.8690 F30.00
G01 X25.4122 Y-20.8951 F30.00
G01 X25.4271 Y-20.9202 F30.00
G01 X25.4321 Y-20.9277 F30.00
G01 X25.4495 Y-20.9509 F30.00
G01 X25.4689 Y-20.9725 F30.00
G01 X25.4753 Y-20.9789 F30.00
G01 X25.4969 Y-20.9983 F30.00
G01 X25.5201 Y-21.0157 F30.00
G01 X25.5276 Y-21.0207 F30.00
G01 X25.5526 Y-21.0356 F30.00
G01 X25.5850 Y-21.0508 F30.00
G01 X25.6145 Y-21.0612 F30.00
G01 X25.6471 Y-21.0694 F30.00
G01 X25.6803 Y-21.0743 F30.00
G01 X25.7093 Y-21.0758 F30.00
G01 X26.2138 Y-21.0759 F30.00
G01 X26.2473 Y-21.0743 F30.00
G01 X26.2805 Y-21.0694 F30.00
G01 X26.3131 Y-21.0612 F30.00
G01 X26.3404 Y-21.0515 F30.00
G01 X26.3488 Y-21.0481 F30.00
G01 X26.3749 Y-21.0356 F30.00
G01 X26.4038 Y-21.0183 F30.00
G01 X26.4307 Y-20.9983 F30.00
G01 X26.4556 Y-20.9758 F30.00
G01 X26.4781 Y-20.9509 F30.00
G01 X26.4981 Y-20.9240 F30.00
G01 X26.5154 Y-20.8952 F30.00
G01 X26.5279 Y-20.8690 F30.00
G01 X26.5313 Y-20.8606 F30.00
G01 X26.5403 Y-20.8354 F30.00
G01 X26.5422 Y-20.8289 F30.00
G01 X26.5492 Y-20.8007 F30.00
G01 X26.5541 Y-20.7675 F30.00
G01 X26.5557 Y-20.7340 F30.00
G01 X26.5557 Y-20.6011 F30.00
G01 X27.0142 Y-20.6011 F30.00
G01 X27.0143 Y-20.7135 F30.00
G01 X27.0158 Y-20.7425 F30.00
G01 X27.0207 Y-20.7757 F30.00
G01 X27.0289 Y-20.8083 F30.00
G01 X27.0402 Y-20.8399 F30.00
G01 X27.0545 Y-20.8701 F30.00
G01 X27.0718 Y-20.8990 F30.00
G01 X27.0918 Y-20.9259 F30.00
G01 X27.1143 Y-20.9508 F30.00
G01 X27.1392 Y-20.9733 F30.00
G01 X27.1624 Y-20.9907 F30.00
G01 X27.1699 Y-20.9957 F30.00
G01 X27.1969 Y-21.0116 F30.00
G01 X27.2211 Y-21.0231 F30.00
G01 X27.2295 Y-21.0265 F30.00
G01 X27.2568 Y-21.0362 F30.00
G01 X27.2850 Y-21.0434 F30.00
G01 X27.2916 Y-21.0448 F30.00
G01 X27.3181 Y-21.0488 F30.00
G01 X27.3271 Y-21.0496 F30.00
G01 X27.3561 Y-21.0509 F30.00
G01 X27.8811 Y-21.0509 F30.00
G01 X27.9146 Y-21.0493 F30.00
G01 X27.9434 Y-21.0452 F30.00
G01 X27.9522 Y-21.0434 F30.00
G01 X27.9782 Y-21.0369 F30.00
G01 X27.9846 Y-21.0348 F30.00
G01 X28.0120 Y-21.0249 F30.00
G01 X28.0383 Y-21.0126 F30.00
G01 X28.0461 Y-21.0084 F30.00
G01 X28.0711 Y-20.9933 F30.00
G01 X28.0980 Y-20.9733 F30.00
G01 X28.1229 Y-20.9508 F30.00
G01 X28.1425 Y-20.9293 F30.00
G01 X28.1482 Y-20.9224 F30.00
G01 X28.1654 Y-20.8990 F30.00
G01 X28.1804 Y-20.8741 F30.00
G01 X28.1847 Y-20.8662 F30.00
G01 X28.1970 Y-20.8399 F30.00
G01 X28.2083 Y-20.8083 F30.00
G01 X28.2165 Y-20.7757 F30.00
G01 X28.2214 Y-20.7425 F30.00
G01 X28.2230 Y-20.7113 F30.00
G01 X28.2230 Y-19.8090 F30.00
G01 X28.2214 Y-19.7755 F30.00
G01 X28.2165 Y-19.7423 F30.00
G01 X28.2083 Y-19.7097 F30.00
G01 X28.1970 Y-19.6781 F30.00
G01 X28.1847 Y-19.6518 F30.00
G01 X28.1805 Y-19.6440 F30.00
G01 X28.1641 Y-19.6172 F30.00
G01 X28.1482 Y-19.5956 F30.00
G01 X28.1425 Y-19.5887 F30.00
G01 X28.1229 Y-19.5672 F30.00
G01 X28.1014 Y-19.5476 F30.00
G01 X28.0963 Y-19.5433 F30.00
G01 X28.0748 Y-19.5273 F30.00
G01 X28.0673 Y-19.5223 F30.00
G01 X28.0423 Y-19.5074 F30.00
G01 X28.0161 Y-19.4949 F30.00
G01 X28.0077 Y-19.4915 F30.00
G01 X27.9804 Y-19.4818 F30.00
G01 X27.9500 Y-19.4741 F30.00
G01 X27.9191 Y-19.4692 F30.00
G01 X27.9101 Y-19.4684 F30.00
G01 X27.8811 Y-19.4671 F30.00
G01 X27.3538 Y-19.4671 F30.00
G01 X27.3271 Y-19.4684 F30.00
G01 X27.3181 Y-19.4692 F30.00
G01 X27.2894 Y-19.4736 F30.00
G01 X27.2612 Y-19.4806 F30.00
G01 X27.2526 Y-19.4832 F30.00
G01 X27.2252 Y-19.4931 F30.00
G01 X27.1950 Y-19.5074 F30.00
G01 X27.1661 Y-19.5247 F30.00
G01 X27.1392 Y-19.5447 F30.00
G01 X27.1143 Y-19.5672 F30.00
G01 X27.0918 Y-19.5921 F30.00
G01 X27.0718 Y-19.6190 F30.00
G01 X27.0556 Y-19.6458 F30.00
G01 X27.0402 Y-19.6781 F30.00
G01 X27.0303 Y-19.7055 F30.00
G01 X27.0282 Y-19.7119 F30.00
G01 X27.0217 Y-19.7379 F30.00
G01 X27.0199 Y-19.7467 F30.00
G01 X27.0158 Y-19.7755 F30.00
G01 X27.0142 Y-19.8067 F30.00
G01 X27.0142 Y-19.9169 F30.00
G01 X26.5557 Y-19.9169 F30.00
G01 X26.5557 Y-19.7817 F30.00
G01 X26.5544 Y-19.7550 F30.00
G01 X26.5536 Y-19.7460 F30.00
G01 X26.5492 Y-19.7173 F30.00
G01 X26.5410 Y-19.6847 F30.00
G01 X26.5297 Y-19.6531 F30.00
G01 X26.5154 Y-19.6229 F30.00
G01 X26.4981 Y-19.5940 F30.00
G01 X26.4781 Y-19.5671 F30.00
G01 X26.4556 Y-19.5422 F30.00
G01 X26.4307 Y-19.5197 F30.00
G01 X26.4038 Y-19.4997 F30.00
G01 X26.3750 Y-19.4824 F30.00
G01 X26.3426 Y-19.4672 F30.00
G01 X26.3152 Y-19.4575 F30.00
G01 X26.3059 Y-19.4549 F30.00
G01 X26.3059 Y-17.6733 F30.00
G01 X26.9638 Y-17.6733 F30.00
G01 X26.9728 Y-17.6729 F30.00
G01 X26.9861 Y-17.6706 F30.00
G01 X26.9926 Y-17.6687 F30.00
G01 X27.0011 Y-17.6655 F30.00
G01 X27.0130 Y-17.6591 F30.00
G01 X27.0204 Y-17.6539 F30.00
G01 X27.0255 Y-17.6495 F30.00
G01 X27.0304 Y-17.6448 F30.00
G01 X27.0363 Y-17.6380 F30.00
G01 X27.0438 Y-17.6267 F30.00
G01 X27.0496 Y-17.6145 F30.00
G01 X27.0524 Y-17.6059 F30.00
G01 X27.0540 Y-17.5993 F30.00
G01 X27.0553 Y-17.5904 F30.00
G01 X27.0557 Y-17.5814 F30.00
G01 X27.0557 Y-15.9791 F30.00
G01 X27.0544 Y-15.9657 F30.00
G01 X27.0511 Y-15.9526 F30.00
G01 X27.0469 Y-15.9421 F30.00
G01 X27.0403 Y-15.9303 F30.00
G01 X27.0319 Y-15.9197 F30.00
G01 X27.0221 Y-15.9103 F30.00
G01 X27.0111 Y-15.9025 F30.00
G01 X26.9990 Y-15.8964 F30.00
G01 X26.9905 Y-15.8934 F30.00
G01 X26.9817 Y-15.8912 F30.00
G01 X26.9728 Y-15.8899 F30.00
G01 X26.9638 Y-15.8895 F30.00
G01 X24.9615 Y-15.8895 F30.00
G01 X24.9481 Y-15.8908 F30.00
G01 X24.9350 Y-15.8941 F30.00
G01 X24.9225 Y-15.8993 F30.00
G01 X24.9127 Y-15.9049 F30.00
G01 X24.9021 Y-15.9133 F30.00
G01 X24.8927 Y-15.9231 F30.00
G01 X24.8849 Y-15.9341 F30.00
G01 X24.8788 Y-15.9462 F30.00
G01 X24.8758 Y-15.9547 F30.00
G01 X24.8736 Y-15.9635 F30.00
G01 X24.8723 Y-15.9724 F30.00
G01 X24.8719 Y-15.9814 F30.00
G01 X24.8719 Y-17.5814 F30.00
G01 X24.8723 Y-17.5904 F30.00
G01 X24.8736 Y-17.5993 F30.00
G01 X24.8758 Y-17.6081 F30.00
G01 X24.8797 Y-17.6187 F30.00
G01 X24.8849 Y-17.6287 F30.00
G01 X24.8927 Y-17.6397 F30.00
G01 X24.9004 Y-17.6480 F30.00
G01 X24.9109 Y-17.6566 F30.00
G01 X24.9205 Y-17.6625 F30.00
G01 X24.9328 Y-17.6680 F30.00
G01 X24.9437 Y-17.6711 F30.00
G01 X24.9570 Y-17.6731 F30.00
G01 X25.6217 Y-17.6733 F30.00
G01 X25.6217 Y-19.4549 F30.00
G01 X25.6103 Y-19.4582 F30.00
G01 X25.5809 Y-19.4690 F30.00
G01 X25.5527 Y-19.4824 F30.00
G01 X25.5238 Y-19.4997 F30.00
G01 X25.4969 Y-19.5197 F30.00
G01 X25.4753 Y-19.5391 F30.00
G01 X25.4704 Y-19.5438 F30.00
G01 X25.4524 Y-19.5637 F30.00
G01 X25.4467 Y-19.5706 F30.00
G01 X25.4295 Y-19.5940 F30.00
G01 X25.4122 Y-19.6228 F30.00
G01 X25.3979 Y-19.6531 F30.00
G01 X25.3880 Y-19.6805 F30.00
G01 X25.3859 Y-19.6869 F30.00
G01 X25.3794 Y-19.7129 F30.00
G01 X25.3776 Y-19.7217 F30.00
G01 X25.3735 Y-19.7505 F30.00
G01 X25.3719 Y-19.7840 F30.00
G00 Z2.0000
G00 X31.6654 Y-16.4589
G01 F10.00
G01 Z-0.0500
G01 F30.00
G01 X31.6701 Y-16.5022 F30.00
G01 X31.7117 Y-16.6138 F30.00
G01 X31.7821 Y-16.7079 F30.00
G01 X31.8762 Y-16.7783 F30.00
G01 X31.9878 Y-16.8199 F30.00
G01 X32.0311 Y-16.8246 F30.00
G01 X32.6169 Y-16.8245 F30.00
G01 X32.6602 Y-16.8199 F30.00
G01 X32.7718 Y-16.7783 F30.00
G01 X32.8659 Y-16.7079 F30.00
G01 X32.9363 Y-16.6138 F30.00
G01 X32.9826 Y-16.4895 F30.00
G01 X32.9864 Y-16.4810 F30.00
G01 X32.9910 Y-16.4728 F30.00
G01 X33.0368 Y-16.4111 F30.00
G01 X33.0427 Y-16.4041 F30.00
G01 X33.0492 Y-16.3977 F30.00
G01 X33.0563 Y-16.3919 F30.00
G01 X33.0659 Y-16.3858 F30.00
G01 X33.0741 Y-16.3818 F30.00
G01 X33.1459 Y-16.3549 F30.00
G01 X33.1569 Y-16.3519 F30.00
G01 X33.1681 Y-16.3502 F30.00
G01 X33.1848 Y-16.3496 F30.00
G01 X33.5029 Y-16.3496 F30.00
G01 X33.5138 Y-16.3502 F30.00
G01 X33.5246 Y-16.3521 F30.00
G01 X33.5959 Y-16.3730 F30.00
G01 X33.6085 Y-16.3777 F30.00
G01 X33.6204 Y-16.3843 F30.00
G01 X33.6259 Y-16.3882 F30.00
G01 X33.6483 Y-16.4062 F30.00
G01 X33.6556 Y-16.4128 F30.00
G01 X34.0787 Y-16.8359 F30.00
G01 X34.0858 Y-16.8443 F30.00
G01 X34.0918 Y-16.8534 F30.00
G01 X34.1294 Y-16.9227 F30.00
G01 X34.1334 Y-16.9332 F30.00
G01 X34.1361 Y-16.9442 F30.00
G01 X34.1399 Y-16.9772 F30.00
G01 X34.1404 Y-16.9846 F30.00
G01 X34.1404 Y-17.5168 F30.00
G01 X34.1395 Y-17.5277 F30.00
G01 X34.1367 Y-17.5405 F30.00
G01 X34.1164 Y-17.6097 F30.00
G01 X34.1132 Y-17.6183 F30.00
G01 X34.1080 Y-17.6284 F30.00
G01 X34.1016 Y-17.6379 F30.00
G01 X34.0972 Y-17.6431 F30.00
G01 X34.0924 Y-17.6481 F30.00
G01 X34.0309 Y-17.7012 F30.00
G01 X34.0232 Y-17.7063 F30.00
G01 X34.0172 Y-17.7096 F30.00
G01 X34.0088 Y-17.7133 F30.00
G01 X34.0022 Y-17.7155 F30.00
G01 X33.9398 Y-17.7293 F30.00
G01 X33.9267 Y-17.7305 F30.00
G01 X33.8811 Y-17.7305 F30.00
G01 X33.8378 Y-17.7352 F30.00
G01 X33.7262 Y-17.7768 F30.00
G01 X33.6321 Y-17.8472 F30.00
G01 X33.5617 Y-17.9413 F30.00
G01 X33.5201 Y-18.0529 F30.00
G01 X33.5154 Y-18.0962 F30.00
G01 X33.5154 Y-18.8070 F30.00
G01 X33.5201 Y-18.8503 F30.00
G01 X33.5617 Y-18.9619 F30.00
G01 X33.6321 Y-19.0560 F30.00
G01 X33.7262 Y-19.1264 F30.00
G01 X33.8378 Y-19.1680 F30.00
G01 X33.8811 Y-19.1727 F30.00
G01 X35.2169 Y-19.1726 F30.00
G01 X35.2602 Y-19.1680 F30.00
G01 X35.3718 Y-19.1264 F30.00
G01 X35.4659 Y-19.0560 F30.00
G01 X35.5363 Y-18.9619 F30.00
G01 X35.5779 Y-18.8503 F30.00
G01 X35.5826 Y-18.8070 F30.00
G01 X35.5825 Y-18.0962 F30.00
G01 X35.5779 Y-18.0529 F30.00
G01 X35.5363 Y-17.9413 F30.00
G01 X35.4659 Y-17.8472 F30.00
G01 X35.3718 Y-17.7768 F30.00
G01 X35.2602 Y-17.7352 F30.00
G01 X35.2170 Y-17.7306 F30.00
G01 X35.1713 Y-17.7305 F30.00
G01 X35.1583 Y-17.7293 F30.00
G01 X35.1476 Y-17.7268 F30.00
G01 X35.0806 Y-17.7071 F30.00
G01 X35.0698 Y-17.7033 F30.00
G01 X35.0616 Y-17.6992 F30.00
G01 X35.0539 Y-17.6944 F30.00
G01 X35.0467 Y-17.6888 F30.00
G01 X35.0385 Y-17.6808 F30.00
G01 X34.9883 Y-17.6228 F30.00
G01 X34.9818 Y-17.6133 F30.00
G01 X34.9765 Y-17.6031 F30.00
G01 X34.9733 Y-17.5945 F30.00
G01 X34.9709 Y-17.5857 F30.00
G01 X34.9592 Y-17.5320 F30.00
G01 X34.9580 Y-17.5233 F30.00
G01 X34.9576 Y-17.5168 F30.00
G01 X34.9576 Y-16.7955 F30.00
G01 X34.9578 Y-16.7882 F30.00
G01 X34.9608 Y-16.7599 F30.00
G01 X34.9579 Y-16.7193 F30.00
G01 X34.9576 Y-16.6992 F30.00
G01 X34.9551 Y-16.6792 F30.00
G01 X34.9522 Y-16.6386 F30.00
G01 X34.9459 Y-16.6140 F30.00
G01 X34.9277 Y-16.5739 F30.00
G01 X34.9105 Y-16.5286 F30.00
G01 X34.8976 Y-16.5068 F30.00
G01 X34.8709 Y-16.4760 F30.00
G01 X34.8586 Y-16.4602 F30.00
G01 X34.8446 Y-16.4457 F30.00
G01 X34.8179 Y-16.4149 F30.00
G01 X34.7958 Y-16.3970 F30.00
G01 X34.7904 Y-16.3920 F30.00
G01 X34.0980 Y-15.6996 F30.00
G01 X34.0930 Y-15.6942 F30.00
G01 X34.0751 Y-15.6721 F30.00
G01 X34.0443 Y-15.6454 F30.00
G01 X34.0298 Y-15.6314 F30.00
G01 X34.0140 Y-15.6191 F30.00
G01 X33.9832 Y-15.5924 F30.00
G01 X33.9614 Y-15.5795 F30.00
G01 X33.9201 Y-15.5640 F30.00
G01 X33.8760 Y-15.5441 F30.00
G01 X33.8514 Y-15.5378 F30.00
G01 X33.8108 Y-15.5349 F30.00
G01 X33.7908 Y-15.5324 F30.00
G01 X33.7707 Y-15.5321 F30.00
G01 X33.7301 Y-15.5292 F30.00
G01 X33.7018 Y-15.5322 F30.00
G01 X33.6945 Y-15.5324 F30.00
G01 X33.1804 Y-15.5323 F30.00
G01 X33.1695 Y-15.5312 F30.00
G01 X33.1610 Y-15.5293 F30.00
G01 X33.0918 Y-15.5090 F30.00
G01 X33.0832 Y-15.5060 F30.00
G01 X33.0749 Y-15.5022 F30.00
G01 X33.0671 Y-15.4975 F30.00
G01 X33.0597 Y-15.4921 F30.00
G01 X33.0529 Y-15.4860 F30.00
G01 X33.0025 Y-15.4282 F30.00
G01 X32.9956 Y-15.4192 F30.00
G01 X32.9920 Y-15.4134 F30.00
G01 X32.9889 Y-15.4074 F30.00
G01 X32.9824 Y-15.3920 F30.00
G01 X32.9363 Y-15.2682 F30.00
G01 X32.8659 Y-15.1741 F30.00
G01 X32.7718 Y-15.1037 F30.00
G01 X32.6602 Y-15.0621 F30.00
G01 X32.6169 Y-15.0574 F30.00
G01 X32.0311 Y-15.0574 F30.00
G01 X31.9878 Y-15.0621 F30.00
G01 X31.8762 Y-15.1037 F30.00
G01 X31.7821 Y-15.1741 F30.00
G01 X31.7117 Y-15.2682 F30.00
G01 X31.6701 Y-15.3798 F30.00
G01 X31.6655 Y-15.4230 F30.00
G01 X31.6654 Y-16.4589 F30.00
G00 Z2.0000
G00 X31.7747 Y-16.5811
G01 F10.00
G01 Z-0.0500
G01 F30.00
G01 X31.7910 Y-16.6078 F30.00
G01 X31.8069 Y-16.6294 F30.00
G01 X31.8126 Y-16.6363 F30.00
G01 X31.8322 Y-16.6578 F30.00
G01 X31.8537 Y-16.6774 F30.00
G01 X31.8588 Y-16.6817 F30.00
G01 X31.8803 Y-16.6977 F30.00
G01 X31.8878 Y-16.7027 F30.00
G01 X31.9128 Y-16.7176 F30.00
G01 X31.9431 Y-16.7319 F30.00
G01 X31.9747 Y-16.7432 F30.00
G01 X32.0073 Y-16.7514 F30.00
G01 X32.0405 Y-16.7563 F30.00
G01 X32.0740 Y-16.7579 F30.00
G01 X32.5740 Y-16.7579 F30.00
G01 X32.6075 Y-16.7563 F30.00
G01 X32.6385 Y-16.7518 F30.00
G01 X32.6733 Y-16.7432 F30.00
G01 X32.7049 Y-16.7319 F30.00
G01 X32.7351 Y-16.7176 F30.00
G01 X32.7602 Y-16.7027 F30.00
G01 X32.7677 Y-16.6977 F30.00
G01 X32.7892 Y-16.6817 F30.00
G01 X32.7943 Y-16.6774 F30.00
G01 X32.8158 Y-16.6578 F30.00
G01 X32.8354 Y-16.6363 F30.00
G01 X32.8411 Y-16.6294 F30.00
G01 X32.8570 Y-16.6078 F30.00
G01 X32.8733 Y-16.5811 F30.00
G01 X32.8776 Y-16.5732 F30.00
G01 X32.8899 Y-16.5469 F30.00
G01 X32.9005 Y-16.5174 F30.00
G01 X32.9094 Y-16.4827 F30.00
G01 X32.9138 Y-16.4540 F30.00
G01 X32.9146 Y-16.4450 F30.00
G01 X32.9159 Y-16.4183 F30.00
G01 X32.9159 Y-16.2831 F30.00
G01 X33.6199 Y-16.2831 F30.00
G01 X34.2069 Y-16.8701 F30.00
G01 X34.2069 Y-17.7972 F30.00
G01 X33.9240 Y-17.7972 F30.00
G01 X33.8927 Y-17.7986 F30.00
G01 X33.8617 Y-17.8029 F30.00
G01 X33.8529 Y-17.8047 F30.00
G01 X33.8247 Y-17.8119 F30.00
G01 X33.7931 Y-17.8232 F30.00
G01 X33.7629 Y-17.8375 F30.00
G01 X33.7378 Y-17.8524 F30.00
G01 X33.7303 Y-17.8574 F30.00
G01 X33.7088 Y-17.8734 F30.00
G01 X33.7037 Y-17.8777 F30.00
G01 X33.6822 Y-17.8973 F30.00
G01 X33.6626 Y-17.9188 F30.00
G01 X33.6569 Y-17.9257 F30.00
G01 X33.6397 Y-17.9491 F30.00
G01 X33.6224 Y-17.9779 F30.00
G01 X33.6081 Y-18.0082 F30.00
G01 X33.5961 Y-18.0420 F30.00
G01 X33.5896 Y-18.0680 F30.00
G01 X33.5878 Y-18.0768 F30.00
G01 X33.5837 Y-18.1056 F30.00
G01 X33.5821 Y-18.1368 F30.00
G01 X33.5822 Y-18.7686 F30.00
G01 X33.5837 Y-18.7976 F30.00
G01 X33.5878 Y-18.8264 F30.00
G01 X33.5896 Y-18.8352 F30.00
G01 X33.5968 Y-18.8634 F30.00
G01 X33.6081 Y-18.8950 F30.00
G01 X33.6204 Y-18.9213 F30.00
G01 X33.6246 Y-18.9291 F30.00
G01 X33.6410 Y-18.9559 F30.00
G01 X33.6597 Y-18.9810 F30.00
G01 X33.6791 Y-19.0026 F30.00
G01 X33.6855 Y-19.0090 F30.00
G01 X33.7053 Y-19.0270 F30.00
G01 X33.7106 Y-19.0312 F30.00
G01 X33.7340 Y-19.0484 F30.00
G01 X33.7589 Y-19.0634 F30.00
G01 X33.7668 Y-19.0677 F30.00
G01 X33.7931 Y-19.0800 F30.00
G01 X33.8247 Y-19.0913 F30.00
G01 X33.8573 Y-19.0995 F30.00
G01 X33.8905 Y-19.1044 F30.00
G01 X33.9240 Y-19.1060 F30.00
G01 X35.1740 Y-19.1060 F30.00
G01 X35.2075 Y-19.1044 F30.00
G01 X35.2363 Y-19.1003 F30.00
G01 X35.2451 Y-19.0985 F30.00
G01 X35.2733 Y-19.0913 F30.00
G01 X35.3006 Y-19.0816 F30.00
G01 X35.3090 Y-19.0782 F30.00
G01 X35.3351 Y-19.0657 F30.00
G01 X35.3602 Y-19.0508 F30.00
G01 X35.3677 Y-19.0458 F30.00
G01 X35.3909 Y-19.0284 F30.00
G01 X35.4125 Y-19.0090 F30.00
G01 X35.4189 Y-19.0026 F30.00
G01 X35.4383 Y-18.9810 F30.00
G01 X35.4596 Y-18.9522 F30.00
G01 X35.4756 Y-18.9253 F30.00
G01 X35.4881 Y-18.8991 F30.00
G01 X35.4915 Y-18.8907 F30.00
G01 X35.5012 Y-18.8634 F30.00
G01 X35.5084 Y-18.8352 F30.00
G01 X35.5102 Y-18.8264 F30.00
G01 X35.5143 Y-18.7976 F30.00
G01 X35.5159 Y-18.7664 F30.00
G01 X35.5159 Y-18.1391 F30.00
G01 X35.5146 Y-18.1101 F30.00
G01 X35.5138 Y-18.1011 F30.00
G01 X35.5094 Y-18.0724 F30.00
G01 X35.5012 Y-18.0398 F30.00
G01 X35.4899 Y-18.0082 F30.00
G01 X35.4766 Y-17.9799 F30.00
G01 X35.4583 Y-17.9491 F30.00
G01 X35.4383 Y-17.9222 F30.00
G01 X35.4158 Y-17.8973 F30.00
G01 X35.3909 Y-17.8748 F30.00
G01 X35.3640 Y-17.8548 F30.00
G01 X35.3352 Y-17.8375 F30.00
G01 X35.3049 Y-17.8232 F30.00
G01 X35.2733 Y-17.8119 F30.00
G01 X35.2451 Y-17.8047 F30.00
G01 X35.2363 Y-17.8029 F30.00
G01 X35.2075 Y-17.7988 F30.00
G01 X35.1785 Y-17.7973 F30.00
G01 X34.8911 Y-17.7972 F30.00
G01 X34.8910 Y-16.7261 F30.00
G01 X34.8894 Y-16.6949 F30.00
G01 X34.8845 Y-16.6617 F30.00
G01 X34.8763 Y-16.6291 F30.00
G01 X34.8667 Y-16.6017 F30.00
G01 X34.8633 Y-16.5935 F30.00
G01 X34.8507 Y-16.5671 F30.00
G01 X34.8334 Y-16.5384 F30.00
G01 X34.8134 Y-16.5114 F30.00
G01 X34.7925 Y-16.4881 F30.00
G01 X34.0035 Y-15.6991 F30.00
G01 X33.9786 Y-15.6766 F30.00
G01 X33.9497 Y-15.6553 F30.00
G01 X33.9268 Y-15.6415 F30.00
G01 X33.9188 Y-15.6373 F30.00
G01 X33.8925 Y-15.6250 F30.00
G01 X33.8652 Y-15.6151 F30.00
G01 X33.8565 Y-15.6125 F30.00
G01 X33.8283 Y-15.6055 F30.00
G01 X33.7996 Y-15.6011 F30.00
G01 X33.7906 Y-15.6002 F30.00
G01 X33.7616 Y-15.5989 F30.00
G01 X32.9159 Y-15.5989 F30.00
G01 X32.9159 Y-15.4660 F30.00
G01 X32.9143 Y-15.4325 F30.00
G01 X32.9094 Y-15.3993 F30.00
G01 X32.9024 Y-15.3711 F30.00
G01 X32.9005 Y-15.3646 F30.00
G01 X32.8915 Y-15.3394 F30.00
G01 X32.8881 Y-15.3310 F30.00
G01 X32.8756 Y-15.3049 F30.00
G01 X32.8583 Y-15.2760 F30.00
G01 X32.8383 Y-15.2491 F30.00
G01 X32.8158 Y-15.2242 F30.00
G01 X32.7909 Y-15.2017 F30.00
G01 X32.7640 Y-15.1817 F30.00
G01 X32.7352 Y-15.1644 F30.00
G01 X32.7090 Y-15.1519 F30.00
G01 X32.7006 Y-15.1485 F30.00
G01 X32.6733 Y-15.1388 F30.00
G01 X32.6407 Y-15.1306 F30.00
G01 X32.6075 Y-15.1257 F30.00
G01 X32.5740 Y-15.1241 F30.00
G01 X32.0695 Y-15.1242 F30.00
G01 X32.0405 Y-15.1257 F30.00
G01 X32.0073 Y-15.1306 F30.00
G01 X31.9747 Y-15.1388 F30.00
G01 X31.9431 Y-15.1501 F30.00
G01 X31.9168 Y-15.1624 F30.00
G01 X31.9090 Y-15.1666 F30.00
G01 X31.8840 Y-15.1817 F30.00
G01 X31.8606 Y-15.1989 F30.00
G01 X31.8537 Y-15.2046 F30.00
G01 X31.8322 Y-15.2242 F30.00
G01 X31.8126 Y-15.2457 F30.00
G01 X31.8069 Y-15.2526 F30.00
G01 X31.7897 Y-15.2760 F30.00
G01 X31.7747 Y-15.3009 F30.00
G01 X31.7704 Y-15.3088 F30.00
G01 X31.7581 Y-15.3351 F30.00
G01 X31.7482 Y-15.3625 F30.00
G01 X31.7456 Y-15.3711 F30.00
G01 X31.7386 Y-15.3993 F30.00
G01 X31.7339 Y-15.4302 F30.00
G01 X31.7321 Y-15.4660 F30.00
G01 X31.7321 Y-16.4183 F30.00
G01 X31.7334 Y-16.4450 F30.00
G01 X31.7342 Y-16.4540 F30.00
G01 X31.7386 Y-16.4827 F30.00
G01 X31.7456 Y-16.5109 F30.00
G01 X31.7482 Y-16.5195 F30.00
G01 X31.7581 Y-16.5469 F30.00
G01 X31.7704 Y-16.5732 F30.00
G01 X31.7747 Y-16.5811 F30.00
G00 Z2.0000
G00 X30.7503 Y-7.0000
G01 F10.00
G01 Z-0.0500
G01 F30.00
G01 X30.7630 Y-7.1779 F30.00
G01 X30.8009 Y-7.3521 F30.00
G01 X30.8632 Y-7.5191 F30.00
G01 X30.9487 Y-7.6756 F30.00
G01 X31.0555 Y-7.8184 F30.00
G01 X31.1816 Y-7.9444 F30.00
G01 X31.3244 Y-8.0513 F30.00
G01 X31.4809 Y-8.1368 F30.00
G01 X31.6479 Y-8.1991 F30.00
G01 X31.8221 Y-8.2370 F30.00
G01 X32.0000 Y-8.2497 F30.00
G01 X32.1779 Y-8.2370 F30.00
G01 X32.3521 Y-8.1991 F30.00
G01 X32.5191 Y-8.1368 F30.00
G01 X32.6756 Y-8.0513 F30.00
G01 X32.8184 Y-7.9445 F30.00
G01 X32.9445 Y-7.8184 F30.00
G01 X33.0513 Y-7.6756 F30.00
G01 X33.1368 Y-7.5191 F30.00
G01 X33.1991 Y-7.3521 F30.00
G01 X33.2108 Y-7.2980 F30.00
G01 X33.2370 Y-7.1779 F30.00
G01 X33.2497 Y-7.0000 F30.00
G01 X33.2370 Y-6.8222 F30.00
G01 X33.1991 Y-6.6479 F30.00
G01 X33.1368 Y-6.4809 F30.00
G01 X33.0513 Y-6.3244 F30.00
G01 X32.9445 Y-6.1816 F30.00
G01 X32.8184 Y-6.0556 F30.00
G01 X32.6756 Y-5.9487 F30.00
G01 X32.5191 Y-5.8632 F30.00
G01 X32.3521 Y-5.8009 F30.00
G01 X32.1779 Y-5.7630 F30.00
G01 X32.0000 Y-5.7503 F30.00
G01 X31.8221 Y-5.7630 F30.00
G01 X31.6479 Y-5.8009 F30.00
G01 X31.4809 Y-5.8632 F30.00
G01 X31.3244 Y-5.9487 F30.00
G01 X31.1816 Y-6.0555 F30.00
G01 X31.0556 Y-6.1816 F30.00
G01 X30.9487 Y-6.3244 F30.00
G01 X30.8632 Y-6.4809 F30.00
G01 X30.8009 Y-6.6479 F30.00
G01 X30.7630 Y-6.8221 F30.00
G01 X30.7503 Y-7.0000 F30.00
G00 Z2.0000
G00 X30.5844 Y-7.0000
G01 F10.00
G01 Z-0.0500
G01 F30.00
G01 X30.5988 Y-7.2015 F30.00
G01 X30.6417 Y-7.3988 F30.00
G01 X30.7123 Y-7.5881 F30.00
G01 X30.8091 Y-7.7653 F30.00
G01 X30.9301 Y-7.9270 F30.00
G01 X31.0730 Y-8.0699 F30.00
G01 X31.2347 Y-8.1909 F30.00
G01 X31.4119 Y-8.2877 F30.00
G01 X31.6012 Y-8.3583 F30.00
G01 X31.7985 Y-8.4012 F30.00
G01 X32.0000 Y-8.4156 F30.00
G01 X32.2015 Y-8.4012 F30.00
G01 X32.3988 Y-8.3583 F30.00
G01 X32.5881 Y-8.2877 F30.00
G01 X32.7653 Y-8.1909 F30.00
G01 X32.9270 Y-8.0699 F30.00
G01 X33.0699 Y-7.9270 F30.00
G01 X33.1909 Y-7.7653 F30.00
G01 X33.2877 Y-7.5881 F30.00
G01 X33.3583 Y-7.3988 F30.00
G01 X33.3726 Y-7.3332 F30.00
G01 X33.4012 Y-7.2015 F30.00
G01 X33.4156 Y-7.0000 F30.00
G01 X33.4012 Y-6.7985 F30.00
G01 X33.3583 Y-6.6012 F30.00
G01 X33.2877 Y-6.4119 F30.00
G01 X33.1909 Y-6.2347 F30.00
G01 X33.0699 Y-6.0730 F30.00
G01 X32.9270 Y-5.9301 F30.00
G01 X32.7653 Y-5.8091 F30.00
G01 X32.5881 Y-5.7123 F30.00
G01 X32.3988 Y-5.6417 F30.00
G01 X32.2015 Y-5.5988 F30.00
G01 X32.0000 Y-5.5844 F30.00
G01 X31.7985 Y-5.5988 F30.00
G01 X31.6012 Y-5.6417 F30.00
G01 X31.4119 Y-5.7123 F30.00
G01 X31.2347 Y-5.8091 F30.00
G01 X31.0730 Y-5.9301 F30.00
G01 X30.9301 Y-6.0730 F30.00
G01 X30.8091 Y-6.2347 F30.00
G01 X30.7123 Y-6.4119 F30.00
G01 X30.6417 Y-6.6012 F30.00
G01 X30.5988 Y-6.7985 F30.00
G01 X30.5844 Y-7.0000 F30.00
G00 Z2.0000
G00 X30.4184 Y-7.0000
G01 F10.00
G01 Z-0.0500
G01 F30.00
G01 X30.4345 Y-7.2251 F30.00
G01 X30.4825 Y-7.4456 F30.00
G01 X30.5614 Y-7.6570 F30.00
G01 X30.6695 Y-7.8551 F30.00
G01 X30.8047 Y-8.0357 F30.00
G01 X30.9643 Y-8.1953 F30.00
G01 X31.1449 Y-8.3305 F30.00
G01 X31.3430 Y-8.4386 F30.00
G01 X31.5544 Y-8.5175 F30.00
G01 X31.7749 Y-8.5655 F30.00
G01 X32.0000 Y-8.5816 F30.00
G01 X32.2251 Y-8.5655 F30.00
G01 X32.4456 Y-8.5175 F30.00
G01 X32.6570 Y-8.4386 F30.00
G01 X32.8551 Y-8.3305 F30.00
G01 X33.0357 Y-8.1953 F30.00
G01 X33.1953 Y-8.0357 F30.00
G01 X33.3305 Y-7.8551 F30.00
G01 X33.4386 Y-7.6570 F30.00
G01 X33.5175 Y-7.4456 F30.00
G01 X33.5343 Y-7.3684 F30.00
G01 X33.5655 Y-7.2251 F30.00
G01 X33.5816 Y-7.0000 F30.00
G01 X33.5655 Y-6.7749 F30.00
G01 X33.5175 Y-6.5544 F30.00
G01 X33.4386 Y-6.3430 F30.00
G01 X33.3305 Y-6.1449 F30.00
G01 X33.1953 Y-5.9643 F30.00
G01 X33.0357 Y-5.8047 F30.00
G01 X32.8551 Y-5.6695 F30.00
G01 X32.6570 Y-5.5614 F30.00
G01 X32.4456 Y-5.4825 F30.00
G01 X32.2251 Y-5.4345 F30.00
G01 X32.0000 Y-5.4184 F30.00
G01 X31.7749 Y-5.4345 F30.00
G01 X31.5544 Y-5.4825 F30.00
G01 X31.3430 Y-5.5614 F30.00
G01 X31.1449 Y-5.6695 F30.00
G01 X30.9643 Y-5.8047 F30.00
G01 X30.8047 Y-5.9643 F30.00
G01 X30.6695 Y-6.1449 F30.00
G01 X30.5614 Y-6.3430 F30.00
G01 X30.4825 Y-6.5544 F30.00
G01 X30.4345 Y-6.7749 F30.00
G01 X30.4184 Y-7.0000 F30.00
G00 Z2.0000
G00 X30.2525 Y-7.0000
G01 F10.00
G01 Z-0.0500
G01 F30.00
G01 X30.2703 Y-7.2487 F30.00
G01 X30.3233 Y-7.4923 F30.00
G01 X30.4104 Y-7.7259 F30.00
G01 X30.5299 Y-7.9448 F30.00
G01 X30.6793 Y-8.1444 F30.00
G01 X30.8556 Y-8.3207 F30.00
G01 X31.0552 Y-8.4701 F30.00
G01 X31.2741 Y-8.5896 F30.00
G01 X31.5077 Y-8.6767 F30.00
G01 X31.7513 Y-8.7297 F30.00
G01 X32.0000 Y-8.7475 F30.00
G01 X32.2487 Y-8.7297 F30.00
G01 X32.4923 Y-8.6767 F30.00
G01 X32.7259 Y-8.5896 F30.00
G01 X32.9448 Y-8.4701 F30.00
G01 X33.1444 Y-8.3207 F30.00
G01 X33.3207 Y-8.1444 F30.00
G01 X33.4701 Y-7.9448 F30.00
G01 X33.5896 Y-7.7259 F30.00
G01 X33.6767 Y-7.4923 F30.00
G01 X33.6960 Y-7.4036 F30.00
G01 X33.7297 Y-7.2487 F30.00
G01 X33.7475 Y-7.0000 F30.00
G01 X33.7297 Y-6.7513 F30.00
G01 X33.6767 Y-6.5077 F30.00
G01 X33.5896 Y-6.2741 F30.00
G01 X33.4701 Y-6.0552 F30.00
G01 X33.3207 Y-5.8556 F30.00
G01 X33.1444 Y-5.6793 F30.00
G01 X32.9448 Y-5.5299 F30.00
G01 X32.7259 Y-5.4104 F30.00
G01 X32.4923 Y-5.3233 F30.00
G01 X32.2487 Y-5.2703 F30.00
G01 X32.0000 Y-5.2525 F30.00
G01 X31.7513 Y-5.2703 F30.00
G01 X31.5077 Y-5.3233 F30.00
G01 X31.2741 Y-5.4104 F30.00
G01 X31.0552 Y-5.5299 F30.00
G01 X30.8556 Y-5.6793 F30.00
G01 X30.6793 Y-5.8556 F30.00
G01 X30.5299 Y-6.0552 F30.00
G01 X30.4104 Y-6.2741 F30.00
G01 X30.3233 Y-6.5077 F30.00
G01 X30.2703 Y-6.7513 F30.00
G01 X30.2525 Y-7.0000 F30.00
G00 Z2.0000
G00 X30.0866 Y-7.0000
G01 F10.00
G01 Z-0.0500
G01 F30.00
G01 X30.1061 Y-7.2723 F30.00
G01 X30.1641 Y-7.5391 F30.00
G01 X30.2595 Y-7.7949 F30.00
G01 X30.3903 Y-8.0345 F30.00
G01 X30.5539 Y-8.2530 F30.00
G01 X30.7470 Y-8.4461 F30.00
G01 X30.9655 Y-8.6097 F30.00
G01 X31.2051 Y-8.7405 F30.00
G01 X31.4609 Y-8.8359 F30.00
G01 X31.7277 Y-8.8939 F30.00
G01 X32.0000 Y-8.9134 F30.00
G01 X32.2723 Y-8.8939 F30.00
G01 X32.5391 Y-8.8359 F30.00
G01 X32.7949 Y-8.7405 F30.00
G01 X33.0345 Y-8.6097 F30.00
G01 X33.2530 Y-8.4461 F30.00
G01 X33.4461 Y-8.2530 F30.00
G01 X33.6097 Y-8.0345 F30.00
G01 X33.7405 Y-7.7949 F30.00
G01 X33.8359 Y-7.5391 F30.00
G01 X33.8577 Y-7.4387 F30.00
G01 X33.8939 Y-7.2723 F30.00
G01 X33.9134 Y-7.0000 F30.00
G01 X33.8939 Y-6.7277 F30.00
G01 X33.8359 Y-6.4609 F30.00
G01 X33.7405 Y-6.2051 F30.00
G01 X33.6097 Y-5.9655 F30.00
G01 X33.4461 Y-5.7470 F30.00
G01 X33.2530 Y-5.5539 F30.00
G01 X33.0345 Y-5.3903 F30.00
G01 X32.7949 Y-5.2595 F30.00
G01 X32.5391 Y-5.1641 F30.00
G01 X32.2723 Y-5.1061 F30.00
G01 X32.0000 Y-5.0866 F30.00
G01 X31.7277 Y-5.1061 F30.00
G01 X31.4609 Y-5.1641 F30.00
G01 X31.2051 Y-5.2595 F30.00
G01 X30.9655 Y-5.3903 F30.00
G01 X30.7470 Y-5.5539 F30.00
G01 X30.5539 Y-5.7470 F30.00
G01 X30.3903 Y-5.9655 F30.00
G01 X30.2595 Y-6.2051 F30.00
G01 X30.1641 Y-6.4609 F30.00
G01 X30.1061 Y-6.7277 F30.00
G01 X30.0866 Y-7.0000 F30.00
G00 Z2.0000
G00 X47.7535 Y-4.8050
G01 F10.00
G01 Z-0.0500
G01 F30.00
G01 X47.7535 Y-7.0910 F30.00
G01 X47.7545 Y-7.1161 F30.00
G01 X47.7554 Y-7.1287 F30.00
G01 X47.7598 Y-7.1598 F30.00
G01 X47.7637 Y-7.1783 F30.00
G01 X47.7683 Y-7.1965 F30.00
G01 X47.7720 Y-7.2086 F30.00
G01 X47.7828 Y-7.2381 F30.00
G01 X47.7960 Y-7.2666 F30.00
G01 X47.8020 Y-7.2778 F30.00
G01 X47.8116 Y-7.2939 F30.00
G01 X47.8219 Y-7.3098 F30.00
G01 X47.8410 Y-7.3352 F30.00
G01 X47.8617 Y-7.3583 F30.00
G01 X47.8707 Y-7.3673 F30.00
G01 X47.8845 Y-7.3799 F30.00
G01 X47.8990 Y-7.3921 F30.00
G01 X47.9245 Y-7.4107 F30.00
G01 X47.9512 Y-7.4270 F30.00
G01 X47.9681 Y-7.4357 F30.00
G01 X47.9909 Y-7.4462 F30.00
G01 X48.0204 Y-7.4570 F30.00
G01 X48.0325 Y-7.4607 F30.00
G01 X48.0507 Y-7.4653 F30.00
G01 X48.0630 Y-7.4681 F30.00
G01 X48.0754 Y-7.4702 F30.00
G01 X48.0940 Y-7.4729 F30.00
G01 X48.1066 Y-7.4742 F30.00
G01 X48.1380 Y-7.4755 F30.00
G01 X50.4240 Y-7.4755 F30.00
G01 X50.4491 Y-7.4745 F30.00
G01 X50.4617 Y-7.4736 F30.00
G01 X50.4742 Y-7.4721 F30.00
G01 X50.4990 Y-7.4681 F30.00
G01 X50.5113 Y-7.4653 F30.00
G01 X50.5356 Y-7.4589 F30.00
G01 X50.5653 Y-7.4485 F30.00
G01 X50.5827 Y-7.4411 F30.00
G01 X50.6052 Y-7.4301 F30.00
G01 X50.6269 Y-7.4174 F30.00
G01 X50.6428 Y-7.4071 F30.00
G01 X50.6682 Y-7.3880 F30.00
G01 X50.6867 Y-7.3716 F30.00
G01 X50.7003 Y-7.3583 F30.00
G01 X50.7171 Y-7.3397 F30.00
G01 X50.7290 Y-7.3249 F30.00
G01 X50.7437 Y-7.3045 F30.00
G01 X50.7568 Y-7.2832 F30.00
G01 X50.7660 Y-7.2666 F30.00
G01 X50.7767 Y-7.2439 F30.00
G01 X50.7837 Y-7.2263 F30.00
G01 X50.7919 Y-7.2026 F30.00
G01 X50.7998 Y-7.1722 F30.00
G01 X50.8032 Y-7.1536 F30.00
G01 X50.8066 Y-7.1287 F30.00
G01 X50.8075 Y-7.1161 F30.00
G01 X50.8085 Y-7.0910 F30.00
G01 X50.8085 Y-6.4117 F30.00
G01 X58.7677 Y-6.4122 F30.00
G01 X58.7758 Y-6.4230 F30.00
G01 X58.7838 Y-6.4328 F30.00
G01 X58.8088 Y-6.4603 F30.00
G01 X58.8177 Y-6.4692 F30.00
G01 X58.8452 Y-6.4942 F30.00
G01 X58.8550 Y-6.5022 F30.00
G01 X58.8849 Y-6.5244 F30.00
G01 X58.8954 Y-6.5314 F30.00
G01 X58.9328 Y-6.5535 F30.00
G01 X58.9441 Y-6.5592 F30.00
G01 X58.9778 Y-6.5748 F30.00
G01 X58.9896 Y-6.5794 F30.00
G01 X59.0247 Y-6.5916 F30.00
G01 X59.0607 Y-6.6009 F30.00
G01 X59.0792 Y-6.6049 F30.00
G01 X59.1160 Y-6.6103 F30.00
G01 X59.1286 Y-6.6116 F30.00
G01 X59.1657 Y-6.6134 F30.00
G01 X59.5829 Y-6.6135 F30.00
G01 X60.4292 Y-7.4598 F30.00
G01 X60.4747 Y-7.5015 F30.00
G01 X60.4843 Y-7.5097 F30.00
G01 X60.4943 Y-7.5175 F30.00
G01 X60.5440 Y-7.5540 F30.00
G01 X60.5968 Y-7.5860 F30.00
G01 X60.6078 Y-7.5922 F30.00
G01 X60.6635 Y-7.6189 F30.00
G01 X60.6750 Y-7.6240 F30.00
G01 X60.6868 Y-7.6286 F30.00
G01 X60.7450 Y-7.6491 F30.00
G01 X60.8048 Y-7.6644 F30.00
G01 X60.8172 Y-7.6672 F30.00
G01 X60.8296 Y-7.6693 F30.00
G01 X60.8907 Y-7.6781 F30.00
G01 X60.9033 Y-7.6790 F30.00
G01 X60.9587 Y-7.6816 F30.00
G01 X62.8233 Y-7.6817 F30.00
G01 X62.8233 Y-9.1390 F30.00
G01 X62.8260 Y-9.2007 F30.00
G01 X62.8269 Y-9.2133 F30.00
G01 X62.8285 Y-9.2258 F30.00
G01 X62.8378 Y-9.2868 F30.00
G01 X62.8406 Y-9.2992 F30.00
G01 X62.8559 Y-9.3590 F30.00
G01 X62.8764 Y-9.4172 F30.00
G01 X62.8835 Y-9.4348 F30.00
G01 X62.9098 Y-9.4906 F30.00
G01 X62.9158 Y-9.5017 F30.00
G01 X62.9235 Y-9.5148 F30.00
G01 X62.9235 Y-10.0390 F30.00
G01 X62.9239 Y-10.0516 F30.00
G01 X62.9255 Y-10.0705 F30.00
G01 X62.9273 Y-10.0830 F30.00
G01 X62.9298 Y-10.0954 F30.00
G01 X62.9329 Y-10.1077 F30.00
G01 X62.9386 Y-10.1257 F30.00
G01 X62.9431 Y-10.1375 F30.00
G01 X62.9510 Y-10.1548 F30.00
G01 X62.9570 Y-10.1659 F30.00
G01 X62.9669 Y-10.1820 F30.00
G01 X62.9742 Y-10.1924 F30.00
G01 X62.9820 Y-10.2023 F30.00
G01 X62.9945 Y-10.2165 F30.00
G01 X63.0081 Y-10.2298 F30.00
G01 X63.0177 Y-10.2380 F30.00
G01 X63.0276 Y-10.2458 F30.00
G01 X63.0380 Y-10.2531 F30.00
G01 X63.0486 Y-10.2598 F30.00
G01 X63.0652 Y-10.2690 F30.00
G01 X63.0825 Y-10.2769 F30.00
G01 X63.0943 Y-10.2814 F30.00
G01 X63.1123 Y-10.2871 F30.00
G01 X63.1246 Y-10.2902 F30.00
G01 X63.1370 Y-10.2927 F30.00
G01 X63.1495 Y-10.2945 F30.00
G01 X63.1684 Y-10.2961 F30.00
G01 X63.1810 Y-10.2965 F30.00
G01 X63.9873 Y-10.2964 F30.00
G01 X64.0062 Y-10.2952 F30.00
G01 X64.0250 Y-10.2927 F30.00
G01 X64.0436 Y-10.2887 F30.00
G01 X64.0557 Y-10.2854 F30.00
G01 X64.0677 Y-10.2814 F30.00
G01 X64.0853 Y-10.2744 F30.00
G01 X64.1024 Y-10.2661 F30.00
G01 X64.1187 Y-10.2565 F30.00
G01 X64.1344 Y-10.2458 F30.00
G01 X64.1492 Y-10.2340 F30.00
G01 X64.1631 Y-10.2211 F30.00
G01 X64.1760 Y-10.2072 F30.00
G01 X64.1878 Y-10.1924 F30.00
G01 X64.1985 Y-10.1767 F30.00
G01 X64.2081 Y-10.1604 F30.00
G01 X64.2164 Y-10.1433 F30.00
G01 X64.2212 Y-10.1317 F30.00
G01 X64.2255 Y-10.1198 F30.00
G01 X64.2307 Y-10.1016 F30.00
G01 X64.2347 Y-10.0830 F30.00
G01 X64.2372 Y-10.0642 F30.00
G01 X64.2384 Y-10.0453 F30.00
G01 X64.2385 Y-9.5148 F30.00
G01 X64.2462 Y-9.5017 F30.00
G01 X64.2522 Y-9.4906 F30.00
G01 X64.2759 Y-9.4405 F30.00
G01 X64.2810 Y-9.4290 F30.00
G01 X64.3021 Y-9.3710 F30.00
G01 X64.3078 Y-9.3529 F30.00
G01 X64.3228 Y-9.2930 F30.00
G01 X64.3263 Y-9.2744 F30.00
G01 X64.3351 Y-9.2133 F30.00
G01 X64.3384 Y-9.1516 F30.00
G01 X64.3387 Y-9.1390 F30.00
G01 X64.3387 Y-7.2540 F30.00
G01 X64.3384 Y-7.2414 F30.00
G01 X64.3351 Y-7.1797 F30.00
G01 X64.3263 Y-7.1186 F30.00
G01 X64.3242 Y-7.1062 F30.00
G01 X64.3214 Y-7.0938 F30.00
G01 X64.3061 Y-7.0340 F30.00
G01 X64.2856 Y-6.9758 F30.00
G01 X64.2810 Y-6.9640 F30.00
G01 X64.2549 Y-6.9081 F30.00
G01 X64.2492 Y-6.8968 F30.00
G01 X64.2430 Y-6.8858 F30.00
G01 X64.2178 Y-6.8437 F30.00
G01 X64.2074 Y-6.8278 F30.00
G01 X64.1745 Y-6.7833 F30.00
G01 X64.1667 Y-6.7733 F30.00
G01 X64.1585 Y-6.7637 F30.00
G01 X64.1212 Y-6.7227 F30.00
G01 X63.7868 Y-6.3882 F30.00
G01 X63.7413 Y-6.3465 F30.00
G01 X63.7317 Y-6.3383 F30.00
G01 X63.7217 Y-6.3305 F30.00
G01 X63.6720 Y-6.2940 F30.00
G01 X63.6192 Y-6.2620 F30.00
G01 X63.6082 Y-6.2558 F30.00
G01 X63.5969 Y-6.2501 F30.00
G01 X63.5410 Y-6.2240 F30.00
G01 X63.4830 Y-6.2029 F30.00
G01 X63.4649 Y-6.1972 F30.00
G01 X63.4050 Y-6.1822 F30.00
G01 X63.3864 Y-6.1787 F30.00
G01 X63.3253 Y-6.1699 F30.00
G01 X63.2636 Y-6.1666 F30.00
G01 X63.2510 Y-6.1663 F30.00
G01 X61.2789 Y-6.1663 F30.00
G01 X60.9795 Y-5.8669 F30.00
G01 X60.9795 Y-5.4560 F30.00
G01 X60.9791 Y-5.4434 F30.00
G01 X60.9770 Y-5.4063 F30.00
G01 X60.9719 Y-5.3695 F30.00
G01 X60.9697 Y-5.3570 F30.00
G01 X60.9669 Y-5.3447 F30.00
G01 X60.9576 Y-5.3087 F30.00
G01 X60.9454 Y-5.2736 F30.00
G01 X60.9408 Y-5.2618 F30.00
G01 X60.9357 Y-5.2503 F30.00
G01 X60.9196 Y-5.2170 F30.00
G01 X60.9133 Y-5.2058 F30.00
G01 X60.8939 Y-5.1741 F30.00
G01 X60.8720 Y-5.1440 F30.00
G01 X60.8643 Y-5.1341 F30.00
G01 X60.8560 Y-5.1245 F30.00
G01 X60.8308 Y-5.0972 F30.00
G01 X60.8035 Y-5.0720 F30.00
G01 X60.7939 Y-5.0637 F30.00
G01 X60.7840 Y-5.0560 F30.00
G01 X60.7539 Y-5.0341 F30.00
G01 X60.7222 Y-5.0147 F30.00
G01 X60.7112 Y-5.0085 F30.00
G01 X60.6999 Y-5.0028 F30.00
G01 X60.6662 Y-4.9872 F30.00
G01 X60.6253 Y-4.9723 F30.00
G01 X60.6132 Y-4.9686 F30.00
G01 X60.5833 Y-4.9611 F30.00
G01 X60.5648 Y-4.9571 F30.00
G01 X60.5217 Y-4.9510 F30.00
G01 X60.4783 Y-4.9486 F30.00
G01 X59.9707 Y-4.9485 F30.00
G01 X59.9150 Y-4.9289 F30.00
G01 X59.8552 Y-4.9136 F30.00
G01 X59.8428 Y-4.9108 F30.00
G01 X59.8304 Y-4.9087 F30.00
G01 X59.7693 Y-4.8999 F30.00
G01 X59.7076 Y-4.8966 F30.00
G01 X59.6950 Y-4.8963 F30.00
G01 X50.8085 Y-4.8963 F30.00
G01 X50.8085 Y-4.8050 F30.00
G01 X50.8072 Y-4.7736 F30.00
G01 X50.8059 Y-4.7610 F30.00
G01 X50.8022 Y-4.7362 F30.00
G01 X50.7998 Y-4.7238 F30.00
G01 X50.7953 Y-4.7056 F30.00
G01 X50.7900 Y-4.6874 F30.00
G01 X50.7815 Y-4.6637 F30.00
G01 X50.7767 Y-4.6521 F30.00
G01 X50.7660 Y-4.6294 F30.00
G01 X50.7600 Y-4.6182 F30.00
G01 X50.7471 Y-4.5967 F30.00
G01 X50.7401 Y-4.5862 F30.00
G01 X50.7251 Y-4.5660 F30.00
G01 X50.7129 Y-4.5515 F30.00
G01 X50.6959 Y-4.5331 F30.00
G01 X50.6867 Y-4.5244 F30.00
G01 X50.6679 Y-4.5078 F30.00
G01 X50.6479 Y-4.4926 F30.00
G01 X50.6375 Y-4.4853 F30.00
G01 X50.6162 Y-4.4722 F30.00
G01 X50.5996 Y-4.4630 F30.00
G01 X50.5769 Y-4.4523 F30.00
G01 X50.5653 Y-4.4475 F30.00
G01 X50.5416 Y-4.4390 F30.00
G01 X50.5234 Y-4.4337 F30.00
G01 X50.4990 Y-4.4279 F30.00
G01 X50.4742 Y-4.4239 F30.00
G01 X50.4554 Y-4.4218 F30.00
G01 X50.4303 Y-4.4206 F30.00
G01 X48.1380 Y-4.4205 F30.00
G01 X48.1066 Y-4.4218 F30.00
G01 X48.0878 Y-4.4239 F30.00
G01 X48.0692 Y-4.4268 F30.00
G01 X48.0568 Y-4.4292 F30.00
G01 X48.0325 Y-4.4353 F30.00
G01 X48.0204 Y-4.4390 F30.00
G01 X47.9909 Y-4.4498 F30.00
G01 X47.9793 Y-4.4549 F30.00
G01 X47.9568 Y-4.4659 F30.00
G01 X47.9351 Y-4.4786 F30.00
G01 X47.9244 Y-4.4853 F30.00
G01 X47.9141 Y-4.4926 F30.00
G01 X47.8941 Y-4.5078 F30.00
G01 X47.8753 Y-4.5244 F30.00
G01 X47.8661 Y-4.5331 F30.00
G01 X47.8449 Y-4.5563 F30.00
G01 X47.8369 Y-4.5660 F30.00
G01 X47.8219 Y-4.5862 F30.00
G01 X47.8148 Y-4.5968 F30.00
G01 X47.8052 Y-4.6128 F30.00
G01 X47.7989 Y-4.6238 F30.00
G01 X47.7933 Y-4.6351 F30.00
G01 X47.7853 Y-4.6521 F30.00
G01 X47.7783 Y-4.6697 F30.00
G01 X47.7720 Y-4.6874 F30.00
G01 X47.7683 Y-4.6995 F30.00
G01 X47.7622 Y-4.7238 F30.00
G01 X47.7598 Y-4.7362 F30.00
G01 X47.7554 Y-4.7673 F30.00
G01 X47.7545 Y-4.7799 F30.00
G01 X47.7535 Y-4.8050 F30.00
G00 Z2.0000
G00 X47.9191 Y-4.8050
G01 F10.00
G01 Z-0.0500
G01 F30.00
G01 X47.9191 Y-7.0910 F30.00
G01 X47.9198 Y-7.1080 F30.00
G01 X47.9207 Y-7.1169 F30.00
G01 X47.9237 Y-7.1359 F30.00
G01 X47.9285 Y-7.1546 F30.00
G01 X47.9349 Y-7.1727 F30.00
G01 X47.9429 Y-7.1902 F30.00
G01 X47.9471 Y-7.1981 F30.00
G01 X47.9559 Y-7.2126 F30.00
G01 X47.9674 Y-7.2282 F30.00
G01 X47.9801 Y-7.2426 F30.00
G01 X47.9864 Y-7.2489 F30.00
G01 X47.9991 Y-7.2603 F30.00
G01 X48.0164 Y-7.2731 F30.00
G01 X48.0328 Y-7.2830 F30.00
G01 X48.0388 Y-7.2861 F30.00
G01 X48.0542 Y-7.2933 F30.00
G01 X48.0723 Y-7.2998 F30.00
G01 X48.0909 Y-7.3048 F30.00
G01 X48.0997 Y-7.3065 F30.00
G01 X48.1165 Y-7.3089 F30.00
G01 X48.1380 Y-7.3099 F30.00
G01 X50.4240 Y-7.3099 F30.00
G01 X50.4455 Y-7.3089 F30.00
G01 X50.4667 Y-7.3057 F30.00
G01 X50.4876 Y-7.3005 F30.00
G01 X50.5078 Y-7.2933 F30.00
G01 X50.5252 Y-7.2851 F30.00
G01 X50.5311 Y-7.2819 F30.00
G01 X50.5456 Y-7.2731 F30.00
G01 X50.5593 Y-7.2630 F30.00
G01 X50.5648 Y-7.2587 F30.00
G01 X50.5788 Y-7.2458 F30.00
G01 X50.5918 Y-7.2316 F30.00
G01 X50.5960 Y-7.2263 F30.00
G01 X50.6061 Y-7.2126 F30.00
G01 X50.6149 Y-7.1981 F30.00
G01 X50.6181 Y-7.1922 F30.00
G01 X50.6263 Y-7.1748 F30.00
G01 X50.6328 Y-7.1567 F30.00
G01 X50.6347 Y-7.1502 F30.00
G01 X50.6387 Y-7.1337 F30.00
G01 X50.6416 Y-7.1147 F30.00
G01 X50.6429 Y-7.0910 F30.00
G01 X50.6429 Y-6.2462 F30.00
G01 X58.8606 Y-6.2467 F30.00
G01 X58.8704 Y-6.2671 F30.00
G01 X58.8853 Y-6.2922 F30.00
G01 X58.8890 Y-6.2978 F30.00
G01 X58.9049 Y-6.3194 F30.00
G01 X58.9106 Y-6.3263 F30.00
G01 X58.9302 Y-6.3478 F30.00
G01 X58.9533 Y-6.3689 F30.00
G01 X58.9820 Y-6.3903 F30.00
G01 X59.0108 Y-6.4076 F30.00
G01 X59.0411 Y-6.4219 F30.00
G01 X59.0685 Y-6.4318 F30.00
G01 X59.0771 Y-6.4344 F30.00
G01 X59.1053 Y-6.4414 F30.00
G01 X59.1340 Y-6.4458 F30.00
G01 X59.1430 Y-6.4466 F30.00
G01 X59.1697 Y-6.4479 F30.00
G01 X59.6515 Y-6.4479 F30.00
G01 X60.5495 Y-7.3459 F30.00
G01 X60.5859 Y-7.3788 F30.00
G01 X60.5929 Y-7.3846 F30.00
G01 X60.6360 Y-7.4164 F30.00
G01 X60.6819 Y-7.4440 F30.00
G01 X60.6899 Y-7.4483 F30.00
G01 X60.7384 Y-7.4711 F30.00
G01 X60.7931 Y-7.4907 F30.00
G01 X60.8451 Y-7.5038 F30.00
G01 X60.8539 Y-7.5056 F30.00
G01 X60.9070 Y-7.5133 F30.00
G01 X60.9650 Y-7.5162 F30.00
G01 X62.9888 Y-7.5162 F30.00
G01 X62.9889 Y-9.1435 F30.00
G01 X62.9917 Y-9.1970 F30.00
G01 X62.9994 Y-9.2501 F30.00
G01 X63.0012 Y-9.2589 F30.00
G01 X63.0143 Y-9.3109 F30.00
G01 X63.0339 Y-9.3656 F30.00
G01 X63.0567 Y-9.4141 F30.00
G01 X63.0610 Y-9.4221 F30.00
G01 X63.0891 Y-9.4687 F30.00
G01 X63.0891 Y-10.0390 F30.00
G01 X63.0895 Y-10.0480 F30.00
G01 X63.0908 Y-10.0569 F30.00
G01 X63.0930 Y-10.0657 F30.00
G01 X63.0960 Y-10.0742 F30.00
G01 X63.1021 Y-10.0863 F30.00
G01 X63.1085 Y-10.0956 F30.00
G01 X63.1176 Y-10.1056 F30.00
G01 X63.1281 Y-10.1142 F30.00
G01 X63.1377 Y-10.1201 F30.00
G01 X63.1500 Y-10.1256 F30.00
G01 X63.1609 Y-10.1287 F30.00
G01 X63.1742 Y-10.1307 F30.00
G01 X63.9810 Y-10.1309 F30.00
G01 X63.9945 Y-10.1300 F30.00
G01 X64.0011 Y-10.1287 F30.00
G01 X64.0098 Y-10.1263 F30.00
G01 X64.0223 Y-10.1211 F30.00
G01 X64.0283 Y-10.1179 F30.00
G01 X64.0358 Y-10.1129 F30.00
G01 X64.0460 Y-10.1040 F30.00
G01 X64.0521 Y-10.0973 F30.00
G01 X64.0562 Y-10.0919 F30.00
G01 X64.0631 Y-10.0803 F30.00
G01 X64.0683 Y-10.0678 F30.00
G01 X64.0707 Y-10.0591 F30.00
G01 X64.0720 Y-10.0525 F30.00
G01 X64.0729 Y-10.0390 F30.00
G01 X64.0729 Y-9.4687 F30.00
G01 X64.1010 Y-9.4221 F30.00
G01 X64.1053 Y-9.4141 F30.00
G01 X64.1281 Y-9.3656 F30.00
G01 X64.1477 Y-9.3109 F30.00
G01 X64.1608 Y-9.2589 F30.00
G01 X64.1626 Y-9.2501 F30.00
G01 X64.1703 Y-9.1970 F30.00
G01 X64.1732 Y-9.1390 F30.00
G01 X64.1731 Y-7.2495 F30.00
G01 X64.1703 Y-7.1960 F30.00
G01 X64.1626 Y-7.1429 F30.00
G01 X64.1608 Y-7.1341 F30.00
G01 X64.1477 Y-7.0821 F30.00
G01 X64.1281 Y-7.0274 F30.00
G01 X64.1053 Y-6.9789 F30.00
G01 X64.1010 Y-6.9709 F30.00
G01 X64.0721 Y-6.9231 F30.00
G01 X64.0388 Y-6.8783 F30.00
G01 X64.0013 Y-6.8369 F30.00
G01 X63.6697 Y-6.5053 F30.00
G01 X63.6267 Y-6.4662 F30.00
G01 X63.5837 Y-6.4342 F30.00
G01 X63.5762 Y-6.4292 F30.00
G01 X63.5302 Y-6.4017 F30.00
G01 X63.4818 Y-6.3787 F30.00
G01 X63.4734 Y-6.3753 F30.00
G01 X63.4229 Y-6.3573 F30.00
G01 X63.3665 Y-6.3432 F30.00
G01 X63.3090 Y-6.3347 F30.00
G01 X63.2510 Y-6.3318 F30.00
G01 X61.2103 Y-6.3318 F30.00
G01 X60.8139 Y-5.9355 F30.00
G01 X60.8139 Y-5.4537 F30.00
G01 X60.8123 Y-5.4225 F30.00
G01 X60.8082 Y-5.3937 F30.00
G01 X60.8064 Y-5.3849 F30.00
G01 X60.7992 Y-5.3567 F30.00
G01 X60.7895 Y-5.3294 F30.00
G01 X60.7861 Y-5.3210 F30.00
G01 X60.7736 Y-5.2949 F30.00
G01 X60.7587 Y-5.2698 F30.00
G01 X60.7537 Y-5.2623 F30.00
G01 X60.7363 Y-5.2391 F30.00
G01 X60.7138 Y-5.2142 F30.00
G01 X60.6889 Y-5.1917 F30.00
G01 X60.6657 Y-5.1743 F30.00
G01 X60.6582 Y-5.1693 F30.00
G01 X60.6332 Y-5.1544 F30.00
G01 X60.6070 Y-5.1419 F30.00
G01 X60.5986 Y-5.1385 F30.00
G01 X60.5734 Y-5.1295 F30.00
G01 X60.5431 Y-5.1216 F30.00
G01 X60.5343 Y-5.1198 F30.00
G01 X60.5055 Y-5.1157 F30.00
G01 X60.4743 Y-5.1141 F30.00
G01 X59.9370 Y-5.1141 F30.00
G01 X59.9195 Y-5.1060 F30.00
G01 X59.8691 Y-5.0880 F30.00
G01 X59.8127 Y-5.0736 F30.00
G01 X59.7530 Y-5.0647 F30.00
G01 X59.6950 Y-5.0618 F30.00
G01 X50.6429 Y-5.0618 F30.00
G01 X50.6429 Y-4.8050 F30.00
G01 X50.6422 Y-4.7880 F30.00
G01 X50.6413 Y-4.7791 F30.00
G01 X50.6392 Y-4.7645 F30.00
G01 X50.6378 Y-4.7579 F30.00
G01 X50.6328 Y-4.7393 F30.00
G01 X50.6254 Y-4.7191 F30.00
G01 X50.6171 Y-4.7018 F30.00
G01 X50.6085 Y-4.6872 F30.00
G01 X50.6048 Y-4.6815 F30.00
G01 X50.5933 Y-4.6661 F30.00
G01 X50.5788 Y-4.6502 F30.00
G01 X50.5663 Y-4.6387 F30.00
G01 X50.5611 Y-4.6343 F30.00
G01 X50.5456 Y-4.6229 F30.00
G01 X50.5272 Y-4.6119 F30.00
G01 X50.5119 Y-4.6045 F30.00
G01 X50.5057 Y-4.6019 F30.00
G01 X50.4876 Y-4.5955 F30.00
G01 X50.4689 Y-4.5907 F30.00
G01 X50.4623 Y-4.5895 F30.00
G01 X50.4455 Y-4.5871 F30.00
G01 X50.4263 Y-4.5861 F30.00
G01 X48.1380 Y-4.5861 F30.00
G01 X48.1165 Y-4.5871 F30.00
G01 X48.0953 Y-4.5903 F30.00
G01 X48.0744 Y-4.5955 F30.00
G01 X48.0542 Y-4.6027 F30.00
G01 X48.0388 Y-4.6099 F30.00
G01 X48.0328 Y-4.6130 F30.00
G01 X48.0202 Y-4.6205 F30.00
G01 X48.0127 Y-4.6255 F30.00
G01 X47.9974 Y-4.6372 F30.00
G01 X47.9848 Y-4.6486 F30.00
G01 X47.9801 Y-4.6534 F30.00
G01 X47.9687 Y-4.6661 F30.00
G01 X47.9559 Y-4.6834 F30.00
G01 X47.9449 Y-4.7018 F30.00
G01 X47.9357 Y-4.7212 F30.00
G01 X47.9285 Y-4.7414 F30.00
G01 X47.9233 Y-4.7623 F30.00
G01 X47.9201 Y-4.7835 F30.00
G01 X47.9191 Y-4.8050 F30.00
G00 Z2.0000
G00 X48.1772 Y-12.5308
G01 F10.00
G01 Z-0.0500
G01 F30.00
G01 X48.1744 Y-12.5695 F30.00
G01 X48.1724 Y-12.5904 F30.00
G01 X48.1693 Y-12.6112 F30.00
G01 X48.1640 Y-12.6370 F30.00
G01 X48.5568 Y-12.6370 F30.00
G01 X48.5437 Y-12.6360 F30.00
G01 X48.5217 Y-12.6333 F30.00
G01 X48.4601 Y-12.6242 F30.00
G01 X48.4396 Y-12.6206 F30.00
G01 X48.4193 Y-12.6161 F30.00
G01 X48.3489 Y-12.5983 F30.00
G01 X48.3389 Y-12.5954 F30.00
G01 X48.3192 Y-12.5889 F30.00
G01 X48.2508 Y-12.5643 F30.00
G01 X48.2316 Y-12.5563 F30.00
G01 X48.1772 Y-12.5308 F30.00
G00 Z2.0000
G00 X47.9191 Y-13.1870
G01 F10.00
G01 Z-0.0500
G01 F30.00
G01 X47.9191 Y-15.4753 F30.00
G01 X47.9201 Y-15.4945 F30.00
G01 X47.9233 Y-15.5157 F30.00
G01 X47.9285 Y-15.5366 F30.00
G01 X47.9357 Y-15.5568 F30.00
G01 X47.9449 Y-15.5762 F30.00
G01 X47.9559 Y-15.5946 F30.00
G01 X47.9688 Y-15.6120 F30.00
G01 X47.9848 Y-15.6294 F30.00
G01 X47.9991 Y-15.6423 F30.00
G01 X48.0164 Y-15.6551 F30.00
G01 X48.0348 Y-15.6661 F30.00
G01 X48.0542 Y-15.6753 F30.00
G01 X48.0744 Y-15.6825 F30.00
G01 X48.0953 Y-15.6877 F30.00
G01 X48.1165 Y-15.6909 F30.00
G01 X48.1357 Y-15.6919 F30.00
G01 X50.4240 Y-15.6919 F30.00
G01 X50.4455 Y-15.6909 F30.00
G01 X50.4645 Y-15.6882 F30.00
G01 X50.4711 Y-15.6868 F30.00
G01 X50.4876 Y-15.6825 F30.00
G01 X50.5036 Y-15.6769 F30.00
G01 X50.5099 Y-15.6744 F30.00
G01 X50.5272 Y-15.6661 F30.00
G01 X50.5456 Y-15.6551 F30.00
G01 X50.5612 Y-15.6436 F30.00
G01 X50.5663 Y-15.6393 F30.00
G01 X50.5772 Y-15.6294 F30.00
G01 X50.5819 Y-15.6246 F30.00
G01 X50.5933 Y-15.6119 F30.00
G01 X50.6035 Y-15.5983 F30.00
G01 X50.6073 Y-15.5927 F30.00
G01 X50.6171 Y-15.5762 F30.00
G01 X50.6263 Y-15.5568 F30.00
G01 X50.6335 Y-15.5366 F30.00
G01 X50.6383 Y-15.5179 F30.00
G01 X50.6395 Y-15.5113 F30.00
G01 X50.6419 Y-15.4945 F30.00
G01 X50.6429 Y-15.4730 F30.00
G01 X50.6429 Y-14.9222 F30.00
G01 X51.4045 Y-14.9221 F30.00
G01 X51.4580 Y-14.9193 F30.00
G01 X51.5155 Y-14.9108 F30.00
G01 X51.5719 Y-14.8967 F30.00
G01 X51.6287 Y-14.8762 F30.00
G01 X51.6792 Y-14.8523 F30.00
G01 X51.7252 Y-14.8248 F30.00
G01 X51.7327 Y-14.8198 F30.00
G01 X51.7774 Y-14.7863 F30.00
G01 X51.8187 Y-14.7487 F30.00
G01 X52.1617 Y-14.4057 F30.00
G01 X52.2008 Y-14.3627 F30.00
G01 X52.2354 Y-14.3160 F30.00
G01 X52.2653 Y-14.2662 F30.00
G01 X52.2883 Y-14.2178 F30.00
G01 X52.2917 Y-14.2094 F30.00
G01 X52.3097 Y-14.1589 F30.00
G01 X52.3228 Y-14.1069 F30.00
G01 X52.3246 Y-14.0981 F30.00
G01 X52.3325 Y-14.0428 F30.00
G01 X52.3352 Y-13.9870 F30.00
G01 X52.3352 Y-13.5022 F30.00
G01 X52.3523 Y-13.4790 F30.00
G01 X52.3673 Y-13.4541 F30.00
G01 X52.3716 Y-13.4462 F30.00
G01 X52.3848 Y-13.4178 F30.00
G01 X52.3952 Y-13.3883 F30.00
G01 X52.4024 Y-13.3601 F30.00
G01 X52.4042 Y-13.3513 F30.00
G01 X52.4081 Y-13.3248 F30.00
G01 X52.4086 Y-13.3180 F30.00
G01 X52.4099 Y-13.2890 F30.00
G01 X52.4099 Y-11.9890 F30.00
G01 X52.4083 Y-11.9555 F30.00
G01 X52.4042 Y-11.9267 F30.00
G01 X52.4024 Y-11.9179 F30.00
G01 X52.3959 Y-11.8919 F30.00
G01 X52.3938 Y-11.8855 F30.00
G01 X52.3839 Y-11.8581 F30.00
G01 X52.3696 Y-11.8279 F30.00
G01 X52.3523 Y-11.7990 F30.00
G01 X52.3352 Y-11.7758 F30.00
G01 X52.3352 Y-11.1640 F30.00
G01 X52.3325 Y-11.1082 F30.00
G01 X52.3238 Y-11.0485 F30.00
G01 X52.3097 Y-10.9921 F30.00
G01 X52.2901 Y-10.9374 F30.00
G01 X52.2653 Y-10.8848 F30.00
G01 X52.2378 Y-10.8388 F30.00
G01 X52.2328 Y-10.8313 F30.00
G01 X52.2008 Y-10.7883 F30.00
G01 X52.1649 Y-10.7485 F30.00
G01 X51.9457 Y-10.5293 F30.00
G01 X51.9061 Y-10.4932 F30.00
G01 X51.8991 Y-10.4874 F30.00
G01 X51.8560 Y-10.4556 F30.00
G01 X51.8062 Y-10.4257 F30.00
G01 X51.7536 Y-10.4009 F30.00
G01 X51.7011 Y-10.3820 F30.00
G01 X51.6469 Y-10.3682 F30.00
G01 X51.6381 Y-10.3664 F30.00
G01 X51.5850 Y-10.3587 F30.00
G01 X51.5293 Y-10.3558 F30.00
G01 X50.6429 Y-10.3558 F30.00
G01 X50.6429 Y-10.3107 F30.00
G01 X50.6392 Y-10.2395 F30.00
G01 X50.6290 Y-10.1712 F30.00
G01 X50.6123 Y-10.1041 F30.00
G01 X50.5876 Y-10.0348 F30.00
G01 X50.5591 Y-9.9743 F30.00
G01 X50.5549 Y-9.9664 F30.00
G01 X50.5192 Y-9.9073 F30.00
G01 X50.4779 Y-9.8518 F30.00
G01 X50.4300 Y-9.7990 F30.00
G01 X50.3772 Y-9.7511 F30.00
G01 X50.3236 Y-9.7112 F30.00
G01 X50.3161 Y-9.7061 F30.00
G01 X50.2626 Y-9.6741 F30.00
G01 X50.2547 Y-9.6699 F30.00
G01 X50.1942 Y-9.6414 F30.00
G01 X50.1270 Y-9.6174 F30.00
G01 X50.0622 Y-9.6010 F30.00
G01 X50.0534 Y-9.5992 F30.00
G01 X49.9869 Y-9.5895 F30.00
G01 X49.9183 Y-9.5861 F30.00
G01 X48.6437 Y-9.5861 F30.00
G01 X48.5792 Y-9.5892 F30.00
G01 X48.5703 Y-9.5901 F30.00
G01 X48.5042 Y-9.6000 F30.00
G01 X48.4393 Y-9.6161 F30.00
G01 X48.4307 Y-9.6188 F30.00
G01 X48.3678 Y-9.6414 F30.00
G01 X48.3033 Y-9.6719 F30.00
G01 X48.2421 Y-9.7086 F30.00
G01 X48.1884 Y-9.7483 F30.00
G01 X48.1814 Y-9.7540 F30.00
G01 X48.1320 Y-9.7990 F30.00
G01 X48.0870 Y-9.8484 F30.00
G01 X48.0813 Y-9.8554 F30.00
G01 X48.0416 Y-9.9091 F30.00
G01 X48.0049 Y-9.9703 F30.00
G01 X47.9762 Y-10.0307 F30.00
G01 X47.9728 Y-10.0390 F30.00
G01 X47.9504 Y-10.1020 F30.00
G01 X47.9340 Y-10.1668 F30.00
G01 X47.9322 Y-10.1756 F30.00
G01 X47.9228 Y-10.2397 F30.00
G01 X47.9191 Y-10.3130 F30.00
G01 X47.9191 Y-11.5830 F30.00
G01 X47.9224 Y-11.6520 F30.00
G01 X47.9322 Y-11.7204 F30.00
G01 X47.9340 Y-11.7292 F30.00
G01 X47.9504 Y-11.7940 F30.00
G01 X47.9728 Y-11.8570 F30.00
G01 X47.9762 Y-11.8653 F30.00
G01 X48.0049 Y-11.9257 F30.00
G01 X48.0428 Y-11.9887 F30.00
G01 X48.0841 Y-12.0442 F30.00
G01 X48.1320 Y-12.0970 F30.00
G01 X48.1848 Y-12.1449 F30.00
G01 X48.2421 Y-12.1874 F30.00
G01 X48.3033 Y-12.2241 F30.00
G01 X48.3678 Y-12.2546 F30.00
G01 X48.4350 Y-12.2786 F30.00
G01 X48.5064 Y-12.2964 F30.00
G01 X48.5751 Y-12.3065 F30.00
G01 X48.6460 Y-12.3099 F30.00
G01 X49.9160 Y-12.3099 F30.00
G01 X49.9828 Y-12.3068 F30.00
G01 X49.9917 Y-12.3059 F30.00
G01 X50.0578 Y-12.2960 F30.00
G01 X50.1270 Y-12.2786 F30.00
G01 X50.1942 Y-12.2546 F30.00
G01 X50.2587 Y-12.2241 F30.00
G01 X50.3199 Y-12.1874 F30.00
G01 X50.3772 Y-12.1449 F30.00
G01 X50.4300 Y-12.0970 F30.00
G01 X50.4765 Y-12.0459 F30.00
G01 X50.5204 Y-11.9869 F30.00
G01 X50.5571 Y-11.9257 F30.00
G01 X50.5876 Y-11.8612 F30.00
G01 X50.6110 Y-11.7962 F30.00
G01 X50.6290 Y-11.7248 F30.00
G01 X50.6392 Y-11.6563 F30.00
G01 X50.6429 Y-11.5853 F30.00
G01 X50.6429 Y-11.5402 F30.00
G01 X51.1508 Y-11.5402 F30.00
G01 X51.1508 Y-11.7758 F30.00
G01 X51.1337 Y-11.7990 F30.00
G01 X51.1164 Y-11.8278 F30.00
G01 X51.1021 Y-11.8581 F30.00
G01 X51.0922 Y-11.8855 F30.00
G01 X51.0901 Y-11.8919 F30.00
G01 X51.0836 Y-11.9179 F30.00
G01 X51.0818 Y-11.9267 F30.00
G01 X51.0777 Y-11.9555 F30.00
G01 X51.0761 Y-11.9890 F30.00
G01 X51.0762 Y-13.2935 F30.00
G01 X51.0777 Y-13.3225 F30.00
G01 X51.0822 Y-13.3535 F30.00
G01 X51.0896 Y-13.3839 F30.00
G01 X51.0922 Y-13.3925 F30.00
G01 X51.1021 Y-13.4199 F30.00
G01 X51.1164 Y-13.4501 F30.00
G01 X51.1337 Y-13.4790 F30.00
G01 X51.1508 Y-13.5022 F30.00
G01 X51.1508 Y-13.7378 F30.00
G01 X50.6429 Y-13.7378 F30.00
G01 X50.6429 Y-13.1870 F30.00
G01 X50.6419 Y-13.1655 F30.00
G01 X50.6383 Y-13.1421 F30.00
G01 X50.6335 Y-13.1234 F30.00
G01 X50.6279 Y-13.1074 F30.00
G01 X50.6254 Y-13.1011 F30.00
G01 X50.6171 Y-13.0838 F30.00
G01 X50.6073 Y-13.0672 F30.00
G01 X50.6035 Y-13.0617 F30.00
G01 X50.5933 Y-13.0481 F30.00
G01 X50.5788 Y-13.0322 F30.00
G01 X50.5629 Y-13.0177 F30.00
G01 X50.5493 Y-13.0075 F30.00
G01 X50.5437 Y-13.0037 F30.00
G01 X50.5272 Y-12.9939 F30.00
G01 X50.5078 Y-12.9847 F30.00
G01 X50.4918 Y-12.9789 F30.00
G01 X50.4832 Y-12.9763 F30.00
G01 X50.4645 Y-12.9718 F30.00
G01 X50.4455 Y-12.9691 F30.00
G01 X50.4240 Y-12.9681 F30.00
G01 X48.1380 Y-12.9681 F30.00
G01 X48.1188 Y-12.9689 F30.00
G01 X48.0953 Y-12.9723 F30.00
G01 X48.0766 Y-12.9768 F30.00
G01 X48.0563 Y-12.9839 F30.00
G01 X48.0388 Y-12.9919 F30.00
G01 X48.0328 Y-12.9950 F30.00
G01 X48.0202 Y-13.0025 F30.00
G01 X48.0127 Y-13.0075 F30.00
G01 X47.9974 Y-13.0192 F30.00
G01 X47.9848 Y-13.0306 F30.00
G01 X47.9801 Y-13.0354 F30.00
G01 X47.9687 Y-13.0481 F30.00
G01 X47.9559 Y-13.0654 F30.00
G01 X47.9449 Y-13.0838 F30.00
G01 X47.9357 Y-13.1032 F30.00
G01 X47.9285 Y-13.1234 F30.00
G01 X47.9233 Y-13.1443 F30.00
G01 X47.9201 Y-13.1655 F30.00
G01 X47.9191 Y-13.1870 F30.00
G00 Z2.0000
G00 X47.7535 Y-13.1870
G01 F10.00
G01 Z-0.0500
G01 F30.00
G01 X47.7535 Y-15.4730 F30.00
G01 X47.7539 Y-15.4856 F30.00
G01 X47.7548 Y-15.5044 F30.00
G01 X47.7561 Y-15.5170 F30.00
G01 X47.7598 Y-15.5418 F30.00
G01 X47.7622 Y-15.5542 F30.00
G01 X47.7683 Y-15.5785 F30.00
G01 X47.7720 Y-15.5906 F30.00
G01 X47.7805 Y-15.6143 F30.00
G01 X47.7853 Y-15.6259 F30.00
G01 X47.7960 Y-15.6486 F30.00
G01 X47.8020 Y-15.6598 F30.00
G01 X47.8149 Y-15.6813 F30.00
G01 X47.8219 Y-15.6918 F30.00
G01 X47.8370 Y-15.7121 F30.00
G01 X47.8452 Y-15.7222 F30.00
G01 X47.8617 Y-15.7403 F30.00
G01 X47.8753 Y-15.7536 F30.00
G01 X47.8893 Y-15.7661 F30.00
G01 X47.8990 Y-15.7741 F30.00
G01 X47.9192 Y-15.7891 F30.00
G01 X47.9298 Y-15.7962 F30.00
G01 X47.9568 Y-15.8121 F30.00
G01 X47.9681 Y-15.8177 F30.00
G01 X47.9909 Y-15.8282 F30.00
G01 X48.0027 Y-15.8327 F30.00
G01 X48.0264 Y-15.8409 F30.00
G01 X48.0507 Y-15.8473 F30.00
G01 X48.0630 Y-15.8501 F30.00
G01 X48.0878 Y-15.8541 F30.00
G01 X48.1003 Y-15.8556 F30.00
G01 X48.1317 Y-15.8574 F30.00
G01 X50.4303 Y-15.8574 F30.00
G01 X50.4554 Y-15.8562 F30.00
G01 X50.4680 Y-15.8549 F30.00
G01 X50.4928 Y-15.8512 F30.00
G01 X50.5113 Y-15.8473 F30.00
G01 X50.5356 Y-15.8409 F30.00
G01 X50.5593 Y-15.8327 F30.00
G01 X50.5769 Y-15.8257 F30.00
G01 X50.5996 Y-15.8150 F30.00
G01 X50.6162 Y-15.8058 F30.00
G01 X50.6376 Y-15.7927 F30.00
G01 X50.6579 Y-15.7780 F30.00
G01 X50.6682 Y-15.7700 F30.00
G01 X50.6867 Y-15.7536 F30.00
G01 X50.6959 Y-15.7449 F30.00
G01 X50.7046 Y-15.7357 F30.00
G01 X50.7212 Y-15.7169 F30.00
G01 X50.7364 Y-15.6969 F30.00
G01 X50.7437 Y-15.6865 F30.00
G01 X50.7568 Y-15.6652 F30.00
G01 X50.7631 Y-15.6542 F30.00
G01 X50.7687 Y-15.6429 F30.00
G01 X50.7792 Y-15.6201 F30.00
G01 X50.7879 Y-15.5966 F30.00
G01 X50.7937 Y-15.5785 F30.00
G01 X50.8011 Y-15.5480 F30.00
G01 X50.8051 Y-15.5232 F30.00
G01 X50.8072 Y-15.5044 F30.00
G01 X50.8084 Y-15.4793 F30.00
G01 X50.8085 Y-15.0877 F30.00
G01 X51.4000 Y-15.0877 F30.00
G01 X51.4126 Y-15.0874 F30.00
G01 X51.4743 Y-15.0841 F30.00
G01 X51.5354 Y-15.0753 F30.00
G01 X51.5478 Y-15.0732 F30.00
G01 X51.5602 Y-15.0704 F30.00
G01 X51.6200 Y-15.0551 F30.00
G01 X51.6782 Y-15.0346 F30.00
G01 X51.6900 Y-15.0300 F30.00
G01 X51.7015 Y-15.0249 F30.00
G01 X51.7516 Y-15.0012 F30.00
G01 X51.7682 Y-14.9920 F30.00
G01 X51.8103 Y-14.9668 F30.00
G01 X51.8210 Y-14.9600 F30.00
G01 X51.8313 Y-14.9527 F30.00
G01 X51.8807 Y-14.9157 F30.00
G01 X51.9266 Y-14.8745 F30.00
G01 X51.9358 Y-14.8658 F30.00
G01 X52.2832 Y-14.5183 F30.00
G01 X52.3205 Y-14.4773 F30.00
G01 X52.3287 Y-14.4677 F30.00
G01 X52.3657 Y-14.4183 F30.00
G01 X52.3765 Y-14.4027 F30.00
G01 X52.4050 Y-14.3552 F30.00
G01 X52.4142 Y-14.3386 F30.00
G01 X52.4405 Y-14.2828 F30.00
G01 X52.4476 Y-14.2652 F30.00
G01 X52.4681 Y-14.2070 F30.00
G01 X52.4834 Y-14.1472 F30.00
G01 X52.4862 Y-14.1348 F30.00
G01 X52.4883 Y-14.1224 F30.00
G01 X52.4955 Y-14.0738 F30.00
G01 X52.4976 Y-14.0550 F30.00
G01 X52.5007 Y-13.9878 F30.00
G01 X52.5020 Y-13.5514 F30.00
G01 X52.5125 Y-13.5338 F30.00
G01 X52.5184 Y-13.5226 F30.00
G01 X52.5343 Y-13.4890 F30.00
G01 X52.5392 Y-13.4773 F30.00
G01 X52.5517 Y-13.4423 F30.00
G01 X52.5570 Y-13.4241 F30.00
G01 X52.5657 Y-13.3880 F30.00
G01 X52.5723 Y-13.3450 F30.00
G01 X52.5739 Y-13.3261 F30.00
G01 X52.5755 Y-13.2890 F30.00
G01 X52.5755 Y-11.9890 F30.00
G01 X52.5736 Y-11.9456 F30.00
G01 X52.5715 Y-11.9267 F30.00
G01 X52.5657 Y-11.8900 F30.00
G01 X52.5554 Y-11.8478 F30.00
G01 X52.5517 Y-11.8357 F30.00
G01 X52.5414 Y-11.8066 F30.00
G01 X52.5343 Y-11.7890 F30.00
G01 X52.5156 Y-11.7500 F30.00
G01 X52.5007 Y-11.7244 F30.00
G01 X52.5007 Y-11.1640 F30.00
G01 X52.4980 Y-11.1023 F30.00
G01 X52.4971 Y-11.0897 F30.00
G01 X52.4955 Y-11.0772 F30.00
G01 X52.4862 Y-11.0162 F30.00
G01 X52.4834 Y-11.0038 F30.00
G01 X52.4681 Y-10.9440 F30.00
G01 X52.4476 Y-10.8858 F30.00
G01 X52.4430 Y-10.8740 F30.00
G01 X52.4379 Y-10.8625 F30.00
G01 X52.4142 Y-10.8124 F30.00
G01 X52.4050 Y-10.7958 F30.00
G01 X52.3730 Y-10.7430 F30.00
G01 X52.3365 Y-10.6933 F30.00
G01 X52.3246 Y-10.6785 F30.00
G01 X52.2875 Y-10.6374 F30.00
G01 X52.2788 Y-10.6282 F30.00
G01 X52.0583 Y-10.4078 F30.00
G01 X52.0173 Y-10.3705 F30.00
G01 X52.0077 Y-10.3623 F30.00
G01 X51.9977 Y-10.3545 F30.00
G01 X51.9480 Y-10.3180 F30.00
G01 X51.8952 Y-10.2860 F30.00
G01 X51.8842 Y-10.2798 F30.00
G01 X51.8285 Y-10.2531 F30.00
G01 X51.8111 Y-10.2456 F30.00
G01 X51.7590 Y-10.2269 F30.00
G01 X51.7470 Y-10.2229 F30.00
G01 X51.7348 Y-10.2195 F30.00
G01 X51.6810 Y-10.2062 F30.00
G01 X51.6624 Y-10.2027 F30.00
G01 X51.6138 Y-10.1955 F30.00
G01 X51.6013 Y-10.1939 F30.00
G01 X51.5887 Y-10.1930 F30.00
G01 X51.5270 Y-10.1903 F30.00
G01 X50.7992 Y-10.1903 F30.00
G01 X50.7913 Y-10.1389 F30.00
G01 X50.7885 Y-10.1266 F30.00
G01 X50.7718 Y-10.0600 F30.00
G01 X50.7661 Y-10.0419 F30.00
G01 X50.7451 Y-9.9833 F30.00
G01 X50.7380 Y-9.9657 F30.00
G01 X50.7088 Y-9.9036 F30.00
G01 X50.7031 Y-9.8923 F30.00
G01 X50.6969 Y-9.8813 F30.00
G01 X50.6648 Y-9.8279 F30.00
G01 X50.6581 Y-9.8172 F30.00
G01 X50.6508 Y-9.8068 F30.00
G01 X50.6137 Y-9.7568 F30.00
G01 X50.6018 Y-9.7420 F30.00
G01 X50.5558 Y-9.6911 F30.00
G01 X50.5471 Y-9.6819 F30.00
G01 X50.5379 Y-9.6732 F30.00
G01 X50.4917 Y-9.6314 F30.00
G01 X50.4822 Y-9.6231 F30.00
G01 X50.4722 Y-9.6153 F30.00
G01 X50.4222 Y-9.5782 F30.00
G01 X50.4118 Y-9.5709 F30.00
G01 X50.4011 Y-9.5642 F30.00
G01 X50.3477 Y-9.5321 F30.00
G01 X50.3367 Y-9.5259 F30.00
G01 X50.3254 Y-9.5202 F30.00
G01 X50.2691 Y-9.4936 F30.00
G01 X50.2575 Y-9.4885 F30.00
G01 X50.2457 Y-9.4839 F30.00
G01 X50.1871 Y-9.4629 F30.00
G01 X50.1751 Y-9.4590 F30.00
G01 X50.1629 Y-9.4556 F30.00
G01 X50.1024 Y-9.4405 F30.00
G01 X50.0901 Y-9.4377 F30.00
G01 X50.0777 Y-9.4355 F30.00
G01 X50.0160 Y-9.4264 F30.00
G01 X50.0026 Y-9.4248 F30.00
G01 X49.9223 Y-9.4206 F30.00
G01 X48.6397 Y-9.4206 F30.00
G01 X48.5711 Y-9.4239 F30.00
G01 X48.5585 Y-9.4248 F30.00
G01 X48.5460 Y-9.4264 F30.00
G01 X48.4843 Y-9.4355 F30.00
G01 X48.4719 Y-9.4377 F30.00
G01 X48.4596 Y-9.4405 F30.00
G01 X48.3991 Y-9.4556 F30.00
G01 X48.3869 Y-9.4590 F30.00
G01 X48.3749 Y-9.4629 F30.00
G01 X48.3163 Y-9.4839 F30.00
G01 X48.2987 Y-9.4910 F30.00
G01 X48.2309 Y-9.5230 F30.00
G01 X48.2143 Y-9.5321 F30.00
G01 X48.1609 Y-9.5642 F30.00
G01 X48.1502 Y-9.5709 F30.00
G01 X48.1398 Y-9.5782 F30.00
G01 X48.0898 Y-9.6153 F30.00
G01 X48.0798 Y-9.6231 F30.00
G01 X48.0703 Y-9.6314 F30.00
G01 X48.0241 Y-9.6732 F30.00
G01 X48.0149 Y-9.6819 F30.00
G01 X48.0062 Y-9.6911 F30.00
G01 X47.9644 Y-9.7373 F30.00
G01 X47.9561 Y-9.7468 F30.00
G01 X47.9483 Y-9.7568 F30.00
G01 X47.9112 Y-9.8068 F30.00
G01 X47.9039 Y-9.8172 F30.00
G01 X47.8972 Y-9.8279 F30.00
G01 X47.8651 Y-9.8813 F30.00
G01 X47.8589 Y-9.8923 F30.00
G01 X47.8532 Y-9.9036 F30.00
G01 X47.8266 Y-9.9599 F30.00
G01 X47.8215 Y-9.9715 F30.00
G01 X47.8169 Y-9.9833 F30.00
G01 X47.7959 Y-10.0419 F30.00
G01 X47.7920 Y-10.0539 F30.00
G01 X47.7886 Y-10.0661 F30.00
G01 X47.7735 Y-10.1266 F30.00
G01 X47.7707 Y-10.1389 F30.00
G01 X47.7685 Y-10.1513 F30.00
G01 X47.7585 Y-10.2197 F30.00
G01 X47.7569 Y-10.2381 F30.00
G01 X47.7539 Y-10.3004 F30.00
G01 X47.7535 Y-10.3130 F30.00
G01 X47.7535 Y-11.5830 F30.00
G01 X47.7539 Y-11.5956 F30.00
G01 X47.7573 Y-11.6642 F30.00
G01 X47.7594 Y-11.6830 F30.00
G01 X47.7685 Y-11.7447 F30.00
G01 X47.7707 Y-11.7571 F30.00
G01 X47.7735 Y-11.7694 F30.00
G01 X47.7886 Y-11.8299 F30.00
G01 X47.7920 Y-11.8421 F30.00
G01 X47.7959 Y-11.8541 F30.00
G01 X47.8169 Y-11.9127 F30.00
G01 X47.8215 Y-11.9245 F30.00
G01 X47.8266 Y-11.9361 F30.00
G01 X47.8532 Y-11.9924 F30.00
G01 X47.8589 Y-12.0037 F30.00
G01 X47.8651 Y-12.0147 F30.00
G01 X47.8972 Y-12.0681 F30.00
G01 X47.9039 Y-12.0788 F30.00
G01 X47.9112 Y-12.0892 F30.00
G01 X47.9483 Y-12.1392 F30.00
G01 X47.9561 Y-12.1492 F30.00
G01 X47.9644 Y-12.1587 F30.00
G01 X48.0062 Y-12.2049 F30.00
G01 X48.0149 Y-12.2141 F30.00
G01 X48.0241 Y-12.2228 F30.00
G01 X48.0703 Y-12.2646 F30.00
G01 X48.0798 Y-12.2729 F30.00
G01 X48.0898 Y-12.2807 F30.00
G01 X48.1398 Y-12.3178 F30.00
G01 X48.1502 Y-12.3251 F30.00
G01 X48.1609 Y-12.3318 F30.00
G01 X48.2143 Y-12.3639 F30.00
G01 X48.2253 Y-12.3701 F30.00
G01 X48.2366 Y-12.3758 F30.00
G01 X48.2929 Y-12.4024 F30.00
G01 X48.3045 Y-12.4075 F30.00
G01 X48.3163 Y-12.4121 F30.00
G01 X48.3749 Y-12.4331 F30.00
G01 X48.3869 Y-12.4370 F30.00
G01 X48.3991 Y-12.4404 F30.00
G01 X48.4596 Y-12.4555 F30.00
G01 X48.4781 Y-12.4595 F30.00
G01 X48.5460 Y-12.4696 F30.00
G01 X48.5594 Y-12.4712 F30.00
G01 X48.6334 Y-12.4751 F30.00
G01 X48.6460 Y-12.4755 F30.00
G01 X49.9160 Y-12.4755 F30.00
G01 X49.9286 Y-12.4751 F30.00
G01 X49.9909 Y-12.4721 F30.00
G01 X50.0098 Y-12.4705 F30.00
G01 X50.0777 Y-12.4605 F30.00
G01 X50.0901 Y-12.4583 F30.00
G01 X50.1024 Y-12.4555 F30.00
G01 X50.1629 Y-12.4404 F30.00
G01 X50.1751 Y-12.4370 F30.00
G01 X50.1871 Y-12.4331 F30.00
G01 X50.2457 Y-12.4121 F30.00
G01 X50.2575 Y-12.4075 F30.00
G01 X50.2691 Y-12.4024 F30.00
G01 X50.3254 Y-12.3758 F30.00
G01 X50.3367 Y-12.3701 F30.00
G01 X50.3477 Y-12.3639 F30.00
G01 X50.4011 Y-12.3318 F30.00
G01 X50.4118 Y-12.3251 F30.00
G01 X50.4222 Y-12.3178 F30.00
G01 X50.4772 Y-12.2768 F30.00
G01 X50.4917 Y-12.2646 F30.00
G01 X50.5379 Y-12.2228 F30.00
G01 X50.5471 Y-12.2141 F30.00
G01 X50.5558 Y-12.2049 F30.00
G01 X50.5976 Y-12.1587 F30.00
G01 X50.6059 Y-12.1492 F30.00
G01 X50.6137 Y-12.1392 F30.00
G01 X50.6508 Y-12.0892 F30.00
G01 X50.6581 Y-12.0788 F30.00
G01 X50.6648 Y-12.0681 F30.00
G01 X50.7000 Y-12.0092 F30.00
G01 X50.7088 Y-11.9924 F30.00
G01 X50.7354 Y-11.9361 F30.00
G01 X50.7405 Y-11.9245 F30.00
G01 X50.7451 Y-11.9127 F30.00
G01 X50.7681 Y-11.8481 F30.00
G01 X50.7734 Y-11.8299 F30.00
G01 X50.7900 Y-11.7633 F30.00
G01 X50.7935 Y-11.7447 F30.00
G01 X50.7992 Y-11.7057 F30.00
G01 X50.9842 Y-11.7057 F30.00
G01 X50.9841 Y-11.7264 F30.00
G01 X50.9735 Y-11.7442 F30.00
G01 X50.9676 Y-11.7554 F30.00
G01 X50.9517 Y-11.7890 F30.00
G01 X50.9446 Y-11.8066 F30.00
G01 X50.9343 Y-11.8357 F30.00
G01 X50.9306 Y-11.8478 F30.00
G01 X50.9216 Y-11.8838 F30.00
G01 X50.9181 Y-11.9025 F30.00
G01 X50.9130 Y-11.9393 F30.00
G01 X50.9109 Y-11.9764 F30.00
G01 X50.9105 Y-11.9890 F30.00
G01 X50.9105 Y-13.2890 F30.00
G01 X50.9124 Y-13.3324 F30.00
G01 X50.9145 Y-13.3513 F30.00
G01 X50.9203 Y-13.3880 F30.00
G01 X50.9306 Y-13.4302 F30.00
G01 X50.9343 Y-13.4423 F30.00
G01 X50.9446 Y-13.4714 F30.00
G01 X50.9517 Y-13.4890 F30.00
G01 X50.9704 Y-13.5280 F30.00
G01 X50.9853 Y-13.5536 F30.00
G01 X50.9853 Y-13.5723 F30.00
G01 X50.8085 Y-13.5723 F30.00
G01 X50.8085 Y-13.1870 F30.00
G01 X50.8075 Y-13.1619 F30.00
G01 X50.8066 Y-13.1493 F30.00
G01 X50.8051 Y-13.1368 F30.00
G01 X50.8022 Y-13.1182 F30.00
G01 X50.7983 Y-13.0997 F30.00
G01 X50.7937 Y-13.0815 F30.00
G01 X50.7900 Y-13.0694 F30.00
G01 X50.7815 Y-13.0457 F30.00
G01 X50.7767 Y-13.0341 F30.00
G01 X50.7631 Y-13.0058 F30.00
G01 X50.7504 Y-12.9841 F30.00
G01 X50.7401 Y-12.9682 F30.00
G01 X50.7212 Y-12.9431 F30.00
G01 X50.7046 Y-12.9243 F30.00
G01 X50.6913 Y-12.9107 F30.00
G01 X50.6679 Y-12.8898 F30.00
G01 X50.6479 Y-12.8746 F30.00
G01 X50.6322 Y-12.8638 F30.00
G01 X50.6052 Y-12.8479 F30.00
G01 X50.5827 Y-12.8369 F30.00
G01 X50.5653 Y-12.8295 F30.00
G01 X50.5356 Y-12.8191 F30.00
G01 X50.5113 Y-12.8127 F30.00
G01 X50.4928 Y-12.8088 F30.00
G01 X50.4680 Y-12.8051 F30.00
G01 X50.4491 Y-12.8035 F30.00
G01 X50.4240 Y-12.8025 F30.00
G01 X48.1380 Y-12.8025 F30.00
G01 X48.1066 Y-12.8038 F30.00
G01 X48.0878 Y-12.8059 F30.00
G01 X48.0692 Y-12.8088 F30.00
G01 X48.0568 Y-12.8112 F30.00
G01 X48.0325 Y-12.8173 F30.00
G01 X48.0204 Y-12.8210 F30.00
G01 X47.9909 Y-12.8318 F30.00
G01 X47.9793 Y-12.8369 F30.00
G01 X47.9568 Y-12.8479 F30.00
G01 X47.9351 Y-12.8606 F30.00
G01 X47.9244 Y-12.8673 F30.00
G01 X47.9141 Y-12.8746 F30.00
G01 X47.8941 Y-12.8898 F30.00
G01 X47.8753 Y-12.9064 F30.00
G01 X47.8661 Y-12.9151 F30.00
G01 X47.8449 Y-12.9383 F30.00
G01 X47.8369 Y-12.9480 F30.00
G01 X47.8219 Y-12.9682 F30.00
G01 X47.8148 Y-12.9788 F30.00
G01 X47.8052 Y-12.9948 F30.00
G01 X47.7989 Y-13.0058 F30.00
G01 X47.7933 Y-13.0171 F30.00
G01 X47.7853 Y-13.0341 F30.00
G01 X47.7783 Y-13.0517 F30.00
G01 X47.7720 Y-13.0694 F30.00
G01 X47.7683 Y-13.0815 F30.00
G01 X47.7622 Y-13.1058 F30.00
G01 X47.7598 Y-13.1182 F30.00
G01 X47.7554 Y-13.1493 F30.00
G01 X47.7545 Y-13.1619 F30.00
G01 X47.7535 Y-13.1870 F30.00
G00 Z2.0000
G00 X50.0051 Y-12.6370
G01 F10.00
G01 Z-0.0500
G01 F30.00
G01 X50.4240 Y-12.6370 F30.00
G01 X50.4448 Y-12.6375 F30.00
G01 X50.4676 Y-12.6388 F30.00
G01 X50.4882 Y-12.6408 F30.00
G01 X50.4985 Y-12.6422 F30.00
G01 X50.5313 Y-12.6476 F30.00
G01 X50.5636 Y-12.6552 F30.00
G01 X50.5737 Y-12.6578 F30.00
G01 X50.5935 Y-12.6638 F30.00
G01 X50.6248 Y-12.6750 F30.00
G01 X50.6345 Y-12.6789 F30.00
G01 X50.6534 Y-12.6873 F30.00
G01 X50.6833 Y-12.7020 F30.00
G01 X50.7013 Y-12.7122 F30.00
G01 X50.7206 Y-12.7239 F30.00
G01 X50.7450 Y-12.7406 F30.00
G01 X50.7450 Y-12.2399 F30.00
G01 X50.7338 Y-12.2542 F30.00
G01 X50.7203 Y-12.2699 F30.00
G01 X50.6784 Y-12.3161 F30.00
G01 X50.6641 Y-12.3311 F30.00
G01 X50.6491 Y-12.3454 F30.00
G01 X50.6029 Y-12.3873 F30.00
G01 X50.5872 Y-12.4008 F30.00
G01 X50.5708 Y-12.4136 F30.00
G01 X50.5207 Y-12.4507 F30.00
G01 X50.5038 Y-12.4627 F30.00
G01 X50.4862 Y-12.4738 F30.00
G01 X50.4328 Y-12.5058 F30.00
G01 X50.4147 Y-12.5160 F30.00
G01 X50.3962 Y-12.5254 F30.00
G01 X50.3398 Y-12.5520 F30.00
G01 X50.3209 Y-12.5604 F30.00
G01 X50.3015 Y-12.5679 F30.00
G01 X50.2428 Y-12.5889 F30.00
G01 X50.2231 Y-12.5954 F30.00
G01 X50.2031 Y-12.6010 F30.00
G01 X50.1427 Y-12.6161 F30.00
G01 X50.1224 Y-12.6206 F30.00
G01 X50.1019 Y-12.6242 F30.00
G01 X50.0403 Y-12.6333 F30.00
G01 X50.0197 Y-12.6359 F30.00
G01 X50.0051 Y-12.6370 F30.00
G00 Z2.0000
G00 X47.6680 Y-15.5084
G01 F10.00
G01 Z-0.0500
G01 F30.00
G01 X47.6739 Y-15.5669 F30.00
G01 X47.7091 Y-15.6730 F30.00
G01 X47.7668 Y-15.7665 F30.00
G01 X47.8445 Y-15.8442 F30.00
G01 X47.9380 Y-15.9019 F30.00
G01 X48.0441 Y-15.9371 F30.00
G01 X48.1026 Y-15.9430 F30.00
G01 X50.4594 Y-15.9430 F30.00
G01 X50.5179 Y-15.9371 F30.00
G01 X50.6240 Y-15.9019 F30.00
G01 X50.7175 Y-15.8442 F30.00
G01 X50.7952 Y-15.7665 F30.00
G01 X50.8529 Y-15.6730 F30.00
G01 X50.8881 Y-15.5669 F30.00
G01 X50.8948 Y-15.5036 F30.00
G01 X50.8982 Y-15.4855 F30.00
G01 X50.9029 Y-15.4677 F30.00
G01 X50.9067 Y-15.4561 F30.00
G01 X50.9110 Y-15.4446 F30.00
G01 X50.9374 Y-15.3799 F30.00
G01 X50.9426 Y-15.3682 F30.00
G01 X50.9513 Y-15.3512 F30.00
G01 X50.9578 Y-15.3402 F30.00
G01 X50.9649 Y-15.3295 F30.00
G01 X50.9765 Y-15.3142 F30.00
G01 X50.9892 Y-15.2999 F30.00
G01 X50.9982 Y-15.2908 F30.00
G01 X51.0126 Y-15.2781 F30.00
G01 X51.0227 Y-15.2702 F30.00
G01 X51.0850 Y-15.2264 F30.00
G01 X51.0957 Y-15.2192 F30.00
G01 X51.1068 Y-15.2127 F30.00
G01 X51.1239 Y-15.2039 F30.00
G01 X51.1356 Y-15.1987 F30.00
G01 X51.1537 Y-15.1921 F30.00
G01 X51.1723 Y-15.1869 F30.00
G01 X51.1911 Y-15.1830 F30.00
G01 X51.2309 Y-15.1765 F30.00
G01 X51.2428 Y-15.1748 F30.00
G01 X51.2548 Y-15.1737 F30.00
G01 X51.2728 Y-15.1730 F30.00
G01 X51.3049 Y-15.1731 F30.00
G01 X51.3310 Y-15.1749 F30.00
G01 X51.4070 Y-15.1731 F30.00
G01 X51.4405 Y-15.1730 F30.00
G01 X51.4616 Y-15.1718 F30.00
G01 X51.5005 Y-15.1709 F30.00
G01 X51.5190 Y-15.1670 F30.00
G01 X51.5339 Y-15.1646 F30.00
G01 X51.5603 Y-15.1616 F30.00
G01 X51.6066 Y-15.1481 F30.00
G01 X51.6579 Y-15.1367 F30.00
G01 X51.6753 Y-15.1293 F30.00
G01 X51.6894 Y-15.1241 F30.00
G01 X51.7148 Y-15.1162 F30.00
G01 X51.7577 Y-15.0943 F30.00
G01 X51.8059 Y-15.0733 F30.00
G01 X51.8281 Y-15.0588 F30.00
G01 X51.8411 Y-15.0512 F30.00
G01 X51.8579 Y-15.0424 F30.00
G01 X51.8959 Y-15.0127 F30.00
G01 X51.9392 Y-14.9830 F30.00
G01 X51.9583 Y-14.9646 F30.00
G01 X51.9696 Y-14.9547 F30.00
G01 X51.9844 Y-14.9429 F30.00
G01 X52.0099 Y-14.9134 F30.00
G01 X52.0255 Y-14.8968 F30.00
G01 X52.2668 Y-14.6554 F30.00
G01 X52.2772 Y-14.6456 F30.00
G01 X52.2917 Y-14.6332 F30.00
G01 X52.3441 Y-14.5782 F30.00
G01 X52.3677 Y-14.5545 F30.00
G01 X52.3818 Y-14.5387 F30.00
G01 X52.4087 Y-14.5105 F30.00
G01 X52.4234 Y-14.4884 F30.00
G01 X52.4324 Y-14.4763 F30.00
G01 X52.4443 Y-14.4617 F30.00
G01 X52.4676 Y-14.4195 F30.00
G01 X52.4957 Y-14.3751 F30.00
G01 X52.5029 Y-14.3576 F30.00
G01 X52.5091 Y-14.3439 F30.00
G01 X52.5215 Y-14.3204 F30.00
G01 X52.5378 Y-14.2704 F30.00
G01 X52.5556 Y-14.2256 F30.00
G01 X52.5593 Y-14.2070 F30.00
G01 X52.5629 Y-14.1925 F30.00
G01 X52.5705 Y-14.1670 F30.00
G01 X52.5764 Y-14.1191 F30.00
G01 X52.5860 Y-14.0675 F30.00
G01 X52.5865 Y-14.0409 F30.00
G01 X52.5875 Y-14.0259 F30.00
G01 X52.5896 Y-14.0072 F30.00
G01 X52.5869 Y-13.9683 F30.00
G01 X52.5860 Y-13.9455 F30.00
G01 X52.5860 Y-13.6686 F30.00
G01 X52.5864 Y-13.6554 F30.00
G01 X52.5874 Y-13.6423 F30.00
G01 X52.5891 Y-13.6292 F30.00
G01 X52.5914 Y-13.6163 F30.00
G01 X52.6073 Y-13.5484 F30.00
G01 X52.6110 Y-13.5357 F30.00
G01 X52.6153 Y-13.5233 F30.00
G01 X52.6202 Y-13.5111 F30.00
G01 X52.6279 Y-13.4947 F30.00
G01 X52.6604 Y-13.3644 F30.00
G01 X52.6610 Y-13.3542 F30.00
G01 X52.6610 Y-11.9238 F30.00
G01 X52.6604 Y-11.9136 F30.00
G01 X52.6279 Y-11.7833 F30.00
G01 X52.6202 Y-11.7669 F30.00
G01 X52.6153 Y-11.7547 F30.00
G01 X52.6110 Y-11.7423 F30.00
G01 X52.6073 Y-11.7296 F30.00
G01 X52.5914 Y-11.6617 F30.00
G01 X52.5881 Y-11.6422 F30.00
G01 X52.5868 Y-11.6291 F30.00
G01 X52.5860 Y-11.6094 F30.00
G01 X52.5860 Y-11.2662 F30.00
G01 X52.5864 Y-11.2519 F30.00
G01 X52.5879 Y-11.2330 F30.00
G01 X52.5861 Y-11.1570 F30.00
G01 X52.5860 Y-11.1235 F30.00
G01 X52.5848 Y-11.1024 F30.00
G01 X52.5839 Y-11.0635 F30.00
G01 X52.5800 Y-11.0450 F30.00
G01 X52.5775 Y-11.0301 F30.00
G01 X52.5746 Y-11.0037 F30.00
G01 X52.5611 Y-10.9574 F30.00
G01 X52.5497 Y-10.9061 F30.00
G01 X52.5396 Y-10.8815 F30.00
G01 X52.5346 Y-10.8674 F30.00
G01 X52.5292 Y-10.8492 F30.00
G01 X52.5073 Y-10.8063 F30.00
G01 X52.4863 Y-10.7581 F30.00
G01 X52.4758 Y-10.7424 F30.00
G01 X52.4680 Y-10.7295 F30.00
G01 X52.4554 Y-10.7062 F30.00
G01 X52.4257 Y-10.6681 F30.00
G01 X52.3960 Y-10.6248 F30.00
G01 X52.3776 Y-10.6057 F30.00
G01 X52.3677 Y-10.5944 F30.00
G01 X52.3559 Y-10.5796 F30.00
G01 X52.3264 Y-10.5541 F30.00
G01 X52.3098 Y-10.5385 F30.00
G01 X52.1954 Y-10.4242 F30.00
G01 X52.1856 Y-10.4138 F30.00
G01 X52.1732 Y-10.3993 F30.00
G01 X52.1182 Y-10.3469 F30.00
G01 X52.0945 Y-10.3233 F30.00
G01 X52.0787 Y-10.3092 F30.00
G01 X52.0505 Y-10.2823 F30.00
G01 X52.0347 Y-10.2720 F30.00
G01 X52.0225 Y-10.2632 F30.00
G01 X52.0017 Y-10.2467 F30.00
G01 X51.9595 Y-10.2234 F30.00
G01 X51.9151 Y-10.1953 F30.00
G01 X51.8906 Y-10.1850 F30.00
G01 X51.8770 Y-10.1785 F30.00
G01 X51.8604 Y-10.1695 F30.00
G01 X51.8145 Y-10.1547 F30.00
G01 X51.7656 Y-10.1354 F30.00
G01 X51.7471 Y-10.1317 F30.00
G01 X51.7325 Y-10.1281 F30.00
G01 X51.7070 Y-10.1205 F30.00
G01 X51.6592 Y-10.1146 F30.00
G01 X51.6075 Y-10.1050 F30.00
G01 X51.5809 Y-10.1045 F30.00
G01 X51.5659 Y-10.1035 F30.00
G01 X51.5472 Y-10.1014 F30.00
G01 X51.5083 Y-10.1041 F30.00
G01 X51.4855 Y-10.1050 F30.00
G01 X51.1414 Y-10.1050 F30.00
G01 X51.1230 Y-10.1043 F30.00
G01 X51.1108 Y-10.1031 F30.00
G01 X51.0987 Y-10.1014 F30.00
G01 X51.0867 Y-10.0991 F30.00
G01 X51.0748 Y-10.0962 F30.00
G01 X50.9957 Y-10.0730 F30.00
G01 X50.9836 Y-10.0688 F30.00
G01 X50.9660 Y-10.0613 F30.00
G01 X50.9489 Y-10.0526 F30.00
G01 X50.9325 Y-10.0427 F30.00
G01 X50.9169 Y-10.0315 F30.00
G01 X50.9022 Y-10.0192 F30.00
G01 X50.8929 Y-10.0104 F30.00
G01 X50.8840 Y-10.0012 F30.00
G01 X50.8301 Y-9.9390 F30.00
G01 X50.8226 Y-9.9294 F30.00
G01 X50.8155 Y-9.9195 F30.00
G01 X50.8089 Y-9.9092 F30.00
G01 X50.8028 Y-9.8987 F30.00
G01 X50.7946 Y-9.8823 F30.00
G01 X50.7701 Y-9.8284 F30.00
G01 X50.6698 Y-9.6837 F30.00
G01 X50.5453 Y-9.5592 F30.00
G01 X50.4006 Y-9.4589 F30.00
G01 X50.2403 Y-9.3861 F30.00
G01 X50.0682 Y-9.3427 F30.00
G01 X49.9693 Y-9.3350 F30.00
G01 X49.1421 Y-9.3350 F30.00
G01 X48.5927 Y-9.3350 F30.00
G01 X48.4938 Y-9.3427 F30.00
G01 X48.3217 Y-9.3861 F30.00
G01 X48.1614 Y-9.4589 F30.00
G01 X48.0167 Y-9.5592 F30.00
G01 X47.8922 Y-9.6837 F30.00
G01 X47.7919 Y-9.8284 F30.00
G01 X47.7191 Y-9.9887 F30.00
G01 X47.6757 Y-10.1608 F30.00
G01 X47.6680 Y-10.2597 F30.00
G01 X47.6680 Y-11.6363 F30.00
G01 X47.6757 Y-11.7352 F30.00
G01 X47.7191 Y-11.9073 F30.00
G01 X47.7919 Y-12.0676 F30.00
G01 X47.8922 Y-12.2123 F30.00
G01 X47.9104 Y-12.2306 F30.00
G01 X47.9186 Y-12.2397 F30.00
G01 X47.9301 Y-12.2540 F30.00
G01 X47.9372 Y-12.2640 F30.00
G01 X47.9439 Y-12.2743 F30.00
G01 X47.9500 Y-12.2849 F30.00
G01 X47.9865 Y-12.3519 F30.00
G01 X47.9946 Y-12.3692 F30.00
G01 X48.0014 Y-12.3872 F30.00
G01 X48.0069 Y-12.4056 F30.00
G01 X48.0098 Y-12.4180 F30.00
G01 X48.0129 Y-12.4369 F30.00
G01 X48.0142 Y-12.4497 F30.00
G01 X48.0149 Y-12.4624 F30.00
G01 X48.0147 Y-12.4816 F30.00
G01 X48.0088 Y-12.5640 F30.00
G01 X48.0073 Y-12.5767 F30.00
G01 X48.0051 Y-12.5893 F30.00
G01 X48.0023 Y-12.6018 F30.00
G01 X47.9989 Y-12.6141 F30.00
G01 X47.9926 Y-12.6323 F30.00
G01 X47.9850 Y-12.6499 F30.00
G01 X47.9762 Y-12.6669 F30.00
G01 X47.9695 Y-12.6778 F30.00
G01 X47.9586 Y-12.6936 F30.00
G01 X47.9128 Y-12.7547 F30.00
G01 X47.9000 Y-12.7697 F30.00
G01 X47.8862 Y-12.7836 F30.00
G01 X47.8764 Y-12.7923 F30.00
G01 X47.8609 Y-12.8043 F30.00
G01 X47.8451 Y-12.8151 F30.00
G01 X47.7668 Y-12.8935 F30.00
G01 X47.7091 Y-12.9870 F30.00
G01 X47.6739 Y-13.0931 F30.00
G01 X47.6680 Y-13.1516 F30.00
G01 X47.6680 Y-15.5084 F30.00
G00 Z2.0000
G00 X47.5024 Y-15.5168
G01 F10.00
G01 Z-0.0500
G01 F30.00
G01 X47.5111 Y-15.6018 F30.00
G01 X47.5581 Y-15.7434 F30.00
G01 X47.6361 Y-15.8699 F30.00
G01 X47.7411 Y-15.9749 F30.00
G01 X47.8676 Y-16.0529 F30.00
G01 X48.0092 Y-16.0999 F30.00
G01 X48.0942 Y-16.1086 F30.00
G01 X50.4678 Y-16.1085 F30.00
G01 X50.5528 Y-16.0999 F30.00
G01 X50.6944 Y-16.0529 F30.00
G01 X50.8209 Y-15.9749 F30.00
G01 X50.9259 Y-15.8699 F30.00
G01 X51.0039 Y-15.7434 F30.00
G01 X51.0509 Y-15.6018 F30.00
G01 X51.0582 Y-15.5304 F30.00
G01 X51.0602 Y-15.5196 F30.00
G01 X51.0627 Y-15.5112 F30.00
G01 X51.0907 Y-15.4425 F30.00
G01 X51.0945 Y-15.4342 F30.00
G01 X51.1005 Y-15.4245 F30.00
G01 X51.1061 Y-15.4173 F30.00
G01 X51.1141 Y-15.4091 F30.00
G01 X51.1211 Y-15.4033 F30.00
G01 X51.1859 Y-15.3581 F30.00
G01 X51.1940 Y-15.3538 F30.00
G01 X51.2025 Y-15.3503 F30.00
G01 X51.2113 Y-15.3477 F30.00
G01 X51.2180 Y-15.3463 F30.00
G01 X51.2599 Y-15.3394 F30.00
G01 X51.2706 Y-15.3386 F30.00
G01 X51.3003 Y-15.3386 F30.00
G01 X51.3261 Y-15.3406 F30.00
G01 X51.4109 Y-15.3386 F30.00
G01 X51.4480 Y-15.3386 F30.00
G01 X51.4655 Y-15.3373 F30.00
G01 X51.5203 Y-15.3360 F30.00
G01 X51.5494 Y-15.3297 F30.00
G01 X51.5594 Y-15.3281 F30.00
G01 X51.5917 Y-15.3248 F30.00
G01 X51.6475 Y-15.3085 F30.00
G01 X51.7085 Y-15.2950 F30.00
G01 X51.7359 Y-15.2833 F30.00
G01 X51.7454 Y-15.2799 F30.00
G01 X51.7765 Y-15.2706 F30.00
G01 X51.8282 Y-15.2440 F30.00
G01 X51.8855 Y-15.2192 F30.00
G01 X51.9126 Y-15.2011 F30.00
G01 X51.9213 Y-15.1960 F30.00
G01 X51.9477 Y-15.1823 F30.00
G01 X51.9935 Y-15.1464 F30.00
G01 X52.0451 Y-15.1113 F30.00
G01 X52.0682 Y-15.0884 F30.00
G01 X52.0758 Y-15.0817 F30.00
G01 X52.0991 Y-15.0632 F30.00
G01 X52.1350 Y-15.0218 F30.00
G01 X52.1425 Y-15.0138 F30.00
G01 X52.3839 Y-14.7724 F30.00
G01 X52.4053 Y-14.7539 F30.00
G01 X52.4639 Y-14.6925 F30.00
G01 X52.4901 Y-14.6662 F30.00
G01 X52.5016 Y-14.6529 F30.00
G01 X52.5394 Y-14.6133 F30.00
G01 X52.5571 Y-14.5860 F30.00
G01 X52.5631 Y-14.5779 F30.00
G01 X52.5820 Y-14.5549 F30.00
G01 X52.6099 Y-14.5039 F30.00
G01 X52.6435 Y-14.4512 F30.00
G01 X52.6546 Y-14.4236 F30.00
G01 X52.6589 Y-14.4145 F30.00
G01 X52.6743 Y-14.3858 F30.00
G01 X52.6936 Y-14.3264 F30.00
G01 X52.7151 Y-14.2724 F30.00
G01 X52.7208 Y-14.2432 F30.00
G01 X52.7232 Y-14.2334 F30.00
G01 X52.7330 Y-14.2024 F30.00
G01 X52.7399 Y-14.1447 F30.00
G01 X52.7516 Y-14.0833 F30.00
G01 X52.7517 Y-14.0508 F30.00
G01 X52.7524 Y-14.0407 F30.00
G01 X52.7559 Y-14.0111 F30.00
G01 X52.7519 Y-13.9565 F30.00
G01 X52.7516 Y-13.9455 F30.00
G01 X52.7516 Y-13.6686 F30.00
G01 X52.7520 Y-13.6592 F30.00
G01 X52.7540 Y-13.6476 F30.00
G01 X52.7681 Y-13.5880 F30.00
G01 X52.7703 Y-13.5813 F30.00
G01 X52.7730 Y-13.5748 F30.00
G01 X52.7842 Y-13.5521 F30.00
G01 X52.8245 Y-13.3902 F30.00
G01 X52.8266 Y-13.3598 F30.00
G01 X52.8266 Y-11.9182 F30.00
G01 X52.8245 Y-11.8878 F30.00
G01 X52.7842 Y-11.7259 F30.00
G01 X52.7730 Y-11.7032 F30.00
G01 X52.7688 Y-11.6923 F30.00
G01 X52.7540 Y-11.6304 F30.00
G01 X52.7523 Y-11.6211 F30.00
G01 X52.7516 Y-11.6094 F30.00
G01 X52.7516 Y-11.2662 F30.00
G01 X52.7536 Y-11.2379 F30.00
G01 X52.7516 Y-11.1531 F30.00
G01 X52.7516 Y-11.1160 F30.00
G01 X52.7503 Y-11.0985 F30.00
G01 X52.7490 Y-11.0437 F30.00
G01 X52.7427 Y-11.0146 F30.00
G01 X52.7411 Y-11.0046 F30.00
G01 X52.7378 Y-10.9723 F30.00
G01 X52.7215 Y-10.9165 F30.00
G01 X52.7080 Y-10.8555 F30.00
G01 X52.6954 Y-10.8255 F30.00
G01 X52.6920 Y-10.8160 F30.00
G01 X52.6836 Y-10.7875 F30.00
G01 X52.6570 Y-10.7358 F30.00
G01 X52.6322 Y-10.6785 F30.00
G01 X52.6155 Y-10.6538 F30.00
G01 X52.6104 Y-10.6451 F30.00
G01 X52.5953 Y-10.6163 F30.00
G01 X52.5594 Y-10.5705 F30.00
G01 X52.5242 Y-10.5189 F30.00
G01 X52.5014 Y-10.4958 F30.00
G01 X52.4947 Y-10.4882 F30.00
G01 X52.4762 Y-10.4649 F30.00
G01 X52.4348 Y-10.4290 F30.00
G01 X52.4268 Y-10.4215 F30.00
G01 X52.3124 Y-10.3071 F30.00
G01 X52.2939 Y-10.2857 F30.00
G01 X52.2325 Y-10.2271 F30.00
G01 X52.2062 Y-10.2009 F30.00
G01 X52.1929 Y-10.1894 F30.00
G01 X52.1533 Y-10.1516 F30.00
G01 X52.1283 Y-10.1355 F30.00
G01 X52.1201 Y-10.1296 F30.00
G01 X52.0949 Y-10.1090 F30.00
G01 X52.0439 Y-10.0811 F30.00
G01 X51.9912 Y-10.0475 F30.00
G01 X51.9611 Y-10.0352 F30.00
G01 X51.9520 Y-10.0309 F30.00
G01 X51.9258 Y-10.0167 F30.00
G01 X51.8705 Y-9.9989 F30.00
G01 X51.8124 Y-9.9759 F30.00
G01 X51.7832 Y-9.9702 F30.00
G01 X51.7734 Y-9.9678 F30.00
G01 X51.7424 Y-9.9580 F30.00
G01 X51.6847 Y-9.9511 F30.00
G01 X51.6233 Y-9.9394 F30.00
G01 X51.5908 Y-9.9393 F30.00
G01 X51.5807 Y-9.9386 F30.00
G01 X51.5511 Y-9.9351 F30.00
G01 X51.4965 Y-9.9391 F30.00
G01 X51.4855 Y-9.9394 F30.00
G01 X51.1349 Y-9.9392 F30.00
G01 X51.1262 Y-9.9382 F30.00
G01 X51.1155 Y-9.9357 F30.00
G01 X51.0485 Y-9.9160 F30.00
G01 X51.0420 Y-9.9139 F30.00
G01 X51.0357 Y-9.9112 F30.00
G01 X51.0276 Y-9.9070 F30.00
G01 X51.0218 Y-9.9033 F30.00
G01 X51.0146 Y-9.8977 F30.00
G01 X51.0096 Y-9.8930 F30.00
G01 X50.9591 Y-9.8352 F30.00
G01 X50.9537 Y-9.8284 F30.00
G01 X50.9490 Y-9.8211 F30.00
G01 X50.9460 Y-9.8153 F30.00
G01 X50.9146 Y-9.7464 F30.00
G01 X50.7974 Y-9.5772 F30.00
G01 X50.6518 Y-9.4316 F30.00
G01 X50.4826 Y-9.3144 F30.00
G01 X50.2952 Y-9.2293 F30.00
G01 X50.0951 Y-9.1788 F30.00
G01 X49.9758 Y-9.1694 F30.00
G01 X49.1421 Y-9.1694 F30.00
G01 X48.5862 Y-9.1695 F30.00
G01 X48.4669 Y-9.1788 F30.00
G01 X48.2668 Y-9.2293 F30.00
G01 X48.0794 Y-9.3144 F30.00
G01 X47.9102 Y-9.4316 F30.00
G01 X47.7646 Y-9.5772 F30.00
G01 X47.6474 Y-9.7464 F30.00
G01 X47.5623 Y-9.9338 F30.00
G01 X47.5118 Y-10.1339 F30.00
G01 X47.5024 Y-10.2532 F30.00
G01 X47.5025 Y-11.6428 F30.00
G01 X47.5118 Y-11.7621 F30.00
G01 X47.5623 Y-11.9622 F30.00
G01 X47.6474 Y-12.1496 F30.00
G01 X47.7646 Y-12.3188 F30.00
G01 X47.7921 Y-12.3464 F30.00
G01 X47.7976 Y-12.3532 F30.00
G01 X47.8014 Y-12.3586 F30.00
G01 X47.8382 Y-12.4255 F30.00
G01 X47.8422 Y-12.4338 F30.00
G01 X47.8453 Y-12.4423 F30.00
G01 X47.8476 Y-12.4512 F30.00
G01 X47.8490 Y-12.4602 F30.00
G01 X47.8495 Y-12.4693 F30.00
G01 X47.8442 Y-12.5459 F30.00
G01 X47.8435 Y-12.5527 F30.00
G01 X47.8417 Y-12.5616 F30.00
G01 X47.8391 Y-12.5704 F30.00
G01 X47.8356 Y-12.5788 F30.00
G01 X47.8324 Y-12.5849 F30.00
G01 X47.8261 Y-12.5944 F30.00
G01 X47.7843 Y-12.6503 F30.00
G01 X47.7767 Y-12.6592 F30.00
G01 X47.7716 Y-12.6641 F30.00
G01 X47.7643 Y-12.6699 F30.00
G01 X47.7515 Y-12.6787 F30.00
G01 X47.7411 Y-12.6851 F30.00
G01 X47.6361 Y-12.7901 F30.00
G01 X47.5581 Y-12.9166 F30.00
G01 X47.5111 Y-13.0582 F30.00
G01 X47.5024 Y-13.1432 F30.00
G01 X47.5024 Y-15.5168 F30.00
G00 Z2.0000
G00 X47.7569 Y-18.6201
G01 F10.00
G01 Z-0.0500
G01 F30.00
G01 X47.7539 Y-18.6824 F30.00
G01 X47.7535 Y-18.6950 F30.00
G01 X47.7535 Y-19.9650 F30.00
G01 X47.7539 Y-19.9776 F30.00
G01 X47.7569 Y-20.0399 F30.00
G01 X47.7585 Y-20.0588 F30.00
G01 X47.7685 Y-20.1267 F30.00
G01 X47.7707 Y-20.1391 F30.00
G01 X47.7735 Y-20.1514 F30.00
G01 X47.7886 Y-20.2119 F30.00
G01 X47.7920 Y-20.2241 F30.00
G01 X47.7959 Y-20.2361 F30.00
G01 X47.8169 Y-20.2947 F30.00
G01 X47.8215 Y-20.3065 F30.00
G01 X47.8266 Y-20.3181 F30.00
G01 X47.8532 Y-20.3744 F30.00
G01 X47.8589 Y-20.3857 F30.00
G01 X47.8651 Y-20.3967 F30.00
G01 X47.9005 Y-20.4555 F30.00
G01 X47.9112 Y-20.4712 F30.00
G01 X47.9483 Y-20.5212 F30.00
G01 X47.9561 Y-20.5312 F30.00
G01 X47.9644 Y-20.5407 F30.00
G01 X48.0105 Y-20.5915 F30.00
G01 X48.0241 Y-20.6048 F30.00
G01 X48.0703 Y-20.6466 F30.00
G01 X48.0798 Y-20.6549 F30.00
G01 X48.0898 Y-20.6627 F30.00
G01 X48.1398 Y-20.6998 F30.00
G01 X48.1502 Y-20.7071 F30.00
G01 X48.1609 Y-20.7138 F30.00
G01 X48.2143 Y-20.7459 F30.00
G01 X48.2253 Y-20.7521 F30.00
G01 X48.2366 Y-20.7578 F30.00
G01 X48.2929 Y-20.7844 F30.00
G01 X48.3045 Y-20.7895 F30.00
G01 X48.3163 Y-20.7941 F30.00
G01 X48.3749 Y-20.8151 F30.00
G01 X48.3930 Y-20.8208 F30.00
G01 X48.4596 Y-20.8375 F30.00
G01 X48.4719 Y-20.8403 F30.00
G01 X48.4843 Y-20.8425 F30.00
G01 X48.5460 Y-20.8516 F30.00
G01 X48.5594 Y-20.8532 F30.00
G01 X48.6334 Y-20.8571 F30.00
G01 X48.6460 Y-20.8575 F30.00
G01 X49.7369 Y-20.8575 F30.00
G01 X50.0552 Y-21.1758 F30.00
G01 X50.1007 Y-21.2175 F30.00
G01 X50.1103 Y-21.2257 F30.00
G01 X50.1203 Y-21.2335 F30.00
G01 X50.1648 Y-21.2664 F30.00
G01 X50.1807 Y-21.2768 F30.00
G01 X50.2338 Y-21.3082 F30.00
G01 X50.2895 Y-21.3349 F30.00
G01 X50.3010 Y-21.3400 F30.00
G01 X50.3128 Y-21.3446 F30.00
G01 X50.3710 Y-21.3651 F30.00
G01 X50.4308 Y-21.3804 F30.00
G01 X50.4432 Y-21.3832 F30.00
G01 X50.4556 Y-21.3853 F30.00
G01 X50.5167 Y-21.3941 F30.00
G01 X50.5784 Y-21.3974 F30.00
G01 X50.5910 Y-21.3977 F30.00
G01 X62.2350 Y-21.3977 F30.00
G01 X62.2476 Y-21.3974 F30.00
G01 X62.3093 Y-21.3941 F30.00
G01 X62.3704 Y-21.3853 F30.00
G01 X62.3828 Y-21.3832 F30.00
G01 X62.3952 Y-21.3804 F30.00
G01 X62.4550 Y-21.3651 F30.00
G01 X62.5132 Y-21.3446 F30.00
G01 X62.5250 Y-21.3400 F30.00
G01 X62.5365 Y-21.3349 F30.00
G01 X62.5922 Y-21.3082 F30.00
G01 X62.6453 Y-21.2768 F30.00
G01 X62.6560 Y-21.2700 F30.00
G01 X62.6663 Y-21.2627 F30.00
G01 X62.7157 Y-21.2257 F30.00
G01 X62.7253 Y-21.2175 F30.00
G01 X62.7663 Y-21.1802 F30.00
G01 X64.1722 Y-19.7743 F30.00
G01 X64.2095 Y-19.7333 F30.00
G01 X64.2177 Y-19.7237 F30.00
G01 X64.2547 Y-19.6743 F30.00
G01 X64.2630 Y-19.6625 F30.00
G01 X64.2740 Y-19.6542 F30.00
G01 X64.2838 Y-19.6462 F30.00
G01 X64.3113 Y-19.6212 F30.00
G01 X64.3202 Y-19.6123 F30.00
G01 X64.3493 Y-19.5799 F30.00
G01 X64.3717 Y-19.5503 F30.00
G01 X64.3789 Y-19.5399 F30.00
G01 X64.3857 Y-19.5293 F30.00
G01 X64.4015 Y-19.5028 F30.00
G01 X64.4074 Y-19.4916 F30.00
G01 X64.4258 Y-19.4522 F30.00
G01 X64.4304 Y-19.4404 F30.00
G01 X64.4426 Y-19.4053 F30.00
G01 X64.4534 Y-19.3632 F30.00
G01 X64.4569 Y-19.3445 F30.00
G01 X64.4620 Y-19.3077 F30.00
G01 X64.4644 Y-19.2643 F30.00
G01 X64.4645 Y-17.9580 F30.00
G01 X64.4629 Y-17.9209 F30.00
G01 X64.4620 Y-17.9083 F30.00
G01 X64.4605 Y-17.8957 F30.00
G01 X64.4559 Y-17.8652 F30.00
G01 X64.4534 Y-17.8528 F30.00
G01 X64.4426 Y-17.8107 F30.00
G01 X64.4304 Y-17.7756 F30.00
G01 X64.4258 Y-17.7638 F30.00
G01 X64.4207 Y-17.7523 F30.00
G01 X64.4046 Y-17.7190 F30.00
G01 X64.3985 Y-17.7082 F30.00
G01 X64.3824 Y-17.6814 F30.00
G01 X64.3754 Y-17.6709 F30.00
G01 X64.3570 Y-17.6460 F30.00
G01 X64.3493 Y-17.6361 F30.00
G01 X64.3387 Y-17.6240 F30.00
G01 X64.3387 Y-16.1390 F30.00
G01 X64.3384 Y-16.1264 F30.00
G01 X64.3351 Y-16.0647 F30.00
G01 X64.3263 Y-16.0036 F30.00
G01 X64.3228 Y-15.9850 F30.00
G01 X64.3078 Y-15.9251 F30.00
G01 X64.3021 Y-15.9070 F30.00
G01 X64.2810 Y-15.8490 F30.00
G01 X64.2759 Y-15.8375 F30.00
G01 X64.2522 Y-15.7874 F30.00
G01 X64.2462 Y-15.7763 F30.00
G01 X64.2385 Y-15.7632 F30.00
G01 X64.2385 Y-15.2390 F30.00
G01 X64.2381 Y-15.2264 F30.00
G01 X64.2372 Y-15.2138 F30.00
G01 X64.2357 Y-15.2012 F30.00
G01 X64.2335 Y-15.1888 F30.00
G01 X64.2307 Y-15.1764 F30.00
G01 X64.2274 Y-15.1643 F30.00
G01 X64.2212 Y-15.1463 F30.00
G01 X64.2137 Y-15.1289 F30.00
G01 X64.2050 Y-15.1121 F30.00
G01 X64.1951 Y-15.0960 F30.00
G01 X64.1878 Y-15.0856 F30.00
G01 X64.1800 Y-15.0757 F30.00
G01 X64.1675 Y-15.0615 F30.00
G01 X64.1585 Y-15.0525 F30.00
G01 X64.1492 Y-15.0440 F30.00
G01 X64.1394 Y-15.0360 F30.00
G01 X64.1292 Y-15.0285 F30.00
G01 X64.1134 Y-15.0182 F30.00
G01 X64.1024 Y-15.0119 F30.00
G01 X64.0911 Y-15.0063 F30.00
G01 X64.0737 Y-14.9988 F30.00
G01 X64.0557 Y-14.9926 F30.00
G01 X64.0374 Y-14.9878 F30.00
G01 X64.0188 Y-14.9843 F30.00
G01 X64.0062 Y-14.9828 F30.00
G01 X63.9936 Y-14.9819 F30.00
G01 X63.9810 Y-14.9815 F30.00
G01 X63.1810 Y-14.9815 F30.00
G01 X63.1621 Y-14.9822 F30.00
G01 X63.1495 Y-14.9835 F30.00
G01 X63.1370 Y-14.9853 F30.00
G01 X63.1184 Y-14.9893 F30.00
G01 X63.1002 Y-14.9945 F30.00
G01 X63.0883 Y-14.9988 F30.00
G01 X63.0767 Y-15.0036 F30.00
G01 X63.0596 Y-15.0119 F30.00
G01 X63.0433 Y-15.0215 F30.00
G01 X63.0328 Y-15.0285 F30.00
G01 X63.0226 Y-15.0360 F30.00
G01 X63.0081 Y-15.0482 F30.00
G01 X62.9945 Y-15.0615 F30.00
G01 X62.9860 Y-15.0708 F30.00
G01 X62.9780 Y-15.0806 F30.00
G01 X62.9669 Y-15.0960 F30.00
G01 X62.9570 Y-15.1121 F30.00
G01 X62.9510 Y-15.1232 F30.00
G01 X62.9431 Y-15.1405 F30.00
G01 X62.9386 Y-15.1523 F30.00
G01 X62.9346 Y-15.1643 F30.00
G01 X62.9313 Y-15.1764 F30.00
G01 X62.9285 Y-15.1888 F30.00
G01 X62.9263 Y-15.2012 F30.00
G01 X62.9248 Y-15.2138 F30.00
G01 X62.9239 Y-15.2264 F30.00
G01 X62.9235 Y-15.2390 F30.00
G01 X62.9235 Y-15.7632 F30.00
G01 X62.9158 Y-15.7763 F30.00
G01 X62.9098 Y-15.7874 F30.00
G01 X62.8861 Y-15.8375 F30.00
G01 X62.8810 Y-15.8490 F30.00
G01 X62.8599 Y-15.9070 F30.00
G01 X62.8542 Y-15.9251 F30.00
G01 X62.8392 Y-15.9850 F30.00
G01 X62.8357 Y-16.0036 F30.00
G01 X62.8269 Y-16.0647 F30.00
G01 X62.8236 Y-16.1264 F30.00
G01 X62.8233 Y-16.1390 F30.00
G01 X62.8233 Y-17.8047 F30.00
G01 X62.8196 Y-17.8168 F30.00
G01 X62.8121 Y-17.8467 F30.00
G01 X62.8081 Y-17.8652 F30.00
G01 X62.8020 Y-17.9083 F30.00
G01 X62.7996 Y-17.9517 F30.00
G01 X62.7995 Y-19.0039 F30.00
G01 X61.9211 Y-19.8823 F30.00
G01 X50.9049 Y-19.8823 F30.00
G01 X50.8085 Y-19.7859 F30.00
G01 X50.8085 Y-18.6950 F30.00
G01 X50.8081 Y-18.6824 F30.00
G01 X50.8051 Y-18.6201 F30.00
G01 X50.8042 Y-18.6075 F30.00
