(G-CODE GENERATED BY FLATCAM v8.994 - www.flatcam.org - Version Date: 2020/11/7)

(Name: RF_PA-F_Cu.gbr_cutout_cnc)
(Type: G-code from Geometry)
(Units: MM)

(Created on Saturday, 18 November 2023 at 17:59)

(This preprocessor is used with a motion controller loaded with GRBL firmware.)
(It is configured to be compatible with almost any version of GRBL firmware.)

(TOOL DIAMETER: 2.0 mm)
(Feedrate_XY: 60.0 mm/min)
(Feedrate_Z: 60.0 mm/min)
(Feedrate rapids 1500.0 mm/min)

(Z_Cut: -1.8 mm)
(DepthPerCut: 0.6 mm <=>3 passes)
(Z_Move: 2.0 mm)
(Z Start: 5.0 mm)
(Z End: 5.0 mm)
(X,Y End: None mm)
(Steps per circle: 64)
(Steps per circle: 64)
(Preprocessor Geometry: GRBL_11_no_M6)

(X range:   -1.0995 ...  101.0995  mm)
(Y range:  -56.0995 ...    1.0995  mm)

(Spindle Speed: 12000.0 RPM)
G21
G90
G17
G94


G01 F60.00

M5             
G00 Z5.0000
G00 X0.0000 Y0.0000                
T1
(MSG, Change to Tool Dia = 2.0000)
M0
G00 Z5.0000
        
G00 Z2.0000
M03 S12000.0
G4 P1.0
G01 F60.00
G00 X-1.0995 Y-25.9000
G01 F60.00
G01 Z-0.6000
G01 F60.00
G01 X-1.0995 Y-0.1245 F60.00
G01 X-1.0945 Y-0.0199 F60.00
G01 X-1.0796 Y0.0837 F60.00
G01 X-1.0549 Y0.1854 F60.00
G01 X-1.0353 Y0.2525 F60.00
G01 X-1.0010 Y0.3514 F60.00
G01 X-0.9575 Y0.4466 F60.00
G01 X-0.9052 Y0.5372 F60.00
G01 X-0.8445 Y0.6225 F60.00
G01 X-0.7759 Y0.7016 F60.00
G01 X-0.7002 Y0.7739 F60.00
G01 X-0.6474 Y0.8196 F60.00
G01 X-0.5608 Y0.8874 F60.00
G01 X-0.4679 Y0.9461 F60.00
G01 X-0.3696 Y0.9953 F60.00
G01 X-0.2669 Y1.0345 F60.00
G01 X-0.1608 Y1.0632 F60.00
G01 X-0.1093 Y1.0744 F60.00
G01 X0.0069 Y1.0932 F60.00
G01 X0.1245 Y1.0995 F60.00
G01 X48.6000 Y1.0995 F60.00
G00 X48.6000 Y1.0995
G01 F60.00
G01 Z-1.2000
G01 F60.00
G01 X0.1245 Y1.0995 F60.00
G01 X0.0069 Y1.0932 F60.00
G01 X-0.1093 Y1.0744 F60.00
G01 X-0.1608 Y1.0632 F60.00
G01 X-0.2669 Y1.0345 F60.00
G01 X-0.3696 Y0.9953 F60.00
G01 X-0.4679 Y0.9461 F60.00
G01 X-0.5608 Y0.8874 F60.00
G01 X-0.6474 Y0.8196 F60.00
G01 X-0.7002 Y0.7739 F60.00
G01 X-0.7759 Y0.7016 F60.00
G01 X-0.8445 Y0.6225 F60.00
G01 X-0.9052 Y0.5372 F60.00
G01 X-0.9575 Y0.4466 F60.00
G01 X-1.0010 Y0.3514 F60.00
G01 X-1.0353 Y0.2525 F60.00
G01 X-1.0549 Y0.1854 F60.00
G01 X-1.0796 Y0.0837 F60.00
G01 X-1.0945 Y-0.0199 F60.00
G01 X-1.0995 Y-0.1245 F60.00
G01 X-1.0995 Y-25.9000 F60.00
G00 X-1.0995 Y-25.9000
G01 F60.00
G01 Z-1.8000
G01 F60.00
G01 X-1.0995 Y-0.1245 F60.00
G01 X-1.0945 Y-0.0199 F60.00
G01 X-1.0796 Y0.0837 F60.00
G01 X-1.0549 Y0.1854 F60.00
G01 X-1.0353 Y0.2525 F60.00
G01 X-1.0010 Y0.3514 F60.00
G01 X-0.9575 Y0.4466 F60.00
G01 X-0.9052 Y0.5372 F60.00
G01 X-0.8445 Y0.6225 F60.00
G01 X-0.7759 Y0.7016 F60.00
G01 X-0.7002 Y0.7739 F60.00
G01 X-0.6474 Y0.8196 F60.00
G01 X-0.5608 Y0.8874 F60.00
G01 X-0.4679 Y0.9461 F60.00
G01 X-0.3696 Y0.9953 F60.00
G01 X-0.2669 Y1.0345 F60.00
G01 X-0.1608 Y1.0632 F60.00
G01 X-0.1093 Y1.0744 F60.00
G01 X0.0069 Y1.0932 F60.00
G01 X0.1245 Y1.0995 F60.00
G01 X48.6000 Y1.0995 F60.00
G00 Z2.0000
G00 X51.6000 Y1.0995
G01 F60.00
G01 Z-0.6000
G01 F60.00
G01 X99.8755 Y1.0995 F60.00
G01 X99.9801 Y1.0945 F60.00
G01 X100.0837 Y1.0796 F60.00
G01 X100.1854 Y1.0549 F60.00
G01 X100.2525 Y1.0353 F60.00
G01 X100.3514 Y1.0010 F60.00
G01 X100.4466 Y0.9575 F60.00
G01 X100.5372 Y0.9052 F60.00
G01 X100.6225 Y0.8445 F60.00
G01 X100.7016 Y0.7759 F60.00
G01 X100.7739 Y0.7002 F60.00
G01 X100.8196 Y0.6474 F60.00
G01 X100.8874 Y0.5608 F60.00
G01 X100.9461 Y0.4679 F60.00
G01 X100.9953 Y0.3696 F60.00
G01 X101.0345 Y0.2669 F60.00
G01 X101.0632 Y0.1608 F60.00
G01 X101.0744 Y0.1093 F60.00
G01 X101.0932 Y-0.0069 F60.00
G01 X101.0995 Y-0.1245 F60.00
G01 X101.0995 Y-25.9000 F60.00
G00 X101.0995 Y-25.9000
G01 F60.00
G01 Z-1.2000
G01 F60.00
G01 X101.0995 Y-0.1245 F60.00
G01 X101.0932 Y-0.0069 F60.00
G01 X101.0744 Y0.1093 F60.00
G01 X101.0632 Y0.1608 F60.00
G01 X101.0345 Y0.2669 F60.00
G01 X100.9953 Y0.3696 F60.00
G01 X100.9461 Y0.4679 F60.00
G01 X100.8874 Y0.5608 F60.00
G01 X100.8196 Y0.6474 F60.00
G01 X100.7739 Y0.7002 F60.00
G01 X100.7016 Y0.7759 F60.00
G01 X100.6225 Y0.8445 F60.00
G01 X100.5372 Y0.9052 F60.00
G01 X100.4466 Y0.9575 F60.00
G01 X100.3514 Y1.0010 F60.00
G01 X100.2525 Y1.0353 F60.00
G01 X100.1854 Y1.0549 F60.00
G01 X100.0837 Y1.0796 F60.00
G01 X99.9801 Y1.0945 F60.00
G01 X99.8755 Y1.0995 F60.00
G01 X51.6000 Y1.0995 F60.00
G00 X51.6000 Y1.0995
G01 F60.00
G01 Z-1.8000
G01 F60.00
G01 X99.8755 Y1.0995 F60.00
G01 X99.9801 Y1.0945 F60.00
G01 X100.0837 Y1.0796 F60.00
G01 X100.1854 Y1.0549 F60.00
G01 X100.2525 Y1.0353 F60.00
G01 X100.3514 Y1.0010 F60.00
G01 X100.4466 Y0.9575 F60.00
G01 X100.5372 Y0.9052 F60.00
G01 X100.6225 Y0.8445 F60.00
G01 X100.7016 Y0.7759 F60.00
G01 X100.7739 Y0.7002 F60.00
G01 X100.8196 Y0.6474 F60.00
G01 X100.8874 Y0.5608 F60.00
G01 X100.9461 Y0.4679 F60.00
G01 X100.9953 Y0.3696 F60.00
G01 X101.0345 Y0.2669 F60.00
G01 X101.0632 Y0.1608 F60.00
G01 X101.0744 Y0.1093 F60.00
G01 X101.0932 Y-0.0069 F60.00
G01 X101.0995 Y-0.1245 F60.00
G01 X101.0995 Y-25.9000 F60.00
G00 Z2.0000
G00 X101.0995 Y-28.9000
G01 F60.00
G01 Z-0.6000
G01 F60.00
G01 X101.0995 Y-54.8755 F60.00
G01 X101.0945 Y-54.9801 F60.00
G01 X101.0796 Y-55.0837 F60.00
G01 X101.0549 Y-55.1854 F60.00
G01 X101.0353 Y-55.2525 F60.00
G01 X101.0010 Y-55.3514 F60.00
G01 X100.9575 Y-55.4466 F60.00
G01 X100.9052 Y-55.5372 F60.00
G01 X100.8445 Y-55.6225 F60.00
G01 X100.7759 Y-55.7016 F60.00
G01 X100.7002 Y-55.7739 F60.00
G01 X100.6474 Y-55.8196 F60.00
G01 X100.5608 Y-55.8874 F60.00
G01 X100.4679 Y-55.9461 F60.00
G01 X100.3696 Y-55.9953 F60.00
G01 X100.2669 Y-56.0345 F60.00
G01 X100.1608 Y-56.0632 F60.00
G01 X100.1093 Y-56.0744 F60.00
G01 X99.9931 Y-56.0932 F60.00
G01 X99.8755 Y-56.0995 F60.00
G01 X51.6000 Y-56.0995 F60.00
G00 X51.6000 Y-56.0995
G01 F60.00
G01 Z-1.2000
G01 F60.00
G01 X99.8755 Y-56.0995 F60.00
G01 X99.9931 Y-56.0932 F60.00
G01 X100.1093 Y-56.0744 F60.00
G01 X100.1608 Y-56.0632 F60.00
G01 X100.2669 Y-56.0345 F60.00
G01 X100.3696 Y-55.9953 F60.00
G01 X100.4679 Y-55.9461 F60.00
G01 X100.5608 Y-55.8874 F60.00
G01 X100.6474 Y-55.8196 F60.00
G01 X100.7002 Y-55.7739 F60.00
G01 X100.7759 Y-55.7016 F60.00
G01 X100.8445 Y-55.6225 F60.00
G01 X100.9052 Y-55.5372 F60.00
G01 X100.9575 Y-55.4466 F60.00
G01 X101.0010 Y-55.3514 F60.00
G01 X101.0353 Y-55.2525 F60.00
G01 X101.0549 Y-55.1854 F60.00
G01 X101.0796 Y-55.0837 F60.00
G01 X101.0945 Y-54.9801 F60.00
G01 X101.0995 Y-54.8755 F60.00
G01 X101.0995 Y-28.9000 F60.00
G00 X101.0995 Y-28.9000
G01 F60.00
G01 Z-1.8000
G01 F60.00
G01 X101.0995 Y-54.8755 F60.00
G01 X101.0945 Y-54.9801 F60.00
G01 X101.0796 Y-55.0837 F60.00
G01 X101.0549 Y-55.1854 F60.00
G01 X101.0353 Y-55.2525 F60.00
G01 X101.0010 Y-55.3514 F60.00
G01 X100.9575 Y-55.4466 F60.00
G01 X100.9052 Y-55.5372 F60.00
G01 X100.8445 Y-55.6225 F60.00
G01 X100.7759 Y-55.7016 F60.00
G01 X100.7002 Y-55.7739 F60.00
G01 X100.6474 Y-55.8196 F60.00
G01 X100.5608 Y-55.8874 F60.00
G01 X100.4679 Y-55.9461 F60.00
G01 X100.3696 Y-55.9953 F60.00
G01 X100.2669 Y-56.0345 F60.00
G01 X100.1608 Y-56.0632 F60.00
G01 X100.1093 Y-56.0744 F60.00
G01 X99.9931 Y-56.0932 F60.00
G01 X99.8755 Y-56.0995 F60.00
G01 X51.6000 Y-56.0995 F60.00
G00 Z2.0000
G00 X48.6000 Y-56.0995
G01 F60.00
G01 Z-0.6000
G01 F60.00
G01 X0.1245 Y-56.0995 F60.00
G01 X0.0199 Y-56.0945 F60.00
G01 X-0.0837 Y-56.0796 F60.00
G01 X-0.1854 Y-56.0549 F60.00
G01 X-0.2525 Y-56.0353 F60.00
G01 X-0.3514 Y-56.0010 F60.00
G01 X-0.4466 Y-55.9575 F60.00
G01 X-0.5372 Y-55.9052 F60.00
G01 X-0.6225 Y-55.8445 F60.00
G01 X-0.7016 Y-55.7759 F60.00
G01 X-0.7739 Y-55.7002 F60.00
G01 X-0.8196 Y-55.6474 F60.00
G01 X-0.8874 Y-55.5608 F60.00
G01 X-0.9461 Y-55.4679 F60.00
G01 X-0.9953 Y-55.3696 F60.00
G01 X-1.0345 Y-55.2669 F60.00
G01 X-1.0632 Y-55.1608 F60.00
G01 X-1.0744 Y-55.1093 F60.00
G01 X-1.0932 Y-54.9931 F60.00
G01 X-1.0995 Y-54.8755 F60.00
G01 X-1.0995 Y-28.9000 F60.00
G00 X-1.0995 Y-28.9000
G01 F60.00
G01 Z-1.2000
G01 F60.00
G01 X-1.0995 Y-54.8755 F60.00
G01 X-1.0932 Y-54.9931 F60.00
G01 X-1.0744 Y-55.1093 F60.00
G01 X-1.0632 Y-55.1608 F60.00
G01 X-1.0345 Y-55.2669 F60.00
G01 X-0.9953 Y-55.3696 F60.00
G01 X-0.9461 Y-55.4679 F60.00
G01 X-0.8874 Y-55.5608 F60.00
G01 X-0.8196 Y-55.6474 F60.00
G01 X-0.7739 Y-55.7002 F60.00
G01 X-0.7016 Y-55.7759 F60.00
G01 X-0.6225 Y-55.8445 F60.00
G01 X-0.5372 Y-55.9052 F60.00
G01 X-0.4466 Y-55.9575 F60.00
G01 X-0.3514 Y-56.0010 F60.00
G01 X-0.2525 Y-56.0353 F60.00
G01 X-0.1854 Y-56.0549 F60.00
G01 X-0.0837 Y-56.0796 F60.00
G01 X0.0199 Y-56.0945 F60.00
G01 X0.1245 Y-56.0995 F60.00
G01 X48.6000 Y-56.0995 F60.00
G00 X48.6000 Y-56.0995
G01 F60.00
G01 Z-1.8000
G01 F60.00
G01 X0.1245 Y-56.0995 F60.00
G01 X0.0199 Y-56.0945 F60.00
G01 X-0.0837 Y-56.0796 F60.00
G01 X-0.1854 Y-56.0549 F60.00
G01 X-0.2525 Y-56.0353 F60.00
G01 X-0.3514 Y-56.0010 F60.00
G01 X-0.4466 Y-55.9575 F60.00
G01 X-0.5372 Y-55.9052 F60.00
G01 X-0.6225 Y-55.8445 F60.00
G01 X-0.7016 Y-55.7759 F60.00
G01 X-0.7739 Y-55.7002 F60.00
G01 X-0.8196 Y-55.6474 F60.00
G01 X-0.8874 Y-55.5608 F60.00
G01 X-0.9461 Y-55.4679 F60.00
G01 X-0.9953 Y-55.3696 F60.00
G01 X-1.0345 Y-55.2669 F60.00
G01 X-1.0632 Y-55.1608 F60.00
G01 X-1.0744 Y-55.1093 F60.00
G01 X-1.0932 Y-54.9931 F60.00
G01 X-1.0995 Y-54.8755 F60.00
G01 X-1.0995 Y-28.9000 F60.00
G00 Z2.0000
M05
G00 Z2.0000
G00 Z5.00


