(G-CODE GENERATED BY FLATCAM v8.994 - www.flatcam.org - Version Date: 2020/11/7)

(Name: RF_PA.drl_cnc)
(Type: G-code from Geometry)
(Units: MM)

(Created on Saturday, 18 November 2023 at 17:54)

(This preprocessor is used with a motion controller loaded with GRBL firmware.)
(It is configured to be compatible with almost any version of GRBL firmware.)


(TOOLS DIAMETER: )
(Tool: 1 -> Dia: 0.2)
(Tool: 2 -> Dia: 0.4)
(Tool: 3 -> Dia: 1.1)
(Tool: 4 -> Dia: 3.2)
(Tool: 5 -> Dia: 3.5)

(FEEDRATE Z: )
(Tool: 1 -> Feedrate: 300)
(Tool: 2 -> Feedrate: 60.0)
(Tool: 3 -> Feedrate: 300)
(Tool: 4 -> Feedrate: 300)
(Tool: 5 -> Feedrate: 300)

(FEEDRATE RAPIDS: )
(Tool: 1 -> Feedrate Rapids: 1500)
(Tool: 2 -> Feedrate Rapids: 1500)
(Tool: 3 -> Feedrate Rapids: 1500)
(Tool: 4 -> Feedrate Rapids: 1500)
(Tool: 5 -> Feedrate Rapids: 1500)

(Z_CUT: )
(Tool: 1 -> Z_Cut: -1.7)
(Tool: 2 -> Z_Cut: -2.0)
(Tool: 3 -> Z_Cut: -1.7)
(Tool: 4 -> Z_Cut: -1.7)
(Tool: 5 -> Z_Cut: -1.7)

(Tools Offset: )
(Tool: 2 -> Offset Z: 0.0)

(Z_MOVE: )
(Tool: 1 -> Z_Move: 2)
(Tool: 2 -> Z_Move: 2.0)
(Tool: 3 -> Z_Move: 2)
(Tool: 4 -> Z_Move: 2)
(Tool: 5 -> Z_Move: 2)

(Z Toolchange: 25.0 mm)
(X,Y Toolchange: 0.0000, 0.0000 mm)
(Z Start: None mm)
(Z End: 2.5 mm)
(X,Y End: None mm)
(Steps per circle: 64)
(Steps per circle: 64)
(Preprocessor Excellon: GRBL_11_no_M6)

(X range:    2.2430 ...   97.6000  mm)
(Y range:  -53.5810 ...   -0.8820  mm)

(Spindle Speed: 12000 RPM)
G21
G90
G17
G94


G01 F60.00

M5             
G00 Z25.0000
G00 X0.0000 Y0.0000                
T2
(MSG, Change to Tool Dia = 0.4000 ||| Total drills for tool T2 = 65)
M0
G00 Z25.0000
        
G01 F60.00
M03 S12000
G00 X2.4430 Y-10.8360
G01 Z-2.0000
G01 Z0
G00 Z2.0000
G00 X2.5450 Y-21.3510
G01 Z-2.0000
G01 Z0
G00 Z2.0000
G00 X14.2290 Y-24.1960
G01 Z-2.0000
G01 Z0
G00 Z2.0000
G00 X14.2290 Y-26.9900
G01 Z-2.0000
G01 Z0
G00 Z2.0000
G00 X21.1630 Y-27.0660
G01 Z-2.0000
G01 Z0
G00 Z2.0000
G00 X18.8010 Y-34.9910
G01 Z-2.0000
G01 Z0
G00 Z2.0000
G00 X12.9590 Y-34.9910
G01 Z-2.0000
G01 Z0
G00 Z2.0000
G00 X6.6090 Y-34.9910
G01 Z-2.0000
G01 Z0
G00 Z2.0000
G00 X2.4940 Y-35.5240
G01 Z-2.0000
G01 Z0
G00 Z2.0000
G00 X7.6000 Y-44.5670
G01 Z-2.0000
G01 Z0
G00 Z2.0000
G00 X11.3080 Y-50.8410
G01 Z-2.0000
G01 Z0
G00 Z2.0000
G00 X12.4510 Y-43.3730
G01 Z-2.0000
G01 Z0
G00 Z2.0000
G00 X18.5470 Y-41.9760
G01 Z-2.0000
G01 Z0
G00 Z2.0000
G00 X26.0400 Y-34.9910
G01 Z-2.0000
G01 Z0
G00 Z2.0000
G00 X31.0950 Y-35.0420
G01 Z-2.0000
G01 Z0
G00 Z2.0000
G00 X28.4020 Y-39.6650
G01 Z-2.0000
G01 Z0
G00 Z2.0000
G00 X27.3100 Y-44.1350
G01 Z-2.0000
G01 Z0
G00 Z2.0000
G00 X27.6910 Y-52.6440
G01 Z-2.0000
G01 Z0
G00 Z2.0000
G00 X38.7400 Y-52.5170
G01 Z-2.0000
G01 Z0
G00 Z2.0000
G00 X37.3430 Y-49.5200
G01 Z-2.0000
G01 Z0
G00 Z2.0000
G00 X34.7010 Y-39.6900
G01 Z-2.0000
G01 Z0
G00 Z2.0000
G00 X41.7880 Y-34.8640
G01 Z-2.0000
G01 Z0
G00 Z2.0000
G00 X53.7010 Y-45.7350
G01 Z-2.0000
G01 Z0
G00 Z2.0000
G00 X64.3430 Y-44.5410
G01 Z-2.0000
G01 Z0
G00 Z2.0000
G00 X63.4800 Y-40.5790
G01 Z-2.0000
G01 Z0
G00 Z2.0000
G00 X63.5050 Y-36.0070
G01 Z-2.0000
G01 Z0
G00 Z2.0000
G00 X76.7890 Y-36.3630
G01 Z-2.0000
G01 Z0
G00 Z2.0000
G00 X77.9580 Y-40.0200
G01 Z-2.0000
G01 Z0
G00 Z2.0000
G00 X76.9420 Y-42.0010
G01 Z-2.0000
G01 Z0
G00 Z2.0000
G00 X73.4110 Y-45.6590
G01 Z-2.0000
G01 Z0
G00 Z2.0000
G00 X71.0490 Y-53.3810
G01 Z-2.0000
G01 Z0
G00 Z2.0000
G00 X89.1590 Y-53.3550
G01 Z-2.0000
G01 Z0
G00 Z2.0000
G00 X89.9460 Y-45.8880
G01 Z-2.0000
G01 Z0
G00 Z2.0000
G00 X90.8100 Y-35.6770
G01 Z-2.0000
G01 Z0
G00 Z2.0000
G00 X92.0550 Y-31.3840
G01 Z-2.0000
G01 Z0
G00 Z2.0000
G00 X87.9400 Y-26.0000
G01 Z-2.0000
G01 Z0
G00 Z2.0000
G00 X90.8860 Y-22.4940
G01 Z-2.0000
G01 Z0
G00 Z2.0000
G00 X80.9290 Y-21.9860
G01 Z-2.0000
G01 Z0
G00 Z2.0000
G00 X77.3480 Y-31.2570
G01 Z-2.0000
G01 Z0
G00 Z2.0000
G00 X75.6970 Y-28.0820
G01 Z-2.0000
G01 Z0
G00 Z2.0000
G00 X71.3280 Y-23.5360
G01 Z-2.0000
G01 Z0
G00 Z2.0000
G00 X67.1880 Y-23.5610
G01 Z-2.0000
G01 Z0
G00 Z2.0000
G00 X66.7370 Y-27.2950
G01 Z-2.0000
G01 Z0
G00 Z2.0000
G00 X65.5690 Y-28.9970
G01 Z-2.0000
G01 Z0
G00 Z2.0000
G00 X64.5130 Y-31.5440
G01 Z-2.0000
G01 Z0
G00 Z2.0000
G00 X59.9240 Y-30.3430
G01 Z-2.0000
G01 Z0
G00 Z2.0000
G00 X56.2410 Y-23.5100
G01 Z-2.0000
G01 Z0
G00 Z2.0000
G00 X58.1710 Y-17.7190
G01 Z-2.0000
G01 Z0
G00 Z2.0000
G00 X54.4120 Y-16.8550
G01 Z-2.0000
G01 Z0
G00 Z2.0000
G00 X56.2410 Y-12.6640
G01 Z-2.0000
G01 Z0
G00 Z2.0000
G00 X60.0250 Y-13.9600
G01 Z-2.0000
G01 Z0
G00 Z2.0000
G00 X64.6230 Y-11.8520
G01 Z-2.0000
G01 Z0
G00 Z2.0000
G00 X68.8390 Y-7.5590
G01 Z-2.0000
G01 Z0
G00 Z2.0000
G00 X78.4150 Y-12.6640
G01 Z-2.0000
G01 Z0
G00 Z2.0000
G00 X74.3000 Y-1.1330
G01 Z-2.0000
G01 Z0
G00 Z2.0000
G00 X59.7200 Y-1.0820
G01 Z-2.0000
G01 Z0
G00 Z2.0000
G00 X58.1710 Y-7.5590
G01 Z-2.0000
G01 Z0
G00 Z2.0000
G00 X54.4630 Y-8.4230
G01 Z-2.0000
G01 Z0
G00 Z2.0000
G00 X38.9690 Y-8.3970
G01 Z-2.0000
G01 Z0
G00 Z2.0000
G00 X34.3460 Y-13.5280
G01 Z-2.0000
G01 Z0
G00 Z2.0000
G00 X38.9690 Y-19.9030
G01 Z-2.0000
G01 Z0
G00 Z2.0000
G00 X31.5520 Y-20.2840
G01 Z-2.0000
G01 Z0
G00 Z2.0000
G00 X23.8810 Y-23.5610
G01 Z-2.0000
G01 Z0
G00 Z2.0000
G00 X22.3570 Y-15.9410
G01 Z-2.0000
G01 Z0
G00 Z2.0000
G00 X18.9280 Y-13.9090
G01 Z-2.0000
G01 Z0
G00 Z2.0000
M05
G00 Z2.50


