(G-CODE GENERATED BY FLATCAM v8.994 - www.flatcam.org - Version Date: 2020/11/7)

(Name: RF_PA.drl_cnc)
(Type: G-code from Geometry)
(Units: MM)

(Created on Saturday, 18 November 2023 at 17:55)

(This preprocessor is used with a motion controller loaded with GRBL firmware.)
(It is configured to be compatible with almost any version of GRBL firmware.)


(TOOLS DIAMETER: )
(Tool: 1 -> Dia: 0.2)
(Tool: 2 -> Dia: 0.4)
(Tool: 3 -> Dia: 1.1)
(Tool: 4 -> Dia: 3.2)
(Tool: 5 -> Dia: 3.5)

(FEEDRATE Z: )
(Tool: 1 -> Feedrate: 300)
(Tool: 2 -> Feedrate: 60.0)
(Tool: 3 -> Feedrate: 30.0)
(Tool: 4 -> Feedrate: 300)
(Tool: 5 -> Feedrate: 300)

(FEEDRATE RAPIDS: )
(Tool: 1 -> Feedrate Rapids: 1500)
(Tool: 2 -> Feedrate Rapids: 1500)
(Tool: 3 -> Feedrate Rapids: 1500)
(Tool: 4 -> Feedrate Rapids: 1500)
(Tool: 5 -> Feedrate Rapids: 1500)

(Z_CUT: )
(Tool: 1 -> Z_Cut: -1.7)
(Tool: 2 -> Z_Cut: -2.0)
(Tool: 3 -> Z_Cut: -2.0)
(Tool: 4 -> Z_Cut: -1.7)
(Tool: 5 -> Z_Cut: -1.7)

(Tools Offset: )
(Tool: 3 -> Offset Z: 0.0)

(Z_MOVE: )
(Tool: 1 -> Z_Move: 2)
(Tool: 2 -> Z_Move: 2.0)
(Tool: 3 -> Z_Move: 2)
(Tool: 4 -> Z_Move: 2)
(Tool: 5 -> Z_Move: 2)

(Z Toolchange: 25.0 mm)
(X,Y Toolchange: 0.0000, 0.0000 mm)
(Z Start: None mm)
(Z End: 2.5 mm)
(X,Y End: None mm)
(Steps per circle: 64)
(Steps per circle: 64)
(Preprocessor Excellon: GRBL_11_no_M6)

(X range:    2.2430 ...   97.6000  mm)
(Y range:  -53.5810 ...   -0.8820  mm)

(Spindle Speed: 12000 RPM)
G21
G90
G17
G94


G01 F30.00

M5             
G00 Z25.0000
G00 X0.0000 Y0.0000                
T3
(MSG, Change to Tool Dia = 1.1000 ||| Total drills for tool T3 = 6)
M0
G00 Z25.0000
        
G01 F30.00
M03 S12000
G00 X29.4600 Y-23.6600
G01 Z-2.0000
G01 Z0
G00 Z2.0000
G00 X32.0000 Y-23.6600
G01 Z-2.0000
G01 Z0
G00 Z2.0000
G00 X34.5400 Y-23.6600
G01 Z-2.0000
G01 Z0
G00 Z2.0000
G00 X34.5400 Y-46.6600
G01 Z-2.0000
G01 Z0
G00 Z2.0000
G00 X32.0000 Y-46.6600
G01 Z-2.0000
G01 Z0
G00 Z2.0000
G00 X29.4600 Y-46.6600
G01 Z-2.0000
G01 Z0
G00 Z2.0000
M05
G00 Z2.50


