(G-CODE GENERATED BY FLATCAM v8.994 - www.flatcam.org - Version Date: 2020/11/7)

(Name: AD831_Mixer-F_Cu.gbr_iso_combined_cnc)
(Type: G-code from Geometry)
(Units: MM)

(Created on Sunday, 27 August 2023 at 14:59)

(This preprocessor is the default preprocessor used by FlatCAM.)
(It is made to work with MACH3 compatible motion controllers.)

(TOOL DIAMETER: 0.1839 mm)
(Feedrate_XY: 30.0 mm/min)
(Feedrate_Z: 10.0 mm/min)
(Feedrate rapids 1500.0 mm/min)

(Z_Cut: -0.05 mm)
(Z_Move: 2.0 mm)
(Z Start: None mm)
(Z End: 15.0 mm)
(X,Y End: None mm)
(Steps per circle: 64)
(Preprocessor Geometry: default)

(X range:   -0.4225 ...   40.4225  mm)
(Y range:  -35.4225 ...    0.4225  mm)

(Spindle Speed: 12000.0 RPM)
G21
G90
G94

G01 F30.00

M5
G00 Z15.0000
G00 X0.0000 Y0.0000
T2
(M6)    
(MSG, Change to Tool Dia = 0.1839)
M0
G00 Z15.0000

G00 Z2.0000
M03 S12000.0
G4 P1.0
G01 F30.00
G00 X0.5810 Y-4.6660
G01 F10.00
G01 Z-0.0500
G01 F30.00
G01 X0.5988 Y-4.8700
G01 X0.6518 Y-5.0679
G01 X0.7384 Y-5.2535
G01 X0.8559 Y-5.4213
G01 X1.0007 Y-5.5661
G01 X1.1685 Y-5.6836
G01 X1.3541 Y-5.7702
G01 X1.5520 Y-5.8232
G01 X1.7560 Y-5.8410
G01 X1.9600 Y-5.8232
G01 X2.1579 Y-5.7702
G01 X2.3435 Y-5.6836
G01 X2.5113 Y-5.5661
G01 X2.6561 Y-5.4213
G01 X2.7736 Y-5.2535
G01 X2.8602 Y-5.0679
G01 X2.9132 Y-4.8700
G01 X2.9310 Y-4.6660
G01 X2.9132 Y-4.4620
G01 X2.8602 Y-4.2641
G01 X2.7736 Y-4.0785
G01 X2.6561 Y-3.9107
G01 X2.5113 Y-3.7659
G01 X2.3435 Y-3.6484
G01 X2.1579 Y-3.5618
G01 X1.9600 Y-3.5088
G01 X1.7560 Y-3.4910
G01 X1.5520 Y-3.5088
G01 X1.3541 Y-3.5618
G01 X1.1685 Y-3.6484
G01 X1.0007 Y-3.7659
G01 X0.8559 Y-3.9107
G01 X0.7384 Y-4.0785
G01 X0.6518 Y-4.2641
G01 X0.5988 Y-4.4620
G01 X0.5810 Y-4.6660
G00 Z2.0000
G00 X0.9067 Y-4.7542
G01 F10.00
G01 Z-0.0500
G01 F30.00
G01 X0.9185 Y-4.8326
G01 X0.9388 Y-4.9139
G01 X0.9671 Y-4.9928
G01 X1.0029 Y-5.0685
G01 X1.0460 Y-5.1404
G01 X1.0959 Y-5.2077
G01 X1.1522 Y-5.2698
G01 X1.2143 Y-5.3261
G01 X1.2816 Y-5.3760
G01 X1.3535 Y-5.4191
G01 X1.4292 Y-5.4549
G01 X1.5081 Y-5.4832
G01 X1.5894 Y-5.5035
G01 X1.6723 Y-5.5158
G01 X1.7560 Y-5.5199
G01 X1.8397 Y-5.5158
G01 X1.9226 Y-5.5035
G01 X2.0039 Y-5.4832
G01 X2.0828 Y-5.4549
G01 X2.1585 Y-5.4191
G01 X2.2304 Y-5.3760
G01 X2.2977 Y-5.3261
G01 X2.3598 Y-5.2698
G01 X2.4161 Y-5.2077
G01 X2.4660 Y-5.1404
G01 X2.5091 Y-5.0685
G01 X2.5449 Y-4.9928
G01 X2.5732 Y-4.9139
G01 X2.5935 Y-4.8326
G01 X2.6058 Y-4.7497
G01 X2.6099 Y-4.6660
G01 X2.6058 Y-4.5823
G01 X2.5935 Y-4.4994
G01 X2.5732 Y-4.4181
G01 X2.5449 Y-4.3392
G01 X2.5091 Y-4.2635
G01 X2.4660 Y-4.1916
G01 X2.4161 Y-4.1243
G01 X2.3598 Y-4.0622
G01 X2.2977 Y-4.0059
G01 X2.2304 Y-3.9560
G01 X2.1585 Y-3.9129
G01 X2.0828 Y-3.8771
G01 X2.0039 Y-3.8488
G01 X1.9226 Y-3.8285
G01 X1.8397 Y-3.8162
G01 X1.7560 Y-3.8121
G01 X1.6723 Y-3.8162
G01 X1.5894 Y-3.8285
G01 X1.5081 Y-3.8488
G01 X1.4292 Y-3.8771
G01 X1.3535 Y-3.9129
G01 X1.2816 Y-3.9560
G01 X1.2143 Y-4.0059
G01 X1.1522 Y-4.0622
G01 X1.0959 Y-4.1243
G01 X1.0460 Y-4.1916
G01 X1.0029 Y-4.2635
G01 X0.9671 Y-4.3392
G01 X0.9388 Y-4.4181
G01 X0.9185 Y-4.4994
G01 X0.9062 Y-4.5823
G01 X0.9021 Y-4.6660
G01 X0.9058 Y-4.7452
G01 X0.9067 Y-4.7542
G00 Z2.0000
G00 X0.5810 Y-9.1660
G01 F10.00
G01 Z-0.0500
G01 F30.00
G01 X0.5988 Y-9.3700
G01 X0.6518 Y-9.5679
G01 X0.7033 Y-9.6781
G01 X0.7384 Y-9.7535
G01 X0.8559 Y-9.9213
G01 X1.0007 Y-10.0661
G01 X1.1685 Y-10.1836
G01 X1.3541 Y-10.2702
G01 X1.5520 Y-10.3232
G01 X1.7560 Y-10.3410
G01 X1.9600 Y-10.3232
G01 X2.1579 Y-10.2702
G01 X2.3435 Y-10.1836
G01 X2.5113 Y-10.0661
G01 X2.6561 Y-9.9213
G01 X2.7736 Y-9.7535
G01 X2.8602 Y-9.5679
G01 X2.9132 Y-9.3700
G01 X2.9310 Y-9.1660
G01 X2.9132 Y-8.9620
G01 X2.8602 Y-8.7641
G01 X2.7736 Y-8.5785
G01 X2.6561 Y-8.4107
G01 X2.5113 Y-8.2659
G01 X2.3435 Y-8.1484
G01 X2.1579 Y-8.0618
G01 X1.9600 Y-8.0088
G01 X1.7560 Y-7.9910
G01 X1.5520 Y-8.0088
G01 X1.3541 Y-8.0618
G01 X1.1685 Y-8.1484
G01 X1.0007 Y-8.2659
G01 X0.8559 Y-8.4107
G01 X0.7384 Y-8.5785
G01 X0.6518 Y-8.7641
G01 X0.5988 Y-8.9620
G01 X0.5810 Y-9.1660
G00 Z2.0000
G00 X0.9067 Y-9.2542
G01 F10.00
G01 Z-0.0500
G01 F30.00
G01 X0.9185 Y-9.3326
G01 X0.9388 Y-9.4139
G01 X0.9671 Y-9.4928
G01 X1.0029 Y-9.5685
G01 X1.0460 Y-9.6404
G01 X1.0959 Y-9.7077
G01 X1.1522 Y-9.7698
G01 X1.2143 Y-9.8261
G01 X1.2816 Y-9.8760
G01 X1.3535 Y-9.9191
G01 X1.4292 Y-9.9549
G01 X1.5081 Y-9.9832
G01 X1.5894 Y-10.0035
G01 X1.6723 Y-10.0158
G01 X1.7560 Y-10.0199
G01 X1.8397 Y-10.0158
G01 X1.9226 Y-10.0035
G01 X2.0039 Y-9.9832
G01 X2.0828 Y-9.9549
G01 X2.1585 Y-9.9191
G01 X2.2304 Y-9.8760
G01 X2.2977 Y-9.8261
G01 X2.3598 Y-9.7698
G01 X2.4161 Y-9.7077
G01 X2.4660 Y-9.6404
G01 X2.5091 Y-9.5685
G01 X2.5449 Y-9.4928
G01 X2.5732 Y-9.4139
G01 X2.5935 Y-9.3326
G01 X2.6058 Y-9.2497
G01 X2.6099 Y-9.1660
G01 X2.6058 Y-9.0823
G01 X2.5935 Y-8.9994
G01 X2.5732 Y-8.9181
G01 X2.5449 Y-8.8392
G01 X2.5091 Y-8.7635
G01 X2.4660 Y-8.6916
G01 X2.4161 Y-8.6243
G01 X2.3598 Y-8.5622
G01 X2.2977 Y-8.5059
G01 X2.2304 Y-8.4560
G01 X2.1585 Y-8.4129
G01 X2.0828 Y-8.3771
G01 X2.0039 Y-8.3488
G01 X1.9226 Y-8.3285
G01 X1.8397 Y-8.3162
G01 X1.7560 Y-8.3121
G01 X1.6723 Y-8.3162
G01 X1.5894 Y-8.3285
G01 X1.5081 Y-8.3488
G01 X1.4292 Y-8.3771
G01 X1.3535 Y-8.4129
G01 X1.2816 Y-8.4560
G01 X1.2143 Y-8.5059
G01 X1.1522 Y-8.5622
G01 X1.0959 Y-8.6243
G01 X1.0460 Y-8.6916
G01 X1.0029 Y-8.7635
G01 X0.9671 Y-8.8392
G01 X0.9388 Y-8.9181
G01 X0.9185 Y-8.9994
G01 X0.9062 Y-9.0823
G01 X0.9021 Y-9.1660
G01 X0.9058 Y-9.2452
G01 X0.9067 Y-9.2542
G00 Z2.0000
G00 X5.5956 Y-9.9421
G01 F10.00
G01 Z-0.0500
G01 F30.00
G01 X5.6286 Y-10.0026
G01 X5.6344 Y-10.0138
G01 X5.6420 Y-10.0312
G01 X5.6484 Y-10.0490
G01 X5.6484 Y-9.9834
G01 X5.6142 Y-9.9580
G01 X5.6044 Y-9.9500
G01 X5.5956 Y-9.9421
G00 Z2.0000
G00 X5.6484 Y-11.1142
G01 F10.00
G01 Z-0.0500
G01 F30.00
G01 X5.6328 Y-11.1671
G01 X5.6289 Y-11.1793
G01 X5.6220 Y-11.1971
G01 X5.6166 Y-11.2087
G01 X5.6074 Y-11.2256
G01 X5.5971 Y-11.2417
G01 X5.5855 Y-11.2570
G01 X5.5772 Y-11.2667
G01 X5.5684 Y-11.2760
G01 X5.5544 Y-11.2891
G01 X5.4967 Y-11.3390
G01 X5.4814 Y-11.3507
G01 X5.4652 Y-11.3612
G01 X5.4483 Y-11.3705
G01 X5.4366 Y-11.3760
G01 X5.4247 Y-11.3809
G01 X5.4126 Y-11.3852
G01 X5.4002 Y-11.3888
G01 X5.3755 Y-11.3945
G01 X5.6484 Y-11.3945
G01 X5.6484 Y-11.1142
G00 Z2.0000
G00 X4.9681 Y-11.9020
G01 F10.00
G01 Z-0.0500
G01 F30.00
G01 X4.9681 Y-12.8520
G01 X4.9699 Y-12.8878
G01 X4.9746 Y-12.9187
G01 X4.9828 Y-12.9513
G01 X4.9941 Y-12.9829
G01 X5.0064 Y-13.0092
G01 X5.0107 Y-13.0171
G01 X5.0257 Y-13.0420
G01 X5.0429 Y-13.0654
G01 X5.0471 Y-13.0707
G01 X5.0651 Y-13.0905
G01 X5.0715 Y-13.0969
G01 X5.0931 Y-13.1163
G01 X5.1179 Y-13.1348
G01 X5.1179 Y-13.7782
G01 X5.0931 Y-13.7967
G01 X5.0715 Y-13.8161
G01 X5.0651 Y-13.8225
G01 X5.0471 Y-13.8423
G01 X5.0429 Y-13.8476
G01 X5.0257 Y-13.8710
G01 X5.0107 Y-13.8959
G01 X5.0064 Y-13.9038
G01 X4.9941 Y-13.9301
G01 X4.9828 Y-13.9617
G01 X4.9746 Y-13.9943
G01 X4.9695 Y-14.0297
G01 X4.9681 Y-14.0610
G01 X4.9681 Y-15.0110
G01 X4.9694 Y-15.0400
G01 X4.9702 Y-15.0490
G01 X4.9746 Y-15.0777
G01 X4.9821 Y-15.1081
G01 X4.9925 Y-15.1376
G01 X4.9959 Y-15.1460
G01 X5.0084 Y-15.1722
G01 X5.0233 Y-15.1972
G01 X5.0283 Y-15.2047
G01 X5.0457 Y-15.2279
G01 X5.0651 Y-15.2495
G01 X5.0715 Y-15.2559
G01 X5.0931 Y-15.2753
G01 X5.1163 Y-15.2927
G01 X5.1238 Y-15.2977
G01 X5.1488 Y-15.3126
G01 X5.1750 Y-15.3251
G01 X5.1834 Y-15.3285
G01 X5.2107 Y-15.3382
G01 X5.2389 Y-15.3454
G01 X5.2477 Y-15.3472
G01 X5.2765 Y-15.3513
G01 X5.3077 Y-15.3529
G01 X5.8100 Y-15.3529
G01 X5.8390 Y-15.3516
G01 X5.8480 Y-15.3508
G01 X5.8767 Y-15.3464
G01 X5.9071 Y-15.3389
G01 X5.9366 Y-15.3285
G01 X5.9450 Y-15.3251
G01 X5.9712 Y-15.3126
G01 X6.0000 Y-15.2953
G01 X6.0269 Y-15.2753
G01 X6.0485 Y-15.2559
G01 X6.0534 Y-15.2512
G01 X6.0714 Y-15.2313
G01 X6.0771 Y-15.2244
G01 X6.0943 Y-15.2010
G01 X6.1116 Y-15.1722
G01 X6.1259 Y-15.1419
G01 X6.1358 Y-15.1145
G01 X6.1384 Y-15.1059
G01 X6.1458 Y-15.0755
G01 X6.1503 Y-15.0445
G01 X6.1518 Y-15.0155
G01 X6.1519 Y-14.0610
G01 X6.1505 Y-14.0297
G01 X6.1454 Y-13.9943
G01 X6.1372 Y-13.9617
G01 X6.1259 Y-13.9301
G01 X6.1136 Y-13.9038
G01 X6.1093 Y-13.8959
G01 X6.0943 Y-13.8710
G01 X6.0771 Y-13.8476
G01 X6.0729 Y-13.8423
G01 X6.0549 Y-13.8225
G01 X6.0485 Y-13.8161
G01 X6.0269 Y-13.7967
G01 X6.0021 Y-13.7782
G01 X6.0021 Y-13.1348
G01 X6.0269 Y-13.1163
G01 X6.0518 Y-13.0938
G01 X6.0743 Y-13.0689
G01 X6.0943 Y-13.0420
G01 X6.1116 Y-13.0132
G01 X6.1259 Y-12.9829
G01 X6.1372 Y-12.9513
G01 X6.1454 Y-12.9187
G01 X6.1503 Y-12.8855
G01 X6.1519 Y-12.8543
G01 X6.1519 Y-12.4103
G01 X6.5686 Y-11.9936
G01 X6.5963 Y-11.9632
G01 X6.6236 Y-11.9266
G01 X6.6459 Y-11.8894
G01 X6.6645 Y-11.8502
G01 X6.6797 Y-11.8072
G01 X6.6896 Y-11.7673
G01 X6.6954 Y-11.7288
G01 X6.6963 Y-11.7198
G01 X6.6981 Y-11.6810
G01 X6.6981 Y-9.8955
G01 X6.7323 Y-9.8748
G01 X6.7960 Y-9.8275
G01 X6.8582 Y-9.7714
G01 X6.9161 Y-9.7077
G01 X6.9673 Y-9.6385
G01 X7.0069 Y-9.5725
G01 X7.0111 Y-9.5645
G01 X7.0449 Y-9.4928
G01 X7.0718 Y-9.4182
G01 X7.0744 Y-9.4095
G01 X7.0935 Y-9.3326
G01 X7.1058 Y-9.2497
G01 X7.1099 Y-9.1660
G01 X7.1062 Y-9.0868
G01 X7.1053 Y-9.0778
G01 X7.0935 Y-8.9994
G01 X7.0732 Y-8.9181
G01 X7.0466 Y-8.8434
G01 X7.0431 Y-8.8351
G01 X7.0111 Y-8.7675
G01 X7.0069 Y-8.7595
G01 X6.9660 Y-8.6916
G01 X6.9161 Y-8.6243
G01 X6.8598 Y-8.5622
G01 X6.8012 Y-8.5088
G01 X6.7942 Y-8.5031
G01 X6.7341 Y-8.4586
G01 X6.7266 Y-8.4536
G01 X6.6585 Y-8.4129
G01 X6.5869 Y-8.3789
G01 X6.5786 Y-8.3754
G01 X6.5039 Y-8.3488
G01 X6.4226 Y-8.3285
G01 X6.3397 Y-8.3162
G01 X6.2560 Y-8.3121
G01 X6.1723 Y-8.3162
G01 X6.0894 Y-8.3285
G01 X6.0081 Y-8.3488
G01 X5.9292 Y-8.3771
G01 X5.8535 Y-8.4129
G01 X5.7816 Y-8.4560
G01 X5.7143 Y-8.5059
G01 X5.6522 Y-8.5622
G01 X5.5959 Y-8.6243
G01 X5.5460 Y-8.6916
G01 X5.5029 Y-8.7635
G01 X5.4689 Y-8.8351
G01 X5.4654 Y-8.8434
G01 X5.4402 Y-8.9138
G01 X5.4376 Y-8.9225
G01 X5.4185 Y-8.9994
G01 X5.4067 Y-9.0778
G01 X5.4058 Y-9.0868
G01 X5.4021 Y-9.1660
G01 X5.4062 Y-9.2497
G01 X5.4185 Y-9.3326
G01 X5.4395 Y-9.4160
G01 X5.4671 Y-9.4928
G01 X5.5029 Y-9.5685
G01 X5.5460 Y-9.6404
G01 X5.5945 Y-9.7060
G01 X5.6522 Y-9.7698
G01 X5.7125 Y-9.8247
G01 X5.7797 Y-9.8748
G01 X5.8139 Y-9.8955
G01 X5.8139 Y-11.4979
G01 X5.7517 Y-11.5601
G01 X5.3100 Y-11.5601
G01 X5.2787 Y-11.5615
G01 X5.2433 Y-11.5666
G01 X5.2107 Y-11.5748
G01 X5.1791 Y-11.5861
G01 X5.1528 Y-11.5984
G01 X5.1449 Y-11.6027
G01 X5.1182 Y-11.6190
G01 X5.0931 Y-11.6377
G01 X5.0715 Y-11.6571
G01 X5.0651 Y-11.6635
G01 X5.0457 Y-11.6851
G01 X5.0283 Y-11.7083
G01 X5.0233 Y-11.7158
G01 X5.0084 Y-11.7408
G01 X4.9959 Y-11.7670
G01 X4.9925 Y-11.7754
G01 X4.9828 Y-11.8027
G01 X4.9746 Y-11.8353
G01 X4.9702 Y-11.8640
G01 X4.9694 Y-11.8730
G01 X4.9681 Y-11.9020
G00 Z2.0000
G00 X4.9336 Y-13.1919
G01 F10.00
G01 Z-0.0500
G01 F30.00
G01 X4.9387 Y-13.2079
G01 X4.9524 Y-13.2559
G01 X4.9524 Y-13.2120
G01 X4.9336 Y-13.1919
G00 Z2.0000
G00 X4.9524 Y-13.6571
G01 F10.00
G01 Z-0.0500
G01 F30.00
G01 X4.9387 Y-13.7051
G01 X4.9336 Y-13.7211
G01 X4.9524 Y-13.7010
G01 X4.9524 Y-13.6571
G00 Z2.0000
G00 X4.6514 Y-15.0563
G01 F10.00
G01 Z-0.0500
G01 F30.00
G01 X4.6605 Y-15.1444
G01 X4.7091 Y-15.2912
G01 X4.7899 Y-15.4222
G01 X4.8988 Y-15.5311
G01 X5.0298 Y-15.6119
G01 X5.1766 Y-15.6605
G01 X5.2647 Y-15.6696
G01 X5.8553 Y-15.6695
G01 X5.9434 Y-15.6605
G01 X6.0902 Y-15.6119
G01 X6.2212 Y-15.5311
G01 X6.3328 Y-15.4195
G01 X6.3427 Y-15.4109
G01 X6.3538 Y-15.4038
G01 X6.4151 Y-15.3704
G01 X6.4212 Y-15.3673
G01 X6.4297 Y-15.3640
G01 X6.4385 Y-15.3615
G01 X6.4452 Y-15.3602
G01 X6.4520 Y-15.3594
G01 X6.4611 Y-15.3591
G01 X6.5377 Y-15.3645
G01 X6.5467 Y-15.3658
G01 X6.5556 Y-15.3681
G01 X6.5620 Y-15.3703
G01 X6.5683 Y-15.3730
G01 X6.5744 Y-15.3762
G01 X6.5802 Y-15.3798
G01 X6.6435 Y-15.4271
G01 X6.6502 Y-15.4333
G01 X6.6577 Y-15.4419
G01 X6.6629 Y-15.4494
G01 X6.6683 Y-15.4595
G01 X6.6961 Y-15.5334
G01 X6.6986 Y-15.5421
G01 X6.7003 Y-15.5510
G01 X6.7010 Y-15.5578
G01 X6.7014 Y-15.5722
G01 X6.7014 Y-16.0839
G01 X6.7009 Y-16.0964
G01 X6.6973 Y-16.1417
G01 X6.7071 Y-16.2145
G01 X6.7153 Y-16.2895
G01 X6.7180 Y-16.3009
G01 X6.7440 Y-16.3718
G01 X6.7689 Y-16.4457
G01 X6.7740 Y-16.4562
G01 X6.8149 Y-16.5202
G01 X6.8549 Y-16.5866
G01 X6.8621 Y-16.5959
G01 X6.9172 Y-16.6510
G01 X6.9691 Y-16.7058
G01 X6.9844 Y-16.7184
G01 X6.9891 Y-16.7229
G01 X7.8502 Y-17.5841
G01 X7.8571 Y-17.5926
G01 X7.8618 Y-17.6000
G01 X7.8964 Y-17.6632
G01 X7.9012 Y-17.6734
G01 X7.9047 Y-17.6842
G01 X7.9065 Y-17.6930
G01 X7.9099 Y-17.7238
G01 X7.9104 Y-17.7312
G01 X7.9104 Y-22.9235
G01 X7.9098 Y-22.9344
G01 X7.9079 Y-22.9452
G01 X7.8864 Y-23.0186
G01 X7.8840 Y-23.0251
G01 X7.8802 Y-23.0333
G01 X7.8755 Y-23.0412
G01 X7.8716 Y-23.0468
G01 X7.8656 Y-23.0537
G01 X7.8607 Y-23.0585
G01 X7.8062 Y-23.1058
G01 X7.7990 Y-23.1114
G01 X7.7912 Y-23.1164
G01 X7.7809 Y-23.1214
G01 X7.7700 Y-23.1251
G01 X7.7076 Y-23.1385
G01 X7.6945 Y-23.1394
G01 X7.2063 Y-23.1394
G01 X7.1976 Y-23.1390
G01 X7.1889 Y-23.1378
G01 X7.1804 Y-23.1357
G01 X7.1091 Y-23.1147
G01 X7.1007 Y-23.1113
G01 X7.0947 Y-23.1082
G01 X7.0833 Y-23.1008
G01 X7.0554 Y-23.0779
G01 X6.9753 Y-22.9979
G01 X6.9050 Y-22.9486
G01 X6.8950 Y-22.9401
G01 X6.8877 Y-22.9320
G01 X6.8426 Y-22.8756
G01 X6.8375 Y-22.8681
G01 X6.8321 Y-22.8580
G01 X6.8295 Y-22.8517
G01 X6.8274 Y-22.8451
G01 X6.8258 Y-22.8385
G01 X6.8247 Y-22.8317
G01 X6.8170 Y-22.7577
G01 X6.8168 Y-22.7463
G01 X6.8177 Y-22.7372
G01 X6.8200 Y-22.7260
G01 X6.8221 Y-22.7195
G01 X6.8247 Y-22.7131
G01 X6.8614 Y-22.6408
G01 X6.8677 Y-22.6316
G01 X6.8751 Y-22.6232
G01 X6.9011 Y-22.6004
G01 X6.9068 Y-22.5961
G01 X6.9753 Y-22.5481
G01 X7.1201 Y-22.4033
G01 X7.2376 Y-22.2355
G01 X7.3242 Y-22.0499
G01 X7.3772 Y-21.8520
G01 X7.3950 Y-21.6480
G01 X7.3772 Y-21.4440
G01 X7.3242 Y-21.2461
G01 X7.2376 Y-21.0605
G01 X7.1201 Y-20.8927
G01 X6.9753 Y-20.7479
G01 X6.8075 Y-20.6304
G01 X6.6219 Y-20.5438
G01 X6.4240 Y-20.4908
G01 X6.2200 Y-20.4730
G01 X6.0160 Y-20.4908
G01 X5.8181 Y-20.5438
G01 X5.6325 Y-20.6304
G01 X5.4647 Y-20.7479
G01 X5.3199 Y-20.8927
G01 X5.2024 Y-21.0605
G01 X5.1158 Y-21.2461
G01 X5.0628 Y-21.4440
G01 X5.0450 Y-21.6480
G01 X5.0628 Y-21.8520
G01 X5.1158 Y-22.0499
G01 X5.2024 Y-22.2355
G01 X5.3199 Y-22.4033
G01 X5.4647 Y-22.5481
G01 X5.5350 Y-22.5974
G01 X5.5450 Y-22.6059
G01 X5.5523 Y-22.6140
G01 X5.6000 Y-22.6741
G01 X5.6048 Y-22.6819
G01 X5.6088 Y-22.6901
G01 X5.6119 Y-22.6987
G01 X5.6142 Y-22.7075
G01 X5.6156 Y-22.7165
G01 X5.6231 Y-22.7906
G01 X5.6230 Y-22.8020
G01 X5.6219 Y-22.8111
G01 X5.6193 Y-22.8222
G01 X5.6162 Y-22.8308
G01 X5.5808 Y-22.9013
G01 X5.5762 Y-22.9090
G01 X5.5709 Y-22.9162
G01 X5.5617 Y-22.9259
G01 X5.5371 Y-22.9471
G01 X5.4647 Y-22.9979
G01 X5.3199 Y-23.1427
G01 X5.2024 Y-23.3105
G01 X5.1158 Y-23.4961
G01 X5.0628 Y-23.6940
G01 X5.0450 Y-23.8980
G01 X5.0628 Y-24.1020
G01 X5.1158 Y-24.2999
G01 X5.2024 Y-24.4855
G01 X5.3199 Y-24.6533
G01 X5.4647 Y-24.7981
G01 X5.6325 Y-24.9156
G01 X5.8181 Y-25.0022
G01 X6.0160 Y-25.0552
G01 X6.2200 Y-25.0730
G01 X6.4240 Y-25.0552
G01 X6.6219 Y-25.0022
G01 X6.8075 Y-24.9156
G01 X6.9753 Y-24.7981
G01 X7.0536 Y-24.7198
G01 X7.0584 Y-24.7153
G01 X7.0653 Y-24.7099
G01 X7.0746 Y-24.7041
G01 X7.1379 Y-24.6696
G01 X7.1482 Y-24.6650
G01 X7.1590 Y-24.6618
G01 X7.1701 Y-24.6599
G01 X7.1989 Y-24.6568
G01 X7.2063 Y-24.6566
G01 X7.6989 Y-24.6567
G01 X7.7097 Y-24.6578
G01 X7.7183 Y-24.6597
G01 X7.7874 Y-24.6800
G01 X7.7982 Y-24.6838
G01 X7.8083 Y-24.6890
G01 X7.8141 Y-24.6927
G01 X7.8196 Y-24.6969
G01 X7.8247 Y-24.7014
G01 X7.8295 Y-24.7063
G01 X7.8783 Y-24.7625
G01 X7.8824 Y-24.7680
G01 X7.8874 Y-24.7758
G01 X7.8924 Y-24.7861
G01 X7.8947 Y-24.7926
G01 X7.8966 Y-24.7992
G01 X7.9088 Y-24.8551
G01 X7.9102 Y-24.8659
G01 X7.9104 Y-26.0786
G01 X7.9098 Y-26.0895
G01 X7.9079 Y-26.1003
G01 X7.8870 Y-26.1716
G01 X7.8849 Y-26.1779
G01 X7.8814 Y-26.1861
G01 X7.8782 Y-26.1920
G01 X7.8734 Y-26.1995
G01 X7.8648 Y-26.2097
G01 X7.8190 Y-26.2544
G01 X7.8098 Y-26.2612
G01 X7.7828 Y-26.2779
G01 X7.6739 Y-26.3868
G01 X7.5931 Y-26.5178
G01 X7.5445 Y-26.6646
G01 X7.5354 Y-26.7527
G01 X7.5354 Y-27.3433
G01 X7.5445 Y-27.4314
G01 X7.5931 Y-27.5782
G01 X7.6739 Y-27.7092
G01 X7.7855 Y-27.8208
G01 X7.7914 Y-27.8273
G01 X7.7954 Y-27.8325
G01 X7.8012 Y-27.8418
G01 X7.8367 Y-27.9071
G01 X7.8410 Y-27.9177
G01 X7.8430 Y-27.9243
G01 X7.8445 Y-27.9310
G01 X7.8458 Y-27.9423
G01 X7.8458 Y-27.9514
G01 X7.8407 Y-28.0234
G01 X7.8391 Y-28.0347
G01 X7.8376 Y-28.0414
G01 X7.8355 Y-28.0479
G01 X7.8310 Y-28.0584
G01 X7.8277 Y-28.0644
G01 X7.8239 Y-28.0701
G01 X7.7793 Y-28.1297
G01 X7.7733 Y-28.1366
G01 X7.7666 Y-28.1428
G01 X7.7613 Y-28.1471
G01 X7.7536 Y-28.1521
G01 X7.7476 Y-28.1553
G01 X7.7413 Y-28.1581
G01 X7.6716 Y-28.1841
G01 X7.6607 Y-28.1871
G01 X7.6494 Y-28.1888
G01 X7.6328 Y-28.1894
G01 X7.2176 Y-28.1893
G01 X7.2084 Y-28.1884
G01 X7.1993 Y-28.1866
G01 X7.1320 Y-28.1675
G01 X7.1254 Y-28.1654
G01 X7.1190 Y-28.1627
G01 X7.1088 Y-28.1573
G01 X7.0112 Y-28.0971
G01 X6.8644 Y-28.0485
G01 X6.7763 Y-28.0394
G01 X5.7357 Y-28.0394
G01 X5.6476 Y-28.0485
G01 X5.5008 Y-28.0971
G01 X5.3698 Y-28.1779
G01 X5.2609 Y-28.2868
G01 X5.1801 Y-28.4178
G01 X5.1315 Y-28.5646
G01 X5.1224 Y-28.6527
G01 X5.1224 Y-29.2433
G01 X5.1315 Y-29.3314
G01 X5.1801 Y-29.4782
G01 X5.2609 Y-29.6092
G01 X5.3698 Y-29.7181
G01 X5.3985 Y-29.7360
G01 X5.4038 Y-29.7399
G01 X5.4104 Y-29.7456
G01 X5.4660 Y-29.8074
G01 X5.4699 Y-29.8128
G01 X5.4744 Y-29.8205
G01 X5.4783 Y-29.8286
G01 X5.4813 Y-29.8369
G01 X5.4952 Y-29.8970
G01 X5.4970 Y-29.9083
G01 X5.4974 Y-29.9174
G01 X5.4973 Y-31.5299
G01 X5.4962 Y-31.5407
G01 X5.4943 Y-31.5493
G01 X5.4740 Y-31.6184
G01 X5.4719 Y-31.6249
G01 X5.4692 Y-31.6313
G01 X5.4661 Y-31.6374
G01 X5.4625 Y-31.6432
G01 X5.4557 Y-31.6523
G01 X5.4477 Y-31.6605
G01 X5.3932 Y-31.7078
G01 X5.3841 Y-31.7147
G01 X5.3782 Y-31.7184
G01 X5.3721 Y-31.7215
G01 X5.3636 Y-31.7250
G01 X5.3548 Y-31.7276
G01 X5.2989 Y-31.7398
G01 X5.2881 Y-31.7412
G01 X5.1071 Y-31.7414
G01 X5.0638 Y-31.7461
G01 X4.9522 Y-31.7877
G01 X4.8581 Y-31.8581
G01 X4.7877 Y-31.9522
G01 X4.7461 Y-32.0638
G01 X4.7415 Y-32.1070
G01 X4.7414 Y-33.8929
G01 X4.7461 Y-33.9362
G01 X4.7877 Y-34.0478
G01 X4.8581 Y-34.1419
G01 X4.9522 Y-34.2123
G01 X5.0638 Y-34.2539
G01 X5.1071 Y-34.2586
G01 X6.8929 Y-34.2585
G01 X6.9362 Y-34.2539
G01 X7.0478 Y-34.2123
G01 X7.1419 Y-34.1419
G01 X7.2123 Y-34.0478
G01 X7.2539 Y-33.9362
G01 X7.2586 Y-33.8929
G01 X7.2585 Y-32.1071
G01 X7.2539 Y-32.0638
G01 X7.2123 Y-31.9522
G01 X7.1419 Y-31.8581
G01 X7.0993 Y-31.8263
G01 X7.0896 Y-31.8175
G01 X7.0826 Y-31.8091
G01 X7.0381 Y-31.7495
G01 X7.0345 Y-31.7438
G01 X7.0305 Y-31.7358
G01 X7.0279 Y-31.7296
G01 X7.0253 Y-31.7210
G01 X7.0160 Y-31.6711
G01 X7.0148 Y-31.6618
G01 X7.0146 Y-31.6547
G01 X7.0146 Y-29.9203
G01 X7.0155 Y-29.9094
G01 X7.0177 Y-29.8987
G01 X7.0394 Y-29.8252
G01 X7.0438 Y-29.8147
G01 X7.0482 Y-29.8067
G01 X7.0549 Y-29.7974
G01 X7.0610 Y-29.7906
G01 X7.1205 Y-29.7387
G01 X7.1279 Y-29.7333
G01 X7.1358 Y-29.7285
G01 X7.1462 Y-29.7238
G01 X7.1572 Y-29.7204
G01 X7.2110 Y-29.7087
G01 X7.2196 Y-29.7072
G01 X7.2305 Y-29.7066
G01 X7.7051 Y-29.7066
G01 X7.7166 Y-29.7076
G01 X7.7257 Y-29.7094
G01 X7.7930 Y-29.7285
G01 X7.7996 Y-29.7306
G01 X7.8060 Y-29.7333
G01 X7.8162 Y-29.7387
G01 X7.9138 Y-29.7989
G01 X8.0606 Y-29.8475
G01 X8.1487 Y-29.8566
G01 X9.1893 Y-29.8565
G01 X9.2774 Y-29.8475
G01 X9.4242 Y-29.7989
G01 X9.5552 Y-29.7181
G01 X9.6641 Y-29.6092
G01 X9.7449 Y-29.4782
G01 X9.7935 Y-29.3314
G01 X9.8026 Y-29.2433
G01 X9.8025 Y-28.6527
G01 X9.7935 Y-28.5646
G01 X9.7449 Y-28.4178
G01 X9.6641 Y-28.2868
G01 X9.5537 Y-28.1764
G01 X9.5476 Y-28.1712
G01 X9.5399 Y-28.1637
G01 X9.4930 Y-28.1111
G01 X9.4875 Y-28.1039
G01 X9.4838 Y-28.0982
G01 X9.4806 Y-28.0922
G01 X9.4778 Y-28.0860
G01 X9.4755 Y-28.0796
G01 X9.4732 Y-28.0708
G01 X9.4611 Y-27.9974
G01 X9.4600 Y-27.9860
G01 X9.4601 Y-27.9769
G01 X9.4611 Y-27.9678
G01 X9.4630 Y-27.9589
G01 X9.4658 Y-27.9502
G01 X9.4963 Y-27.8798
G01 X9.4994 Y-27.8737
G01 X9.5043 Y-27.8660
G01 X9.5098 Y-27.8588
G01 X9.5161 Y-27.8521
G01 X9.5537 Y-27.8196
G01 X9.6641 Y-27.7092
G01 X9.7449 Y-27.5782
G01 X9.7935 Y-27.4314
G01 X9.8026 Y-27.3433
G01 X9.8025 Y-26.7527
G01 X9.7935 Y-26.6646
G01 X9.7449 Y-26.5178
G01 X9.6641 Y-26.3868
G01 X9.5552 Y-26.2779
G01 X9.5265 Y-26.2600
G01 X9.5195 Y-26.2548
G01 X9.5146 Y-26.2504
G01 X9.4633 Y-26.1937
G01 X9.4577 Y-26.1868
G01 X9.4539 Y-26.1813
G01 X9.4495 Y-26.1735
G01 X9.4459 Y-26.1654
G01 X9.4431 Y-26.1569
G01 X9.4294 Y-26.0968
G01 X9.4283 Y-26.0900
G01 X9.4277 Y-26.0832
G01 X9.4276 Y-24.2251
G01 X9.4281 Y-24.2126
G01 X9.4317 Y-24.1673
G01 X9.4219 Y-24.0945
G01 X9.4137 Y-24.0195
G01 X9.4110 Y-24.0081
G01 X9.3980 Y-23.9724
G01 X9.3963 Y-23.9661
G01 X9.3947 Y-23.9575
G01 X9.3891 Y-23.8750
G01 X9.3897 Y-23.8642
G01 X9.3912 Y-23.8556
G01 X9.4079 Y-23.7799
G01 X9.4261 Y-23.7066
G01 X9.4276 Y-23.6950
G01 X9.4276 Y-23.6170
G01 X9.4296 Y-23.5416
G01 X9.4278 Y-23.5219
G01 X9.4276 Y-23.5154
G01 X9.4276 Y-17.3671
G01 X9.4281 Y-17.3546
G01 X9.4317 Y-17.3093
G01 X9.4219 Y-17.2365
G01 X9.4137 Y-17.1615
G01 X9.4110 Y-17.1501
G01 X9.3842 Y-17.0769
G01 X9.3601 Y-17.0053
G01 X9.3550 Y-16.9948
G01 X9.3141 Y-16.9308
G01 X9.2741 Y-16.8644
G01 X9.2669 Y-16.8552
G01 X9.2118 Y-16.8000
G01 X9.1599 Y-16.7452
G01 X9.1446 Y-16.7326
G01 X9.1399 Y-16.7281
G01 X8.2803 Y-15.8685
G01 X8.2732 Y-15.8601
G01 X8.2672 Y-15.8510
G01 X8.2326 Y-15.7878
G01 X8.2270 Y-15.7755
G01 X8.2238 Y-15.7647
G01 X8.2219 Y-15.7535
G01 X8.2188 Y-15.7247
G01 X8.2186 Y-15.7173
G01 X8.2186 Y-15.5022
G01 X8.2190 Y-15.4930
G01 X8.2204 Y-15.4838
G01 X8.2405 Y-15.4120
G01 X8.2426 Y-15.4054
G01 X8.2453 Y-15.3990
G01 X8.2507 Y-15.3888
G01 X8.3109 Y-15.2912
G01 X8.3595 Y-15.1444
G01 X8.3686 Y-15.0563
G01 X8.3685 Y-14.0157
G01 X8.3595 Y-13.9276
G01 X8.3109 Y-13.7808
G01 X8.2918 Y-13.7496
G01 X8.2879 Y-13.7418
G01 X8.2848 Y-13.7336
G01 X8.2641 Y-13.6576
G01 X8.2628 Y-13.6508
G01 X8.2621 Y-13.6440
G01 X8.2619 Y-13.6372
G01 X8.2624 Y-13.6281
G01 X8.2634 Y-13.6213
G01 X8.2655 Y-13.6124
G01 X8.2893 Y-13.5371
G01 X8.2942 Y-13.5268
G01 X8.2990 Y-13.5190
G01 X8.3060 Y-13.5100
G01 X8.3141 Y-13.5020
G01 X8.3731 Y-13.4529
G01 X8.3826 Y-13.4466
G01 X8.3928 Y-13.4415
G01 X8.4036 Y-13.4378
G01 X8.4147 Y-13.4354
G01 X8.4863 Y-13.4264
G01 X8.4974 Y-13.4257
G01 X8.5106 Y-13.4266
G01 X8.5193 Y-13.4283
G01 X8.5257 Y-13.4301
G01 X8.5751 Y-13.4484
G01 X8.5844 Y-13.4525
G01 X8.7326 Y-13.5015
G01 X8.8207 Y-13.5106
G01 X9.4142 Y-13.5108
G01 X9.4229 Y-13.5118
G01 X9.4314 Y-13.5137
G01 X9.5071 Y-13.5361
G01 X9.5175 Y-13.5408
G01 X9.5272 Y-13.5467
G01 X9.5344 Y-13.5523
G01 X9.5426 Y-13.5603
G01 X9.5928 Y-13.6183
G01 X9.5993 Y-13.6277
G01 X9.6045 Y-13.6378
G01 X9.6085 Y-13.6485
G01 X9.6111 Y-13.6596
G01 X9.6221 Y-13.7379
G01 X9.6223 Y-13.7471
G01 X9.6212 Y-13.7585
G01 X9.6138 Y-13.7905
G01 X9.5765 Y-13.9036
G01 X9.5674 Y-13.9917
G01 X9.5674 Y-14.5823
G01 X9.5765 Y-14.6704
G01 X9.6251 Y-14.8172
G01 X9.7059 Y-14.9482
G01 X9.8148 Y-15.0571
G01 X9.9458 Y-15.1379
G01 X10.0926 Y-15.1865
G01 X10.1807 Y-15.1956
G01 X11.2213 Y-15.1955
G01 X11.3094 Y-15.1865
G01 X11.4562 Y-15.1379
G01 X11.5911 Y-15.0547
G01 X11.6013 Y-15.0493
G01 X11.6077 Y-15.0466
G01 X11.6143 Y-15.0445
G01 X11.6816 Y-15.0254
G01 X11.6930 Y-15.0233
G01 X11.7045 Y-15.0226
G01 X14.9252 Y-15.0227
G01 X14.9339 Y-15.0235
G01 X14.9446 Y-15.0257
G01 X15.0137 Y-15.0460
G01 X15.0202 Y-15.0481
G01 X15.0266 Y-15.0508
G01 X15.0327 Y-15.0539
G01 X15.0385 Y-15.0575
G01 X15.0441 Y-15.0614
G01 X15.0493 Y-15.0658
G01 X15.0558 Y-15.0723
G01 X15.0730 Y-15.0921
G01 X15.0935 Y-15.0922
G01 X15.1047 Y-15.0934
G01 X15.1178 Y-15.0967
G01 X15.1303 Y-15.1019
G01 X15.1382 Y-15.1063
G01 X15.1438 Y-15.1101
G01 X15.1491 Y-15.1144
G01 X15.1556 Y-15.1206
G01 X15.1615 Y-15.1274
G01 X15.1667 Y-15.1348
G01 X15.1701 Y-15.1407
G01 X15.1740 Y-15.1488
G01 X15.1770 Y-15.1573
G01 X15.1792 Y-15.1661
G01 X15.1805 Y-15.1750
G01 X15.1809 Y-15.1840
G01 X15.1809 Y-15.8840
G01 X15.1805 Y-15.8930
G01 X15.1796 Y-15.8997
G01 X15.1782 Y-15.9063
G01 X15.1756 Y-15.9150
G01 X15.1711 Y-15.9253
G01 X15.1642 Y-15.9369
G01 X15.1571 Y-15.9457
G01 X15.1491 Y-15.9536
G01 X15.1401 Y-15.9605
G01 X15.1303 Y-15.9661
G01 X15.1200 Y-15.9706
G01 X15.1069 Y-15.9742
G01 X15.0980 Y-15.9755
G01 X15.0890 Y-15.9759
G01 X14.8789 Y-15.9759
G01 X14.8802 Y-15.9901
G01 X14.8804 Y-15.9966
G01 X14.8804 Y-19.2937
G01 X14.8795 Y-19.3067
G01 X14.8767 Y-19.3196
G01 X14.8564 Y-19.3888
G01 X14.8522 Y-19.3994
G01 X14.8468 Y-19.4094
G01 X14.8401 Y-19.4187
G01 X14.8324 Y-19.4271
G01 X14.7727 Y-19.4789
G01 X14.7671 Y-19.4829
G01 X14.7613 Y-19.4865
G01 X14.7531 Y-19.4906
G01 X14.7467 Y-19.4931
G01 X14.7159 Y-19.5018
G01 X14.7096 Y-19.5038
G01 X14.7014 Y-19.5059
G01 X14.5498 Y-19.5561
G01 X14.4188 Y-19.6369
G01 X14.3099 Y-19.7458
G01 X14.2291 Y-19.8768
G01 X14.1805 Y-20.0236
G01 X14.1714 Y-20.1117
G01 X14.1714 Y-21.1523
G01 X14.1805 Y-21.2404
G01 X14.2291 Y-21.3872
G01 X14.3099 Y-21.5182
G01 X14.4188 Y-21.6271
G01 X14.5498 Y-21.7079
G01 X14.6966 Y-21.7565
G01 X14.7847 Y-21.7656
G01 X15.3753 Y-21.7655
G01 X15.4634 Y-21.7565
G01 X15.6102 Y-21.7079
G01 X15.7412 Y-21.6271
G01 X15.8320 Y-21.5364
G01 X15.8384 Y-21.5305
G01 X15.8454 Y-21.5252
G01 X15.8529 Y-21.5207
G01 X15.9204 Y-21.4841
G01 X15.9289 Y-21.4808
G01 X15.9376 Y-21.4783
G01 X15.9466 Y-21.4767
G01 X15.9535 Y-21.4761
G01 X15.9649 Y-21.4762
G01 X16.0368 Y-21.4814
G01 X16.0476 Y-21.4831
G01 X16.0582 Y-21.4860
G01 X16.0684 Y-21.4903
G01 X16.0961 Y-21.5041
G01 X16.1688 Y-21.5489
G01 X16.3156 Y-21.5975
G01 X16.4037 Y-21.6066
G01 X17.2245 Y-21.6065
G01 X17.2376 Y-21.6075
G01 X17.2483 Y-21.6097
G01 X17.3218 Y-21.6314
G01 X17.3323 Y-21.6358
G01 X17.3422 Y-21.6415
G01 X17.3513 Y-21.6483
G01 X17.3595 Y-21.6563
G01 X17.4068 Y-21.7108
G01 X17.4124 Y-21.7180
G01 X17.4162 Y-21.7238
G01 X17.4195 Y-21.7298
G01 X17.4232 Y-21.7382
G01 X17.4254 Y-21.7448
G01 X17.4383 Y-21.8030
G01 X17.4400 Y-21.8138
G01 X17.4404 Y-21.8225
G01 X17.4404 Y-22.0088
G01 X17.4657 Y-22.0126
G01 X17.4983 Y-22.0208
G01 X17.5299 Y-22.0321
G01 X17.5562 Y-22.0444
G01 X17.5622 Y-22.0475
G01 X17.5852 Y-22.0613
G01 X17.5927 Y-22.0663
G01 X17.6159 Y-22.0837
G01 X17.6408 Y-22.1062
G01 X17.6633 Y-22.1311
G01 X17.6807 Y-22.1543
G01 X17.6846 Y-22.1599
G01 X17.6983 Y-22.1829
G01 X17.7026 Y-22.1908
G01 X17.7149 Y-22.2171
G01 X17.7262 Y-22.2487
G01 X17.7344 Y-22.2813
G01 X17.7393 Y-22.3145
G01 X17.7409 Y-22.3480
G01 X17.7409 Y-22.8503
G01 X17.7393 Y-22.8815
G01 X17.7352 Y-22.9103
G01 X17.7339 Y-22.9169
G01 X17.7274 Y-22.9429
G01 X17.7248 Y-22.9515
G01 X17.7149 Y-22.9789
G01 X17.7026 Y-23.0052
G01 X17.6983 Y-23.0131
G01 X17.6833 Y-23.0380
G01 X17.6661 Y-23.0614
G01 X17.6604 Y-23.0683
G01 X17.6408 Y-23.0898
G01 X17.6159 Y-23.1123
G01 X17.5890 Y-23.1323
G01 X17.5641 Y-23.1473
G01 X17.5562 Y-23.1516
G01 X17.5299 Y-23.1639
G01 X17.5025 Y-23.1738
G01 X17.4939 Y-23.1764
G01 X17.4657 Y-23.1834
G01 X17.4404 Y-23.1872
G01 X17.4403 Y-23.6669
G01 X17.4395 Y-23.6756
G01 X17.4373 Y-23.6863
G01 X17.4157 Y-23.7597
G01 X17.4114 Y-23.7700
G01 X17.4059 Y-23.7797
G01 X17.4007 Y-23.7869
G01 X17.3932 Y-23.7952
G01 X17.3540 Y-23.8337
G01 X17.3472 Y-23.8398
G01 X17.3398 Y-23.8451
G01 X17.3078 Y-23.8649
G01 X17.1989 Y-23.9738
G01 X17.1181 Y-24.1048
G01 X17.0695 Y-24.2516
G01 X17.0604 Y-24.3397
G01 X17.0604 Y-24.9303
G01 X17.0695 Y-25.0184
G01 X17.1181 Y-25.1652
G01 X17.1989 Y-25.2962
G01 X17.3105 Y-25.4078
G01 X17.3191 Y-25.4177
G01 X17.3262 Y-25.4288
G01 X17.3596 Y-25.4901
G01 X17.3636 Y-25.4983
G01 X17.3660 Y-25.5047
G01 X17.3680 Y-25.5113
G01 X17.3698 Y-25.5202
G01 X17.3706 Y-25.5270
G01 X17.3709 Y-25.5361
G01 X17.3655 Y-25.6127
G01 X17.3641 Y-25.6217
G01 X17.3619 Y-25.6306
G01 X17.3597 Y-25.6370
G01 X17.3570 Y-25.6433
G01 X17.3538 Y-25.6494
G01 X17.3502 Y-25.6552
G01 X17.3043 Y-25.7167
G01 X17.2967 Y-25.7252
G01 X17.2881 Y-25.7327
G01 X17.2806 Y-25.7379
G01 X17.2705 Y-25.7433
G01 X17.1966 Y-25.7711
G01 X17.1857 Y-25.7741
G01 X17.1767 Y-25.7756
G01 X17.1578 Y-25.7764
G01 X16.7867 Y-25.7762
G01 X16.7758 Y-25.7748
G01 X16.7673 Y-25.7727
G01 X16.6981 Y-25.7524
G01 X16.6897 Y-25.7492
G01 X16.6836 Y-25.7463
G01 X16.6777 Y-25.7429
G01 X16.6703 Y-25.7378
G01 X16.6424 Y-25.7150
G01 X16.5112 Y-25.6341
G01 X16.3644 Y-25.5855
G01 X16.2763 Y-25.5764
G01 X15.2857 Y-25.5764
G01 X15.1976 Y-25.5855
G01 X15.0508 Y-25.6341
G01 X14.9198 Y-25.7149
G01 X14.8109 Y-25.8238
G01 X14.7301 Y-25.9548
G01 X14.6815 Y-26.1016
G01 X14.6724 Y-26.1897
G01 X14.6724 Y-26.8053
G01 X14.6815 Y-26.8934
G01 X14.7301 Y-27.0402
G01 X14.8109 Y-27.1712
G01 X14.9198 Y-27.2801
G01 X15.0508 Y-27.3609
G01 X15.1976 Y-27.4095
G01 X15.2857 Y-27.4186
G01 X16.2763 Y-27.4185
G01 X16.3644 Y-27.4095
G01 X16.5112 Y-27.3609
G01 X16.5703 Y-27.3245
G01 X16.5785 Y-27.3203
G01 X16.5849 Y-27.3176
G01 X16.6566 Y-27.2970
G01 X16.6679 Y-27.2946
G01 X16.6747 Y-27.2938
G01 X16.6817 Y-27.2936
G01 X17.0930 Y-27.2936
G01 X17.1039 Y-27.2945
G01 X17.1146 Y-27.2967
G01 X17.1859 Y-27.3176
G01 X17.1923 Y-27.3200
G01 X17.1986 Y-27.3228
G01 X17.2046 Y-27.3260
G01 X17.2104 Y-27.3297
G01 X17.2176 Y-27.3353
G01 X17.2258 Y-27.3433
G01 X17.2760 Y-27.4013
G01 X17.2800 Y-27.4068
G01 X17.2847 Y-27.4147
G01 X17.2886 Y-27.4229
G01 X17.2916 Y-27.4315
G01 X17.2934 Y-27.4382
G01 X17.2946 Y-27.4449
G01 X17.3052 Y-27.5209
G01 X17.3054 Y-27.5300
G01 X17.3047 Y-27.5391
G01 X17.3030 Y-27.5481
G01 X17.2998 Y-27.5590
G01 X17.2681 Y-27.6289
G01 X17.2628 Y-27.6389
G01 X17.2590 Y-27.6446
G01 X17.2533 Y-27.6517
G01 X17.2435 Y-27.6622
G01 X17.2239 Y-27.6818
G01 X17.1431 Y-27.8128
G01 X17.0945 Y-27.9596
G01 X17.0854 Y-28.0477
G01 X17.0854 Y-28.6633
G01 X17.0945 Y-28.7514
G01 X17.1431 Y-28.8982
G01 X17.2239 Y-29.0292
G01 X17.3115 Y-29.1169
G01 X17.3172 Y-29.1235
G01 X17.3223 Y-29.1306
G01 X17.3591 Y-29.1976
G01 X17.3640 Y-29.2079
G01 X17.3669 Y-29.2166
G01 X17.3693 Y-29.2277
G01 X17.3703 Y-29.2368
G01 X17.3702 Y-29.2482
G01 X17.3644 Y-29.3247
G01 X17.3632 Y-29.3315
G01 X17.3614 Y-29.3382
G01 X17.3591 Y-29.3447
G01 X17.3554 Y-29.3531
G01 X17.3508 Y-29.3610
G01 X17.3223 Y-29.4054
G01 X17.3144 Y-29.4159
G01 X17.2239 Y-29.5068
G01 X17.1431 Y-29.6378
G01 X17.0945 Y-29.7846
G01 X17.0854 Y-29.8727
G01 X17.0854 Y-30.4883
G01 X17.0945 Y-30.5764
G01 X17.1431 Y-30.7232
G01 X17.2239 Y-30.8542
G01 X17.3328 Y-30.9631
G01 X17.3957 Y-31.0020
G01 X17.4028 Y-31.0071
G01 X17.4094 Y-31.0128
G01 X17.4636 Y-31.0729
G01 X17.4676 Y-31.0782
G01 X17.4724 Y-31.0858
G01 X17.4781 Y-31.0978
G01 X17.4815 Y-31.1084
G01 X17.4942 Y-31.1642
G01 X17.4954 Y-31.1709
G01 X17.4963 Y-31.1800
G01 X17.4964 Y-31.5287
G01 X17.4952 Y-31.5417
G01 X17.4927 Y-31.5524
G01 X17.4724 Y-31.6216
G01 X17.4692 Y-31.6301
G01 X17.4640 Y-31.6403
G01 X17.4576 Y-31.6497
G01 X17.4532 Y-31.6550
G01 X17.4484 Y-31.6599
G01 X17.3869 Y-31.7130
G01 X17.3813 Y-31.7169
G01 X17.3754 Y-31.7204
G01 X17.3692 Y-31.7233
G01 X17.3629 Y-31.7259
G01 X17.3160 Y-31.7390
G01 X17.3057 Y-31.7409
G01 X17.2578 Y-31.7461
G01 X17.1462 Y-31.7877
G01 X17.0521 Y-31.8581
G01 X16.9817 Y-31.9522
G01 X16.9401 Y-32.0638
G01 X16.9355 Y-32.1070
G01 X16.9354 Y-33.8929
G01 X16.9401 Y-33.9362
G01 X16.9817 Y-34.0478
G01 X17.0521 Y-34.1419
G01 X17.1462 Y-34.2123
G01 X17.2578 Y-34.2539
G01 X17.3011 Y-34.2586
G01 X19.0869 Y-34.2585
G01 X19.1302 Y-34.2539
G01 X19.2418 Y-34.2123
G01 X19.3359 Y-34.1419
G01 X19.4063 Y-34.0478
G01 X19.4479 Y-33.9362
G01 X19.4526 Y-33.8929
G01 X19.4525 Y-32.1071
G01 X19.4479 Y-32.0638
G01 X19.4063 Y-31.9522
G01 X19.3359 Y-31.8581
G01 X19.2418 Y-31.7877
G01 X19.1540 Y-31.7550
G01 X19.1421 Y-31.7495
G01 X19.1311 Y-31.7425
G01 X19.0751 Y-31.7006
G01 X19.0681 Y-31.6948
G01 X19.0617 Y-31.6883
G01 X19.0546 Y-31.6793
G01 X19.0498 Y-31.6715
G01 X19.0458 Y-31.6633
G01 X19.0182 Y-31.5893
G01 X19.0164 Y-31.5828
G01 X19.0150 Y-31.5761
G01 X19.0139 Y-31.5648
G01 X19.0136 Y-31.5527
G01 X19.0136 Y-31.0942
G01 X19.0145 Y-31.0811
G01 X19.0167 Y-31.0704
G01 X19.0383 Y-30.9970
G01 X19.0427 Y-30.9866
G01 X19.0483 Y-30.9768
G01 X19.0536 Y-30.9695
G01 X19.0752 Y-30.9431
G01 X19.1641 Y-30.8542
G01 X19.2449 Y-30.7232
G01 X19.2935 Y-30.5764
G01 X19.3026 Y-30.4883
G01 X19.3025 Y-29.8727
G01 X19.2935 Y-29.7846
G01 X19.2449 Y-29.6378
G01 X19.1641 Y-29.5068
G01 X19.0765 Y-29.4191
G01 X19.0708 Y-29.4125
G01 X19.0669 Y-29.4072
G01 X19.0623 Y-29.3997
G01 X19.0289 Y-29.3384
G01 X19.0249 Y-29.3302
G01 X19.0218 Y-29.3216
G01 X19.0195 Y-29.3128
G01 X19.0181 Y-29.3038
G01 X19.0176 Y-29.2946
G01 X19.0233 Y-29.2135
G01 X19.0244 Y-29.2067
G01 X19.0266 Y-29.1978
G01 X19.0297 Y-29.1892
G01 X19.0326 Y-29.1829
G01 X19.0372 Y-29.1750
G01 X19.0657 Y-29.1306
G01 X19.0736 Y-29.1201
G01 X19.1641 Y-29.0292
G01 X19.2449 Y-28.8982
G01 X19.2935 Y-28.7514
G01 X19.3026 Y-28.6633
G01 X19.3025 Y-28.0477
G01 X19.2935 Y-27.9596
G01 X19.2449 Y-27.8128
G01 X19.1641 Y-27.6818
G01 X19.0850 Y-27.6026
G01 X19.0793 Y-27.5960
G01 X19.0742 Y-27.5889
G01 X19.0374 Y-27.5219
G01 X19.0334 Y-27.5137
G01 X19.0303 Y-27.5051
G01 X19.0275 Y-27.4940
G01 X19.0262 Y-27.4827
G01 X19.0262 Y-27.4736
G01 X19.0321 Y-27.3948
G01 X19.0339 Y-27.3857
G01 X19.0358 Y-27.3791
G01 X19.0391 Y-27.3706
G01 X19.0422 Y-27.3644
G01 X19.0742 Y-27.3141
G01 X19.0821 Y-27.3036
G01 X19.1891 Y-27.1962
G01 X19.2699 Y-27.0652
G01 X19.3185 Y-26.9184
G01 X19.3276 Y-26.8303
G01 X19.3275 Y-26.2397
G01 X19.3185 Y-26.1516
G01 X19.2699 Y-26.0048
G01 X19.1891 Y-25.8738
G01 X19.0787 Y-25.7634
G01 X19.0726 Y-25.7582
G01 X19.0665 Y-25.7523
G01 X19.0195 Y-25.6998
G01 X19.0151 Y-25.6945
G01 X19.0112 Y-25.6890
G01 X19.0066 Y-25.6812
G01 X19.0028 Y-25.6730
G01 X19.0005 Y-25.6666
G01 X18.9982 Y-25.6578
G01 X18.9858 Y-25.5821
G01 X18.9851 Y-25.5753
G01 X18.9850 Y-25.5662
G01 X18.9858 Y-25.5571
G01 X18.9870 Y-25.5503
G01 X18.9893 Y-25.5415
G01 X18.9917 Y-25.5351
G01 X19.0213 Y-25.4668
G01 X19.0244 Y-25.4607
G01 X19.0293 Y-25.4530
G01 X19.0349 Y-25.4458
G01 X19.0411 Y-25.4391
G01 X19.0787 Y-25.4066
G01 X19.1891 Y-25.2962
G01 X19.2699 Y-25.1652
G01 X19.3185 Y-25.0184
G01 X19.3276 Y-24.9303
G01 X19.3275 Y-24.3397
G01 X19.3185 Y-24.2516
G01 X19.2699 Y-24.1048
G01 X19.1891 Y-23.9738
G01 X19.0802 Y-23.8649
G01 X19.0547 Y-23.8489
G01 X19.0478 Y-23.8434
G01 X19.0415 Y-23.8373
G01 X18.9933 Y-23.7838
G01 X18.9877 Y-23.7769
G01 X18.9827 Y-23.7695
G01 X18.9785 Y-23.7616
G01 X18.9751 Y-23.7534
G01 X18.9725 Y-23.7448
G01 X18.9594 Y-23.6868
G01 X18.9580 Y-23.6778
G01 X18.9576 Y-23.6710
G01 X18.9576 Y-23.1145
G01 X18.9585 Y-23.1036
G01 X18.9607 Y-23.0929
G01 X18.9824 Y-23.0194
G01 X18.9858 Y-23.0109
G01 X18.9900 Y-23.0028
G01 X18.9951 Y-22.9952
G01 X18.9993 Y-22.9898
G01 X19.0040 Y-22.9848
G01 X19.0090 Y-22.9801
G01 X19.0618 Y-22.9344
G01 X19.0690 Y-22.9287
G01 X19.0767 Y-22.9238
G01 X19.0869 Y-22.9189
G01 X19.0977 Y-22.9152
G01 X19.1089 Y-22.9128
G01 X19.1826 Y-22.9024
G01 X19.1940 Y-22.9020
G01 X19.2054 Y-22.9031
G01 X19.2165 Y-22.9055
G01 X19.2273 Y-22.9093
G01 X19.2929 Y-22.9393
G01 X19.3010 Y-22.9435
G01 X19.3067 Y-22.9471
G01 X19.3122 Y-22.9512
G01 X19.3262 Y-22.9640
G01 X19.9174 Y-23.5552
G01 X19.9259 Y-23.5643
G01 X19.9553 Y-23.5990
G01 X20.0137 Y-23.6434
G01 X20.0726 Y-23.6907
G01 X20.0825 Y-23.6969
G01 X20.1533 Y-23.7297
G01 X20.2209 Y-23.7632
G01 X20.2320 Y-23.7671
G01 X20.3081 Y-23.7839
G01 X20.3814 Y-23.8021
G01 X20.3930 Y-23.8035
G01 X20.4710 Y-23.8036
G01 X20.5464 Y-23.8056
G01 X20.5661 Y-23.8038
G01 X20.5726 Y-23.8036
G01 X22.1550 Y-23.8036
G01 X22.1642 Y-23.8043
G01 X22.1756 Y-23.8064
G01 X22.2451 Y-23.8262
G01 X22.2559 Y-23.8303
G01 X22.2647 Y-23.8349
G01 X22.4116 Y-23.8835
G01 X22.4997 Y-23.8926
G01 X23.5403 Y-23.8925
G01 X23.6284 Y-23.8835
G01 X23.7753 Y-23.8349
G01 X23.7841 Y-23.8303
G01 X23.7949 Y-23.8262
G01 X23.8644 Y-23.8064
G01 X23.8712 Y-23.8050
G01 X23.8804 Y-23.8038
G01 X23.8873 Y-23.8036
G01 X25.2659 Y-23.8036
G01 X25.2784 Y-23.8041
G01 X25.3237 Y-23.8077
G01 X25.3965 Y-23.7979
G01 X25.4715 Y-23.7897
G01 X25.4829 Y-23.7870
G01 X25.5538 Y-23.7610
G01 X25.6277 Y-23.7361
G01 X25.6382 Y-23.7310
G01 X25.7022 Y-23.6901
G01 X25.7686 Y-23.6501
G01 X25.7778 Y-23.6429
G01 X25.8312 Y-23.5895
G01 X25.8878 Y-23.5359
G01 X25.9004 Y-23.5207
G01 X25.9049 Y-23.5159
G01 X26.5925 Y-22.8283
G01 X26.6009 Y-22.8212
G01 X26.6100 Y-22.8152
G01 X26.6752 Y-22.7796
G01 X26.6877 Y-22.7743
G01 X26.6985 Y-22.7713
G01 X26.7075 Y-22.7699
G01 X26.7412 Y-22.7666
G01 X27.4853 Y-22.7665
G01 X27.5734 Y-22.7575
G01 X27.7202 Y-22.7089
G01 X27.8512 Y-22.6281
G01 X27.9601 Y-22.5192
G01 X28.0409 Y-22.3882
G01 X28.0895 Y-22.2414
G01 X28.0986 Y-22.1533
G01 X28.0985 Y-20.3627
G01 X28.0895 Y-20.2746
G01 X28.0409 Y-20.1278
G01 X28.0114 Y-20.0799
G01 X28.0073 Y-20.0721
G01 X28.0048 Y-20.0661
G01 X28.0021 Y-20.0578
G01 X27.9837 Y-19.9904
G01 X27.9817 Y-19.9815
G01 X27.9806 Y-19.9724
G01 X27.9805 Y-19.9610
G01 X27.9815 Y-19.9519
G01 X27.9834 Y-19.9430
G01 X28.0062 Y-19.8698
G01 X28.0095 Y-19.8616
G01 X28.0146 Y-19.8519
G01 X28.0208 Y-19.8428
G01 X28.0420 Y-19.8173
G01 X28.1441 Y-19.7152
G01 X28.1504 Y-19.7062
G01 X28.1593 Y-19.6965
G01 X28.2180 Y-19.6440
G01 X28.2253 Y-19.6389
G01 X28.2311 Y-19.6356
G01 X28.2391 Y-19.6317
G01 X28.2454 Y-19.6294
G01 X28.2540 Y-19.6270
G01 X28.3076 Y-19.6148
G01 X28.3166 Y-19.6133
G01 X28.3234 Y-19.6127
G01 X28.7233 Y-19.6126
G01 X28.7358 Y-19.6131
G01 X28.7811 Y-19.6167
G01 X28.8539 Y-19.6069
G01 X28.9289 Y-19.5987
G01 X28.9403 Y-19.5960
G01 X29.0112 Y-19.5700
G01 X29.0851 Y-19.5451
G01 X29.0956 Y-19.5400
G01 X29.1596 Y-19.4991
G01 X29.2260 Y-19.4591
G01 X29.2352 Y-19.4519
G01 X29.2886 Y-19.3985
G01 X29.3452 Y-19.3449
G01 X29.3578 Y-19.3297
G01 X29.3623 Y-19.3249
G01 X30.3702 Y-18.3170
G01 X30.3785 Y-18.3100
G01 X30.3876 Y-18.3039
G01 X30.4549 Y-18.2673
G01 X30.4655 Y-18.2630
G01 X30.4743 Y-18.2605
G01 X30.4855 Y-18.2586
G01 X30.4947 Y-18.2581
G01 X30.5735 Y-18.2635
G01 X30.5847 Y-18.2653
G01 X30.5957 Y-18.2685
G01 X30.6062 Y-18.2730
G01 X30.6160 Y-18.2788
G01 X30.6757 Y-18.3233
G01 X30.6844 Y-18.3307
G01 X30.6906 Y-18.3374
G01 X30.6975 Y-18.3465
G01 X30.7031 Y-18.3564
G01 X30.7067 Y-18.3648
G01 X30.7311 Y-18.4303
G01 X30.7339 Y-18.4389
G01 X30.7354 Y-18.4456
G01 X30.7364 Y-18.4523
G01 X30.7372 Y-18.4712
G01 X30.7372 Y-19.2473
G01 X30.7463 Y-19.3354
G01 X30.7949 Y-19.4822
G01 X30.8593 Y-19.5866
G01 X30.8637 Y-19.5947
G01 X30.8665 Y-19.6011
G01 X30.8695 Y-19.6098
G01 X30.8886 Y-19.6771
G01 X30.8904 Y-19.6862
G01 X30.8913 Y-19.6954
G01 X30.8914 Y-19.7958
G01 X30.8908 Y-19.8067
G01 X30.8898 Y-19.8132
G01 X30.8877 Y-19.8217
G01 X30.8659 Y-19.8951
G01 X30.8613 Y-19.9054
G01 X30.8555 Y-19.9151
G01 X30.8332 Y-19.9430
G01 X30.8282 Y-19.9485
G01 X30.7799 Y-19.9968
G01 X30.6991 Y-20.1278
G01 X30.6505 Y-20.2746
G01 X30.6414 Y-20.3627
G01 X30.6414 Y-22.1533
G01 X30.6505 Y-22.2414
G01 X30.6991 Y-22.3882
G01 X30.7799 Y-22.5192
G01 X30.8888 Y-22.6281
G01 X31.0198 Y-22.7089
G01 X31.1666 Y-22.7575
G01 X31.2547 Y-22.7666
G01 X32.0007 Y-22.7667
G01 X32.0116 Y-22.7678
G01 X32.0201 Y-22.7697
G01 X32.0914 Y-22.7906
G01 X32.1040 Y-22.7957
G01 X32.1119 Y-22.8001
G01 X32.1175 Y-22.8038
G01 X32.1417 Y-22.8232
G01 X32.1490 Y-22.8298
G01 X34.2276 Y-24.9084
G01 X34.2349 Y-24.9165
G01 X34.2411 Y-24.9255
G01 X34.2778 Y-24.9926
G01 X34.2816 Y-25.0008
G01 X34.2838 Y-25.0072
G01 X34.2856 Y-25.0137
G01 X34.2872 Y-25.0226
G01 X34.2903 Y-25.0512
G01 X34.2908 Y-25.0611
G01 X34.2908 Y-25.8888
G01 X34.2904 Y-25.8980
G01 X34.2890 Y-25.9072
G01 X34.2874 Y-25.9139
G01 X34.2682 Y-25.9812
G01 X34.2641 Y-25.9920
G01 X34.2587 Y-26.0022
G01 X34.1985 Y-26.0998
G01 X34.1499 Y-26.2466
G01 X34.1408 Y-26.3347
G01 X34.1408 Y-27.3753
G01 X34.1499 Y-27.4634
G01 X34.1985 Y-27.6102
G01 X34.2587 Y-27.7078
G01 X34.2641 Y-27.7180
G01 X34.2668 Y-27.7244
G01 X34.2689 Y-27.7310
G01 X34.2880 Y-27.7983
G01 X34.2901 Y-27.8097
G01 X34.2908 Y-27.8189
G01 X34.2908 Y-31.3619
G01 X34.2904 Y-31.3707
G01 X34.2892 Y-31.3794
G01 X34.2871 Y-31.3879
G01 X34.2674 Y-31.4549
G01 X34.2636 Y-31.4655
G01 X34.2596 Y-31.4736
G01 X34.2536 Y-31.4831
G01 X34.2310 Y-31.5111
G01 X34.0640 Y-31.6782
G01 X34.0576 Y-31.6841
G01 X34.0506 Y-31.6893
G01 X34.0431 Y-31.6939
G01 X33.9798 Y-31.7284
G01 X33.9673 Y-31.7337
G01 X33.9587 Y-31.7362
G01 X33.9498 Y-31.7378
G01 X33.9212 Y-31.7409
G01 X33.9113 Y-31.7414
G01 X32.9221 Y-31.7414
G01 X32.8788 Y-31.7461
G01 X32.7672 Y-31.7877
G01 X32.6731 Y-31.8581
G01 X32.6027 Y-31.9522
G01 X32.5611 Y-32.0638
G01 X32.5565 Y-32.1070
G01 X32.5564 Y-33.8929
G01 X32.5611 Y-33.9362
G01 X32.6027 Y-34.0478
G01 X32.6731 Y-34.1419
G01 X32.7672 Y-34.2123
G01 X32.8788 Y-34.2539
G01 X32.9221 Y-34.2586
G01 X34.7079 Y-34.2585
G01 X34.7512 Y-34.2539
G01 X34.8628 Y-34.2123
G01 X34.9569 Y-34.1419
G01 X35.0273 Y-34.0478
G01 X35.0689 Y-33.9362
G01 X35.0736 Y-33.8929
G01 X35.0736 Y-32.9015
G01 X35.0745 Y-32.8906
G01 X35.0767 Y-32.8799
G01 X35.0983 Y-32.8064
G01 X35.1037 Y-32.7940
G01 X35.1095 Y-32.7843
G01 X35.1302 Y-32.7583
G01 X35.1368 Y-32.7510
G01 X35.5596 Y-32.3282
G01 X35.5687 Y-32.3197
G01 X35.6034 Y-32.2903
G01 X35.6478 Y-32.2319
G01 X35.6951 Y-32.1730
G01 X35.7013 Y-32.1631
G01 X35.7330 Y-32.0945
G01 X35.7676 Y-32.0247
G01 X35.7715 Y-32.0137
G01 X35.7877 Y-31.9399
G01 X35.8065 Y-31.8642
G01 X35.8080 Y-31.8526
G01 X35.8080 Y-31.7746
G01 X35.8100 Y-31.6992
G01 X35.8082 Y-31.6795
G01 X35.8080 Y-31.6730
G01 X35.8080 Y-27.8189
G01 X35.8090 Y-27.8074
G01 X35.8108 Y-27.7983
G01 X35.8299 Y-27.7310
G01 X35.8320 Y-27.7244
G01 X35.8347 Y-27.7180
G01 X35.8401 Y-27.7078
G01 X35.9003 Y-27.6102
G01 X35.9489 Y-27.4634
G01 X35.9580 Y-27.3753
G01 X35.9579 Y-26.3347
G01 X35.9489 Y-26.2466
G01 X35.9003 Y-26.0998
G01 X35.8401 Y-26.0022
G01 X35.8347 Y-25.9920
G01 X35.8306 Y-25.9812
G01 X35.8114 Y-25.9139
G01 X35.8098 Y-25.9072
G01 X35.8084 Y-25.8980
G01 X35.8080 Y-25.8888
G01 X35.8080 Y-24.6945
G01 X35.8085 Y-24.6820
G01 X35.8121 Y-24.6367
G01 X35.8023 Y-24.5639
G01 X35.7941 Y-24.4889
G01 X35.7914 Y-24.4775
G01 X35.7654 Y-24.4066
G01 X35.7405 Y-24.3327
G01 X35.7354 Y-24.3222
G01 X35.6945 Y-24.2582
G01 X35.6545 Y-24.1918
G01 X35.6473 Y-24.1826
G01 X35.5939 Y-24.1292
G01 X35.5403 Y-24.0726
G01 X35.5250 Y-24.0600
G01 X35.5203 Y-24.0555
G01 X32.7218 Y-21.2570
G01 X32.7145 Y-21.2489
G01 X32.7083 Y-21.2399
G01 X32.6726 Y-21.1748
G01 X32.6670 Y-21.1625
G01 X32.6643 Y-21.1538
G01 X32.6625 Y-21.1450
G01 X32.6587 Y-21.1093
G01 X32.6585 Y-20.3627
G01 X32.6495 Y-20.2746
G01 X32.6009 Y-20.1278
G01 X32.5201 Y-19.9968
G01 X32.4703 Y-19.9469
G01 X32.4632 Y-19.9386
G01 X32.4572 Y-19.9294
G01 X32.4226 Y-19.8662
G01 X32.4170 Y-19.8539
G01 X32.4143 Y-19.8453
G01 X32.4125 Y-19.8364
G01 X32.4087 Y-19.8007
G01 X32.4086 Y-19.6841
G01 X32.4093 Y-19.6749
G01 X32.4114 Y-19.6635
G01 X32.4305 Y-19.5962
G01 X32.4326 Y-19.5896
G01 X32.4353 Y-19.5832
G01 X32.4407 Y-19.5730
G01 X32.4967 Y-19.4822
G01 X32.5453 Y-19.3354
G01 X32.5544 Y-19.2473
G01 X32.5543 Y-18.2067
G01 X32.5453 Y-18.1186
G01 X32.4967 Y-17.9718
G01 X32.4159 Y-17.8408
G01 X32.3070 Y-17.7319
G01 X32.1760 Y-17.6511
G01 X32.0292 Y-17.6025
G01 X31.9411 Y-17.5934
G01 X31.6085 Y-17.5932
G01 X31.5998 Y-17.5922
G01 X31.5912 Y-17.5903
G01 X31.5221 Y-17.5700
G01 X31.5135 Y-17.5670
G01 X31.5032 Y-17.5621
G01 X31.4973 Y-17.5585
G01 X31.4918 Y-17.5546
G01 X31.4848 Y-17.5486
G01 X31.4800 Y-17.5437
G01 X31.4313 Y-17.4875
G01 X31.4246 Y-17.4782
G01 X31.4201 Y-17.4703
G01 X31.4173 Y-17.4641
G01 X31.4149 Y-17.4576
G01 X31.4130 Y-17.4511
G01 X31.4116 Y-17.4444
G01 X31.4010 Y-17.3707
G01 X31.4004 Y-17.3638
G01 X31.4004 Y-17.3570
G01 X31.4009 Y-17.3502
G01 X31.4023 Y-17.3411
G01 X31.4039 Y-17.3345
G01 X31.4061 Y-17.3280
G01 X31.4377 Y-17.2581
G01 X31.4419 Y-17.2500
G01 X31.4468 Y-17.2424
G01 X31.4525 Y-17.2353
G01 X31.4623 Y-17.2248
G01 X33.2132 Y-15.4740
G01 X33.2223 Y-15.4655
G01 X33.2570 Y-15.4361
G01 X33.3014 Y-15.3777
G01 X33.3487 Y-15.3188
G01 X33.3549 Y-15.3089
G01 X33.3866 Y-15.2403
G01 X33.4212 Y-15.1705
G01 X33.4251 Y-15.1595
G01 X33.4413 Y-15.0857
G01 X33.4467 Y-15.0639
G01 X33.4492 Y-15.0555
G01 X33.4525 Y-15.0474
G01 X33.4566 Y-15.0397
G01 X33.4955 Y-14.9736
G01 X33.5011 Y-14.9663
G01 X33.5073 Y-14.9597
G01 X33.5142 Y-14.9537
G01 X33.5217 Y-14.9484
G01 X33.5296 Y-14.9438
G01 X33.5939 Y-14.9112
G01 X33.6002 Y-14.9084
G01 X33.6067 Y-14.9062
G01 X33.6178 Y-14.9035
G01 X33.6291 Y-14.9023
G01 X33.6405 Y-14.9024
G01 X33.7145 Y-14.9099
G01 X33.7211 Y-14.9110
G01 X33.7298 Y-14.9132
G01 X33.7402 Y-14.9171
G01 X33.7501 Y-14.9222
G01 X33.7986 Y-14.9544
G01 X33.8074 Y-14.9617
G01 X33.8398 Y-14.9941
G01 X33.9708 Y-15.0749
G01 X34.1176 Y-15.1235
G01 X34.2057 Y-15.1326
G01 X34.8463 Y-15.1325
G01 X34.9344 Y-15.1235
G01 X35.0812 Y-15.0749
G01 X35.2122 Y-14.9941
G01 X35.3211 Y-14.8852
G01 X35.4019 Y-14.7542
G01 X35.4505 Y-14.6074
G01 X35.4596 Y-14.5193
G01 X35.4595 Y-13.0287
G01 X35.4505 Y-12.9406
G01 X35.4019 Y-12.7938
G01 X35.3187 Y-12.6589
G01 X35.3143 Y-12.6508
G01 X35.3115 Y-12.6444
G01 X35.3092 Y-12.6379
G01 X35.2894 Y-12.5684
G01 X35.2876 Y-12.5593
G01 X35.2866 Y-12.5478
G01 X35.2866 Y-12.3420
G01 X35.2878 Y-12.3290
G01 X35.2903 Y-12.3183
G01 X35.3106 Y-12.2491
G01 X35.3138 Y-12.2407
G01 X35.3178 Y-12.2326
G01 X35.3252 Y-12.2213
G01 X35.3448 Y-12.1970
G01 X35.3731 Y-12.1682
G01 X35.4539 Y-12.0372
G01 X35.5025 Y-11.8904
G01 X35.5116 Y-11.8023
G01 X35.5115 Y-10.4117
G01 X35.5025 Y-10.3236
G01 X35.4539 Y-10.1768
G01 X35.3731 Y-10.0458
G01 X35.2642 Y-9.9369
G01 X35.1332 Y-9.8561
G01 X34.9864 Y-9.8075
G01 X34.8983 Y-9.7984
G01 X34.1577 Y-9.7984
G01 X34.0696 Y-9.8075
G01 X33.9228 Y-9.8561
G01 X33.7909 Y-9.9375
G01 X33.7832 Y-9.9417
G01 X33.7772 Y-9.9444
G01 X33.7669 Y-9.9479
G01 X33.6973 Y-9.9669
G01 X33.6883 Y-9.9687
G01 X33.6792 Y-9.9695
G01 X33.6724 Y-9.9695
G01 X33.6655 Y-9.9691
G01 X33.6565 Y-9.9677
G01 X33.6499 Y-9.9660
G01 X33.5788 Y-9.9437
G01 X33.5704 Y-9.9404
G01 X33.5622 Y-9.9362
G01 X33.5565 Y-9.9325
G01 X33.5510 Y-9.9284
G01 X33.5458 Y-9.9239
G01 X33.5410 Y-9.9191
G01 X33.4932 Y-9.8620
G01 X33.4877 Y-9.8548
G01 X33.4830 Y-9.8471
G01 X33.4800 Y-9.8410
G01 X33.4775 Y-9.8348
G01 X33.4748 Y-9.8262
G01 X33.4630 Y-9.7701
G01 X33.4620 Y-9.7631
G01 X33.4616 Y-9.7537
G01 X33.4616 Y-7.7461
G01 X33.4621 Y-7.7336
G01 X33.4657 Y-7.6883
G01 X33.4559 Y-7.6156
G01 X33.4477 Y-7.5405
G01 X33.4450 Y-7.5291
G01 X33.4182 Y-7.4559
G01 X33.3941 Y-7.3843
G01 X33.3890 Y-7.3738
G01 X33.3481 Y-7.3098
G01 X33.3081 Y-7.2434
G01 X33.3009 Y-7.2342
G01 X33.2458 Y-7.1790
G01 X33.1939 Y-7.1242
G01 X33.1786 Y-7.1116
G01 X33.1739 Y-7.1071
G01 X31.3061 Y-5.2393
G01 X31.2976 Y-5.2302
G01 X31.2682 Y-5.1955
G01 X31.2098 Y-5.1511
G01 X31.1509 Y-5.1038
G01 X31.1410 Y-5.0976
G01 X31.0725 Y-5.0659
G01 X31.0026 Y-5.0313
G01 X30.9915 Y-5.0274
G01 X30.9178 Y-5.0112
G01 X30.8422 Y-4.9924
G01 X30.8305 Y-4.9910
G01 X30.7525 Y-4.9909
G01 X30.6771 Y-4.9889
G01 X30.6530 Y-4.9909
G01 X30.5963 Y-4.9909
G01 X30.5854 Y-4.9900
G01 X30.5747 Y-4.9878
G01 X30.5012 Y-4.9661
G01 X30.4907 Y-4.9617
G01 X30.4808 Y-4.9560
G01 X30.4717 Y-4.9492
G01 X30.4635 Y-4.9412
G01 X30.4162 Y-4.8867
G01 X30.4093 Y-4.8776
G01 X30.4045 Y-4.8697
G01 X30.4015 Y-4.8635
G01 X30.3990 Y-4.8571
G01 X30.3969 Y-4.8505
G01 X30.3842 Y-4.7924
G01 X30.3832 Y-4.7859
G01 X30.3826 Y-4.7772
G01 X30.3826 Y-2.5081
G01 X30.3831 Y-2.4956
G01 X30.3867 Y-2.4503
G01 X30.3769 Y-2.3775
G01 X30.3687 Y-2.3025
G01 X30.3660 Y-2.2911
G01 X30.3400 Y-2.2202
G01 X30.3151 Y-2.1463
G01 X30.3100 Y-2.1358
G01 X30.2691 Y-2.0718
G01 X30.2291 Y-2.0054
G01 X30.2219 Y-1.9962
G01 X30.1685 Y-1.9428
G01 X30.1149 Y-1.8862
G01 X30.0996 Y-1.8736
G01 X30.0949 Y-1.8691
G01 X29.1706 Y-0.9448
G01 X29.1621 Y-0.9357
G01 X29.1327 Y-0.9010
G01 X29.0743 Y-0.8566
G01 X29.0154 Y-0.8093
G01 X29.0055 Y-0.8031
G01 X28.9370 Y-0.7714
G01 X28.8671 Y-0.7368
G01 X28.8560 Y-0.7329
G01 X28.7823 Y-0.7167
G01 X28.7067 Y-0.6979
G01 X28.6950 Y-0.6965
G01 X28.6170 Y-0.6964
G01 X28.5416 Y-0.6944
G01 X28.5219 Y-0.6962
G01 X28.5154 Y-0.6964
G01 X23.6311 Y-0.6964
G01 X23.6186 Y-0.6959
G01 X23.5733 Y-0.6923
G01 X23.5005 Y-0.7021
G01 X23.4255 Y-0.7103
G01 X23.4141 Y-0.7130
G01 X23.3432 Y-0.7390
G01 X23.2694 Y-0.7639
G01 X23.2594 Y-0.7687
G01 X23.1948 Y-0.8099
G01 X23.1284 Y-0.8499
G01 X23.1191 Y-0.8571
G01 X23.0640 Y-0.9122
G01 X23.0092 Y-0.9641
G01 X22.9966 Y-0.9794
G01 X22.9921 Y-0.9841
G01 X20.6330 Y-3.3432
G01 X20.6231 Y-3.3518
G01 X20.6140 Y-3.3578
G01 X20.5508 Y-3.3924
G01 X20.5385 Y-3.3980
G01 X20.5298 Y-3.4007
G01 X20.5210 Y-3.4025
G01 X20.4853 Y-3.4063
G01 X20.2137 Y-3.4064
G01 X20.1256 Y-3.4155
G01 X19.9788 Y-3.4641
G01 X19.8812 Y-3.5243
G01 X19.8751 Y-3.5277
G01 X19.8667 Y-3.5315
G01 X19.8580 Y-3.5345
G01 X19.7907 Y-3.5536
G01 X19.7793 Y-3.5557
G01 X19.7678 Y-3.5564
G01 X19.1683 Y-3.5564
G01 X19.1614 Y-3.5562
G01 X19.1545 Y-3.5554
G01 X19.1432 Y-3.5530
G01 X19.0781 Y-3.5345
G01 X19.0715 Y-3.5324
G01 X19.0651 Y-3.5297
G01 X19.0549 Y-3.5243
G01 X18.9492 Y-3.4591
G01 X18.8024 Y-3.4105
G01 X18.7143 Y-3.4014
G01 X17.6737 Y-3.4014
G01 X17.5856 Y-3.4105
G01 X17.4388 Y-3.4591
G01 X17.3331 Y-3.5243
G01 X17.3250 Y-3.5287
G01 X17.3186 Y-3.5315
G01 X17.3099 Y-3.5345
G01 X17.2426 Y-3.5536
G01 X17.2312 Y-3.5557
G01 X17.2197 Y-3.5564
G01 X16.6202 Y-3.5564
G01 X16.6133 Y-3.5562
G01 X16.6064 Y-3.5554
G01 X16.5951 Y-3.5530
G01 X16.5300 Y-3.5345
G01 X16.5234 Y-3.5324
G01 X16.5170 Y-3.5297
G01 X16.5068 Y-3.5243
G01 X16.4092 Y-3.4641
G01 X16.2624 Y-3.4155
G01 X16.1743 Y-3.4064
G01 X15.1337 Y-3.4064
G01 X15.0456 Y-3.4155
G01 X14.8988 Y-3.4641
G01 X14.7678 Y-3.5449
G01 X14.6589 Y-3.6538
G01 X14.5781 Y-3.7848
G01 X14.5295 Y-3.9316
G01 X14.5204 Y-4.0197
G01 X14.5204 Y-4.6103
G01 X14.5295 Y-4.6984
G01 X14.5781 Y-4.8452
G01 X14.6589 Y-4.9762
G01 X14.7693 Y-5.0866
G01 X14.7754 Y-5.0917
G01 X14.7831 Y-5.0993
G01 X14.8300 Y-5.1519
G01 X14.8342 Y-5.1572
G01 X14.8392 Y-5.1648
G01 X14.8424 Y-5.1708
G01 X14.8452 Y-5.1770
G01 X14.8475 Y-5.1834
G01 X14.8498 Y-5.1922
G01 X14.8619 Y-5.2656
G01 X14.8629 Y-5.2747
G01 X14.8630 Y-5.2838
G01 X14.8622 Y-5.2929
G01 X14.8605 Y-5.3019
G01 X14.8580 Y-5.3106
G01 X14.8267 Y-5.3832
G01 X14.8236 Y-5.3893
G01 X14.8187 Y-5.3970
G01 X14.8132 Y-5.4042
G01 X14.8069 Y-5.4109
G01 X14.7693 Y-5.4434
G01 X14.6589 Y-5.5538
G01 X14.5781 Y-5.6848
G01 X14.5295 Y-5.8316
G01 X14.5204 Y-5.9197
G01 X14.5204 Y-6.5103
G01 X14.5295 Y-6.5984
G01 X14.5781 Y-6.7452
G01 X14.6589 Y-6.8762
G01 X14.7678 Y-6.9851
G01 X14.7833 Y-6.9950
G01 X14.7902 Y-7.0004
G01 X14.7950 Y-7.0049
G01 X14.8447 Y-7.0600
G01 X14.8516 Y-7.0688
G01 X14.8564 Y-7.0763
G01 X14.8594 Y-7.0822
G01 X14.8621 Y-7.0884
G01 X14.8649 Y-7.0968
G01 X14.8782 Y-7.1547
G01 X14.8800 Y-7.1660
G01 X14.8804 Y-7.1751
G01 X14.8804 Y-9.9469
G01 X14.8851 Y-9.9902
G01 X14.8933 Y-10.0121
G01 X15.0890 Y-10.0121
G01 X15.0980 Y-10.0125
G01 X15.1113 Y-10.0148
G01 X15.1242 Y-10.0190
G01 X15.1363 Y-10.0251
G01 X15.1419 Y-10.0288
G01 X15.1491 Y-10.0344
G01 X15.1556 Y-10.0406
G01 X15.1615 Y-10.0474
G01 X15.1655 Y-10.0529
G01 X15.1701 Y-10.0607
G01 X15.1740 Y-10.0688
G01 X15.1770 Y-10.0773
G01 X15.1792 Y-10.0861
G01 X15.1803 Y-10.0927
G01 X15.1809 Y-10.1040
G01 X15.1809 Y-10.2997
G01 X15.2028 Y-10.3079
G01 X15.2461 Y-10.3126
G01 X16.0319 Y-10.3125
G01 X16.0752 Y-10.3079
G01 X16.1985 Y-10.2619
G01 X16.2111 Y-10.2582
G01 X16.2241 Y-10.2563
G01 X16.3004 Y-10.2511
G01 X16.3113 Y-10.2518
G01 X16.3199 Y-10.2532
G01 X16.3453 Y-10.2605
G01 X16.4728 Y-10.3079
G01 X16.5161 Y-10.3126
G01 X17.3019 Y-10.3125
G01 X17.3452 Y-10.3079
G01 X17.4685 Y-10.2619
G01 X17.4811 Y-10.2582
G01 X17.4941 Y-10.2563
G01 X17.5704 Y-10.2511
G01 X17.5791 Y-10.2515
G01 X17.5899 Y-10.2532
G01 X17.6153 Y-10.2605
G01 X17.7428 Y-10.3079
G01 X17.7861 Y-10.3126
G01 X18.5719 Y-10.3125
G01 X18.6152 Y-10.3079
G01 X18.7385 Y-10.2619
G01 X18.7511 Y-10.2582
G01 X18.7641 Y-10.2563
G01 X18.8404 Y-10.2511
G01 X18.8513 Y-10.2518
G01 X18.8599 Y-10.2532
G01 X18.8853 Y-10.2605
G01 X19.0128 Y-10.3079
G01 X19.0561 Y-10.3126
G01 X19.8419 Y-10.3125
G01 X19.8852 Y-10.3079
G01 X20.0085 Y-10.2619
G01 X20.0211 Y-10.2582
G01 X20.0341 Y-10.2563
G01 X20.1104 Y-10.2511
G01 X20.1191 Y-10.2515
G01 X20.1299 Y-10.2532
G01 X20.1553 Y-10.2605
G01 X20.2828 Y-10.3079
G01 X20.3261 Y-10.3126
G01 X20.6511 Y-10.3128
G01 X20.6597 Y-10.3138
G01 X20.6683 Y-10.3157
G01 X20.7374 Y-10.3360
G01 X20.7482 Y-10.3398
G01 X20.7583 Y-10.3450
G01 X20.7641 Y-10.3487
G01 X20.7696 Y-10.3529
G01 X20.7747 Y-10.3574
G01 X20.7795 Y-10.3623
G01 X20.8283 Y-10.4185
G01 X20.8324 Y-10.4240
G01 X20.8362 Y-10.4298
G01 X20.8415 Y-10.4400
G01 X20.8440 Y-10.4464
G01 X20.8461 Y-10.4530
G01 X20.8583 Y-10.5090
G01 X20.8598 Y-10.5176
G01 X20.8604 Y-10.5285
G01 X20.8604 Y-10.8469
G01 X20.8651 Y-10.8902
G01 X20.9111 Y-11.0135
G01 X20.9143 Y-11.0240
G01 X20.9165 Y-11.0369
G01 X20.9219 Y-11.1132
G01 X20.9215 Y-11.1241
G01 X20.9202 Y-11.1328
G01 X20.9188 Y-11.1392
G01 X20.9125 Y-11.1603
G01 X20.8651 Y-11.2878
G01 X20.8605 Y-11.3310
G01 X20.8604 Y-12.1169
G01 X20.8651 Y-12.1602
G01 X20.9111 Y-12.2835
G01 X20.9148 Y-12.2961
G01 X20.9167 Y-12.3091
G01 X20.9219 Y-12.3854
G01 X20.9212 Y-12.3963
G01 X20.9198 Y-12.4049
G01 X20.9125 Y-12.4303
G01 X20.8651 Y-12.5578
G01 X20.8605 Y-12.6009
G01 X20.8604 Y-13.3869
G01 X20.8651 Y-13.4302
G01 X20.9067 Y-13.5418
G01 X20.9771 Y-13.6359
G01 X21.0712 Y-13.7063
G01 X21.1828 Y-13.7479
G01 X21.2261 Y-13.7526
G01 X26.6461 Y-13.7526
G01 X26.6550 Y-13.7532
G01 X26.6616 Y-13.7543
G01 X26.6961 Y-13.7619
G01 X26.7046 Y-13.7630
G01 X26.7134 Y-13.7649
G01 X26.8816 Y-13.8205
G01 X26.9697 Y-13.8296
G01 X27.9603 Y-13.8295
G01 X28.0484 Y-13.8205
G01 X28.1952 Y-13.7719
G01 X28.3131 Y-13.6992
G01 X28.3212 Y-13.6948
G01 X28.3275 Y-13.6920
G01 X28.3341 Y-13.6897
G01 X28.4058 Y-13.6694
G01 X28.4172 Y-13.6675
G01 X28.4265 Y-13.6671
G01 X28.6625 Y-13.6671
G01 X28.6741 Y-13.6678
G01 X28.6854 Y-13.6699
G01 X28.7527 Y-13.6890
G01 X28.7593 Y-13.6911
G01 X28.7657 Y-13.6938
G01 X28.7759 Y-13.6992
G01 X28.8938 Y-13.7719
G01 X29.0406 Y-13.8205
G01 X29.1287 Y-13.8296
G01 X30.1193 Y-13.8295
G01 X30.2074 Y-13.8205
G01 X30.3542 Y-13.7719
G01 X30.4852 Y-13.6911
G01 X30.5941 Y-13.5822
G01 X30.6749 Y-13.4512
G01 X30.7235 Y-13.3044
G01 X30.7326 Y-13.2163
G01 X30.7325 Y-12.6007
G01 X30.7319 Y-12.5901
G01 X30.7327 Y-12.5770
G01 X30.7472 Y-12.4996
G01 X30.7505 Y-12.4886
G01 X30.7551 Y-12.4782
G01 X30.7610 Y-12.4685
G01 X30.7681 Y-12.4595
G01 X30.8191 Y-12.4053
G01 X30.8241 Y-12.4006
G01 X30.8294 Y-12.3963
G01 X30.8370 Y-12.3912
G01 X30.8430 Y-12.3879
G01 X30.8513 Y-12.3842
G01 X30.8600 Y-12.3813
G01 X30.9323 Y-12.3633
G01 X30.9436 Y-12.3615
G01 X30.9551 Y-12.3611
G01 X30.9620 Y-12.3616
G01 X30.9688 Y-12.3626
G01 X31.0027 Y-12.3688
G01 X31.0110 Y-12.3707
G01 X31.1196 Y-12.4065
G01 X31.2077 Y-12.4156
G01 X31.7285 Y-12.4155
G01 X31.7394 Y-12.4162
G01 X31.7523 Y-12.4187
G01 X31.8236 Y-12.4396
G01 X31.8301 Y-12.4420
G01 X31.8363 Y-12.4448
G01 X31.8462 Y-12.4505
G01 X31.8553 Y-12.4573
G01 X31.8635 Y-12.4653
G01 X31.9123 Y-12.5215
G01 X31.9177 Y-12.5289
G01 X31.9214 Y-12.5348
G01 X31.9245 Y-12.5409
G01 X31.9272 Y-12.5472
G01 X31.9306 Y-12.5582
G01 X31.9428 Y-12.6141
G01 X31.9440 Y-12.6228
G01 X31.9444 Y-12.6315
G01 X31.9444 Y-14.5077
G01 X31.9435 Y-14.5208
G01 X31.9407 Y-14.5337
G01 X31.9204 Y-14.6029
G01 X31.9163 Y-14.6134
G01 X31.9109 Y-14.6233
G01 X31.9044 Y-14.6325
G01 X31.8862 Y-14.6550
G01 X31.8812 Y-14.6604
G01 X28.5094 Y-18.0322
G01 X28.4995 Y-18.0408
G01 X28.4885 Y-18.0479
G01 X28.4252 Y-18.0824
G01 X28.4149 Y-18.0870
G01 X28.4041 Y-18.0902
G01 X28.3952 Y-18.0918
G01 X28.3617 Y-18.0953
G01 X28.3280 Y-18.0954
G01 X28.3170 Y-18.0948
G01 X28.3106 Y-18.0938
G01 X28.3021 Y-18.0917
G01 X28.2350 Y-18.0720
G01 X28.2225 Y-18.0674
G01 X28.2165 Y-18.0643
G01 X28.2089 Y-18.0597
G01 X28.2018 Y-18.0543
G01 X28.1969 Y-18.0498
G01 X28.1552 Y-18.0074
G01 X28.1493 Y-18.0004
G01 X28.1441 Y-17.9928
G01 X28.0352 Y-17.8839
G01 X27.9042 Y-17.8031
G01 X27.7574 Y-17.7545
G01 X27.6693 Y-17.7454
G01 X27.0537 Y-17.7454
G01 X26.9656 Y-17.7545
G01 X26.8188 Y-17.8031
G01 X26.6878 Y-17.8839
G01 X26.6246 Y-17.9470
G01 X26.6180 Y-17.9527
G01 X26.6109 Y-17.9578
G01 X26.5399 Y-17.9967
G01 X26.5315 Y-18.0003
G01 X26.5249 Y-18.0024
G01 X26.5183 Y-18.0040
G01 X26.5115 Y-18.0051
G01 X26.5047 Y-18.0058
G01 X26.4956 Y-18.0058
G01 X26.4213 Y-18.0005
G01 X26.4101 Y-17.9987
G01 X26.3991 Y-17.9955
G01 X26.3886 Y-17.9910
G01 X26.3826 Y-17.9877
G01 X26.3769 Y-17.9839
G01 X26.3191 Y-17.9407
G01 X26.3121 Y-17.9349
G01 X26.3057 Y-17.9284
G01 X26.2999 Y-17.9213
G01 X26.2949 Y-17.9136
G01 X26.2898 Y-17.9034
G01 X26.2629 Y-17.8316
G01 X26.2599 Y-17.8207
G01 X26.2584 Y-17.8117
G01 X26.2576 Y-17.7928
G01 X26.2576 Y-17.4072
G01 X26.2580 Y-17.3980
G01 X26.2594 Y-17.3888
G01 X26.2610 Y-17.3821
G01 X26.2802 Y-17.3148
G01 X26.2843 Y-17.3040
G01 X26.2897 Y-17.2938
G01 X26.3499 Y-17.1962
G01 X26.3985 Y-17.0494
G01 X26.4076 Y-16.9613
G01 X26.4075 Y-15.9207
G01 X26.3985 Y-15.8326
G01 X26.3499 Y-15.6858
G01 X26.2691 Y-15.5548
G01 X26.1602 Y-15.4459
G01 X26.0292 Y-15.3651
G01 X25.8824 Y-15.3165
G01 X25.7943 Y-15.3074
G01 X25.5211 Y-15.3072
G01 X25.5102 Y-15.3058
G01 X25.5017 Y-15.3037
G01 X25.4347 Y-15.2840
G01 X25.4220 Y-15.2793
G01 X25.4140 Y-15.2751
G01 X25.4065 Y-15.2702
G01 X25.3823 Y-15.2508
G01 X25.3750 Y-15.2442
G01 X25.1533 Y-15.0225
G01 X25.1461 Y-15.0147
G01 X25.1167 Y-14.9800
G01 X25.0583 Y-14.9356
G01 X24.9994 Y-14.8883
G01 X24.9895 Y-14.8821
G01 X24.9210 Y-14.8504
G01 X24.8511 Y-14.8158
G01 X24.8400 Y-14.8119
G01 X24.7663 Y-14.7957
G01 X24.6907 Y-14.7769
G01 X24.6790 Y-14.7755
G01 X24.6010 Y-14.7754
G01 X24.5256 Y-14.7734
G01 X24.5059 Y-14.7752
G01 X24.4994 Y-14.7754
G01 X21.2261 Y-14.7754
G01 X21.1828 Y-14.7801
G01 X21.0712 Y-14.8217
G01 X20.9771 Y-14.8921
G01 X20.9067 Y-14.9862
G01 X20.8651 Y-15.0978
G01 X20.8605 Y-15.1410
G01 X20.8604 Y-15.9269
G01 X20.8651 Y-15.9702
G01 X20.8733 Y-15.9921
G01 X21.0690 Y-15.9921
G01 X21.0780 Y-15.9925
G01 X21.0869 Y-15.9938
G01 X21.0935 Y-15.9954
G01 X21.1021 Y-15.9982
G01 X21.1103 Y-16.0019
G01 X21.1163 Y-16.0051
G01 X21.1238 Y-16.0101
G01 X21.1291 Y-16.0144
G01 X21.1356 Y-16.0206
G01 X21.1401 Y-16.0257
G01 X21.1455 Y-16.0329
G01 X21.1501 Y-16.0407
G01 X21.1531 Y-16.0467
G01 X21.1563 Y-16.0552
G01 X21.1582 Y-16.0617
G01 X21.1605 Y-16.0750
G01 X21.1609 Y-16.0840
G01 X21.1609 Y-16.2797
G01 X21.1828 Y-16.2879
G01 X21.2261 Y-16.2926
G01 X24.1949 Y-16.2928
G01 X24.2036 Y-16.2938
G01 X24.2121 Y-16.2957
G01 X24.2835 Y-16.3166
G01 X24.2919 Y-16.3198
G01 X24.2980 Y-16.3227
G01 X24.3039 Y-16.3261
G01 X24.3113 Y-16.3312
G01 X24.3337 Y-16.3492
G01 X24.3410 Y-16.3558
G01 X24.5272 Y-16.5420
G01 X24.5345 Y-16.5501
G01 X24.5418 Y-16.5610
G01 X24.5794 Y-16.6303
G01 X24.5820 Y-16.6365
G01 X24.5847 Y-16.6452
G01 X24.5871 Y-16.6585
G01 X24.5902 Y-16.6873
G01 X24.5904 Y-16.6947
G01 X24.5904 Y-16.9613
G01 X24.5995 Y-17.0494
G01 X24.6481 Y-17.1962
G01 X24.7083 Y-17.2938
G01 X24.7117 Y-17.2999
G01 X24.7155 Y-17.3083
G01 X24.7185 Y-17.3170
G01 X24.7376 Y-17.3843
G01 X24.7394 Y-17.3934
G01 X24.7403 Y-17.4026
G01 X24.7404 Y-17.9533
G01 X24.7397 Y-17.9649
G01 X24.7386 Y-17.9717
G01 X24.7370 Y-17.9784
G01 X24.7164 Y-18.0501
G01 X24.7127 Y-18.0586
G01 X24.7095 Y-18.0647
G01 X24.6731 Y-18.1238
G01 X24.6245 Y-18.2706
G01 X24.6154 Y-18.3587
G01 X24.6154 Y-19.3493
G01 X24.6245 Y-19.4374
G01 X24.6731 Y-19.5842
G01 X24.7539 Y-19.7152
G01 X24.8628 Y-19.8241
G01 X24.9938 Y-19.9049
G01 X25.1406 Y-19.9535
G01 X25.2287 Y-19.9626
G01 X25.8443 Y-19.9625
G01 X25.8764 Y-19.9593
G01 X25.8851 Y-19.9590
G01 X25.8982 Y-19.9602
G01 X25.9735 Y-19.9743
G01 X25.9844 Y-19.9776
G01 X25.9928 Y-19.9812
G01 X26.0027 Y-19.9869
G01 X26.0101 Y-19.9923
G01 X26.0678 Y-20.0462
G01 X26.0740 Y-20.0530
G01 X26.0781 Y-20.0584
G01 X26.0819 Y-20.0641
G01 X26.0862 Y-20.0722
G01 X26.0889 Y-20.0785
G01 X26.0911 Y-20.0849
G01 X26.1093 Y-20.1571
G01 X26.1107 Y-20.1639
G01 X26.1116 Y-20.1707
G01 X26.1120 Y-20.1799
G01 X26.1112 Y-20.1914
G01 X26.1039 Y-20.2319
G01 X26.1018 Y-20.2402
G01 X26.0905 Y-20.2746
G01 X26.0814 Y-20.3627
G01 X26.0813 Y-21.1087
G01 X26.0802 Y-21.1196
G01 X26.0777 Y-21.1303
G01 X26.0574 Y-21.1995
G01 X26.0551 Y-21.2058
G01 X26.0513 Y-21.2140
G01 X26.0479 Y-21.2199
G01 X26.0428 Y-21.2273
G01 X26.0248 Y-21.2497
G01 X26.0182 Y-21.2570
G01 X25.0520 Y-22.2232
G01 X25.0439 Y-22.2305
G01 X25.0330 Y-22.2378
G01 X24.9698 Y-22.2724
G01 X24.9575 Y-22.2780
G01 X24.9488 Y-22.2807
G01 X24.9400 Y-22.2825
G01 X24.9043 Y-22.2863
G01 X24.0617 Y-22.2862
G01 X24.0530 Y-22.2852
G01 X24.0423 Y-22.2827
G01 X23.9731 Y-22.2624
G01 X23.9647 Y-22.2592
G01 X23.9586 Y-22.2563
G01 X23.9471 Y-22.2492
G01 X23.9229 Y-22.2298
G01 X23.9173 Y-22.2249
G01 X23.9062 Y-22.2139
G01 X23.7752 Y-22.1331
G01 X23.6284 Y-22.0845
G01 X23.5403 Y-22.0754
G01 X22.4997 Y-22.0754
G01 X22.4116 Y-22.0845
G01 X22.2648 Y-22.1331
G01 X22.1338 Y-22.2139
G01 X22.1229 Y-22.2247
G01 X22.1180 Y-22.2291
G01 X22.1110 Y-22.2343
G01 X22.1054 Y-22.2378
G01 X22.0382 Y-22.2744
G01 X22.0256 Y-22.2794
G01 X22.0169 Y-22.2817
G01 X22.0102 Y-22.2828
G01 X21.9816 Y-22.2859
G01 X21.9718 Y-22.2864
G01 X20.8837 Y-22.2864
G01 X20.8749 Y-22.2860
G01 X20.8684 Y-22.2852
G01 X20.8599 Y-22.2833
G01 X20.7907 Y-22.2630
G01 X20.7822 Y-22.2601
G01 X20.7720 Y-22.2552
G01 X20.7643 Y-22.2505
G01 X20.7364 Y-22.2282
G01 X20.7310 Y-22.2232
G01 X20.3518 Y-21.8440
G01 X20.3432 Y-21.8341
G01 X20.3361 Y-21.8231
G01 X20.3016 Y-21.7598
G01 X20.2970 Y-21.7495
G01 X20.2943 Y-21.7408
G01 X20.2922 Y-21.7298
G01 X20.2886 Y-21.6938
G01 X20.2887 Y-21.5936
G01 X20.2896 Y-21.5844
G01 X20.2914 Y-21.5753
G01 X20.3105 Y-21.5080
G01 X20.3126 Y-21.5014
G01 X20.3153 Y-21.4950
G01 X20.3207 Y-21.4848
G01 X20.3809 Y-21.3872
G01 X20.4295 Y-21.2404
G01 X20.4386 Y-21.1523
G01 X20.4385 Y-20.1117
G01 X20.4295 Y-20.0236
G01 X20.3809 Y-19.8768
G01 X20.3207 Y-19.7792
G01 X20.3153 Y-19.7690
G01 X20.3126 Y-19.7626
G01 X20.3105 Y-19.7560
G01 X20.2914 Y-19.6887
G01 X20.2896 Y-19.6796
G01 X20.2887 Y-19.6704
G01 X20.2886 Y-18.0535
G01 X20.2832 Y-18.0421
G01 X20.2798 Y-18.0313
G01 X20.2777 Y-18.0203
G01 X20.2771 Y-18.0090
G01 X20.2771 Y-16.0840
G01 X20.2777 Y-16.0727
G01 X20.2798 Y-16.0617
G01 X20.2832 Y-16.0509
G01 X20.2886 Y-16.0395
G01 X20.2889 Y-16.0114
G01 X20.2927 Y-15.9643
G01 X20.2829 Y-15.8915
G01 X20.2747 Y-15.8165
G01 X20.2720 Y-15.8051
G01 X20.2452 Y-15.7319
G01 X20.2211 Y-15.6603
G01 X20.2160 Y-15.6498
G01 X20.1753 Y-15.5862
G01 X20.1351 Y-15.5194
G01 X20.1279 Y-15.5102
G01 X20.0728 Y-15.4550
G01 X20.0209 Y-15.4002
G01 X20.0056 Y-15.3876
G01 X20.0009 Y-15.3831
G01 X19.6416 Y-15.0238
G01 X19.6331 Y-15.0147
G01 X19.6037 Y-14.9800
G01 X19.5453 Y-14.9356
G01 X19.4864 Y-14.8883
G01 X19.4765 Y-14.8821
G01 X19.4080 Y-14.8504
G01 X19.3381 Y-14.8158
G01 X19.3270 Y-14.8119
G01 X19.2533 Y-14.7957
G01 X19.1777 Y-14.7769
G01 X19.1660 Y-14.7755
G01 X19.0880 Y-14.7754
G01 X19.0126 Y-14.7734
G01 X18.9929 Y-14.7752
G01 X18.9864 Y-14.7754
G01 X16.0461 Y-14.7754
G01 X16.0336 Y-14.7749
G01 X15.9883 Y-14.7713
G01 X15.9155 Y-14.7811
G01 X15.8405 Y-14.7893
G01 X15.8291 Y-14.7920
G01 X15.7838 Y-14.8085
G01 X15.7711 Y-14.8115
G01 X15.7624 Y-14.8125
G01 X15.6858 Y-14.8174
G01 X15.6767 Y-14.8168
G01 X15.6654 Y-14.8149
G01 X15.6567 Y-14.8124
G01 X15.6482 Y-14.8090
G01 X15.5809 Y-14.7721
G01 X15.5732 Y-14.7673
G01 X15.5642 Y-14.7602
G01 X15.5577 Y-14.7538
G01 X15.5518 Y-14.7468
G01 X15.5456 Y-14.7373
G01 X15.5093 Y-14.6698
G01 X15.5044 Y-14.6573
G01 X15.5026 Y-14.6508
G01 X15.5010 Y-14.6420
G01 X15.4981 Y-14.6140
G01 X15.4975 Y-14.6044
G01 X15.4975 Y-13.8711
G01 X15.4929 Y-13.8278
G01 X15.4469 Y-13.7045
G01 X15.4437 Y-13.6940
G01 X15.4415 Y-13.6811
G01 X15.4362 Y-13.6070
G01 X15.4363 Y-13.5961
G01 X15.4378 Y-13.5852
G01 X15.4392 Y-13.5788
G01 X15.4455 Y-13.5577
G01 X15.4929 Y-13.4302
G01 X15.4976 Y-13.3869
G01 X15.4975 Y-12.6011
G01 X15.4929 Y-12.5578
G01 X15.4513 Y-12.4462
G01 X15.3809 Y-12.3521
G01 X15.2868 Y-12.2817
G01 X15.1752 Y-12.2401
G01 X15.1320 Y-12.2355
G01 X12.1405 Y-12.2354
G01 X12.1296 Y-12.2348
G01 X12.1167 Y-12.2323
G01 X12.0432 Y-12.2106
G01 X12.0368 Y-12.2082
G01 X12.0307 Y-12.2052
G01 X12.0247 Y-12.2018
G01 X12.0190 Y-12.1979
G01 X12.0120 Y-12.1922
G01 X12.0055 Y-12.1857
G01 X11.9567 Y-12.1295
G01 X11.9500 Y-12.1202
G01 X11.9465 Y-12.1142
G01 X11.9435 Y-12.1080
G01 X11.9403 Y-12.0994
G01 X11.9379 Y-12.0906
G01 X11.9262 Y-12.0369
G01 X11.9248 Y-12.0261
G01 X11.9245 Y-11.8567
G01 X11.9155 Y-11.7686
G01 X11.8669 Y-11.6218
G01 X11.7861 Y-11.4908
G01 X11.6772 Y-11.3819
G01 X11.5462 Y-11.3011
G01 X11.3994 Y-11.2525
G01 X11.3113 Y-11.2434
G01 X10.7207 Y-11.2434
G01 X10.6326 Y-11.2525
G01 X10.4858 Y-11.3011
G01 X10.3548 Y-11.3819
G01 X10.2432 Y-11.4935
G01 X10.2367 Y-11.4994
G01 X10.2297 Y-11.5046
G01 X10.2242 Y-11.5081
G01 X10.1548 Y-11.5457
G01 X10.1441 Y-11.5497
G01 X10.1353 Y-11.5520
G01 X10.1240 Y-11.5536
G01 X10.1126 Y-11.5538
G01 X10.0338 Y-11.5479
G01 X10.0271 Y-11.5467
G01 X10.0183 Y-11.5442
G01 X10.0118 Y-11.5418
G01 X10.0036 Y-11.5379
G01 X9.9977 Y-11.5345
G01 X9.9921 Y-11.5306
G01 X9.9343 Y-11.4873
G01 X9.9258 Y-11.4797
G01 X9.9183 Y-11.4711
G01 X9.9119 Y-11.4616
G01 X9.9068 Y-11.4515
G01 X9.8807 Y-11.3817
G01 X9.8779 Y-11.3731
G01 X9.8760 Y-11.3642
G01 X9.8750 Y-11.3552
G01 X9.8746 Y-11.3441
G01 X9.8746 Y-11.1842
G01 X9.8753 Y-11.1727
G01 X9.8774 Y-11.1613
G01 X9.8965 Y-11.0940
G01 X9.9003 Y-11.0831
G01 X9.9033 Y-11.0769
G01 X9.9067 Y-11.0708
G01 X9.9669 Y-10.9732
G01 X10.0155 Y-10.8264
G01 X10.0246 Y-10.7383
G01 X10.0245 Y-9.6977
G01 X10.0155 Y-9.6096
G01 X9.9669 Y-9.4628
G01 X9.8861 Y-9.3318
G01 X9.7772 Y-9.2229
G01 X9.6462 Y-9.1421
G01 X9.4994 Y-9.0935
G01 X9.4113 Y-9.0844
G01 X8.8207 Y-9.0844
G01 X8.7326 Y-9.0935
G01 X8.5858 Y-9.1421
G01 X8.4548 Y-9.2229
G01 X8.3459 Y-9.3318
G01 X8.2651 Y-9.4628
G01 X8.2165 Y-9.6096
G01 X8.2074 Y-9.6977
G01 X8.2074 Y-10.7383
G01 X8.2165 Y-10.8264
G01 X8.2651 Y-10.9732
G01 X8.2842 Y-11.0044
G01 X8.2872 Y-11.0102
G01 X8.2904 Y-11.0183
G01 X8.3114 Y-11.0942
G01 X8.3132 Y-11.1032
G01 X8.3140 Y-11.1123
G01 X8.3141 Y-11.1191
G01 X8.3136 Y-11.1259
G01 X8.3126 Y-11.1327
G01 X8.3111 Y-11.1394
G01 X8.2875 Y-11.2148
G01 X8.2829 Y-11.2252
G01 X8.2770 Y-11.2350
G01 X8.2700 Y-11.2440
G01 X8.2619 Y-11.2520
G01 X8.2029 Y-11.3011
G01 X8.1934 Y-11.3074
G01 X8.1832 Y-11.3125
G01 X8.1724 Y-11.3162
G01 X8.1613 Y-11.3186
G01 X8.0875 Y-11.3278
G01 X8.0742 Y-11.3282
G01 X8.0610 Y-11.3267
G01 X8.0503 Y-11.3239
G01 X8.0009 Y-11.3056
G01 X7.9916 Y-11.3015
G01 X7.8434 Y-11.2525
G01 X7.7553 Y-11.2434
G01 X7.2239 Y-11.2432
G01 X7.2153 Y-11.2422
G01 X7.2067 Y-11.2403
G01 X7.1332 Y-11.2186
G01 X7.1247 Y-11.2152
G01 X7.1167 Y-11.2110
G01 X7.1090 Y-11.2059
G01 X7.1020 Y-11.2002
G01 X7.0940 Y-11.1920
G01 X7.0467 Y-11.1375
G01 X7.0413 Y-11.1301
G01 X7.0365 Y-11.1222
G01 X7.0318 Y-11.1118
G01 X7.0284 Y-11.1008
G01 X7.0162 Y-11.0449
G01 X7.0148 Y-11.0341
G01 X7.0146 Y-10.1523
G01 X7.0150 Y-10.1436
G01 X7.0158 Y-10.1371
G01 X7.0183 Y-10.1264
G01 X7.0386 Y-10.0572
G01 X7.0427 Y-10.0467
G01 X7.0481 Y-10.0368
G01 X7.0546 Y-10.0276
G01 X7.0761 Y-10.0014
G01 X7.1561 Y-9.9213
G01 X7.2736 Y-9.7535
G01 X7.3602 Y-9.5679
G01 X7.4132 Y-9.3700
G01 X7.4310 Y-9.1660
G01 X7.4132 Y-8.9620
G01 X7.3602 Y-8.7641
G01 X7.2736 Y-8.5785
G01 X7.1561 Y-8.4107
G01 X7.0113 Y-8.2659
G01 X6.9410 Y-8.2166
G01 X6.9310 Y-8.2081
G01 X6.9237 Y-8.2000
G01 X6.8786 Y-8.1436
G01 X6.8735 Y-8.1361
G01 X6.8681 Y-8.1260
G01 X6.8648 Y-8.1175
G01 X6.8618 Y-8.1065
G01 X6.8604 Y-8.0975
G01 X6.8532 Y-8.0280
G01 X6.8528 Y-8.0211
G01 X6.8530 Y-8.0120
G01 X6.8541 Y-8.0029
G01 X6.8560 Y-7.9940
G01 X6.8589 Y-7.9854
G01 X6.8616 Y-7.9791
G01 X6.8952 Y-7.9127
G01 X6.9010 Y-7.9032
G01 X6.9080 Y-7.8945
G01 X6.9160 Y-7.8867
G01 X6.9408 Y-7.8655
G01 X7.0113 Y-7.8161
G01 X7.1561 Y-7.6713
G01 X7.2736 Y-7.5035
G01 X7.3602 Y-7.3179
G01 X7.4132 Y-7.1200
G01 X7.4310 Y-6.9160
G01 X7.4132 Y-6.7120
G01 X7.3602 Y-6.5141
G01 X7.2736 Y-6.3285
G01 X7.1561 Y-6.1607
G01 X7.0113 Y-6.0159
G01 X6.8435 Y-5.8984
G01 X6.6579 Y-5.8118
G01 X6.4600 Y-5.7588
G01 X6.2560 Y-5.7410
G01 X6.0520 Y-5.7588
G01 X5.8541 Y-5.8118
G01 X5.6685 Y-5.8984
G01 X5.5007 Y-6.0159
G01 X5.3559 Y-6.1607
G01 X5.2384 Y-6.3285
G01 X5.1518 Y-6.5141
G01 X5.0988 Y-6.7120
G01 X5.0810 Y-6.9160
G01 X5.0988 Y-7.1200
G01 X5.1518 Y-7.3179
G01 X5.2384 Y-7.5035
G01 X5.3559 Y-7.6713
G01 X5.5007 Y-7.8161
G01 X5.5710 Y-7.8654
G01 X5.5810 Y-7.8739
G01 X5.5883 Y-7.8820
G01 X5.6360 Y-7.9421
G01 X5.6408 Y-7.9499
G01 X5.6448 Y-7.9581
G01 X5.6486 Y-7.9689
G01 X5.6506 Y-7.9778
G01 X5.6588 Y-8.0540
G01 X5.6592 Y-8.0609
G01 X5.6592 Y-8.0677
G01 X5.6583 Y-8.0768
G01 X5.6565 Y-8.0858
G01 X5.6539 Y-8.0945
G01 X5.6513 Y-8.1009
G01 X5.6168 Y-8.1693
G01 X5.6122 Y-8.1770
G01 X5.6069 Y-8.1842
G01 X5.5977 Y-8.1939
G01 X5.5731 Y-8.2151
G01 X5.5007 Y-8.2659
G01 X5.3559 Y-8.4107
G01 X5.2384 Y-8.5785
G01 X5.1518 Y-8.7641
G01 X5.0988 Y-8.9620
G01 X5.0810 Y-9.1660
G01 X5.0988 Y-9.3700
G01 X5.1518 Y-9.5679
G01 X5.2384 Y-9.7535
G01 X5.3559 Y-9.9213
G01 X5.4342 Y-9.9996
G01 X5.4387 Y-10.0044
G01 X5.4441 Y-10.0113
G01 X5.4499 Y-10.0206
G01 X5.4844 Y-10.0839
G01 X5.4897 Y-10.0963
G01 X5.4927 Y-10.1072
G01 X5.4938 Y-10.1139
G01 X5.4969 Y-10.1425
G01 X5.4974 Y-10.1523
G01 X5.4974 Y-11.0275
G01 X5.4968 Y-11.0384
G01 X5.4943 Y-11.0513
G01 X5.4726 Y-11.1248
G01 X5.4702 Y-11.1312
G01 X5.4672 Y-11.1373
G01 X5.4613 Y-11.1471
G01 X5.4542 Y-11.1560
G01 X5.4460 Y-11.1640
G01 X5.3915 Y-11.2113
G01 X5.3860 Y-11.2154
G01 X5.3782 Y-11.2204
G01 X5.3679 Y-11.2254
G01 X5.3570 Y-11.2291
G01 X5.2968 Y-11.2422
G01 X5.2859 Y-11.2433
G01 X5.2647 Y-11.2434
G01 X5.1766 Y-11.2525
G01 X5.0298 Y-11.3011
G01 X4.8988 Y-11.3819
G01 X4.7899 Y-11.4908
G01 X4.7091 Y-11.6218
G01 X4.6605 Y-11.7686
G01 X4.6514 Y-11.8567
G01 X4.6514 Y-12.8973
G01 X4.6605 Y-12.9854
G01 X4.7091 Y-13.1322
G01 X4.7693 Y-13.2298
G01 X4.7737 Y-13.2379
G01 X4.7765 Y-13.2443
G01 X4.7788 Y-13.2508
G01 X4.7991 Y-13.3226
G01 X4.8007 Y-13.3317
G01 X4.8014 Y-13.3432
G01 X4.8014 Y-13.5698
G01 X4.8007 Y-13.5813
G01 X4.7986 Y-13.5927
G01 X4.7795 Y-13.6600
G01 X4.7757 Y-13.6709
G01 X4.7727 Y-13.6771
G01 X4.7693 Y-13.6832
G01 X4.7091 Y-13.7808
G01 X4.6605 Y-13.9276
G01 X4.6514 Y-14.0157
G01 X4.6514 Y-15.0563
G00 Z2.0000
G00 X6.5376 Y-15.0326
G01 F10.00
G01 Z-0.0500
G01 F30.00
G01 X6.5370 Y-15.0110
G01 X6.5372 Y-14.0506
G01 X6.5394 Y-14.0054
G01 X6.5414 Y-13.9847
G01 X6.5481 Y-13.9399
G01 X6.5500 Y-13.9297
G01 X6.5545 Y-13.9095
G01 X6.5631 Y-13.8756
G01 X6.5660 Y-13.8656
G01 X6.5725 Y-13.8459
G01 X6.5808 Y-13.8228
G01 X6.5883 Y-13.8035
G01 X6.5967 Y-13.7845
G01 X6.6072 Y-13.7623
G01 X6.6165 Y-13.7438
G01 X6.6215 Y-13.7347
G01 X6.6448 Y-13.6958
G01 X6.6563 Y-13.6786
G01 X6.6833 Y-13.6422
G01 X6.6965 Y-13.6261
G01 X6.7033 Y-13.6184
G01 X6.7198 Y-13.6002
G01 X6.7341 Y-13.5851
G01 X6.7492 Y-13.5708
G01 X6.7674 Y-13.5543
G01 X6.7831 Y-13.5408
G01 X6.7994 Y-13.5280
G01 X6.8191 Y-13.5134
G01 X6.8361 Y-13.5014
G01 X6.8448 Y-13.4958
G01 X6.8837 Y-13.4725
G01 X6.9020 Y-13.4627
G01 X6.9148 Y-13.4565
G01 X6.8928 Y-13.4455
G01 X6.8747 Y-13.4353
G01 X6.8448 Y-13.4172
G01 X6.8361 Y-13.4116
G01 X6.8191 Y-13.3996
G01 X6.7912 Y-13.3787
G01 X6.7751 Y-13.3655
G01 X6.7416 Y-13.3351
G01 X6.7341 Y-13.3279
G01 X6.7198 Y-13.3128
G01 X6.6965 Y-13.2869
G01 X6.6833 Y-13.2708
G01 X6.6563 Y-13.2344
G01 X6.6448 Y-13.2172
G01 X6.6215 Y-13.1783
G01 X6.6117 Y-13.1600
G01 X6.5923 Y-13.1191
G01 X6.5844 Y-13.0999
G01 X6.5725 Y-13.0671
G01 X6.5660 Y-13.0474
G01 X6.5605 Y-13.0273
G01 X6.5521 Y-12.9934
G01 X6.5481 Y-12.9731
G01 X6.5428 Y-12.9386
G01 X6.5403 Y-12.9180
G01 X6.5394 Y-12.9076
G01 X6.5375 Y-12.8728
G01 X6.5370 Y-12.8520
G01 X6.5370 Y-12.4934
G01 X6.4830 Y-12.5474
G01 X6.4830 Y-12.8520
G01 X6.4825 Y-12.8728
G01 X6.4806 Y-12.9076
G01 X6.4797 Y-12.9180
G01 X6.4772 Y-12.9386
G01 X6.4736 Y-12.9628
G01 X6.4700 Y-12.9833
G01 X6.4655 Y-13.0035
G01 X6.4595 Y-13.0273
G01 X6.4540 Y-13.0474
G01 X6.4509 Y-13.0572
G01 X6.4356 Y-13.0999
G01 X6.4277 Y-13.1191
G01 X6.4083 Y-13.1600
G01 X6.4035 Y-13.1692
G01 X6.3933 Y-13.1873
G01 X6.3807 Y-13.2083
G01 X6.3696 Y-13.2259
G01 X6.3576 Y-13.2429
G01 X6.3331 Y-13.2753
G01 X6.3331 Y-13.6377
G01 X6.3576 Y-13.6701
G01 X6.3696 Y-13.6871
G01 X6.3807 Y-13.7047
G01 X6.3933 Y-13.7257
G01 X6.4035 Y-13.7438
G01 X6.4083 Y-13.7530
G01 X6.4233 Y-13.7845
G01 X6.4317 Y-13.8035
G01 X6.4392 Y-13.8228
G01 X6.4475 Y-13.8459
G01 X6.4540 Y-13.8656
G01 X6.4569 Y-13.8756
G01 X6.4655 Y-13.9095
G01 X6.4700 Y-13.9297
G01 X6.4736 Y-13.9502
G01 X6.4772 Y-13.9744
G01 X6.4797 Y-13.9950
G01 X6.4806 Y-14.0054
G01 X6.4825 Y-14.0402
G01 X6.4830 Y-14.0610
G01 X6.4830 Y-15.0110
G01 X6.4826 Y-15.0288
G01 X6.5376 Y-15.0326
G00 Z2.0000
G00 X6.8524 Y-15.4789
G01 F10.00
G01 Z-0.0500
G01 F30.00
G01 X6.8524 Y-15.3710
G01 X6.8425 Y-15.3607
G01 X6.8177 Y-15.3329
G01 X6.7953 Y-15.3033
G01 X6.7881 Y-15.2929
G01 X6.7687 Y-15.2612
G01 X6.7625 Y-15.2502
G01 X6.7568 Y-15.2389
G01 X6.7412 Y-15.2052
G01 X6.7366 Y-15.1934
G01 X6.7244 Y-15.1583
G01 X6.7151 Y-15.1223
G01 X6.7123 Y-15.1100
G01 X6.7065 Y-15.0733
G01 X6.7050 Y-15.0607
G01 X6.7026 Y-15.0173
G01 X6.7025 Y-14.0610
G01 X6.7041 Y-14.0239
G01 X6.7050 Y-14.0113
G01 X6.7065 Y-13.9987
G01 X6.7123 Y-13.9620
G01 X6.7210 Y-13.9259
G01 X6.7263 Y-13.9077
G01 X6.7412 Y-13.8668
G01 X6.7596 Y-13.8274
G01 X6.7687 Y-13.8108
G01 X6.7881 Y-13.7791
G01 X6.8138 Y-13.7440
G01 X6.8218 Y-13.7342
G01 X6.8468 Y-13.7067
G01 X6.8557 Y-13.6978
G01 X6.8785 Y-13.6770
G01 X6.8930 Y-13.6648
G01 X6.9177 Y-13.6463
G01 X6.9281 Y-13.6391
G01 X6.9387 Y-13.6323
G01 X6.9708 Y-13.6135
G01 X6.9821 Y-13.6078
G01 X7.0158 Y-13.5922
G01 X7.0276 Y-13.5876
G01 X7.0627 Y-13.5754
G01 X7.0987 Y-13.5661
G01 X7.1110 Y-13.5633
G01 X7.1477 Y-13.5575
G01 X7.1603 Y-13.5560
G01 X7.2037 Y-13.5536
G01 X7.7163 Y-13.5536
G01 X7.7534 Y-13.5554
G01 X7.7723 Y-13.5575
G01 X7.8090 Y-13.5633
G01 X7.8451 Y-13.5720
G01 X7.8633 Y-13.5773
G01 X7.8983 Y-13.5898
G01 X7.9157 Y-13.5973
G01 X7.9492 Y-13.6135
G01 X7.9813 Y-13.6323
G01 X7.9919 Y-13.6391
G01 X8.0220 Y-13.6610
G01 X8.0368 Y-13.6728
G01 X8.0643 Y-13.6978
G01 X8.0775 Y-13.7113
G01 X8.1023 Y-13.7391
G01 X8.1217 Y-13.7647
G01 X8.1039 Y-13.6995
G01 X8.1000 Y-13.6807
G01 X8.0982 Y-13.6681
G01 X8.0966 Y-13.6490
G01 X8.0965 Y-13.6298
G01 X8.0978 Y-13.6106
G01 X8.1005 Y-13.5917
G01 X8.1031 Y-13.5791
G01 X8.1082 Y-13.5606
G01 X8.1311 Y-13.4879
G01 X8.1380 Y-13.4700
G01 X8.1462 Y-13.4527
G01 X8.1523 Y-13.4415
G01 X8.1590 Y-13.4306
G01 X8.1663 Y-13.4200
G01 X8.1740 Y-13.4099
G01 X8.1866 Y-13.3954
G01 X8.2002 Y-13.3819
G01 X8.2098 Y-13.3734
G01 X8.2684 Y-13.3246
G01 X8.2839 Y-13.3133
G01 X8.3001 Y-13.3031
G01 X8.3171 Y-13.2942
G01 X8.3347 Y-13.2865
G01 X8.3528 Y-13.2802
G01 X8.3713 Y-13.2753
G01 X8.3902 Y-13.2717
G01 X8.4720 Y-13.2615
G01 X8.4843 Y-13.2605
G01 X8.4967 Y-13.2602
G01 X8.5091 Y-13.2604
G01 X8.5215 Y-13.2613
G01 X8.5338 Y-13.2627
G01 X8.5460 Y-13.2648
G01 X8.5581 Y-13.2674
G01 X8.5701 Y-13.2706
G01 X8.5881 Y-13.2766
G01 X8.5737 Y-13.2667
G01 X8.5441 Y-13.2443
G01 X8.5117 Y-13.2152
G01 X8.5028 Y-13.2063
G01 X8.4778 Y-13.1788
G01 X8.4698 Y-13.1690
G01 X8.4513 Y-13.1443
G01 X8.4406 Y-13.1286
G01 X8.4215 Y-13.0968
G01 X8.4156 Y-13.0856
G01 X8.4023 Y-13.0577
G01 X8.3948 Y-13.0403
G01 X8.3844 Y-13.0113
G01 X8.3804 Y-12.9993
G01 X8.3764 Y-12.9846
G01 X8.1996 Y-12.9846
G01 X8.1937 Y-13.0053
G01 X8.1788 Y-13.0462
G01 X8.1604 Y-13.0856
G01 X8.1513 Y-13.1022
G01 X8.1319 Y-13.1339
G01 X8.1062 Y-13.1690
G01 X8.0940 Y-13.1835
G01 X8.0732 Y-13.2063
G01 X8.0643 Y-13.2152
G01 X8.0319 Y-13.2443
G01 X8.0023 Y-13.2667
G01 X7.9866 Y-13.2774
G01 X7.9492 Y-13.2995
G01 X7.9100 Y-13.3183
G01 X7.8924 Y-13.3254
G01 X7.8573 Y-13.3376
G01 X7.8152 Y-13.3484
G01 X7.8028 Y-13.3509
G01 X7.7660 Y-13.3563
G01 X7.7534 Y-13.3576
G01 X7.7163 Y-13.3594
G01 X7.2100 Y-13.3595
G01 X7.1666 Y-13.3576
G01 X7.1477 Y-13.3555
G01 X7.1110 Y-13.3497
G01 X7.0749 Y-13.3410
G01 X7.0567 Y-13.3357
G01 X7.0158 Y-13.3208
G01 X6.9821 Y-13.3052
G01 X6.9652 Y-13.2965
G01 X6.9334 Y-13.2774
G01 X6.9177 Y-13.2667
G01 X6.8881 Y-13.2443
G01 X6.8785 Y-13.2360
G01 X6.8512 Y-13.2108
G01 X6.8260 Y-13.1835
G01 X6.8177 Y-13.1739
G01 X6.7953 Y-13.1443
G01 X6.7881 Y-13.1339
G01 X6.7687 Y-13.1022
G01 X6.7625 Y-13.0912
G01 X6.7568 Y-13.0799
G01 X6.7412 Y-13.0462
G01 X6.7366 Y-13.0344
G01 X6.7244 Y-12.9993
G01 X6.7151 Y-12.9633
G01 X6.7123 Y-12.9510
G01 X6.7065 Y-12.9143
G01 X6.7050 Y-12.9017
G01 X6.7041 Y-12.8891
G01 X6.7025 Y-12.8520
G01 X6.7025 Y-12.0925
G01 X6.6857 Y-12.1107
G01 X6.3175 Y-12.4789
G01 X6.3174 Y-12.8583
G01 X6.3150 Y-12.9017
G01 X6.3135 Y-12.9143
G01 X6.3077 Y-12.9510
G01 X6.2990 Y-12.9871
G01 X6.2956 Y-12.9993
G01 X6.2834 Y-13.0344
G01 X6.2763 Y-13.0520
G01 X6.2575 Y-13.0912
G01 X6.2513 Y-13.1022
G01 X6.2319 Y-13.1339
G01 X6.2100 Y-13.1640
G01 X6.1982 Y-13.1788
G01 X6.1775 Y-13.2017
G01 X6.1676 Y-13.2120
G01 X6.1676 Y-13.7010
G01 X6.1775 Y-13.7113
G01 X6.2023 Y-13.7391
G01 X6.2247 Y-13.7687
G01 X6.2319 Y-13.7791
G01 X6.2513 Y-13.8108
G01 X6.2575 Y-13.8218
G01 X6.2763 Y-13.8610
G01 X6.2812 Y-13.8727
G01 X6.2937 Y-13.9077
G01 X6.2974 Y-13.9198
G01 X6.3064 Y-13.9558
G01 X6.3089 Y-13.9682
G01 X6.3143 Y-14.0050
G01 X6.3156 Y-14.0176
G01 X6.3171 Y-14.0484
G01 X6.3175 Y-14.0610
G01 X6.3175 Y-15.0110
G01 X6.3156 Y-15.0544
G01 X6.3135 Y-15.0733
G01 X6.3077 Y-15.1100
G01 X6.2990 Y-15.1461
G01 X6.2937 Y-15.1643
G01 X6.2812 Y-15.1993
G01 X6.2737 Y-15.2167
G01 X6.2575 Y-15.2502
G01 X6.2388 Y-15.2821
G01 X6.2535 Y-15.2713
G01 X6.2691 Y-15.2616
G01 X6.3358 Y-15.2251
G01 X6.3471 Y-15.2192
G01 X6.3588 Y-15.2140
G01 X6.3767 Y-15.2072
G01 X6.3951 Y-15.2017
G01 X6.4138 Y-15.1976
G01 X6.4265 Y-15.1957
G01 X6.4392 Y-15.1944
G01 X6.4519 Y-15.1937
G01 X6.4647 Y-15.1937
G01 X6.4775 Y-15.1943
G01 X6.5472 Y-15.1992
G01 X6.5599 Y-15.2005
G01 X6.5789 Y-15.2035
G01 X6.5913 Y-15.2063
G01 X6.6098 Y-15.2116
G01 X6.6277 Y-15.2183
G01 X6.6451 Y-15.2264
G01 X6.6619 Y-15.2357
G01 X6.6727 Y-15.2425
G01 X6.6831 Y-15.2499
G01 X6.7441 Y-15.2957
G01 X6.7540 Y-15.3039
G01 X6.7634 Y-15.3125
G01 X6.7767 Y-15.3263
G01 X6.7850 Y-15.3361
G01 X6.7965 Y-15.3514
G01 X6.8068 Y-15.3676
G01 X6.8159 Y-15.3845
G01 X6.8212 Y-15.3961
G01 X6.8260 Y-15.4079
G01 X6.8524 Y-15.4789
G00 Z2.0000
G00 X8.0864 Y-15.3509
G01 F10.00
G01 Z-0.0500
G01 F30.00
G01 X8.0676 Y-15.3710
G01 X8.0676 Y-15.4149
G01 X8.0813 Y-15.3669
G01 X8.0864 Y-15.3509
G00 Z2.0000
G00 X8.0676 Y-15.8206
G01 F10.00
G01 Z-0.0500
G01 F30.00
G01 X8.0676 Y-15.8693
G01 X8.1138 Y-15.9154
G01 X8.0874 Y-15.8671
G01 X8.0816 Y-15.8559
G01 X8.0740 Y-15.8385
G01 X8.0676 Y-15.8206
G00 Z2.0000
G00 X8.0614 Y-17.6304
G01 F10.00
G01 Z-0.0500
G01 F30.00
G01 X8.0614 Y-17.5817
G01 X8.0152 Y-17.5356
G01 X8.0416 Y-17.5839
G01 X8.0474 Y-17.5951
G01 X8.0550 Y-17.6125
G01 X8.0614 Y-17.6304
G00 Z2.0000
G00 X9.8862 Y-14.5750
G01 F10.00
G01 Z-0.0500
G01 F30.00
G01 X9.8906 Y-14.6037
G01 X9.8988 Y-14.6363
G01 X9.9101 Y-14.6679
G01 X9.9244 Y-14.6982
G01 X9.9417 Y-14.7270
G01 X9.9617 Y-14.7539
G01 X9.9842 Y-14.7788
G01 X10.0057 Y-14.7984
G01 X10.0108 Y-14.8027
G01 X10.0323 Y-14.8187
G01 X10.0398 Y-14.8237
G01 X10.0668 Y-14.8396
G01 X10.0910 Y-14.8511
G01 X10.0994 Y-14.8545
G01 X10.1267 Y-14.8642
G01 X10.1593 Y-14.8724
G01 X10.1925 Y-14.8773
G01 X10.2237 Y-14.8789
G01 X11.1760 Y-14.8789
G01 X11.2050 Y-14.8776
G01 X11.2140 Y-14.8768
G01 X11.2405 Y-14.8728
G01 X11.2471 Y-14.8714
G01 X11.2753 Y-14.8642
G01 X11.3026 Y-14.8545
G01 X11.3110 Y-14.8511
G01 X11.3372 Y-14.8386
G01 X11.3660 Y-14.8213
G01 X11.3929 Y-14.8013
G01 X11.4145 Y-14.7819
G01 X11.4209 Y-14.7755
G01 X11.4389 Y-14.7557
G01 X11.4431 Y-14.7504
G01 X11.4603 Y-14.7270
G01 X11.4729 Y-14.7061
G01 X15.0890 Y-14.7059
G01 X15.1003 Y-14.7053
G01 X15.1135 Y-14.7026
G01 X15.1200 Y-14.7006
G01 X15.1283 Y-14.6971
G01 X15.1343 Y-14.6940
G01 X15.1419 Y-14.6892
G01 X15.1473 Y-14.6851
G01 X15.1540 Y-14.6790
G01 X15.1586 Y-14.6741
G01 X15.1642 Y-14.6669
G01 X15.1679 Y-14.6613
G01 X15.1721 Y-14.6533
G01 X15.1756 Y-14.6450
G01 X15.1776 Y-14.6385
G01 X15.1792 Y-14.6319
G01 X15.1805 Y-14.6230
G01 X15.1809 Y-14.6140
G01 X15.1809 Y-13.9140
G01 X15.1803 Y-13.9027
G01 X15.1787 Y-13.8939
G01 X15.1763 Y-13.8852
G01 X15.1740 Y-13.8788
G01 X15.1701 Y-13.8707
G01 X15.1655 Y-13.8629
G01 X15.1615 Y-13.8574
G01 X15.1556 Y-13.8506
G01 X15.1507 Y-13.8459
G01 X15.1456 Y-13.8415
G01 X15.1382 Y-13.8363
G01 X15.1323 Y-13.8329
G01 X15.1242 Y-13.8290
G01 X15.1157 Y-13.8260
G01 X15.1091 Y-13.8243
G01 X15.1003 Y-13.8227
G01 X15.0935 Y-13.8222
G01 X11.4418 Y-13.8219
G01 X11.4178 Y-13.7952
G01 X11.3929 Y-13.7727
G01 X11.3660 Y-13.7527
G01 X11.3372 Y-13.7354
G01 X11.3069 Y-13.7211
G01 X11.2753 Y-13.7098
G01 X11.2427 Y-13.7016
G01 X11.2095 Y-13.6967
G01 X11.1760 Y-13.6951
G01 X10.2260 Y-13.6951
G01 X10.1902 Y-13.6969
G01 X10.1593 Y-13.7016
G01 X10.1311 Y-13.7086
G01 X10.1225 Y-13.7112
G01 X10.0951 Y-13.7211
G01 X10.0688 Y-13.7334
G01 X10.0609 Y-13.7377
G01 X10.0360 Y-13.7527
G01 X10.0091 Y-13.7727
G01 X9.9842 Y-13.7952
G01 X9.9646 Y-13.8167
G01 X9.9589 Y-13.8236
G01 X9.9417 Y-13.8470
G01 X9.9267 Y-13.8719
G01 X9.9224 Y-13.8798
G01 X9.9101 Y-13.9061
G01 X9.9002 Y-13.9335
G01 X9.8976 Y-13.9421
G01 X9.8911 Y-13.9681
G01 X9.8898 Y-13.9747
G01 X9.8857 Y-14.0035
G01 X9.8841 Y-14.0347
G01 X9.8841 Y-14.5370
G01 X9.8854 Y-14.5660
G01 X9.8862 Y-14.5750
G00 Z2.0000
G00 X9.8071 Y-13.3600
G01 F10.00
G01 Z-0.0500
G01 F30.00
G01 X9.8401 Y-13.3980
G01 X9.8534 Y-13.4142
G01 X9.8660 Y-13.4311
G01 X9.8719 Y-13.4397
G01 X9.8835 Y-13.4580
G01 X9.8997 Y-13.4485
G01 X9.9180 Y-13.4387
G01 X9.9589 Y-13.4193
G01 X9.9781 Y-13.4114
G01 X10.0109 Y-13.3995
G01 X10.0306 Y-13.3930
G01 X10.0507 Y-13.3875
G01 X10.0745 Y-13.3815
G01 X10.0947 Y-13.3770
G01 X10.1152 Y-13.3734
G01 X10.1497 Y-13.3684
G01 X10.1704 Y-13.3664
G01 X10.1807 Y-13.3657
G01 X10.2052 Y-13.3645
G01 X10.2260 Y-13.3640
G01 X10.3294 Y-13.3640
G01 X10.3052 Y-13.3422
G01 X10.2901 Y-13.3279
G01 X10.2758 Y-13.3128
G01 X10.2593 Y-13.2946
G01 X10.2458 Y-13.2789
G01 X10.2330 Y-13.2626
G01 X10.2184 Y-13.2429
G01 X10.2064 Y-13.2259
G01 X10.1953 Y-13.2083
G01 X10.1775 Y-13.1783
G01 X10.1677 Y-13.1600
G01 X10.1483 Y-13.1191
G01 X10.1404 Y-13.0999
G01 X10.1285 Y-13.0671
G01 X10.1220 Y-13.0474
G01 X10.1191 Y-13.0374
G01 X10.1105 Y-13.0035
G01 X10.1060 Y-12.9833
G01 X10.1024 Y-12.9628
G01 X10.0974 Y-12.9283
G01 X10.0954 Y-12.9076
G01 X10.0935 Y-12.8728
G01 X10.0930 Y-12.8520
G01 X10.0930 Y-11.9020
G01 X10.0934 Y-11.8842
G01 X10.0384 Y-11.8804
G01 X10.0390 Y-11.9020
G01 X10.0390 Y-12.8520
G01 X10.0385 Y-12.8728
G01 X10.0373 Y-12.8973
G01 X10.0357 Y-12.9180
G01 X10.0332 Y-12.9386
G01 X10.0296 Y-12.9628
G01 X10.0260 Y-12.9833
G01 X10.0215 Y-13.0035
G01 X10.0129 Y-13.0374
G01 X10.0069 Y-13.0572
G01 X9.9952 Y-13.0902
G01 X9.9877 Y-13.1095
G01 X9.9793 Y-13.1285
G01 X9.9643 Y-13.1600
G01 X9.9545 Y-13.1783
G01 X9.9367 Y-13.2083
G01 X9.9256 Y-13.2259
G01 X9.9136 Y-13.2429
G01 X9.8990 Y-13.2626
G01 X9.8862 Y-13.2789
G01 X9.8727 Y-13.2946
G01 X9.8491 Y-13.3204
G01 X9.8344 Y-13.3351
G01 X9.8071 Y-13.3600
G00 Z2.0000
G00 X9.4605 Y-13.3505
G01 F10.00
G01 Z-0.0500
G01 F30.00
G01 X9.4802 Y-13.3555
G01 X9.5472 Y-13.3752
G01 X9.5594 Y-13.3791
G01 X9.5713 Y-13.3836
G01 X9.5831 Y-13.3887
G01 X9.6002 Y-13.3974
G01 X9.6112 Y-13.4039
G01 X9.6218 Y-13.4109
G01 X9.6321 Y-13.4185
G01 X9.6421 Y-13.4266
G01 X9.6562 Y-13.4396
G01 X9.6692 Y-13.4536
G01 X9.7150 Y-13.5064
G01 X9.7270 Y-13.5213
G01 X9.7344 Y-13.5318
G01 X9.7444 Y-13.5481
G01 X9.7505 Y-13.5594
G01 X9.7559 Y-13.5709
G01 X9.7608 Y-13.5828
G01 X9.7651 Y-13.5948
G01 X9.7688 Y-13.6071
G01 X9.7718 Y-13.6195
G01 X9.7753 Y-13.6383
G01 X9.7852 Y-13.7075
G01 X9.7872 Y-13.7267
G01 X9.7878 Y-13.7395
G01 X9.7874 Y-13.7588
G01 X9.7864 Y-13.7716
G01 X9.7841 Y-13.7879
G01 X9.8041 Y-13.7551
G01 X9.8260 Y-13.7250
G01 X9.8378 Y-13.7102
G01 X9.8672 Y-13.6782
G01 X9.8992 Y-13.6488
G01 X9.9140 Y-13.6370
G01 X9.9441 Y-13.6151
G01 X9.9758 Y-13.5957
G01 X9.9924 Y-13.5866
G01 X10.0318 Y-13.5682
G01 X10.0667 Y-13.5554
G01 X10.0848 Y-13.5496
G01 X10.1270 Y-13.5393
G01 X10.1637 Y-13.5335
G01 X10.1826 Y-13.5314
G01 X10.2260 Y-13.5295
G01 X11.1760 Y-13.5295
G01 X11.2131 Y-13.5311
G01 X11.2257 Y-13.5320
G01 X11.2383 Y-13.5335
G01 X11.2750 Y-13.5393
G01 X11.3111 Y-13.5480
G01 X11.3233 Y-13.5514
G01 X11.3353 Y-13.5554
G01 X11.3643 Y-13.5658
G01 X11.3760 Y-13.5707
G01 X11.4152 Y-13.5895
G01 X11.4526 Y-13.6116
G01 X11.4631 Y-13.6186
G01 X11.4930 Y-13.6408
G01 X11.5028 Y-13.6488
G01 X11.5112 Y-13.6564
G01 X14.1265 Y-13.6564
G01 X15.0890 Y-13.6565
G01 X15.1016 Y-13.6569
G01 X15.1142 Y-13.6578
G01 X15.1268 Y-13.6593
G01 X15.1392 Y-13.6615
G01 X15.1577 Y-13.6659
G01 X15.1698 Y-13.6695
G01 X15.1817 Y-13.6738
G01 X15.1933 Y-13.6786
G01 X15.2048 Y-13.6840
G01 X15.2159 Y-13.6900
G01 X15.2267 Y-13.6965
G01 X15.2372 Y-13.7035
G01 X15.2474 Y-13.7110
G01 X15.2572 Y-13.7190
G01 X15.2665 Y-13.7275
G01 X15.2755 Y-13.7365
G01 X15.2877 Y-13.7502
G01 X15.2844 Y-13.7390
G01 X15.2815 Y-13.7271
G01 X15.2791 Y-13.7150
G01 X15.2774 Y-13.7029
G01 X15.2713 Y-13.6210
G01 X15.2706 Y-13.6026
G01 X15.2709 Y-13.5904
G01 X15.2718 Y-13.5782
G01 X15.2742 Y-13.5600
G01 X15.2765 Y-13.5479
G01 X15.2794 Y-13.5360
G01 X15.2877 Y-13.5078
G01 X15.2755 Y-13.5215
G01 X15.2665 Y-13.5305
G01 X15.2572 Y-13.5390
G01 X15.2474 Y-13.5470
G01 X15.2372 Y-13.5545
G01 X15.2267 Y-13.5615
G01 X15.2104 Y-13.5711
G01 X15.1991 Y-13.5767
G01 X15.1875 Y-13.5819
G01 X15.1757 Y-13.5864
G01 X15.1577 Y-13.5921
G01 X15.1454 Y-13.5952
G01 X15.1330 Y-13.5977
G01 X15.1205 Y-13.5995
G01 X15.1079 Y-13.6008
G01 X15.0953 Y-13.6014
G01 X11.6330 Y-13.6016
G01 X11.6204 Y-13.6013
G01 X11.5797 Y-13.5993
G01 X11.5609 Y-13.5972
G01 X11.5145 Y-13.5900
G01 X11.4688 Y-13.5788
G01 X11.4506 Y-13.5736
G01 X11.4063 Y-13.5577
G01 X11.3889 Y-13.5503
G01 X11.3522 Y-13.5328
G01 X11.3356 Y-13.5237
G01 X11.2954 Y-13.4992
G01 X11.2575 Y-13.4715
G01 X11.2475 Y-13.4637
G01 X11.2380 Y-13.4555
G01 X11.2079 Y-13.4281
G01 X11.1391 Y-13.3595
G01 X10.7660 Y-13.3595
G01 X10.7226 Y-13.3576
G01 X10.7100 Y-13.3563
G01 X10.6795 Y-13.3519
G01 X10.6670 Y-13.3497
G01 X10.6547 Y-13.3469
G01 X10.6187 Y-13.3376
G01 X10.6067 Y-13.3336
G01 X10.5718 Y-13.3208
G01 X10.5324 Y-13.3024
G01 X10.5158 Y-13.2933
G01 X10.4841 Y-13.2739
G01 X10.4490 Y-13.2482
G01 X10.4345 Y-13.2360
G01 X10.4072 Y-13.2108
G01 X10.3778 Y-13.1788
G01 X10.3660 Y-13.1640
G01 X10.3441 Y-13.1339
G01 X10.3247 Y-13.1022
G01 X10.3156 Y-13.0856
G01 X10.2972 Y-13.0462
G01 X10.2823 Y-13.0053
G01 X10.2770 Y-12.9871
G01 X10.2683 Y-12.9510
G01 X10.2625 Y-12.9143
G01 X10.2604 Y-12.8954
G01 X10.2585 Y-12.8520
G01 X10.2585 Y-11.9020
G01 X10.2601 Y-11.8649
G01 X10.2617 Y-11.8460
G01 X10.2683 Y-11.8030
G01 X10.2770 Y-11.7669
G01 X10.2823 Y-11.7487
G01 X10.2948 Y-11.7137
G01 X10.3023 Y-11.6963
G01 X10.3185 Y-11.6628
G01 X10.3372 Y-11.6309
G01 X10.3225 Y-11.6417
G01 X10.3069 Y-11.6514
G01 X10.2402 Y-11.6879
G01 X10.2289 Y-11.6938
G01 X10.2172 Y-11.6990
G01 X10.1993 Y-11.7058
G01 X10.1809 Y-11.7113
G01 X10.1622 Y-11.7154
G01 X10.1495 Y-11.7173
G01 X10.1368 Y-11.7186
G01 X10.1241 Y-11.7193
G01 X10.1113 Y-11.7193
G01 X10.0985 Y-11.7187
G01 X10.0288 Y-11.7138
G01 X10.0161 Y-11.7125
G01 X9.9971 Y-11.7095
G01 X9.9785 Y-11.7051
G01 X9.9662 Y-11.7014
G01 X9.9483 Y-11.6947
G01 X9.9309 Y-11.6866
G01 X9.9141 Y-11.6773
G01 X9.9033 Y-11.6705
G01 X9.8929 Y-11.6631
G01 X9.8319 Y-11.6173
G01 X9.8220 Y-11.6091
G01 X9.8126 Y-11.6005
G01 X9.7993 Y-11.5867
G01 X9.7910 Y-11.5769
G01 X9.7795 Y-11.5616
G01 X9.7692 Y-11.5454
G01 X9.7601 Y-11.5285
G01 X9.7548 Y-11.5169
G01 X9.7500 Y-11.5051
G01 X9.7236 Y-11.4341
G01 X9.7236 Y-11.5420
G01 X9.7335 Y-11.5523
G01 X9.7542 Y-11.5752
G01 X9.7622 Y-11.5850
G01 X9.7807 Y-11.6097
G01 X9.7879 Y-11.6201
G01 X9.7947 Y-11.6307
G01 X9.8105 Y-11.6572
G01 X9.8192 Y-11.6741
G01 X9.8348 Y-11.7078
G01 X9.8394 Y-11.7196
G01 X9.8516 Y-11.7547
G01 X9.8609 Y-11.7907
G01 X9.8637 Y-11.8030
G01 X9.8695 Y-11.8397
G01 X9.8710 Y-11.8523
G01 X9.8719 Y-11.8649
G01 X9.8735 Y-11.9020
G01 X9.8735 Y-12.8520
G01 X9.8716 Y-12.8954
G01 X9.8695 Y-12.9143
G01 X9.8637 Y-12.9510
G01 X9.8550 Y-12.9871
G01 X9.8516 Y-12.9993
G01 X9.8476 Y-13.0113
G01 X9.8348 Y-13.0462
G01 X9.8192 Y-13.0799
G01 X9.8135 Y-13.0912
G01 X9.8073 Y-13.1022
G01 X9.7914 Y-13.1286
G01 X9.7844 Y-13.1391
G01 X9.7583 Y-13.1739
G01 X9.7292 Y-13.2063
G01 X9.7203 Y-13.2152
G01 X9.6975 Y-13.2360
G01 X9.6879 Y-13.2443
G01 X9.6780 Y-13.2520
G01 X9.6479 Y-13.2739
G01 X9.6162 Y-13.2933
G01 X9.6052 Y-13.2995
G01 X9.5939 Y-13.3052
G01 X9.5602 Y-13.3208
G01 X9.5253 Y-13.3336
G01 X9.5133 Y-13.3376
G01 X9.5011 Y-13.3410
G01 X9.4712 Y-13.3484
G01 X9.4605 Y-13.3505
G00 Z2.0000
G00 X10.4262 Y-12.8900
G01 F10.00
G01 Z-0.0500
G01 F30.00
G01 X10.4306 Y-12.9187
G01 X10.4376 Y-12.9469
G01 X10.4402 Y-12.9555
G01 X10.4492 Y-12.9808
G01 X10.4644 Y-13.0132
G01 X10.4793 Y-13.0382
G01 X10.4843 Y-13.0457
G01 X10.5017 Y-13.0689
G01 X10.5211 Y-13.0905
G01 X10.5275 Y-13.0969
G01 X10.5491 Y-13.1163
G01 X10.5723 Y-13.1337
G01 X10.5798 Y-13.1387
G01 X10.6048 Y-13.1536
G01 X10.6310 Y-13.1661
G01 X10.6394 Y-13.1695
G01 X10.6667 Y-13.1792
G01 X10.6971 Y-13.1869
G01 X10.7325 Y-13.1923
G01 X10.7615 Y-13.1938
G01 X11.2077 Y-13.1939
G01 X11.3220 Y-13.3082
G01 X11.3525 Y-13.3358
G01 X11.3893 Y-13.3628
G01 X11.4207 Y-13.3817
G01 X11.4286 Y-13.3859
G01 X11.4638 Y-13.4025
G01 X11.5004 Y-13.4157
G01 X11.5090 Y-13.4183
G01 X11.5467 Y-13.4276
G01 X11.5897 Y-13.4340
G01 X11.6330 Y-13.4361
G01 X15.0913 Y-13.4359
G01 X15.0980 Y-13.4355
G01 X15.1069 Y-13.4342
G01 X15.1157 Y-13.4320
G01 X15.1242 Y-13.4290
G01 X15.1323 Y-13.4251
G01 X15.1382 Y-13.4217
G01 X15.1456 Y-13.4165
G01 X15.1524 Y-13.4106
G01 X15.1571 Y-13.4057
G01 X15.1629 Y-13.3988
G01 X15.1679 Y-13.3913
G01 X15.1711 Y-13.3853
G01 X15.1748 Y-13.3771
G01 X15.1776 Y-13.3685
G01 X15.1792 Y-13.3619
G01 X15.1805 Y-13.3530
G01 X15.1809 Y-13.3440
G01 X15.1807 Y-12.6372
G01 X15.1792 Y-12.6261
G01 X15.1763 Y-12.6152
G01 X15.1721 Y-12.6047
G01 X15.1655 Y-12.5929
G01 X15.1586 Y-12.5839
G01 X15.1491 Y-12.5744
G01 X15.1382 Y-12.5663
G01 X15.1283 Y-12.5609
G01 X15.1200 Y-12.5574
G01 X15.1091 Y-12.5543
G01 X15.0980 Y-12.5525
G01 X15.0890 Y-12.5521
G01 X11.8161 Y-12.5519
G01 X11.6079 Y-12.3437
G01 X11.6079 Y-11.9020
G01 X11.6065 Y-11.8707
G01 X11.6014 Y-11.8353
G01 X11.5932 Y-11.8027
G01 X11.5819 Y-11.7711
G01 X11.5676 Y-11.7408
G01 X11.5527 Y-11.7158
G01 X11.5477 Y-11.7083
G01 X11.5303 Y-11.6851
G01 X11.5109 Y-11.6635
G01 X11.5045 Y-11.6571
G01 X11.4829 Y-11.6377
G01 X11.4560 Y-11.6177
G01 X11.4311 Y-11.6027
G01 X11.4232 Y-11.5984
G01 X11.3969 Y-11.5861
G01 X11.3695 Y-11.5762
G01 X11.3609 Y-11.5736
G01 X11.3327 Y-11.5666
G01 X11.2995 Y-11.5617
G01 X11.2660 Y-11.5601
G01 X10.7660 Y-11.5601
G01 X10.7325 Y-11.5617
G01 X10.7015 Y-11.5662
G01 X10.6667 Y-11.5748
G01 X10.6351 Y-11.5861
G01 X10.6048 Y-11.6004
G01 X10.5760 Y-11.6177
G01 X10.5491 Y-11.6377
G01 X10.5242 Y-11.6602
G01 X10.5017 Y-11.6851
G01 X10.4817 Y-11.7120
G01 X10.4644 Y-11.7408
G01 X10.4519 Y-11.7670
G01 X10.4485 Y-11.7754
G01 X10.4388 Y-11.8027
G01 X10.4316 Y-11.8309
G01 X10.4298 Y-11.8397
G01 X10.4257 Y-11.8685
G01 X10.4242 Y-11.8975
G01 X10.4241 Y-12.8520
G01 X10.4254 Y-12.8810
G01 X10.4262 Y-12.8900
G00 Z2.0000
G00 X12.0538 Y-12.3864
G01 F10.00
G01 Z-0.0500
G01 F30.00
G01 X12.0009 Y-12.3708
G01 X11.9887 Y-12.3669
G01 X11.9709 Y-12.3600
G01 X11.9593 Y-12.3546
G01 X11.9424 Y-12.3454
G01 X11.9263 Y-12.3351
G01 X11.9160 Y-12.3275
G01 X11.9061 Y-12.3194
G01 X11.8920 Y-12.3064
G01 X11.8789 Y-12.2924
G01 X11.8290 Y-12.2347
G01 X11.8173 Y-12.2194
G01 X11.8068 Y-12.2032
G01 X11.8004 Y-12.1920
G01 X11.7947 Y-12.1805
G01 X11.7871 Y-12.1627
G01 X11.7828 Y-12.1506
G01 X11.7792 Y-12.1382
G01 X11.7735 Y-12.1135
G01 X11.7735 Y-12.2751
G01 X11.8847 Y-12.3864
G01 X12.0538 Y-12.3864
G00 Z2.0000
G00 X11.5312 Y-14.8993
G01 F10.00
G01 Z-0.0500
G01 F30.00
G01 X11.5447 Y-14.8936
G01 X11.5629 Y-14.8871
G01 X11.6172 Y-14.8716
G01 X11.5572 Y-14.8716
G01 X11.5392 Y-14.8913
G01 X11.5312 Y-14.8993
G00 Z2.0000
G00 X9.7236 Y-11.0969
G01 F10.00
G01 Z-0.0500
G01 F30.00
G01 X9.7373 Y-11.0489
G01 X9.7424 Y-11.0329
G01 X9.7236 Y-11.0530
G01 X9.7236 Y-11.0969
G00 Z2.0000
G00 X8.4543 Y-10.9893
G01 F10.00
G01 Z-0.0500
G01 F30.00
G01 X8.4721 Y-11.0545
G01 X8.4749 Y-11.0670
G01 X8.4778 Y-11.0859
G01 X8.4794 Y-11.1050
G01 X8.4795 Y-11.1242
G01 X8.4782 Y-11.1434
G01 X8.4755 Y-11.1623
G01 X8.4713 Y-11.1811
G01 X8.4678 Y-11.1934
G01 X8.4449 Y-11.2661
G01 X8.4380 Y-11.2840
G01 X8.4298 Y-11.3013
G01 X8.4237 Y-11.3125
G01 X8.4170 Y-11.3234
G01 X8.4097 Y-11.3340
G01 X8.4020 Y-11.3441
G01 X8.3894 Y-11.3586
G01 X8.3805 Y-11.3678
G01 X8.3662 Y-11.3806
G01 X8.3076 Y-11.4294
G01 X8.2921 Y-11.4407
G01 X8.2759 Y-11.4509
G01 X8.2589 Y-11.4598
G01 X8.2413 Y-11.4675
G01 X8.2232 Y-11.4738
G01 X8.2047 Y-11.4787
G01 X8.1858 Y-11.4823
G01 X8.1040 Y-11.4925
G01 X8.0917 Y-11.4935
G01 X8.0793 Y-11.4938
G01 X8.0669 Y-11.4936
G01 X8.0545 Y-11.4927
G01 X8.0422 Y-11.4913
G01 X8.0300 Y-11.4892
G01 X8.0179 Y-11.4866
G01 X8.0059 Y-11.4834
G01 X7.9879 Y-11.4774
G01 X8.0023 Y-11.4873
G01 X8.0319 Y-11.5097
G01 X8.0643 Y-11.5388
G01 X8.0732 Y-11.5477
G01 X8.0982 Y-11.5752
G01 X8.1062 Y-11.5850
G01 X8.1247 Y-11.6097
G01 X8.1354 Y-11.6254
G01 X8.1545 Y-11.6572
G01 X8.1604 Y-11.6684
G01 X8.1737 Y-11.6963
G01 X8.1812 Y-11.7137
G01 X8.1916 Y-11.7427
G01 X8.1956 Y-11.7547
G01 X8.1996 Y-11.7694
G01 X8.3764 Y-11.7694
G01 X8.3823 Y-11.7487
G01 X8.3972 Y-11.7078
G01 X8.4128 Y-11.6741
G01 X8.4215 Y-11.6572
G01 X8.4441 Y-11.6201
G01 X8.4660 Y-11.5900
G01 X8.4778 Y-11.5752
G01 X8.4985 Y-11.5523
G01 X8.5084 Y-11.5420
G01 X8.5084 Y-11.0530
G01 X8.4985 Y-11.0427
G01 X8.4778 Y-11.0198
G01 X8.4698 Y-11.0100
G01 X8.4543 Y-10.9893
G00 Z2.0000
G00 X7.1548 Y-11.3976
G01 F10.00
G01 Z-0.0500
G01 F30.00
G01 X7.0848 Y-11.3770
G01 X7.0727 Y-11.3728
G01 X7.0551 Y-11.3653
G01 X7.0380 Y-11.3566
G01 X7.0270 Y-11.3501
G01 X7.0163 Y-11.3431
G01 X7.0010 Y-11.3315
G01 X6.9866 Y-11.3189
G01 X6.9731 Y-11.3052
G01 X6.9231 Y-11.2476
G01 X6.9110 Y-11.2326
G01 X6.9001 Y-11.2167
G01 X6.8935 Y-11.2056
G01 X6.8875 Y-11.1943
G01 X6.8820 Y-11.1826
G01 X6.8771 Y-11.1707
G01 X6.8728 Y-11.1586
G01 X6.8692 Y-11.1462
G01 X6.8636 Y-11.1223
G01 X6.8636 Y-11.5315
G01 X6.8832 Y-11.5138
G01 X6.8930 Y-11.5058
G01 X6.9281 Y-11.4801
G01 X6.9598 Y-11.4607
G01 X6.9708 Y-11.4545
G01 X7.0043 Y-11.4383
G01 X7.0158 Y-11.4332
G01 X7.0276 Y-11.4286
G01 X7.0567 Y-11.4183
G01 X7.0688 Y-11.4146
G01 X7.1110 Y-11.4043
G01 X7.1235 Y-11.4021
G01 X7.1548 Y-11.3976
G00 Z2.0000
G00 X6.8681 Y-11.9020
G01 F10.00
G01 Z-0.0500
G01 F30.00
G01 X6.8681 Y-12.8520
G01 X6.8697 Y-12.8855
G01 X6.8742 Y-12.9165
G01 X6.8828 Y-12.9513
G01 X6.8925 Y-12.9786
G01 X6.8959 Y-12.9870
G01 X6.9084 Y-13.0132
G01 X6.9233 Y-13.0382
G01 X6.9283 Y-13.0457
G01 X6.9457 Y-13.0689
G01 X6.9682 Y-13.0938
G01 X6.9897 Y-13.1134
G01 X6.9966 Y-13.1191
G01 X7.0200 Y-13.1363
G01 X7.0449 Y-13.1513
G01 X7.0528 Y-13.1556
G01 X7.0771 Y-13.1670
G01 X7.1107 Y-13.1792
G01 X7.1433 Y-13.1874
G01 X7.1765 Y-13.1923
G01 X7.2077 Y-13.1939
G01 X7.7123 Y-13.1939
G01 X7.7435 Y-13.1923
G01 X7.7723 Y-13.1882
G01 X7.7811 Y-13.1864
G01 X7.8071 Y-13.1799
G01 X7.8135 Y-13.1778
G01 X7.8409 Y-13.1679
G01 X7.8712 Y-13.1536
G01 X7.9000 Y-13.1363
G01 X7.9234 Y-13.1191
G01 X7.9303 Y-13.1134
G01 X7.9502 Y-13.0954
G01 X7.9549 Y-13.0905
G01 X7.9743 Y-13.0689
G01 X7.9943 Y-13.0420
G01 X8.0116 Y-13.0132
G01 X8.0241 Y-12.9870
G01 X8.0268 Y-12.9808
G01 X8.0358 Y-12.9555
G01 X8.0384 Y-12.9469
G01 X8.0454 Y-12.9187
G01 X8.0503 Y-12.8855
G01 X8.0519 Y-12.8543
G01 X8.0519 Y-12.8191
G01 X8.5241 Y-12.8191
G01 X8.5241 Y-12.8543
G01 X8.5259 Y-12.8878
G01 X8.5306 Y-12.9187
G01 X8.5388 Y-12.9513
G01 X8.5501 Y-12.9829
G01 X8.5644 Y-13.0132
G01 X8.5817 Y-13.0420
G01 X8.5989 Y-13.0654
G01 X8.6046 Y-13.0723
G01 X8.6226 Y-13.0922
G01 X8.6457 Y-13.1134
G01 X8.6508 Y-13.1177
G01 X8.6723 Y-13.1337
G01 X8.6798 Y-13.1387
G01 X8.7048 Y-13.1536
G01 X8.7351 Y-13.1679
G01 X8.7667 Y-13.1792
G01 X8.7993 Y-13.1874
G01 X8.8325 Y-13.1923
G01 X8.8660 Y-13.1939
G01 X9.3660 Y-13.1939
G01 X9.3995 Y-13.1923
G01 X9.4283 Y-13.1882
G01 X9.4371 Y-13.1864
G01 X9.4653 Y-13.1792
G01 X9.4969 Y-13.1679
G01 X9.5272 Y-13.1536
G01 X9.5522 Y-13.1387
G01 X9.5597 Y-13.1337
G01 X9.5847 Y-13.1149
G01 X9.6078 Y-13.0938
G01 X9.6303 Y-13.0689
G01 X9.6503 Y-13.0420
G01 X9.6653 Y-13.0171
G01 X9.6696 Y-13.0092
G01 X9.6810 Y-12.9849
G01 X9.6835 Y-12.9786
G01 X9.6932 Y-12.9513
G01 X9.7004 Y-12.9231
G01 X9.7022 Y-12.9143
G01 X9.7063 Y-12.8855
G01 X9.7079 Y-12.8543
G01 X9.7079 Y-11.9020
G01 X9.7061 Y-11.8662
G01 X9.7014 Y-11.8353
G01 X9.6932 Y-11.8027
G01 X9.6819 Y-11.7711
G01 X9.6696 Y-11.7448
G01 X9.6653 Y-11.7369
G01 X9.6503 Y-11.7120
G01 X9.6331 Y-11.6886
G01 X9.6289 Y-11.6833
G01 X9.6109 Y-11.6635
G01 X9.6045 Y-11.6571
G01 X9.5829 Y-11.6377
G01 X9.5581 Y-11.6192
G01 X9.5581 Y-10.9758
G01 X9.5794 Y-10.9601
G01 X9.5863 Y-10.9544
G01 X9.6078 Y-10.9348
G01 X9.6274 Y-10.9133
G01 X9.6331 Y-10.9064
G01 X9.6503 Y-10.8830
G01 X9.6676 Y-10.8542
G01 X9.6819 Y-10.8239
G01 X9.6918 Y-10.7965
G01 X9.6944 Y-10.7879
G01 X9.7014 Y-10.7597
G01 X9.7058 Y-10.7310
G01 X9.7066 Y-10.7220
G01 X9.7079 Y-10.6953
G01 X9.7079 Y-9.7430
G01 X9.7065 Y-9.7117
G01 X9.7022 Y-9.6807
G01 X9.7004 Y-9.6719
G01 X9.6932 Y-9.6437
G01 X9.6819 Y-9.6121
G01 X9.6676 Y-9.5818
G01 X9.6527 Y-9.5568
G01 X9.6477 Y-9.5493
G01 X9.6289 Y-9.5243
G01 X9.6078 Y-9.5012
G01 X9.5829 Y-9.4787
G01 X9.5560 Y-9.4587
G01 X9.5311 Y-9.4437
G01 X9.5232 Y-9.4394
G01 X9.4989 Y-9.4280
G01 X9.4695 Y-9.4172
G01 X9.4609 Y-9.4146
G01 X9.4349 Y-9.4081
G01 X9.4283 Y-9.4068
G01 X9.3995 Y-9.4027
G01 X9.3660 Y-9.4011
G01 X8.8660 Y-9.4011
G01 X8.8347 Y-9.4025
G01 X8.8037 Y-9.4068
G01 X8.7949 Y-9.4086
G01 X8.7667 Y-9.4158
G01 X8.7394 Y-9.4255
G01 X8.7310 Y-9.4289
G01 X8.7048 Y-9.4414
G01 X8.6798 Y-9.4563
G01 X8.6723 Y-9.4613
G01 X8.6491 Y-9.4787
G01 X8.6275 Y-9.4981
G01 X8.6211 Y-9.5045
G01 X8.6017 Y-9.5261
G01 X8.5843 Y-9.5493
G01 X8.5793 Y-9.5568
G01 X8.5644 Y-9.5818
G01 X8.5519 Y-9.6080
G01 X8.5485 Y-9.6164
G01 X8.5388 Y-9.6437
G01 X8.5306 Y-9.6763
G01 X8.5257 Y-9.7095
G01 X8.5241 Y-9.7407
G01 X8.5241 Y-10.6930
G01 X8.5254 Y-10.7220
G01 X8.5262 Y-10.7310
G01 X8.5306 Y-10.7597
G01 X8.5388 Y-10.7923
G01 X8.5501 Y-10.8239
G01 X8.5624 Y-10.8502
G01 X8.5667 Y-10.8581
G01 X8.5817 Y-10.8830
G01 X8.5989 Y-10.9064
G01 X8.6031 Y-10.9117
G01 X8.6211 Y-10.9315
G01 X8.6275 Y-10.9379
G01 X8.6491 Y-10.9573
G01 X8.6739 Y-10.9758
G01 X8.6739 Y-11.6192
G01 X8.6526 Y-11.6349
G01 X8.6457 Y-11.6406
G01 X8.6242 Y-11.6602
G01 X8.6046 Y-11.6817
G01 X8.5989 Y-11.6886
G01 X8.5817 Y-11.7120
G01 X8.5667 Y-11.7369
G01 X8.5624 Y-11.7448
G01 X8.5501 Y-11.7711
G01 X8.5402 Y-11.7985
G01 X8.5376 Y-11.8071
G01 X8.5306 Y-11.8353
G01 X8.5255 Y-11.8707
G01 X8.5241 Y-11.8997
G01 X8.5241 Y-11.9349
G01 X8.0519 Y-11.9349
G01 X8.0519 Y-11.8997
G01 X8.0501 Y-11.8662
G01 X8.0454 Y-11.8353
G01 X8.0365 Y-11.8006
G01 X8.0259 Y-11.7711
G01 X8.0116 Y-11.7408
G01 X7.9943 Y-11.7120
G01 X7.9771 Y-11.6886
G01 X7.9714 Y-11.6817
G01 X7.9518 Y-11.6602
G01 X7.9303 Y-11.6406
G01 X7.9252 Y-11.6363
G01 X7.9037 Y-11.6203
G01 X7.8962 Y-11.6153
G01 X7.8732 Y-11.6015
G01 X7.8450 Y-11.5879
G01 X7.8366 Y-11.5845
G01 X7.8093 Y-11.5748
G01 X7.7767 Y-11.5666
G01 X7.7435 Y-11.5617
G01 X7.7123 Y-11.5601
G01 X7.2055 Y-11.5602
G01 X7.1765 Y-11.5617
G01 X7.1433 Y-11.5666
G01 X7.1107 Y-11.5748
G01 X7.0791 Y-11.5861
G01 X7.0528 Y-11.5984
G01 X7.0449 Y-11.6027
G01 X7.0200 Y-11.6177
G01 X6.9931 Y-11.6377
G01 X6.9682 Y-11.6602
G01 X6.9486 Y-11.6817
G01 X6.9429 Y-11.6886
G01 X6.9257 Y-11.7120
G01 X6.9084 Y-11.7408
G01 X6.8959 Y-11.7670
G01 X6.8925 Y-11.7754
G01 X6.8828 Y-11.8027
G01 X6.8746 Y-11.8353
G01 X6.8702 Y-11.8640
G01 X6.8694 Y-11.8730
G01 X6.8681 Y-11.9020
G00 Z2.0000
G00 X6.8636 Y-10.0656
G01 F10.00
G01 Z-0.0500
G01 F30.00
G01 X6.8792 Y-10.0127
G01 X6.8852 Y-9.9948
G01 X6.8899 Y-9.9830
G01 X6.8952 Y-9.9716
G01 X6.9010 Y-9.9604
G01 X6.9067 Y-9.9507
G01 X6.8928 Y-9.9618
G01 X6.8636 Y-9.9834
G01 X6.8636 Y-10.0656
G00 Z2.0000
G00 X6.7911 Y-8.2993
G01 F10.00
G01 Z-0.0500
G01 F30.00
G01 X6.7468 Y-8.2437
G01 X6.7358 Y-8.2280
G01 X6.7291 Y-8.2171
G01 X6.7230 Y-8.2059
G01 X6.7174 Y-8.1944
G01 X6.7102 Y-8.1766
G01 X6.7061 Y-8.1645
G01 X6.7026 Y-8.1522
G01 X6.6997 Y-8.1398
G01 X6.6974 Y-8.1272
G01 X6.6958 Y-8.1145
G01 X6.6886 Y-8.0450
G01 X6.6873 Y-8.0259
G01 X6.6873 Y-8.0131
G01 X6.6879 Y-8.0003
G01 X6.6891 Y-7.9876
G01 X6.6909 Y-7.9749
G01 X6.6934 Y-7.9624
G01 X6.6965 Y-7.9500
G01 X6.7002 Y-7.9377
G01 X6.7045 Y-7.9257
G01 X6.7094 Y-7.9139
G01 X6.7149 Y-7.9023
G01 X6.7464 Y-7.8400
G01 X6.7523 Y-7.8290
G01 X6.7588 Y-7.8182
G01 X6.7657 Y-7.8079
G01 X6.7732 Y-7.7978
G01 X6.7801 Y-7.7894
G01 X6.7476 Y-7.8089
G01 X6.7310 Y-7.8180
G01 X6.6519 Y-7.8554
G01 X6.6343 Y-7.8624
G01 X6.5639 Y-7.8876
G01 X6.5459 Y-7.8933
G01 X6.4672 Y-7.9131
G01 X6.4549 Y-7.9159
G01 X6.4424 Y-7.9180
G01 X6.3685 Y-7.9290
G01 X6.3559 Y-7.9306
G01 X6.3433 Y-7.9315
G01 X6.2686 Y-7.9351
G01 X6.2560 Y-7.9355
G01 X6.2434 Y-7.9351
G01 X6.1687 Y-7.9315
G01 X6.1561 Y-7.9306
G01 X6.1435 Y-7.9290
G01 X6.0696 Y-7.9180
G01 X6.0571 Y-7.9159
G01 X6.0448 Y-7.9131
G01 X5.9661 Y-7.8933
G01 X5.9481 Y-7.8876
G01 X5.8777 Y-7.8624
