(G-CODE GENERATED BY FLATCAM v8.994 - www.flatcam.org - Version Date: 2020/11/7)

(Name: AD831_Mixer.drl_cnc)
(Type: G-code from Geometry)
(Units: MM)

(Created on Sunday, 27 August 2023 at 15:05)

(This preprocessor is the default preprocessor used by FlatCAM.)
(It is made to work with MACH3 compatible motion controllers.)


(TOOLS DIAMETER: )
(Tool: 1 -> Dia: 0.4)
(Tool: 2 -> Dia: 0.762)
(Tool: 3 -> Dia: 1.0)
(Tool: 4 -> Dia: 1.2)

(FEEDRATE Z: )
(Tool: 1 -> Feedrate: 30.0)
(Tool: 2 -> Feedrate: 300)
(Tool: 3 -> Feedrate: 60.0)
(Tool: 4 -> Feedrate: 300)

(FEEDRATE RAPIDS: )
(Tool: 1 -> Feedrate Rapids: 1500.0)
(Tool: 2 -> Feedrate Rapids: 1500)
(Tool: 3 -> Feedrate Rapids: 1500.0)
(Tool: 4 -> Feedrate Rapids: 1500)

(Z_CUT: )
(Tool: 1 -> Z_Cut: -1.7)
(Tool: 2 -> Z_Cut: -1.7)
(Tool: 3 -> Z_Cut: -1.7)
(Tool: 4 -> Z_Cut: -1.7)

(Tools Offset: )
(Tool: 4 -> Offset Z: 0.0)

(Z_MOVE: )
(Tool: 1 -> Z_Move: 2.0)
(Tool: 2 -> Z_Move: 2)
(Tool: 3 -> Z_Move: 2.0)
(Tool: 4 -> Z_Move: 2)

(Z Toolchange: 25.0 mm)
(X,Y Toolchange: 0.0000, 0.0000 mm)
(Z Start: None mm)
(Z End: 0.5 mm)
(X,Y End: None mm)
(Steps per circle: 64)
(Preprocessor Excellon: default)

(X range:    1.3390 ...   38.5060  mm)
(Y range:  -33.5000 ...   -0.4930  mm)

(Spindle Speed: 12000 RPM)
G21
G90
G94

G01 F300.00

M5
G00 Z25.0000
T4
G00 X0.0000 Y0.0000                
(M6)
(MSG, Change to Tool Dia = 1.2000 ||| Total drills for tool T4 = 4)
M0
G00 Z25.0000

G01 F300.00
M03 S12000
G00 X3.9700 Y-18.0280
G01 Z-1.7000
G01 Z0
G00 Z2.0000
G00 X4.0060 Y-10.5360
G01 Z-1.7000
G01 Z0
G00 Z2.0000
G00 X4.0060 Y-3.2960
G01 Z-1.7000
G01 Z0
G00 Z2.0000
G00 X3.9700 Y-25.2680
G01 Z-1.7000
G01 Z0
G00 Z2.0000
M05
G00 Z0.50


