(G-CODE GENERATED BY FLATCAM v8.994 - www.flatcam.org - Version Date: 2020/11/7)

(Name: AD831_Mixer.drl_cnc)
(Type: G-code from Geometry)
(Units: MM)

(Created on Sunday, 27 August 2023 at 15:03)

(This preprocessor is the default preprocessor used by FlatCAM.)
(It is made to work with MACH3 compatible motion controllers.)


(TOOLS DIAMETER: )
(Tool: 1 -> Dia: 0.4)
(Tool: 2 -> Dia: 0.762)
(Tool: 3 -> Dia: 1.0)
(Tool: 4 -> Dia: 1.2)

(FEEDRATE Z: )
(Tool: 1 -> Feedrate: 30.0)
(Tool: 2 -> Feedrate: 300)
(Tool: 3 -> Feedrate: 60.0)
(Tool: 4 -> Feedrate: 300)

(FEEDRATE RAPIDS: )
(Tool: 1 -> Feedrate Rapids: 1500.0)
(Tool: 2 -> Feedrate Rapids: 1500)
(Tool: 3 -> Feedrate Rapids: 1500.0)
(Tool: 4 -> Feedrate Rapids: 1500)

(Z_CUT: )
(Tool: 1 -> Z_Cut: -1.7)
(Tool: 2 -> Z_Cut: -1.7)
(Tool: 3 -> Z_Cut: -1.7)
(Tool: 4 -> Z_Cut: -1.7)

(Tools Offset: )
(Tool: 1 -> Offset Z: 0.0)

(Z_MOVE: )
(Tool: 1 -> Z_Move: 2.0)
(Tool: 2 -> Z_Move: 2)
(Tool: 3 -> Z_Move: 2.0)
(Tool: 4 -> Z_Move: 2)

(Z Toolchange: 25.0 mm)
(X,Y Toolchange: 0.0000, 0.0000 mm)
(Z Start: None mm)
(Z End: 0.5 mm)
(X,Y End: None mm)
(Steps per circle: 64)
(Preprocessor Excellon: default)

(X range:    1.3390 ...   38.5060  mm)
(Y range:  -33.5000 ...   -0.4930  mm)

(Spindle Speed: 12000 RPM)
G21
G90
G94

G01 F30.00

M5
G00 Z25.0000
T1
G00 X0.0000 Y0.0000                
(M6)
(MSG, Change to Tool Dia = 0.4000 ||| Total drills for tool T1 = 25)
M0
G00 Z25.0000

G01 F30.00
M03 S12000
G4 P1
G00 X1.8110 Y-27.2360
G01 Z-1.7000
G01 Z0
G00 Z2.0000
G00 X2.0000 Y-33.0000
G01 Z-1.7000
G01 Z0
G00 Z2.0000
G00 X8.6690 Y-31.4270
G01 Z-1.7000
G01 Z0
G00 Z2.0000
G00 X12.0000 Y-33.0000
G01 Z-1.7000
G01 Z0
G00 Z2.0000
G00 X15.6540 Y-29.3950
G01 Z-1.7000
G01 Z0
G00 Z2.0000
G00 X23.0200 Y-32.9510
G01 Z-1.7000
G01 Z0
G00 Z2.0000
G00 X38.0000 Y-33.0000
G01 Z-1.7000
G01 Z0
G00 Z2.0000
G00 X29.1410 Y-32.9760
G01 Z-1.7000
G01 Z0
G00 Z2.0000
G00 X23.0200 Y-26.6010
G01 Z-1.7000
G01 Z0
G00 Z2.0000
G00 X23.5280 Y-20.6320
G01 Z-1.7000
G01 Z0
G00 Z2.0000
G00 X27.4650 Y-14.7900
G01 Z-1.7000
G01 Z0
G00 Z2.0000
G00 X33.5100 Y-20.7080
G01 Z-1.7000
G01 Z0
G00 Z2.0000
G00 X34.5010 Y-17.0250
G01 Z-1.7000
G01 Z0
G00 Z2.0000
G00 X38.0000 Y-2.0000
G01 Z-1.7000
G01 Z0
G00 Z2.0000
G00 X32.0000 Y-2.0000
G01 Z-1.7000
G01 Z0
G00 Z2.0000
G00 X27.4650 Y-2.8520
G01 Z-1.7000
G01 Z0
G00 Z2.0000
G00 X25.3060 Y-4.2490
G01 Z-1.7000
G01 Z0
G00 Z2.0000
G00 X18.1940 Y-0.6930
G01 Z-1.7000
G01 Z0
G00 Z2.0000
G00 X13.1140 Y-3.3600
G01 Z-1.7000
G01 Z0
G00 Z2.0000
G00 X13.1140 Y-6.9160
G01 Z-1.7000
G01 Z0
G00 Z2.0000
G00 X9.1770 Y-4.6300
G01 Z-1.7000
G01 Z0
G00 Z2.0000
G00 X2.0000 Y-2.0000
G01 Z-1.7000
G01 Z0
G00 Z2.0000
G00 X3.9700 Y-13.5200
G01 Z-1.7000
G01 Z0
G00 Z2.0000
G00 X10.7010 Y-20.6320
G01 Z-1.7000
G01 Z0
G00 Z2.0000
G00 X10.7010 Y-25.0770
G01 Z-1.7000
G01 Z0
G00 Z2.0000
M05
G00 Z0.50


