(G-CODE GENERATED BY FLATCAM v8.994 - www.flatcam.org - Version Date: 2020/11/7)

(Name: BPF_TX_INJ-F_Cu.gbr_iso_combined_cnc)
(Type: G-code from Geometry)
(Units: MM)

(Created on Sunday, 24 September 2023 at 18:17)

(This preprocessor is used with a motion controller loaded with GRBL firmware.)
(It is configured to be compatible with almost any version of GRBL firmware.)

(TOOL DIAMETER: 0.1839 mm)
(Feedrate_XY: 30.0 mm/min)
(Feedrate_Z: 10.0 mm/min)
(Feedrate rapids 1500.0 mm/min)

(Z_Cut: -0.05 mm)
(DepthPerCut: 0.05 mm <=>1 passes)
(Z_Move: 2.0 mm)
(Z Start: None mm)
(Z End: 15.0 mm)
(X,Y End: None mm)
(Steps per circle: 64)
(Steps per circle: 64)
(Preprocessor Geometry: GRBL_11_no_M6)

(X range:   -0.2570 ...  100.2570  mm)
(Y range:  -55.2570 ...    0.2570  mm)

(Spindle Speed: 12000.0 RPM)
G21
G90
G17
G94


G01 F30.00

M5             
G00 Z15.0000
G00 X0.0000 Y0.0000                
T2
(MSG, Change to Tool Dia = 0.1839)
M0
G00 Z15.0000
        
G00 Z2.0000
M03 S12000.0
G4 P1.0
G01 F30.00
G00 X5.3319 Y-14.5078
G01 F10.00
G01 Z-0.0500
G01 F30.00
G01 X5.3319 Y-14.2500 F30.00
G01 X5.3313 Y-14.2387 F30.00
G01 X5.3292 Y-14.2277 F30.00
G01 X5.3266 Y-14.2190 F30.00
G01 X5.3241 Y-14.2127 F30.00
G01 X5.3177 Y-14.2008 F30.00
G01 X5.3125 Y-14.1934 F30.00
G01 X5.3081 Y-14.1883 F30.00
G01 X5.2983 Y-14.1789 F30.00
G01 X5.2873 Y-14.1711 F30.00
G01 X5.2793 Y-14.1669 F30.00
G01 X5.2731 Y-14.1642 F30.00
G01 X5.2601 Y-14.1603 F30.00
G01 X5.2468 Y-14.1583 F30.00
G01 X0.1600 Y-14.1581 F30.00
G01 X0.1487 Y-14.1587 F30.00
G01 X0.1377 Y-14.1608 F30.00
G01 X0.1290 Y-14.1634 F30.00
G01 X0.1227 Y-14.1659 F30.00
G01 X0.1108 Y-14.1723 F30.00
G01 X0.1052 Y-14.1761 F30.00
G01 X0.0983 Y-14.1819 F30.00
G01 X0.0889 Y-14.1917 F30.00
G01 X0.0835 Y-14.1989 F30.00
G01 X0.0800 Y-14.2047 F30.00
G01 X0.0742 Y-14.2169 F30.00
G01 X0.0703 Y-14.2299 F30.00
G01 X0.0687 Y-14.2387 F30.00
G01 X0.0682 Y-14.2455 F30.00
G01 X0.0681 Y-15.7500 F30.00
G01 X0.0687 Y-15.7613 F30.00
G01 X0.0708 Y-15.7723 F30.00
G01 X0.0750 Y-15.7852 F30.00
G01 X0.0789 Y-15.7933 F30.00
G01 X0.0823 Y-15.7992 F30.00
G01 X0.0875 Y-15.8066 F30.00
G01 X0.0919 Y-15.8117 F30.00
G01 X0.1017 Y-15.8211 F30.00
G01 X0.1127 Y-15.8289 F30.00
G01 X0.1207 Y-15.8331 F30.00
G01 X0.1269 Y-15.8358 F30.00
G01 X0.1355 Y-15.8386 F30.00
G01 X0.1421 Y-15.8402 F30.00
G01 X0.1487 Y-15.8413 F30.00
G01 X0.1577 Y-15.8419 F30.00
G01 X5.2423 Y-15.8419 F30.00
G01 X5.2557 Y-15.8406 F30.00
G01 X5.2645 Y-15.8386 F30.00
G01 X5.2710 Y-15.8366 F30.00
G01 X5.2833 Y-15.8311 F30.00
G01 X5.2892 Y-15.8277 F30.00
G01 X5.2966 Y-15.8225 F30.00
G01 X5.3066 Y-15.8134 F30.00
G01 X5.3111 Y-15.8083 F30.00
G01 X5.3165 Y-15.8011 F30.00
G01 X5.3211 Y-15.7933 F30.00
G01 X5.3241 Y-15.7873 F30.00
G01 X5.3266 Y-15.7810 F30.00
G01 X5.3292 Y-15.7723 F30.00
G01 X5.3313 Y-15.7613 F30.00
G01 X5.3319 Y-15.7500 F30.00
G01 X5.3319 Y-15.4921 F30.00
G01 X10.0301 Y-15.4922 F30.00
G01 X15.6079 Y-21.0699 F30.00
G01 X15.6079 Y-24.1540 F30.00
G01 X15.6100 Y-24.2000 F30.00
G01 X15.6173 Y-24.2500 F30.00
G01 X15.6290 Y-24.2969 F30.00
G01 X15.6453 Y-24.3423 F30.00
G01 X15.6639 Y-24.3820 F30.00
G01 X15.6682 Y-24.3899 F30.00
G01 X15.6908 Y-24.4274 F30.00
G01 X15.7168 Y-24.4627 F30.00
G01 X15.7225 Y-24.4696 F30.00
G01 X15.7489 Y-24.4987 F30.00
G01 X15.7553 Y-24.5051 F30.00
G01 X15.7878 Y-24.5344 F30.00
G01 X15.8285 Y-24.5644 F30.00
G01 X15.8680 Y-24.5880 F30.00
G01 X15.9075 Y-24.6069 F30.00
G01 X15.9159 Y-24.6103 F30.00
G01 X15.9571 Y-24.6250 F30.00
G01 X15.9996 Y-24.6357 F30.00
G01 X16.0084 Y-24.6375 F30.00
G01 X16.0518 Y-24.6438 F30.00
G01 X16.0977 Y-24.6461 F30.00
G01 X21.5060 Y-24.6461 F30.00
G01 X21.5497 Y-24.6441 F30.00
G01 X21.5587 Y-24.6432 F30.00
G01 X21.6020 Y-24.6367 F30.00
G01 X21.6445 Y-24.6262 F30.00
G01 X21.6531 Y-24.6235 F30.00
G01 X21.6943 Y-24.6087 F30.00
G01 X21.7380 Y-24.5880 F30.00
G01 X21.7756 Y-24.5656 F30.00
G01 X21.7831 Y-24.5606 F30.00
G01 X21.8147 Y-24.5372 F30.00
G01 X21.8216 Y-24.5315 F30.00
G01 X21.8540 Y-24.5020 F30.00
G01 X22.6176 Y-23.7384 F30.00
G01 X22.6484 Y-23.7042 F30.00
G01 X22.6746 Y-23.6691 F30.00
G01 X22.6796 Y-23.6616 F30.00
G01 X22.7020 Y-23.6240 F30.00
G01 X22.7227 Y-23.5803 F30.00
G01 X22.7375 Y-23.5391 F30.00
G01 X22.7402 Y-23.5305 F30.00
G01 X22.7507 Y-23.4880 F30.00
G01 X22.7572 Y-23.4447 F30.00
G01 X22.7581 Y-23.4357 F30.00
G01 X22.7601 Y-23.3943 F30.00
G01 X22.7578 Y-23.3438 F30.00
G01 X22.7515 Y-23.3004 F30.00
G01 X22.7501 Y-23.2935 F30.00
G01 X22.7499 Y-21.0240 F30.00
G01 X22.7490 Y-21.0105 F30.00
G01 X22.7460 Y-20.9973 F30.00
G01 X22.7411 Y-20.9847 F30.00
G01 X22.7345 Y-20.9729 F30.00
G01 X22.7305 Y-20.9674 F30.00
G01 X22.7246 Y-20.9606 F30.00
G01 X22.7146 Y-20.9515 F30.00
G01 X22.7033 Y-20.9440 F30.00
G01 X22.6911 Y-20.9382 F30.00
G01 X22.6781 Y-20.9343 F30.00
G01 X22.6648 Y-20.9323 F30.00
G01 X21.8580 Y-20.9321 F30.00
G01 X21.8490 Y-20.9325 F30.00
G01 X21.8401 Y-20.9338 F30.00
G01 X21.8313 Y-20.9360 F30.00
G01 X21.8228 Y-20.9390 F30.00
G01 X21.8147 Y-20.9429 F30.00
G01 X21.8069 Y-20.9475 F30.00
G01 X21.8014 Y-20.9515 F30.00
G01 X21.7946 Y-20.9574 F30.00
G01 X21.7884 Y-20.9639 F30.00
G01 X21.7828 Y-20.9711 F30.00
G01 X21.7780 Y-20.9787 F30.00
G01 X21.7739 Y-20.9867 F30.00
G01 X21.7707 Y-20.9952 F30.00
G01 X21.7683 Y-21.0039 F30.00
G01 X21.7667 Y-21.0127 F30.00
G01 X21.7662 Y-21.0195 F30.00
G01 X21.7658 Y-23.1981 F30.00
G01 X21.3021 Y-23.6619 F30.00
G01 X16.5921 Y-23.6618 F30.00
G01 X16.5921 Y-20.8637 F30.00
G01 X16.5898 Y-20.8178 F30.00
G01 X16.5835 Y-20.7744 F30.00
G01 X16.5817 Y-20.7656 F30.00
G01 X16.5710 Y-20.7231 F30.00
G01 X16.5547 Y-20.6777 F30.00
G01 X16.5361 Y-20.6380 F30.00
G01 X16.5318 Y-20.6301 F30.00
G01 X16.5092 Y-20.5926 F30.00
G01 X16.4804 Y-20.5538 F30.00
G01 X16.4480 Y-20.5180 F30.00
G01 X10.5820 Y-14.6520 F30.00
G01 X10.5462 Y-14.6196 F30.00
G01 X10.5074 Y-14.5908 F30.00
G01 X10.4699 Y-14.5682 F30.00
G01 X10.4620 Y-14.5639 F30.00
G01 X10.4265 Y-14.5471 F30.00
G01 X10.4181 Y-14.5437 F30.00
G01 X10.3769 Y-14.5290 F30.00
G01 X10.3300 Y-14.5173 F30.00
G01 X10.2822 Y-14.5102 F30.00
G01 X10.2363 Y-14.5079 F30.00
G01 X5.3319 Y-14.5078 F30.00
G00 Z2.0000
G00 X17.3659 Y-11.2420
G01 F10.00
G01 Z-0.0500
G01 F30.00
G01 X17.3659 Y-21.9240 F30.00
G01 X17.3663 Y-22.8308 F30.00
G01 X17.3674 Y-22.8397 F30.00
G01 X17.3688 Y-22.8463 F30.00
G01 X17.3707 Y-22.8528 F30.00
G01 X17.3739 Y-22.8613 F30.00
G01 X17.3769 Y-22.8673 F30.00
G01 X17.3815 Y-22.8751 F30.00
G01 X17.3855 Y-22.8806 F30.00
G01 X17.3914 Y-22.8874 F30.00
G01 X17.3979 Y-22.8936 F30.00
G01 X17.4051 Y-22.8992 F30.00
G01 X17.4107 Y-22.9029 F30.00
G01 X17.4187 Y-22.9071 F30.00
G01 X17.4270 Y-22.9106 F30.00
G01 X17.4335 Y-22.9126 F30.00
G01 X17.4423 Y-22.9146 F30.00
G01 X17.4490 Y-22.9155 F30.00
G01 X17.4580 Y-22.9159 F30.00
G01 X18.2648 Y-22.9157 F30.00
G01 X18.2737 Y-22.9146 F30.00
G01 X18.2825 Y-22.9126 F30.00
G01 X18.2911 Y-22.9098 F30.00
G01 X18.2993 Y-22.9061 F30.00
G01 X18.3072 Y-22.9017 F30.00
G01 X18.3128 Y-22.8979 F30.00
G01 X18.3197 Y-22.8921 F30.00
G01 X18.3261 Y-22.8857 F30.00
G01 X18.3319 Y-22.8788 F30.00
G01 X18.3369 Y-22.8713 F30.00
G01 X18.3401 Y-22.8653 F30.00
G01 X18.3438 Y-22.8571 F30.00
G01 X18.3466 Y-22.8485 F30.00
G01 X18.3486 Y-22.8397 F30.00
G01 X18.3497 Y-22.8308 F30.00
G01 X18.3499 Y-22.8240 F30.00
G01 X18.3502 Y-11.4459 F30.00
G01 X20.3496 Y-9.4464 F30.00
G01 X20.3804 Y-9.4122 F30.00
G01 X20.4104 Y-9.3715 F30.00
G01 X20.4351 Y-9.3300 F30.00
G01 X20.4538 Y-9.2904 F30.00
G01 X20.4591 Y-9.2764 F30.00
G01 X20.4759 Y-9.2609 F30.00
G01 X20.4950 Y-9.2401 F30.00
G01 X20.5158 Y-9.2120 F30.00
G01 X20.5303 Y-9.1877 F30.00
G01 X20.5433 Y-9.1601 F30.00
G01 X20.5536 Y-9.1314 F30.00
G01 X20.5605 Y-9.1041 F30.00
G01 X20.5655 Y-9.0717 F30.00
G01 X20.5669 Y-9.0412 F30.00
G01 X20.5669 Y-8.2788 F30.00
G01 X20.5656 Y-8.2505 F30.00
G01 X20.5618 Y-8.2226 F30.00
G01 X20.5600 Y-8.2137 F30.00
G01 X20.5536 Y-8.1886 F30.00
G01 X20.5433 Y-8.1599 F30.00
G01 X20.5303 Y-8.1323 F30.00
G01 X20.5170 Y-8.1099 F30.00
G01 X20.5133 Y-8.1043 F30.00
G01 X20.4992 Y-8.0852 F30.00
G01 X20.4921 Y-8.0768 F30.00
G01 X20.4922 Y-5.3319 F30.00
G01 X20.7500 Y-5.3319 F30.00
G01 X20.7613 Y-5.3313 F30.00
G01 X20.7723 Y-5.3292 F30.00
G01 X20.7852 Y-5.3250 F30.00
G01 X20.7913 Y-5.3221 F30.00
G01 X20.7992 Y-5.3177 F30.00
G01 X20.8066 Y-5.3125 F30.00
G01 X20.8117 Y-5.3081 F30.00
G01 X20.8181 Y-5.3017 F30.00
G01 X20.8225 Y-5.2966 F30.00
G01 X20.8277 Y-5.2892 F30.00
G01 X20.8311 Y-5.2833 F30.00
G01 X20.8366 Y-5.2710 F30.00
G01 X20.8392 Y-5.2623 F30.00
G01 X20.8406 Y-5.2557 F30.00
G01 X20.8419 Y-5.2423 F30.00
G01 X20.8419 Y-0.1577 F30.00
G01 X20.8406 Y-0.1443 F30.00
G01 X20.8392 Y-0.1377 F30.00
G01 X20.8366 Y-0.1290 F30.00
G01 X20.8311 Y-0.1167 F30.00
G01 X20.8239 Y-0.1052 F30.00
G01 X20.8196 Y-0.0999 F30.00
G01 X20.8134 Y-0.0934 F30.00
G01 X20.8029 Y-0.0848 F30.00
G01 X20.7913 Y-0.0779 F30.00
G01 X20.7852 Y-0.0750 F30.00
G01 X20.7767 Y-0.0720 F30.00
G01 X20.7635 Y-0.0690 F30.00
G01 X20.7500 Y-0.0681 F30.00
G01 X19.2455 Y-0.0682 F30.00
G01 X19.2321 Y-0.0698 F30.00
G01 X19.2255 Y-0.0714 F30.00
G01 X19.2169 Y-0.0742 F30.00
G01 X19.2047 Y-0.0800 F30.00
G01 X19.1934 Y-0.0875 F30.00
G01 X19.1834 Y-0.0966 F30.00
G01 X19.1775 Y-0.1034 F30.00
G01 X19.1735 Y-0.1089 F30.00
G01 X19.1669 Y-0.1207 F30.00
G01 X19.1620 Y-0.1333 F30.00
G01 X19.1590 Y-0.1465 F30.00
G01 X19.1581 Y-0.1600 F30.00
G01 X19.1582 Y-5.2445 F30.00
G01 X19.1587 Y-5.2513 F30.00
G01 X19.1603 Y-5.2601 F30.00
G01 X19.1642 Y-5.2731 F30.00
G01 X19.1700 Y-5.2853 F30.00
G01 X19.1748 Y-5.2929 F30.00
G01 X19.1789 Y-5.2983 F30.00
G01 X19.1883 Y-5.3081 F30.00
G01 X19.1952 Y-5.3139 F30.00
G01 X19.2008 Y-5.3177 F30.00
G01 X19.2127 Y-5.3241 F30.00
G01 X19.2212 Y-5.3273 F30.00
G01 X19.2277 Y-5.3292 F30.00
G01 X19.2387 Y-5.3313 F30.00
G01 X19.2500 Y-5.3319 F30.00
G01 X19.5079 Y-5.3319 F30.00
G01 X19.5078 Y-8.8961 F30.00
G01 X17.5069 Y-10.8973 F30.00
G01 X17.4776 Y-10.9298 F30.00
G01 X17.4488 Y-10.9686 F30.00
G01 X17.4240 Y-11.0100 F30.00
G01 X17.4033 Y-11.0537 F30.00
G01 X17.3870 Y-11.0991 F30.00
G01 X17.3753 Y-11.1460 F30.00
G01 X17.3682 Y-11.1938 F30.00
G01 X17.3659 Y-11.2420 F30.00
G00 Z2.0000
G00 X21.5664 Y-9.0812
G01 F10.00
G01 Z-0.0500
G01 F30.00
G01 X21.5707 Y-9.1207 F30.00
G01 X21.6092 Y-9.2239 F30.00
G01 X21.6742 Y-9.3108 F30.00
G01 X21.7611 Y-9.3758 F30.00
G01 X21.8643 Y-9.4143 F30.00
G01 X21.9038 Y-9.4185 F30.00
G01 X22.4212 Y-9.4186 F30.00
G01 X22.4607 Y-9.4143 F30.00
G01 X22.5639 Y-9.3758 F30.00
G01 X22.6508 Y-9.3108 F30.00
G01 X22.7158 Y-9.2239 F30.00
G01 X22.7543 Y-9.1207 F30.00
G01 X22.7561 Y-9.1096 F30.00
G01 X22.7600 Y-9.0971 F30.00
G01 X22.7894 Y-9.0263 F30.00
G01 X22.7949 Y-9.0163 F30.00
G01 X22.8016 Y-9.0071 F30.00
G01 X22.8094 Y-8.9988 F30.00
G01 X22.8182 Y-8.9915 F30.00
G01 X22.8775 Y-8.9503 F30.00
G01 X22.8832 Y-8.9466 F30.00
G01 X22.8892 Y-8.9434 F30.00
G01 X22.8997 Y-8.9390 F30.00
G01 X22.9107 Y-8.9359 F30.00
G01 X22.9543 Y-8.9287 F30.00
G01 X22.9627 Y-8.9278 F30.00
G01 X23.2725 Y-8.9278 F30.00
G01 X23.2812 Y-8.9288 F30.00
G01 X23.2918 Y-8.9313 F30.00
G01 X23.3588 Y-8.9510 F30.00
G01 X23.3653 Y-8.9531 F30.00
G01 X23.3717 Y-8.9558 F30.00
G01 X23.3797 Y-8.9600 F30.00
G01 X23.3855 Y-8.9637 F30.00
G01 X23.3910 Y-8.9679 F30.00
G01 X23.3978 Y-8.9740 F30.00
G01 X23.4482 Y-9.0318 F30.00
G01 X23.4538 Y-9.0389 F30.00
G01 X23.4587 Y-9.0466 F30.00
G01 X23.4636 Y-9.0568 F30.00
G01 X23.4682 Y-9.0680 F30.00
G01 X23.4877 Y-9.1203 F30.00
G01 X23.5581 Y-9.2144 F30.00
G01 X23.6522 Y-9.2848 F30.00
G01 X23.7638 Y-9.3264 F30.00
G01 X23.8071 Y-9.3311 F30.00
G01 X24.7929 Y-9.3310 F30.00
G01 X24.8362 Y-9.3264 F30.00
G01 X24.9478 Y-9.2848 F30.00
G01 X25.0419 Y-9.2144 F30.00
G01 X25.1123 Y-9.1203 F30.00
G01 X25.1320 Y-9.0675 F30.00
G01 X25.1347 Y-9.0611 F30.00
G01 X25.1379 Y-9.0548 F30.00
G01 X25.1443 Y-9.0451 F30.00
G01 X25.1862 Y-8.9891 F30.00
G01 X25.1936 Y-8.9804 F30.00
G01 X25.2002 Y-8.9742 F30.00
G01 X25.2075 Y-8.9686 F30.00
G01 X25.2152 Y-8.9638 F30.00
G01 X25.2234 Y-8.9598 F30.00
G01 X25.2953 Y-8.9329 F30.00
G01 X25.3062 Y-8.9299 F30.00
G01 X25.3174 Y-8.9282 F30.00
G01 X25.3341 Y-8.9276 F30.00
G01 X25.8617 Y-8.9276 F30.00
G01 X25.8748 Y-8.9285 F30.00
G01 X25.8877 Y-8.9313 F30.00
G01 X25.9547 Y-8.9510 F30.00
G01 X25.9632 Y-8.9539 F30.00
G01 X25.9694 Y-8.9567 F30.00
G01 X25.9773 Y-8.9611 F30.00
G01 X25.9847 Y-8.9662 F30.00
G01 X26.0090 Y-8.9858 F30.00
G01 X26.0204 Y-8.9967 F30.00
G01 X26.1075 Y-9.0411 F30.00
G01 X26.1797 Y-9.0525 F30.00
G01 X27.4033 Y-9.0525 F30.00
G01 X27.4755 Y-9.0411 F30.00
G01 X27.5626 Y-8.9967 F30.00
G01 X27.6317 Y-8.9276 F30.00
G01 X27.6761 Y-8.8405 F30.00
G01 X27.6875 Y-8.7683 F30.00
G01 X27.6875 Y-8.4197 F30.00
G01 X27.6715 Y-8.3167 F30.00
G01 X27.6712 Y-8.3054 F30.00
G01 X27.6727 Y-8.2924 F30.00
G01 X27.6716 Y-8.2496 F30.00
G01 X27.6722 Y-8.2404 F30.00
G01 X27.6738 Y-8.2314 F30.00
G01 X27.6755 Y-8.2248 F30.00
G01 X27.6777 Y-8.2183 F30.00
G01 X27.6804 Y-8.2121 F30.00
G01 X27.6836 Y-8.2060 F30.00
G01 X27.7220 Y-8.1422 F30.00
G01 X27.7273 Y-8.1348 F30.00
G01 X27.7349 Y-8.1263 F30.00
G01 X27.7400 Y-8.1217 F30.00
G01 X27.7454 Y-8.1174 F30.00
G01 X27.7510 Y-8.1136 F30.00
G01 X27.7570 Y-8.1102 F30.00
G01 X27.8238 Y-8.0773 F30.00
G01 X27.8322 Y-8.0739 F30.00
G01 X27.8388 Y-8.0719 F30.00
G01 X27.8455 Y-8.0704 F30.00
G01 X27.8523 Y-8.0694 F30.00
G01 X27.8614 Y-8.0689 F30.00
G01 X27.8682 Y-8.0691 F30.00
G01 X27.9444 Y-8.0777 F30.00
G01 X27.9534 Y-8.0794 F30.00
G01 X27.9621 Y-8.0820 F30.00
G01 X27.9684 Y-8.0845 F30.00
G01 X27.9825 Y-8.0911 F30.00
G01 X28.0547 Y-8.1025 F30.00
G01 X29.2783 Y-8.1025 F30.00
G01 X29.3505 Y-8.0911 F30.00
G01 X29.4376 Y-8.0467 F30.00
G01 X29.4500 Y-8.0349 F30.00
G01 X29.4607 Y-8.0273 F30.00
G01 X29.5319 Y-7.9886 F30.00
G01 X29.5424 Y-7.9846 F30.00
G01 X29.5534 Y-7.9819 F30.00
G01 X29.5864 Y-7.9781 F30.00
G01 X29.5938 Y-7.9776 F30.00
G01 X31.3256 Y-7.9776 F30.00
G01 X31.3365 Y-7.9785 F30.00
G01 X31.3472 Y-7.9807 F30.00
G01 X31.4207 Y-8.0024 F30.00
G01 X31.4291 Y-8.0058 F30.00
G01 X31.4392 Y-8.0112 F30.00
G01 X31.4485 Y-8.0179 F30.00
G01 X31.4552 Y-8.0240 F30.00
G01 X31.5071 Y-8.0835 F30.00
G01 X31.5138 Y-8.0928 F30.00
G01 X31.5193 Y-8.1028 F30.00
G01 X31.5236 Y-8.1134 F30.00
G01 X31.5264 Y-8.1244 F30.00
G01 X31.5377 Y-8.2026 F30.00
G01 X31.5381 Y-8.2117 F30.00
G01 X31.5373 Y-8.2231 F30.00
G01 X31.5357 Y-8.2321 F30.00
G01 X31.5324 Y-8.2430 F30.00
G01 X31.4989 Y-8.3167 F30.00
G01 X31.4930 Y-8.3266 F30.00
G01 X31.4859 Y-8.3357 F30.00
G01 X31.4761 Y-8.3462 F30.00
G01 X31.1953 Y-8.6267 F30.00
G01 X31.1884 Y-8.6321 F30.00
G01 X31.1810 Y-8.6368 F30.00
G01 X31.1158 Y-8.6724 F30.00
G01 X31.1097 Y-8.6753 F30.00
G01 X31.1012 Y-8.6784 F30.00
G01 X31.0925 Y-8.6807 F30.00
G01 X31.0858 Y-8.6818 F30.00
G01 X31.0572 Y-8.6849 F30.00
G01 X31.0474 Y-8.6854 F30.00
G01 X30.5844 Y-8.6854 F30.00
G01 X30.5442 Y-8.6898 F30.00
G01 X30.4393 Y-8.7289 F30.00
G01 X30.3510 Y-8.7950 F30.00
G01 X30.2849 Y-8.8833 F30.00
G01 X30.2458 Y-8.9882 F30.00
G01 X30.2414 Y-9.0284 F30.00
G01 X30.2414 Y-9.5596 F30.00
G01 X30.2458 Y-9.5998 F30.00
G01 X30.2849 Y-9.7047 F30.00
G01 X30.3510 Y-9.7930 F30.00
G01 X30.4393 Y-9.8591 F30.00
G01 X30.4580 Y-9.8664 F30.00
G01 X30.4642 Y-9.8696 F30.00
G01 X30.4721 Y-9.8746 F30.00
G01 X30.5299 Y-9.9179 F30.00
G01 X30.5352 Y-9.9222 F30.00
G01 X30.5402 Y-9.9269 F30.00
G01 X30.5448 Y-9.9319 F30.00
G01 X30.5504 Y-9.9392 F30.00
G01 X30.5552 Y-9.9469 F30.00
G01 X30.5592 Y-9.9551 F30.00
G01 X30.5853 Y-10.0248 F30.00
G01 X30.5875 Y-10.0313 F30.00
G01 X30.5891 Y-10.0379 F30.00
G01 X30.5908 Y-10.0491 F30.00
G01 X30.5914 Y-10.0658 F30.00
G01 X30.5913 Y-10.6531 F30.00
G01 X30.5905 Y-10.6618 F30.00
G01 X30.5883 Y-10.6725 F30.00
G01 X30.5674 Y-10.7438 F30.00
G01 X30.5623 Y-10.7564 F30.00
G01 X30.5579 Y-10.7643 F30.00
G01 X30.5542 Y-10.7699 F30.00
G01 X30.5485 Y-10.7769 F30.00
G01 X30.5228 Y-10.8057 F30.00
G01 X30.5143 Y-10.8141 F30.00
G01 X30.3769 Y-10.9269 F30.00
G01 X30.2619 Y-11.0671 F30.00
G01 X30.1764 Y-11.2270 F30.00
G01 X30.1238 Y-11.4005 F30.00
G01 X30.1060 Y-11.5810 F30.00
G01 X30.1238 Y-11.7615 F30.00
G01 X30.1764 Y-11.9350 F30.00
G01 X30.2619 Y-12.0949 F30.00
G01 X30.3769 Y-12.2351 F30.00
G01 X30.5171 Y-12.3501 F30.00
G01 X30.6770 Y-12.4356 F30.00
G01 X30.8505 Y-12.4882 F30.00
G01 X31.0310 Y-12.5060 F30.00
G01 X31.2115 Y-12.4882 F30.00
G01 X31.3850 Y-12.4356 F30.00
G01 X31.5449 Y-12.3501 F30.00
G01 X31.6851 Y-12.2351 F30.00
G01 X31.8001 Y-12.0949 F30.00
G01 X31.8503 Y-12.0010 F30.00
G01 X31.8856 Y-11.9350 F30.00
G01 X31.9382 Y-11.7615 F30.00
G01 X31.9560 Y-11.5810 F30.00
G01 X31.9382 Y-11.4005 F30.00
G01 X31.8856 Y-11.2270 F30.00
G01 X31.8001 Y-11.0671 F30.00
G01 X31.6851 Y-10.9269 F30.00
G01 X31.5449 Y-10.8119 F30.00
G01 X31.5190 Y-10.7979 F30.00
G01 X31.5082 Y-10.7904 F30.00
G01 X31.5016 Y-10.7845 F30.00
G01 X31.4518 Y-10.7356 F30.00
G01 X31.4442 Y-10.7272 F30.00
G01 X31.4390 Y-10.7198 F30.00
G01 X31.4344 Y-10.7120 F30.00
G01 X31.4307 Y-10.7038 F30.00
G01 X31.4285 Y-10.6974 F30.00
G01 X31.4109 Y-10.6304 F30.00
G01 X31.4093 Y-10.6212 F30.00
G01 X31.4087 Y-10.6142 F30.00
G01 X31.4086 Y-10.0658 F30.00
G01 X31.4092 Y-10.0549 F30.00
G01 X31.4111 Y-10.0441 F30.00
G01 X31.4341 Y-9.9663 F30.00
G01 X31.4378 Y-9.9580 F30.00
G01 X31.4422 Y-9.9500 F30.00
G01 X31.4474 Y-9.9425 F30.00
G01 X31.4534 Y-9.9356 F30.00
G01 X31.4600 Y-9.9293 F30.00
G01 X31.5181 Y-9.8792 F30.00
G01 X31.5256 Y-9.8742 F30.00
G01 X31.5336 Y-9.8699 F30.00
G01 X31.5459 Y-9.8647 F30.00
G01 X31.5607 Y-9.8591 F30.00
G01 X31.6490 Y-9.7930 F30.00
G01 X31.7151 Y-9.7047 F30.00
G01 X31.7542 Y-9.5998 F30.00
G01 X31.7585 Y-9.5596 F30.00
G01 X31.7588 Y-9.0994 F30.00
G01 X31.7598 Y-9.0908 F30.00
G01 X31.7617 Y-9.0822 F30.00
G01 X31.7841 Y-9.0066 F30.00
G01 X31.7878 Y-8.9982 F30.00
G01 X31.7935 Y-8.9883 F30.00
G01 X31.8003 Y-8.9792 F30.00
G01 X31.8066 Y-8.9725 F30.00
G01 X31.8645 Y-8.9222 F30.00
G01 X31.8719 Y-8.9168 F30.00
G01 X31.8798 Y-8.9120 F30.00
G01 X31.8902 Y-8.9073 F30.00
G01 X31.9012 Y-8.9039 F30.00
G01 X31.9550 Y-8.8922 F30.00
G01 X31.9636 Y-8.8907 F30.00
G01 X31.9745 Y-8.8901 F30.00
G01 X32.1871 Y-8.8903 F30.00
G01 X32.1958 Y-8.8913 F30.00
G01 X32.2043 Y-8.8932 F30.00
G01 X32.2735 Y-8.9135 F30.00
G01 X32.2842 Y-8.9173 F30.00
G01 X32.2904 Y-8.9203 F30.00
G01 X32.2963 Y-8.9237 F30.00
G01 X32.3020 Y-8.9276 F30.00
G01 X32.3073 Y-8.9318 F30.00
G01 X32.3124 Y-8.9365 F30.00
G01 X32.3171 Y-8.9415 F30.00
G01 X32.3657 Y-8.9978 F30.00
G01 X32.3709 Y-9.0052 F30.00
G01 X32.3762 Y-9.0146 F30.00
G01 X32.4482 Y-9.1109 F30.00
G01 X32.5422 Y-9.1813 F30.00
G01 X32.6538 Y-9.2229 F30.00
G01 X32.6971 Y-9.2276 F30.00
G01 X33.6829 Y-9.2275 F30.00
G01 X33.7262 Y-9.2229 F30.00
G01 X33.8378 Y-9.1813 F30.00
G01 X33.9319 Y-9.1109 F30.00
G01 X34.0023 Y-9.0168 F30.00
G01 X34.0439 Y-8.9052 F30.00
G01 X34.0486 Y-8.8619 F30.00
G01 X34.0485 Y-8.2511 F30.00
G01 X34.0445 Y-8.2122 F30.00
G01 X34.0443 Y-8.2057 F30.00
G01 X34.0448 Y-8.1969 F30.00
G01 X34.0591 Y-8.1172 F30.00
G01 X34.0609 Y-8.1106 F30.00
G01 X34.0632 Y-8.1041 F30.00
G01 X34.0680 Y-8.0938 F30.00
G01 X34.0741 Y-8.0842 F30.00
G01 X34.0798 Y-8.0770 F30.00
G01 X34.1290 Y-8.0242 F30.00
G01 X34.1387 Y-8.0152 F30.00
G01 X34.1496 Y-8.0076 F30.00
G01 X34.1615 Y-8.0017 F30.00
G01 X34.1720 Y-7.9982 F30.00
G01 X34.2374 Y-7.9803 F30.00
G01 X34.2462 Y-7.9785 F30.00
G01 X34.2573 Y-7.9776 F30.00
G01 X35.8164 Y-7.9776 F30.00
G01 X35.8251 Y-7.9780 F30.00
G01 X35.8316 Y-7.9788 F30.00
G01 X35.8423 Y-7.9813 F30.00
G01 X35.9093 Y-8.0010 F30.00
G01 X35.9199 Y-8.0048 F30.00
G01 X35.9280 Y-8.0088 F30.00
G01 X35.9375 Y-8.0148 F30.00
G01 X35.9618 Y-8.0342 F30.00
G01 X35.9673 Y-8.0391 F30.00
G01 X38.3855 Y-10.4572 F30.00
G01 X38.3983 Y-10.4639 F30.00
G01 X38.4169 Y-10.4752 F30.00
G01 X38.4307 Y-10.4849 F30.00
G01 X38.4443 Y-10.4895 F30.00
G01 X38.4645 Y-10.4978 F30.00
G01 X38.4796 Y-10.5052 F30.00
G01 X38.4962 Y-10.5081 F30.00
G01 X38.5174 Y-10.5132 F30.00
G01 X38.5312 Y-10.5176 F30.00
G01 X38.7291 Y-10.5176 F30.00
G01 X38.7377 Y-10.5158 F30.00
G01 X38.7665 Y-10.5117 F30.00
G01 X38.8000 Y-10.5101 F30.00
G01 X39.3000 Y-10.5101 F30.00
G01 X39.3335 Y-10.5117 F30.00
G01 X39.3623 Y-10.5158 F30.00
G01 X39.3709 Y-10.5176 F30.00
G01 X39.8086 Y-10.5176 F30.00
G01 X39.8195 Y-10.5185 F30.00
G01 X39.8302 Y-10.5207 F30.00
G01 X39.9015 Y-10.5416 F30.00
G01 X39.9099 Y-10.5448 F30.00
G01 X39.9160 Y-10.5477 F30.00
G01 X39.9238 Y-10.5523 F30.00
G01 X39.9293 Y-10.5562 F30.00
G01 X39.9518 Y-10.5742 F30.00
G01 X39.9591 Y-10.5808 F30.00
G01 X40.2312 Y-10.8531 F30.00
G01 X40.2381 Y-10.8616 F30.00
G01 X40.2439 Y-10.8709 F30.00
G01 X40.2784 Y-10.9342 F30.00
G01 X40.2813 Y-10.9403 F30.00
G01 X40.2844 Y-10.9488 F30.00
G01 X40.2862 Y-10.9553 F30.00
G01 X40.2878 Y-10.9642 F30.00
G01 X40.2909 Y-10.9928 F30.00
G01 X40.2914 Y-11.0026 F30.00
G01 X40.2914 Y-11.8449 F30.00
G01 X40.2961 Y-11.8882 F30.00
G01 X40.3377 Y-11.9998 F30.00
G01 X40.4081 Y-12.0939 F30.00
G01 X40.5022 Y-12.1643 F30.00
G01 X40.6138 Y-12.2059 F30.00
G01 X40.6571 Y-12.2106 F30.00
G01 X41.2429 Y-12.2105 F30.00
G01 X41.2862 Y-12.2059 F30.00
G01 X41.3978 Y-12.1643 F30.00
G01 X41.4919 Y-12.0939 F30.00
G01 X41.5623 Y-11.9998 F30.00
G01 X41.6039 Y-11.8882 F30.00
G01 X41.6086 Y-11.8449 F30.00
G01 X41.6085 Y-10.8091 F30.00
G01 X41.6039 Y-10.7658 F30.00
G01 X41.5623 Y-10.6542 F30.00
G01 X41.4919 Y-10.5601 F30.00
G01 X41.3917 Y-10.4852 F30.00
G01 X41.3850 Y-10.4806 F30.00
G01 X41.3730 Y-10.4706 F30.00
G01 X41.3219 Y-10.4187 F30.00
G01 X41.3175 Y-10.4133 F30.00
G01 X41.3136 Y-10.4077 F30.00
G01 X41.3089 Y-10.3997 F30.00
G01 X41.3060 Y-10.3934 F30.00
G01 X41.3022 Y-10.3825 F30.00
G01 X41.2864 Y-10.3209 F30.00
G01 X41.2846 Y-10.3119 F30.00
G01 X41.2837 Y-10.3027 F30.00
G01 X41.2836 Y-10.0275 F30.00
G01 X41.2842 Y-10.0165 F30.00
G01 X41.2861 Y-10.0058 F30.00
G01 X41.3076 Y-9.9323 F30.00
G01 X41.3108 Y-9.9238 F30.00
G01 X41.3149 Y-9.9156 F30.00
G01 X41.3197 Y-9.9079 F30.00
G01 X41.3253 Y-9.9006 F30.00
G01 X41.3300 Y-9.8956 F30.00
G01 X41.3350 Y-9.8909 F30.00
G01 X41.3878 Y-9.8452 F30.00
G01 X41.3949 Y-9.8396 F30.00
G01 X41.4026 Y-9.8347 F30.00
G01 X41.4107 Y-9.8306 F30.00
G01 X41.4240 Y-9.8251 F30.00
G01 X41.4478 Y-9.8163 F30.00
G01 X41.5419 Y-9.7459 F30.00
G01 X41.6123 Y-9.6518 F30.00
G01 X41.6539 Y-9.5402 F30.00
G01 X41.6586 Y-9.4969 F30.00
G01 X41.6585 Y-6.4111 F30.00
G01 X41.6539 Y-6.3678 F30.00
G01 X41.6123 Y-6.2562 F30.00
G01 X41.5419 Y-6.1621 F30.00
G01 X41.4478 Y-6.0917 F30.00
G01 X41.3362 Y-6.0501 F30.00
G01 X41.2929 Y-6.0454 F30.00
G01 X40.7071 Y-6.0454 F30.00
G01 X40.6638 Y-6.0501 F30.00
G01 X40.5522 Y-6.0917 F30.00
G01 X40.4581 Y-6.1621 F30.00
G01 X40.3877 Y-6.2562 F30.00
G01 X40.3461 Y-6.3678 F30.00
G01 X40.3415 Y-6.4110 F30.00
G01 X40.3414 Y-9.4969 F30.00
G01 X40.3461 Y-9.5402 F30.00
G01 X40.3587 Y-9.5742 F30.00
G01 X40.3609 Y-9.5826 F30.00
G01 X40.3621 Y-9.5891 F30.00
G01 X40.3678 Y-9.6653 F30.00
G01 X40.3680 Y-9.6744 F30.00
G01 X40.3673 Y-9.6835 F30.00
G01 X40.3657 Y-9.6925 F30.00
G01 X40.3632 Y-9.7013 F30.00
G01 X40.3598 Y-9.7098 F30.00
G01 X40.3222 Y-9.7792 F30.00
G01 X40.3185 Y-9.7850 F30.00
G01 X40.3130 Y-9.7923 F30.00
G01 X40.3084 Y-9.7974 F30.00
G01 X40.3017 Y-9.8036 F30.00
G01 X40.2963 Y-9.8078 F30.00
G01 X40.2906 Y-9.8116 F30.00
G01 X40.2233 Y-9.8484 F30.00
G01 X40.2149 Y-9.8522 F30.00
G01 X40.2040 Y-9.8558 F30.00
G01 X40.1950 Y-9.8576 F30.00
G01 X40.1859 Y-9.8585 F30.00
G01 X40.1767 Y-9.8585 F30.00
G01 X40.1098 Y-9.8551 F30.00
G01 X40.0989 Y-9.8537 F30.00
G01 X40.0868 Y-9.8504 F30.00
G01 X38.8116 Y-9.8504 F30.00
G01 X38.8007 Y-9.8498 F30.00
G01 X38.7878 Y-9.8473 F30.00
G01 X38.7187 Y-9.8270 F30.00
G01 X38.7101 Y-9.8241 F30.00
G01 X38.7020 Y-9.8203 F30.00
G01 X38.6942 Y-9.8157 F30.00
G01 X38.6869 Y-9.8104 F30.00
G01 X38.6643 Y-9.7922 F30.00
G01 X38.6538 Y-9.7821 F30.00
G01 X38.6465 Y-9.7798 F30.00
G01 X38.6234 Y-9.7715 F30.00
G01 X38.6150 Y-9.7681 F30.00
G01 X38.5888 Y-9.7556 F30.00
G01 X38.5619 Y-9.7396 F30.00
G01 X38.5331 Y-9.7183 F30.00
G01 X38.5098 Y-9.6974 F30.00
G01 X38.4886 Y-9.6743 F30.00
G01 X38.4829 Y-9.6674 F30.00
G01 X38.4657 Y-9.6440 F30.00
G01 X38.4506 Y-9.6190 F30.00
G01 X38.4464 Y-9.6112 F30.00
G01 X38.4341 Y-9.5849 F30.00
G01 X38.4242 Y-9.5575 F30.00
G01 X38.4219 Y-9.5502 F30.00
G01 X36.2425 Y-7.3708 F30.00
G01 X36.2276 Y-7.3629 F30.00
G01 X36.2090 Y-7.3515 F30.00
G01 X36.1973 Y-7.3431 F30.00
G01 X36.1837 Y-7.3385 F30.00
G01 X36.1635 Y-7.3302 F30.00
G01 X36.1484 Y-7.3228 F30.00
G01 X36.1318 Y-7.3199 F30.00
G01 X36.1106 Y-7.3148 F30.00
G01 X36.0968 Y-7.3104 F30.00
G01 X34.2574 Y-7.3104 F30.00
G01 X34.2465 Y-7.3095 F30.00
G01 X34.2358 Y-7.3073 F30.00
G01 X34.1644 Y-7.2864 F30.00
G01 X34.1580 Y-7.2840 F30.00
G01 X34.1497 Y-7.2802 F30.00
G01 X34.1438 Y-7.2768 F30.00
G01 X34.1363 Y-7.2716 F30.00
G01 X34.1293 Y-7.2656 F30.00
G01 X34.1245 Y-7.2607 F30.00
G01 X34.0773 Y-7.2062 F30.00
G01 X34.0705 Y-7.1975 F30.00
G01 X34.0649 Y-7.1879 F30.00
G01 X34.0597 Y-7.1757 F30.00
G01 X34.0568 Y-7.1651 F30.00
G01 X34.0449 Y-7.0915 F30.00
G01 X34.0443 Y-7.0826 F30.00
G01 X34.0445 Y-7.0759 F30.00
G01 X34.0486 Y-7.0369 F30.00
G01 X34.0485 Y-6.4261 F30.00
G01 X34.0439 Y-6.3828 F30.00
G01 X34.0023 Y-6.2712 F30.00
G01 X33.9319 Y-6.1771 F30.00
G01 X33.8378 Y-6.1067 F30.00
G01 X33.7262 Y-6.0651 F30.00
G01 X33.6830 Y-6.0605 F30.00
G01 X32.6971 Y-6.0604 F30.00
G01 X32.6538 Y-6.0651 F30.00
G01 X32.5422 Y-6.1067 F30.00
G01 X32.4481 Y-6.1771 F30.00
G01 X32.3738 Y-6.2765 F30.00
G01 X32.3692 Y-6.2843 F30.00
G01 X32.3653 Y-6.2899 F30.00
G01 X32.3595 Y-6.2968 F30.00
G01 X32.3538 Y-6.3025 F30.00
G01 X32.3256 Y-6.3400 F30.00
G01 X32.3194 Y-6.3467 F30.00
G01 X32.3108 Y-6.3542 F30.00
G01 X32.3014 Y-6.3606 F30.00
G01 X32.2933 Y-6.3648 F30.00
G01 X32.2194 Y-6.3926 F30.00
G01 X32.2084 Y-6.3956 F30.00
G01 X32.1972 Y-6.3973 F30.00
G01 X32.1805 Y-6.3979 F30.00
G01 X31.9745 Y-6.3979 F30.00
G01 X31.9658 Y-6.3975 F30.00
G01 X31.9550 Y-6.3958 F30.00
G01 X31.8772 Y-6.3731 F30.00
G01 X31.8708 Y-6.3707 F30.00
G01 X31.8647 Y-6.3677 F30.00
G01 X31.8587 Y-6.3643 F30.00
G01 X31.8530 Y-6.3604 F30.00
G01 X31.8460 Y-6.3547 F30.00
G01 X31.8395 Y-6.3482 F30.00
G01 X31.7907 Y-6.2920 F30.00
G01 X31.7866 Y-6.2865 F30.00
G01 X31.7816 Y-6.2787 F30.00
G01 X31.7775 Y-6.2705 F30.00
G01 X31.7750 Y-6.2641 F30.00
G01 X31.7719 Y-6.2531 F30.00
G01 X31.7607 Y-6.2015 F30.00
G01 X31.7592 Y-6.1929 F30.00
G01 X31.7587 Y-6.1864 F30.00
G01 X31.7585 Y-5.7284 F30.00
G01 X31.7542 Y-5.6882 F30.00
G01 X31.7151 Y-5.5833 F30.00
G01 X31.6490 Y-5.4950 F30.00
G01 X31.5607 Y-5.4289 F30.00
G01 X31.4558 Y-5.3898 F30.00
G01 X31.4156 Y-5.3854 F30.00
G01 X30.9482 Y-5.3853 F30.00
G01 X30.9374 Y-5.3842 F30.00
G01 X30.9267 Y-5.3817 F30.00
G01 X30.8575 Y-5.3614 F30.00
G01 X30.8450 Y-5.3563 F30.00
G01 X30.8371 Y-5.3519 F30.00
G01 X30.8297 Y-5.3468 F30.00
G01 X30.8072 Y-5.3288 F30.00
G01 X30.7999 Y-5.3222 F30.00
G01 X30.3085 Y-4.8308 F30.00
G01 X30.2936 Y-4.8229 F30.00
G01 X30.2750 Y-4.8115 F30.00
G01 X30.2633 Y-4.8031 F30.00
G01 X30.2497 Y-4.7985 F30.00
G01 X30.2295 Y-4.7902 F30.00
G01 X30.2144 Y-4.7828 F30.00
G01 X30.1978 Y-4.7799 F30.00
G01 X30.1766 Y-4.7748 F30.00
G01 X30.1628 Y-4.7704 F30.00
G01 X27.8289 Y-4.7704 F30.00
G01 X27.8201 Y-4.7700 F30.00
G01 X27.8115 Y-4.7688 F30.00
G01 X27.8051 Y-4.7673 F30.00
G01 X27.7338 Y-4.7464 F30.00
G01 X27.7213 Y-4.7414 F30.00
G01 X27.7097 Y-4.7346 F30.00
G01 X27.7026 Y-4.7292 F30.00
G01 X27.6961 Y-4.7231 F30.00
G01 X27.6621 Y-4.6867 F30.00
G01 X27.6563 Y-4.6808 F30.00
G01 X27.6497 Y-4.6731 F30.00
G01 X27.5669 Y-4.5621 F30.00
G01 X27.4728 Y-4.4917 F30.00
G01 X27.3612 Y-4.4501 F30.00
G01 X27.3180 Y-4.4455 F30.00
G01 X26.2821 Y-4.4454 F30.00
G01 X26.2388 Y-4.4501 F30.00
G01 X26.1272 Y-4.4917 F30.00
G01 X26.0331 Y-4.5621 F30.00
G01 X25.9627 Y-4.6562 F30.00
G01 X25.9211 Y-4.7678 F30.00
G01 X25.9164 Y-4.8111 F30.00
G01 X25.9164 Y-5.3969 F30.00
G01 X25.9211 Y-5.4402 F30.00
G01 X25.9627 Y-5.5518 F30.00
G01 X26.0331 Y-5.6459 F30.00
G01 X26.1272 Y-5.7163 F30.00
G01 X26.2388 Y-5.7579 F30.00
G01 X26.2779 Y-5.7622 F30.00
G01 X26.2886 Y-5.7645 F30.00
G01 X26.2969 Y-5.7673 F30.00
G01 X26.3697 Y-5.7977 F30.00
G01 X26.3777 Y-5.8022 F30.00
G01 X26.3851 Y-5.8075 F30.00
G01 X26.3903 Y-5.8119 F30.00
G01 X26.3968 Y-5.8184 F30.00
G01 X26.4038 Y-5.8274 F30.00
G01 X26.4450 Y-5.8866 F30.00
G01 X26.4506 Y-5.8965 F30.00
G01 X26.4534 Y-5.9028 F30.00
G01 X26.4557 Y-5.9092 F30.00
G01 X26.4576 Y-5.9158 F30.00
G01 X26.4589 Y-5.9225 F30.00
G01 X26.4653 Y-5.9616 F30.00
G01 X26.4662 Y-5.9700 F30.00
G01 X26.4664 Y-6.0195 F30.00
G01 X26.4655 Y-6.0326 F30.00
G01 X26.4627 Y-6.0454 F30.00
G01 X26.4424 Y-6.1146 F30.00
G01 X26.4382 Y-6.1253 F30.00
G01 X26.4351 Y-6.1314 F30.00
G01 X26.4315 Y-6.1372 F30.00
G01 X26.4247 Y-6.1463 F30.00
G01 X26.4167 Y-6.1545 F30.00
G01 X26.3622 Y-6.2018 F30.00
G01 X26.3569 Y-6.2061 F30.00
G01 X26.3512 Y-6.2100 F30.00
G01 X26.3452 Y-6.2135 F30.00
G01 X26.3390 Y-6.2165 F30.00
G01 X26.3326 Y-6.2190 F30.00
G01 X26.3260 Y-6.2211 F30.00
G01 X26.2636 Y-6.2345 F30.00
G01 X26.2505 Y-6.2354 F30.00
G01 X26.1797 Y-6.2354 F30.00
G01 X26.1075 Y-6.2469 F30.00
G01 X26.0204 Y-6.2913 F30.00
G01 X25.9513 Y-6.3604 F30.00
G01 X25.9069 Y-6.4475 F30.00
G01 X25.8954 Y-6.5197 F30.00
G01 X25.8954 Y-6.8683 F30.00
G01 X25.9069 Y-6.9405 F30.00
G01 X25.9513 Y-7.0276 F30.00
G01 X26.0204 Y-7.0967 F30.00
G01 X26.1075 Y-7.1411 F30.00
G01 X26.1797 Y-7.1525 F30.00
G01 X27.4033 Y-7.1525 F30.00
G01 X27.4755 Y-7.1411 F30.00
G01 X27.4865 Y-7.1362 F30.00
G01 X27.4992 Y-7.1326 F30.00
G01 X27.5722 Y-7.1189 F30.00
G01 X27.5790 Y-7.1180 F30.00
G01 X27.5881 Y-7.1177 F30.00
G01 X27.5972 Y-7.1183 F30.00
G01 X27.6040 Y-7.1193 F30.00
G01 X27.6129 Y-7.1214 F30.00
G01 X27.6194 Y-7.1236 F30.00
G01 X27.6884 Y-7.1516 F30.00
G01 X27.6965 Y-7.1556 F30.00
G01 X27.7024 Y-7.1592 F30.00
G01 X27.7080 Y-7.1632 F30.00
G01 X27.7149 Y-7.1691 F30.00
G01 X27.7197 Y-7.1740 F30.00
G01 X27.7255 Y-7.1811 F30.00
G01 X27.7684 Y-7.2419 F30.00
G01 X27.7731 Y-7.2497 F30.00
G01 X27.7770 Y-7.2580 F30.00
G01 X27.7793 Y-7.2644 F30.00
G01 X27.7812 Y-7.2710 F30.00
G01 X27.7826 Y-7.2777 F30.00
G01 X27.7835 Y-7.2845 F30.00
G01 X27.7868 Y-7.3578 F30.00
G01 X27.7867 Y-7.3683 F30.00
G01 X27.7858 Y-7.3772 F30.00
G01 X27.7834 Y-7.3878 F30.00
G01 X27.7704 Y-7.4697 F30.00
G01 X27.7704 Y-7.8183 F30.00
G01 X27.7865 Y-7.9213 F30.00
G01 X27.7868 Y-7.9326 F30.00
G01 X27.7853 Y-7.9456 F30.00
G01 X27.7864 Y-7.9862 F30.00
G01 X27.7860 Y-7.9953 F30.00
G01 X27.7847 Y-8.0043 F30.00
G01 X27.7825 Y-8.0132 F30.00
G01 X27.7794 Y-8.0218 F30.00
G01 X27.7755 Y-8.0300 F30.00
G01 X27.7359 Y-8.0958 F30.00
G01 X27.7307 Y-8.1032 F30.00
G01 X27.7231 Y-8.1117 F30.00
G01 X27.7180 Y-8.1164 F30.00
G01 X27.7126 Y-8.1206 F30.00
G01 X27.7030 Y-8.1267 F30.00
G01 X27.6342 Y-8.1607 F30.00
G01 X27.6257 Y-8.1641 F30.00
G01 X27.6170 Y-8.1666 F30.00
G01 X27.6057 Y-8.1686 F30.00
G01 X27.5966 Y-8.1691 F30.00
G01 X27.5852 Y-8.1685 F30.00
G01 X27.5113 Y-8.1599 F30.00
G01 X27.5024 Y-8.1580 F30.00
G01 X27.4938 Y-8.1552 F30.00
G01 X27.4755 Y-8.1469 F30.00
G01 X27.4033 Y-8.1354 F30.00
G01 X26.1797 Y-8.1354 F30.00
G01 X26.1075 Y-8.1469 F30.00
G01 X26.0204 Y-8.1913 F30.00
G01 X26.0080 Y-8.2031 F30.00
G01 X25.9973 Y-8.2107 F30.00
G01 X25.9322 Y-8.2464 F30.00
G01 X25.9240 Y-8.2503 F30.00
G01 X25.9177 Y-8.2527 F30.00
G01 X25.9090 Y-8.2552 F30.00
G01 X25.9002 Y-8.2568 F30.00
G01 X25.8716 Y-8.2599 F30.00
G01 X25.8617 Y-8.2604 F30.00
G01 X25.2637 Y-8.2604 F30.00
G01 X25.2528 Y-8.2595 F30.00
G01 X25.2420 Y-8.2573 F30.00
G01 X25.1729 Y-8.2370 F30.00
G01 X25.1603 Y-8.2323 F30.00
G01 X25.1504 Y-8.2270 F30.00
G01 X25.1430 Y-8.2219 F30.00
G01 X25.1378 Y-8.2176 F30.00
G01 X25.1039 Y-8.1861 F30.00
G01 X25.0974 Y-8.1794 F30.00
G01 X25.0419 Y-8.1056 F30.00
G01 X24.9478 Y-8.0352 F30.00
G01 X24.8362 Y-7.9936 F30.00
G01 X24.7930 Y-7.9890 F30.00
G01 X23.8071 Y-7.9889 F30.00
G01 X23.7638 Y-7.9936 F30.00
G01 X23.6522 Y-8.0352 F30.00
G01 X23.5581 Y-8.1056 F30.00
G01 X23.5057 Y-8.1757 F30.00
G01 X23.5000 Y-8.1823 F30.00
G01 X23.4936 Y-8.1883 F30.00
G01 X23.4289 Y-8.2369 F30.00
G01 X23.4173 Y-8.2436 F30.00
G01 X23.4047 Y-8.2485 F30.00
G01 X23.3960 Y-8.2507 F30.00
G01 X23.3505 Y-8.2590 F30.00
G01 X23.3435 Y-8.2600 F30.00
G01 X23.3365 Y-8.2604 F30.00
G01 X22.9249 Y-8.2604 F30.00
G01 X22.9140 Y-8.2595 F30.00
G01 X22.9033 Y-8.2573 F30.00
G01 X22.8319 Y-8.2364 F30.00
G01 X22.8234 Y-8.2332 F30.00
G01 X22.8172 Y-8.2302 F30.00
G01 X22.8093 Y-8.2255 F30.00
G01 X22.8038 Y-8.2216 F30.00
G01 X22.7968 Y-8.2156 F30.00
G01 X22.7920 Y-8.2107 F30.00
G01 X22.7448 Y-8.1562 F30.00
G01 X22.7392 Y-8.1491 F30.00
G01 X22.7343 Y-8.1414 F30.00
G01 X22.7302 Y-8.1333 F30.00
G01 X22.7247 Y-8.1200 F30.00
G01 X22.7158 Y-8.0961 F30.00
G01 X22.6508 Y-8.0092 F30.00
G01 X22.5639 Y-7.9442 F30.00
G01 X22.4607 Y-7.9057 F30.00
G01 X22.4212 Y-7.9014 F30.00
G01 X21.9038 Y-7.9014 F30.00
G01 X21.8643 Y-7.9057 F30.00
G01 X21.7611 Y-7.9442 F30.00
G01 X21.6742 Y-8.0092 F30.00
G01 X21.6092 Y-8.0961 F30.00
G01 X21.5707 Y-8.1993 F30.00
G01 X21.5664 Y-8.2388 F30.00
G01 X21.5664 Y-9.0812 F30.00
G00 Z2.0000
G00 X21.6551 Y-8.1641
G01 F10.00
G01 Z-0.0500
G01 F30.00
G01 X21.6464 Y-8.1886 F30.00
G01 X21.6390 Y-8.2181 F30.00
G01 X21.6345 Y-8.2483 F30.00
G01 X21.6331 Y-8.2765 F30.00
G01 X21.6331 Y-9.0412 F30.00
G01 X21.6345 Y-9.0717 F30.00
G01 X21.6395 Y-9.1041 F30.00
G01 X21.6464 Y-9.1314 F30.00
G01 X21.6551 Y-9.1561 F30.00
G01 X21.6576 Y-9.1623 F30.00
G01 X21.6677 Y-9.1837 F30.00
G01 X21.6720 Y-9.1916 F30.00
G01 X21.6854 Y-9.2139 F30.00
G01 X21.7036 Y-9.2384 F30.00
G01 X21.7241 Y-9.2609 F30.00
G01 X21.7432 Y-9.2785 F30.00
G01 X21.7484 Y-9.2828 F30.00
G01 X21.7674 Y-9.2970 F30.00
G01 X21.7749 Y-9.3020 F30.00
G01 X21.7973 Y-9.3153 F30.00
G01 X21.8249 Y-9.3283 F30.00
G01 X21.8536 Y-9.3386 F30.00
G01 X21.8787 Y-9.3450 F30.00
G01 X21.8876 Y-9.3468 F30.00
G01 X21.9133 Y-9.3505 F30.00
G01 X21.9438 Y-9.3519 F30.00
G01 X22.3812 Y-9.3519 F30.00
G01 X22.4095 Y-9.3506 F30.00
G01 X22.4419 Y-9.3460 F30.00
G01 X22.4671 Y-9.3398 F30.00
G01 X22.4757 Y-9.3372 F30.00
G01 X22.5001 Y-9.3283 F30.00
G01 X22.5237 Y-9.3173 F30.00
G01 X22.5297 Y-9.3142 F30.00
G01 X22.5520 Y-9.3008 F30.00
G01 X22.5784 Y-9.2814 F30.00
G01 X22.5977 Y-9.2641 F30.00
G01 X22.6041 Y-9.2577 F30.00
G01 X22.6200 Y-9.2401 F30.00
G01 X22.6242 Y-9.2348 F30.00
G01 X22.6396 Y-9.2139 F30.00
G01 X22.6553 Y-9.1877 F30.00
G01 X22.6683 Y-9.1601 F30.00
G01 X22.6779 Y-9.1336 F30.00
G01 X22.6860 Y-9.1019 F30.00
G01 X22.6899 Y-9.0762 F30.00
G01 X22.6908 Y-9.0672 F30.00
G01 X22.6919 Y-9.0413 F30.00
G01 X22.6919 Y-8.8610 F30.00
G01 X23.5081 Y-8.8610 F30.00
G01 X23.5081 Y-8.9248 F30.00
G01 X23.5094 Y-8.9515 F30.00
G01 X23.5102 Y-8.9605 F30.00
G01 X23.5151 Y-8.9914 F30.00
G01 X23.5228 Y-9.0218 F30.00
G01 X23.5341 Y-9.0534 F30.00
G01 X23.5484 Y-9.0836 F30.00
G01 X23.5670 Y-9.1143 F30.00
G01 X23.5857 Y-9.1394 F30.00
G01 X23.6082 Y-9.1643 F30.00
G01 X23.6331 Y-9.1868 F30.00
G01 X23.6600 Y-9.2068 F30.00
G01 X23.6888 Y-9.2241 F30.00
G01 X23.7191 Y-9.2384 F30.00
G01 X23.7507 Y-9.2497 F30.00
G01 X23.7833 Y-9.2579 F30.00
G01 X23.8165 Y-9.2628 F30.00
G01 X23.8500 Y-9.2644 F30.00
G01 X24.7523 Y-9.2644 F30.00
G01 X24.7835 Y-9.2628 F30.00
G01 X24.8123 Y-9.2587 F30.00
G01 X24.8211 Y-9.2569 F30.00
G01 X24.8471 Y-9.2504 F30.00
G01 X24.8535 Y-9.2483 F30.00
G01 X24.8809 Y-9.2384 F30.00
G01 X24.9072 Y-9.2261 F30.00
G01 X24.9150 Y-9.2219 F30.00
G01 X24.9400 Y-9.2068 F30.00
G01 X24.9669 Y-9.1868 F30.00
G01 X24.9918 Y-9.1643 F30.00
G01 X25.0129 Y-9.1412 F30.00
G01 X25.0343 Y-9.1125 F30.00
G01 X25.0516 Y-9.0837 F30.00
G01 X25.0659 Y-9.0534 F30.00
G01 X25.0779 Y-9.0196 F30.00
G01 X25.0854 Y-8.9892 F30.00
G01 X25.0903 Y-8.9560 F30.00
G01 X25.0919 Y-8.9248 F30.00
G01 X25.0919 Y-8.8610 F30.00
G01 X25.9923 Y-8.8610 F30.00
G01 X26.0016 Y-8.8765 F30.00
G01 X26.0054 Y-8.8821 F30.00
G01 X26.0170 Y-8.8975 F30.00
G01 X26.0298 Y-8.9118 F30.00
G01 X26.0362 Y-8.9182 F30.00
G01 X26.0505 Y-8.9310 F30.00
G01 X26.0715 Y-8.9464 F30.00
G01 X26.0898 Y-8.9573 F30.00
G01 X26.1073 Y-8.9657 F30.00
G01 X26.1135 Y-8.9684 F30.00
G01 X26.1316 Y-8.9749 F30.00
G01 X26.1568 Y-8.9813 F30.00
G01 X26.1758 Y-8.9842 F30.00
G01 X26.1848 Y-8.9851 F30.00
G01 X26.2040 Y-8.9859 F30.00
G01 X27.3835 Y-8.9858 F30.00
G01 X27.4027 Y-8.9848 F30.00
G01 X27.4262 Y-8.9813 F30.00
G01 X27.4492 Y-8.9755 F30.00
G01 X27.4716 Y-8.9675 F30.00
G01 X27.4931 Y-8.9574 F30.00
G01 X27.5134 Y-8.9452 F30.00
G01 X27.5325 Y-8.9310 F30.00
G01 X27.5468 Y-8.9182 F30.00
G01 X27.5517 Y-8.9135 F30.00
G01 X27.5631 Y-8.9009 F30.00
G01 X27.5688 Y-8.8939 F30.00
G01 X27.5814 Y-8.8765 F30.00
G01 X27.5913 Y-8.8601 F30.00
G01 X27.5943 Y-8.8543 F30.00
G01 X27.6025 Y-8.8366 F30.00
G01 X27.6105 Y-8.8142 F30.00
G01 X27.6163 Y-8.7912 F30.00
G01 X27.6198 Y-8.7677 F30.00
G01 X27.6209 Y-8.7440 F30.00
G01 X27.6208 Y-8.4395 F30.00
G01 X27.6198 Y-8.4203 F30.00
G01 X27.6163 Y-8.3968 F30.00
G01 X27.6105 Y-8.3738 F30.00
G01 X27.6034 Y-8.3535 F30.00
G01 X27.5913 Y-8.3280 F30.00
G01 X27.5802 Y-8.3096 F30.00
G01 X27.5688 Y-8.2941 F30.00
G01 X27.5631 Y-8.2871 F30.00
G01 X27.5501 Y-8.2729 F30.00
G01 X27.5359 Y-8.2599 F30.00
G01 X27.5289 Y-8.2542 F30.00
G01 X27.5134 Y-8.2428 F30.00
G01 X27.4970 Y-8.2328 F30.00
G01 X27.4893 Y-8.2287 F30.00
G01 X27.4716 Y-8.2205 F30.00
G01 X27.4515 Y-8.2132 F30.00
G01 X27.4449 Y-8.2113 F30.00
G01 X27.4262 Y-8.2067 F30.00
G01 X27.4027 Y-8.2032 F30.00
G01 X27.3790 Y-8.2021 F30.00
G01 X26.2040 Y-8.2021 F30.00
G01 X26.1848 Y-8.2029 F30.00
G01 X26.1758 Y-8.2038 F30.00
G01 X26.1568 Y-8.2067 F30.00
G01 X26.1316 Y-8.2131 F30.00
G01 X26.1114 Y-8.2205 F30.00
G01 X26.0940 Y-8.2286 F30.00
G01 X26.0880 Y-8.2317 F30.00
G01 X26.0715 Y-8.2416 F30.00
G01 X26.0505 Y-8.2570 F30.00
G01 X26.0362 Y-8.2698 F30.00
G01 X26.0298 Y-8.2762 F30.00
G01 X26.0170 Y-8.2905 F30.00
G01 X26.0054 Y-8.3059 F30.00
G01 X26.0016 Y-8.3115 F30.00
G01 X25.9923 Y-8.3270 F30.00
G01 X25.0845 Y-8.3270 F30.00
G01 X25.0772 Y-8.2982 F30.00
G01 X25.0675 Y-8.2709 F30.00
G01 X25.0641 Y-8.2625 F30.00
G01 X25.0516 Y-8.2364 F30.00
G01 X25.0367 Y-8.2113 F30.00
G01 X25.0317 Y-8.2038 F30.00
G01 X25.0143 Y-8.1806 F30.00
G01 X24.9918 Y-8.1557 F30.00
G01 X24.9703 Y-8.1361 F30.00
G01 X24.9634 Y-8.1304 F30.00
G01 X24.9400 Y-8.1132 F30.00
G01 X24.9112 Y-8.0959 F30.00
G01 X24.8850 Y-8.0834 F30.00
G01 X24.8766 Y-8.0800 F30.00
G01 X24.8493 Y-8.0703 F30.00
G01 X24.8189 Y-8.0626 F30.00
G01 X24.7835 Y-8.0572 F30.00
G01 X24.7500 Y-8.0556 F30.00
G01 X23.8477 Y-8.0556 F30.00
G01 X23.8165 Y-8.0572 F30.00
G01 X23.7833 Y-8.0621 F30.00
G01 X23.7507 Y-8.0703 F30.00
G01 X23.7234 Y-8.0800 F30.00
G01 X23.7150 Y-8.0834 F30.00
G01 X23.6908 Y-8.0949 F30.00
G01 X23.6850 Y-8.0981 F30.00
G01 X23.6600 Y-8.1132 F30.00
G01 X23.6331 Y-8.1332 F30.00
G01 X23.6082 Y-8.1557 F30.00
G01 X23.5886 Y-8.1772 F30.00
G01 X23.5829 Y-8.1841 F30.00
G01 X23.5670 Y-8.2057 F30.00
G01 X23.5633 Y-8.2113 F30.00
G01 X23.5484 Y-8.2363 F30.00
G01 X23.5341 Y-8.2666 F30.00
G01 X23.5228 Y-8.2982 F30.00
G01 X23.5155 Y-8.3270 F30.00
G01 X22.6919 Y-8.3270 F30.00
G01 X22.6919 Y-8.2765 F30.00
G01 X22.6905 Y-8.2483 F30.00
G01 X22.6860 Y-8.2181 F30.00
G01 X22.6786 Y-8.1886 F30.00
G01 X22.6683 Y-8.1599 F30.00
G01 X22.6553 Y-8.1323 F30.00
G01 X22.6396 Y-8.1061 F30.00
G01 X22.6200 Y-8.0799 F30.00
G01 X22.6009 Y-8.0591 F30.00
G01 X22.5818 Y-8.0415 F30.00
G01 X22.5748 Y-8.0358 F30.00
G01 X22.5539 Y-8.0204 F30.00
G01 X22.5316 Y-8.0070 F30.00
G01 X22.5257 Y-8.0037 F30.00
G01 X22.5043 Y-7.9935 F30.00
G01 X22.4959 Y-7.9901 F30.00
G01 X22.4714 Y-7.9814 F30.00
G01 X22.4419 Y-7.9740 F30.00
G01 X22.4117 Y-7.9695 F30.00
G01 X22.3812 Y-7.9681 F30.00
G01 X21.9415 Y-7.9681 F30.00
G01 X21.9155 Y-7.9694 F30.00
G01 X21.9088 Y-7.9701 F30.00
G01 X21.8831 Y-7.9740 F30.00
G01 X21.8557 Y-7.9808 F30.00
G01 X21.8249 Y-7.9917 F30.00
G01 X21.8013 Y-8.0027 F30.00
G01 X21.7934 Y-8.0070 F30.00
G01 X21.7730 Y-8.0192 F30.00
G01 X21.7674 Y-8.0230 F30.00
G01 X21.7466 Y-8.0386 F30.00
G01 X21.7273 Y-8.0559 F30.00
G01 X21.7209 Y-8.0623 F30.00
G01 X21.7036 Y-8.0816 F30.00
G01 X21.6854 Y-8.1061 F30.00
G01 X21.6697 Y-8.1323 F30.00
G01 X21.6585 Y-8.1557 F30.00
G01 X21.6551 Y-8.1641 F30.00
G00 Z2.0000
G00 X25.9621 Y-6.5440
G01 F10.00
G01 Z-0.0500
G01 F30.00
G01 X25.9621 Y-6.8463 F30.00
G01 X25.9632 Y-6.8677 F30.00
G01 X25.9659 Y-6.8868 F30.00
G01 X25.9677 Y-6.8956 F30.00
G01 X25.9725 Y-6.9142 F30.00
G01 X25.9805 Y-6.9366 F30.00
G01 X25.9886 Y-6.9540 F30.00
G01 X25.9928 Y-6.9620 F30.00
G01 X26.0028 Y-6.9784 F30.00
G01 X26.0142 Y-6.9939 F30.00
G01 X26.0199 Y-7.0009 F30.00
G01 X26.0329 Y-7.0151 F30.00
G01 X26.0505 Y-7.0310 F30.00
G01 X26.0659 Y-7.0426 F30.00
G01 X26.0734 Y-7.0476 F30.00
G01 X26.0898 Y-7.0573 F30.00
G01 X26.1073 Y-7.0657 F30.00
G01 X26.1135 Y-7.0684 F30.00
G01 X26.1295 Y-7.0741 F30.00
G01 X26.1381 Y-7.0767 F30.00
G01 X26.1546 Y-7.0808 F30.00
G01 X26.1612 Y-7.0821 F30.00
G01 X26.1803 Y-7.0848 F30.00
G01 X26.2040 Y-7.0859 F30.00
G01 X27.3790 Y-7.0859 F30.00
G01 X27.3982 Y-7.0851 F30.00
G01 X27.4072 Y-7.0842 F30.00
G01 X27.4262 Y-7.0813 F30.00
G01 X27.4492 Y-7.0755 F30.00
G01 X27.4716 Y-7.0675 F30.00
G01 X27.4890 Y-7.0594 F30.00
G01 X27.4970 Y-7.0552 F30.00
G01 X27.5134 Y-7.0452 F30.00
G01 X27.5289 Y-7.0338 F30.00
G01 X27.5359 Y-7.0281 F30.00
G01 X27.5501 Y-7.0151 F30.00
G01 X27.5631 Y-7.0009 F30.00
G01 X27.5688 Y-6.9939 F30.00
G01 X27.5802 Y-6.9784 F30.00
G01 X27.5902 Y-6.9620 F30.00
G01 X27.5943 Y-6.9543 F30.00
G01 X27.6025 Y-6.9366 F30.00
G01 X27.6112 Y-6.9121 F30.00
G01 X27.6163 Y-6.8912 F30.00
G01 X27.6192 Y-6.8722 F30.00
G01 X27.6200 Y-6.8655 F30.00
G01 X27.6209 Y-6.8463 F30.00
G01 X27.6209 Y-6.5440 F30.00
G01 X27.6201 Y-6.5248 F30.00
G01 X27.6192 Y-6.5158 F30.00
G01 X27.6163 Y-6.4968 F30.00
G01 X27.6112 Y-6.4759 F30.00
G01 X27.6025 Y-6.4514 F30.00
G01 X27.5944 Y-6.4340 F30.00
G01 X27.5902 Y-6.4260 F30.00
G01 X27.5802 Y-6.4096 F30.00
G01 X27.5688 Y-6.3941 F30.00
G01 X27.5631 Y-6.3871 F30.00
G01 X27.5501 Y-6.3729 F30.00
G01 X27.5325 Y-6.3570 F30.00
G01 X27.5171 Y-6.3454 F30.00
G01 X27.5096 Y-6.3404 F30.00
G01 X27.4932 Y-6.3307 F30.00
G01 X27.4757 Y-6.3223 F30.00
G01 X27.4695 Y-6.3196 F30.00
G01 X27.4515 Y-6.3132 F30.00
G01 X27.4306 Y-6.3077 F30.00
G01 X27.4218 Y-6.3059 F30.00
G01 X27.4027 Y-6.3032 F30.00
G01 X27.3813 Y-6.3021 F30.00
G01 X27.0670 Y-6.3021 F30.00
G01 X27.0670 Y-5.6959 F30.00
G01 X27.2750 Y-5.6959 F30.00
G01 X27.3108 Y-5.6941 F30.00
G01 X27.3417 Y-5.6894 F30.00
G01 X27.3743 Y-5.6812 F30.00
G01 X27.4059 Y-5.6699 F30.00
G01 X27.4322 Y-5.6576 F30.00
G01 X27.4400 Y-5.6534 F30.00
G01 X27.4631 Y-5.6396 F30.00
G01 X27.4687 Y-5.6357 F30.00
G01 X27.4919 Y-5.6183 F30.00
G01 X27.5135 Y-5.5989 F30.00
G01 X27.5199 Y-5.5925 F30.00
G01 X27.5393 Y-5.5709 F30.00
G01 X27.5606 Y-5.5421 F30.00
G01 X27.5743 Y-5.5191 F30.00
G01 X27.5786 Y-5.5112 F30.00
G01 X27.5909 Y-5.4849 F30.00
G01 X27.6015 Y-5.4554 F30.00
G01 X27.6108 Y-5.4185 F30.00
G01 X27.6151 Y-5.3898 F30.00
G01 X27.6162 Y-5.3710 F30.00
G01 X29.9994 Y-5.3710 F30.00
G01 X30.3183 Y-5.6900 F30.00
G01 X30.3137 Y-5.7094 F30.00
G01 X30.3098 Y-5.7357 F30.00
G01 X30.3081 Y-5.7690 F30.00
G01 X30.3081 Y-6.2213 F30.00
G01 X30.3096 Y-6.2501 F30.00
G01 X30.3146 Y-6.2830 F30.00
G01 X30.3210 Y-6.3086 F30.00
G01 X30.3231 Y-6.3153 F30.00
G01 X30.3322 Y-6.3403 F30.00
G01 X30.3434 Y-6.3644 F30.00
G01 X30.3477 Y-6.3723 F30.00
G01 X30.3615 Y-6.3951 F30.00
G01 X30.3800 Y-6.4201 F30.00
G01 X30.3978 Y-6.4398 F30.00
G01 X30.4042 Y-6.4462 F30.00
G01 X30.4239 Y-6.4639 F30.00
G01 X30.4452 Y-6.4799 F30.00
G01 X30.4527 Y-6.4849 F30.00
G01 X30.4756 Y-6.4985 F30.00
G01 X30.5037 Y-6.5118 F30.00
G01 X30.5330 Y-6.5223 F30.00
G01 X30.5632 Y-6.5299 F30.00
G01 X30.5939 Y-6.5344 F30.00
G01 X30.6227 Y-6.5359 F30.00
G01 X31.1643 Y-6.5359 F30.00
G01 X31.5503 Y-6.9219 F30.00
G01 X31.5681 Y-6.9379 F30.00
G01 X31.5855 Y-6.9509 F30.00
G01 X31.5930 Y-6.9559 F30.00
G01 X31.6136 Y-6.9680 F30.00
G01 X31.6374 Y-6.9790 F30.00
G01 X31.6578 Y-6.9864 F30.00
G01 X31.6643 Y-6.9882 F30.00
G01 X31.6832 Y-6.9929 F30.00
G01 X31.6899 Y-6.9942 F30.00
G01 X31.7113 Y-6.9973 F30.00
G01 X31.7330 Y-6.9984 F30.00
G01 X32.3982 Y-6.9985 F30.00
G01 X32.3997 Y-7.0275 F30.00
G01 X32.4046 Y-7.0607 F30.00
G01 X32.4128 Y-7.0933 F30.00
G01 X32.4241 Y-7.1249 F30.00
G01 X32.4384 Y-7.1551 F30.00
G01 X32.4557 Y-7.1840 F30.00
G01 X32.4757 Y-7.2109 F30.00
G01 X32.4951 Y-7.2325 F30.00
G01 X32.4998 Y-7.2374 F30.00
G01 X32.5197 Y-7.2554 F30.00
G01 X32.5266 Y-7.2611 F30.00
G01 X32.5500 Y-7.2783 F30.00
G01 X32.5808 Y-7.2966 F30.00
G01 X32.6091 Y-7.3099 F30.00
G01 X32.6407 Y-7.3212 F30.00
G01 X32.6733 Y-7.3294 F30.00
G01 X32.7020 Y-7.3338 F30.00
G01 X32.7110 Y-7.3346 F30.00
G01 X32.7400 Y-7.3359 F30.00
G01 X33.6400 Y-7.3359 F30.00
G01 X33.6735 Y-7.3343 F30.00
G01 X33.7023 Y-7.3302 F30.00
G01 X33.7111 Y-7.3284 F30.00
G01 X33.7393 Y-7.3212 F30.00
G01 X33.7709 Y-7.3099 F30.00
G01 X33.8011 Y-7.2956 F30.00
G01 X33.8262 Y-7.2807 F30.00
G01 X33.8318 Y-7.2770 F30.00
G01 X33.8534 Y-7.2611 F30.00
G01 X33.8603 Y-7.2554 F30.00
G01 X33.8818 Y-7.2358 F30.00
G01 X33.9029 Y-7.2127 F30.00
G01 X33.9217 Y-7.1877 F30.00
G01 X33.9267 Y-7.1802 F30.00
G01 X33.9416 Y-7.1552 F30.00
G01 X33.9559 Y-7.1249 F30.00
G01 X33.9672 Y-7.0933 F30.00
G01 X33.9744 Y-7.0651 F30.00
G01 X33.9762 Y-7.0563 F30.00
G01 X33.9801 Y-7.0298 F30.00
G01 X33.9806 Y-7.0230 F30.00
G01 X33.9819 Y-6.9940 F30.00
G01 X33.9819 Y-6.4690 F30.00
G01 X33.9803 Y-6.4355 F30.00
G01 X33.9762 Y-6.4067 F30.00
G01 X33.9744 Y-6.3979 F30.00
G01 X33.9679 Y-6.3719 F30.00
G01 X33.9658 Y-6.3655 F30.00
G01 X33.9559 Y-6.3381 F30.00
G01 X33.9436 Y-6.3118 F30.00
G01 X33.9394 Y-6.3040 F30.00
G01 X33.9243 Y-6.2790 F30.00
G01 X33.9043 Y-6.2521 F30.00
G01 X33.8849 Y-6.2305 F30.00
G01 X33.8785 Y-6.2241 F30.00
G01 X33.8569 Y-6.2047 F30.00
G01 X33.8337 Y-6.1873 F30.00
G01 X33.8262 Y-6.1823 F30.00
G01 X33.8012 Y-6.1674 F30.00
G01 X33.7688 Y-6.1522 F30.00
G01 X33.7393 Y-6.1418 F30.00
G01 X33.7067 Y-6.1336 F30.00
G01 X33.6735 Y-6.1287 F30.00
G01 X33.6423 Y-6.1271 F30.00
G01 X32.7400 Y-6.1271 F30.00
G01 X32.7065 Y-6.1287 F30.00
G01 X32.6755 Y-6.1332 F30.00
G01 X32.6407 Y-6.1418 F30.00
G01 X32.6134 Y-6.1515 F30.00
G01 X32.6050 Y-6.1549 F30.00
G01 X32.5808 Y-6.1664 F30.00
G01 X32.5750 Y-6.1696 F30.00
G01 X32.5500 Y-6.1847 F30.00
G01 X32.5231 Y-6.2047 F30.00
G01 X32.4982 Y-6.2272 F30.00
G01 X32.4757 Y-6.2521 F30.00
G01 X32.4557 Y-6.2790 F30.00
G01 X32.4407 Y-6.3039 F30.00
G01 X32.4364 Y-6.3118 F30.00
G01 X32.4250 Y-6.3361 F30.00
G01 X32.4225 Y-6.3424 F30.00
G01 X32.4128 Y-6.3697 F30.00
G01 X32.4046 Y-6.4023 F30.00
G01 X32.3997 Y-6.4355 F30.00
G01 X32.3982 Y-6.4645 F30.00
G01 X31.8481 Y-6.4645 F30.00
G01 X31.6817 Y-6.2980 F30.00
G01 X31.6863 Y-6.2786 F30.00
G01 X31.6902 Y-6.2523 F30.00
G01 X31.6919 Y-6.2213 F30.00
G01 X31.6919 Y-5.7690 F30.00
G01 X31.6904 Y-5.7379 F30.00
G01 X31.6859 Y-5.7072 F30.00
G01 X31.6795 Y-5.6813 F30.00
G01 X31.6772 Y-5.6735 F30.00
G01 X31.6694 Y-5.6519 F30.00
G01 X31.6660 Y-5.6436 F30.00
G01 X31.6545 Y-5.6196 F30.00
G01 X31.6385 Y-5.5929 F30.00
G01 X31.6200 Y-5.5679 F30.00
G01 X31.5991 Y-5.5449 F30.00
G01 X31.5761 Y-5.5241 F30.00
G01 X31.5548 Y-5.5081 F30.00
G01 X31.5473 Y-5.5031 F30.00
G01 X31.5264 Y-5.4906 F30.00
G01 X31.5204 Y-5.4874 F30.00
G01 X31.4963 Y-5.4762 F30.00
G01 X31.4670 Y-5.4657 F30.00
G01 X31.4368 Y-5.4581 F30.00
G01 X31.4083 Y-5.4538 F30.00
G01 X31.3750 Y-5.4521 F30.00
G01 X30.8357 Y-5.4521 F30.00
G01 X30.2972 Y-4.9136 F30.00
G01 X30.2794 Y-4.8976 F30.00
G01 X30.2584 Y-4.8820 F30.00
G01 X30.2359 Y-4.8685 F30.00
G01 X30.2143 Y-4.8582 F30.00
G01 X30.1875 Y-4.8485 F30.00
G01 X30.1621 Y-4.8421 F30.00
G01 X30.1362 Y-4.8382 F30.00
G01 X30.1100 Y-4.8370 F30.00
G01 X27.6162 Y-4.8370 F30.00
G01 X27.6151 Y-4.8182 F30.00
G01 X27.6099 Y-4.7851 F30.00
G01 X27.6022 Y-4.7547 F30.00
G01 X27.5900 Y-4.7211 F30.00
G01 X27.5766 Y-4.6929 F30.00
G01 X27.5593 Y-4.6640 F30.00
G01 X27.5393 Y-4.6371 F30.00
G01 X27.5184 Y-4.6138 F30.00
G01 X27.4919 Y-4.5897 F30.00
G01 X27.4650 Y-4.5697 F30.00
G01 X27.4362 Y-4.5524 F30.00
G01 X27.4100 Y-4.5399 F30.00
G01 X27.4016 Y-4.5365 F30.00
G01 X27.3764 Y-4.5275 F30.00
G01 X27.3461 Y-4.5196 F30.00
G01 X27.3373 Y-4.5178 F30.00
G01 X27.3108 Y-4.5139 F30.00
G01 X27.3040 Y-4.5134 F30.00
G01 X27.2750 Y-4.5121 F30.00
G01 X26.3250 Y-4.5121 F30.00
G01 X26.2892 Y-4.5139 F30.00
G01 X26.2583 Y-4.5186 F30.00
G01 X26.2301 Y-4.5256 F30.00
G01 X26.2215 Y-4.5282 F30.00
G01 X26.1941 Y-4.5381 F30.00
G01 X26.1678 Y-4.5504 F30.00
G01 X26.1600 Y-4.5546 F30.00
G01 X26.1388 Y-4.5673 F30.00
G01 X26.1313 Y-4.5723 F30.00
G01 X26.1081 Y-4.5897 F30.00
G01 X26.0832 Y-4.6122 F30.00
G01 X26.0607 Y-4.6371 F30.00
G01 X26.0407 Y-4.6640 F30.00
G01 X26.0257 Y-4.6889 F30.00
G01 X26.0214 Y-4.6968 F30.00
G01 X26.0091 Y-4.7231 F30.00
G01 X25.9992 Y-4.7505 F30.00
G01 X25.9966 Y-4.7591 F30.00
G01 X25.9896 Y-4.7873 F30.00
G01 X25.9852 Y-4.8160 F30.00
G01 X25.9844 Y-4.8250 F30.00
G01 X25.9831 Y-4.8540 F30.00
G01 X25.9831 Y-5.3563 F30.00
G01 X25.9847 Y-5.3875 F30.00
G01 X25.9888 Y-5.4163 F30.00
G01 X25.9906 Y-5.4251 F30.00
G01 X25.9978 Y-5.4533 F30.00
G01 X26.0091 Y-5.4849 F30.00
G01 X26.0234 Y-5.5151 F30.00
G01 X26.0407 Y-5.5440 F30.00
G01 X26.0579 Y-5.5674 F30.00
G01 X26.0636 Y-5.5743 F30.00
G01 X26.0832 Y-5.5958 F30.00
G01 X26.1047 Y-5.6154 F30.00
G01 X26.1098 Y-5.6197 F30.00
G01 X26.1313 Y-5.6357 F30.00
G01 X26.1388 Y-5.6407 F30.00
G01 X26.1638 Y-5.6556 F30.00
G01 X26.1921 Y-5.6690 F30.00
G01 X26.2257 Y-5.6812 F30.00
G01 X26.2539 Y-5.6884 F30.00
G01 X26.2627 Y-5.6902 F30.00
G01 X26.2937 Y-5.6945 F30.00
G01 X26.3250 Y-5.6959 F30.00
G01 X26.5330 Y-5.6959 F30.00
G01 X26.5330 Y-6.3021 F30.00
G01 X26.1995 Y-6.3022 F30.00
G01 X26.1803 Y-6.3032 F30.00
G01 X26.1568 Y-6.3067 F30.00
G01 X26.1338 Y-6.3125 F30.00
G01 X26.1114 Y-6.3205 F30.00
G01 X26.0940 Y-6.3286 F30.00
G01 X26.0860 Y-6.3328 F30.00
G01 X26.0696 Y-6.3428 F30.00
G01 X26.0505 Y-6.3570 F30.00
G01 X26.0329 Y-6.3729 F30.00
G01 X26.0199 Y-6.3871 F30.00
G01 X26.0142 Y-6.3941 F30.00
G01 X26.0028 Y-6.4096 F30.00
G01 X25.9928 Y-6.4260 F30.00
G01 X25.9886 Y-6.4340 F30.00
G01 X25.9805 Y-6.4514 F30.00
G01 X25.9725 Y-6.4735 F30.00
G01 X25.9677 Y-6.4924 F30.00
G01 X25.9659 Y-6.5012 F30.00
G01 X25.9632 Y-6.5203 F30.00
G01 X25.9621 Y-6.5440 F30.00
G00 Z2.0000
G00 X27.7553 Y-7.0002
G01 F10.00
G01 Z-0.0500
G01 F30.00
G01 X27.7660 Y-7.0052 F30.00
G01 X27.7773 Y-7.0112 F30.00
G01 X27.7937 Y-7.0211 F30.00
G01 X27.8093 Y-7.0323 F30.00
G01 X27.8192 Y-7.0404 F30.00
G01 X27.8287 Y-7.0489 F30.00
G01 X27.8421 Y-7.0626 F30.00
G01 X27.8545 Y-7.0773 F30.00
G01 X27.8621 Y-7.0876 F30.00
G01 X27.8931 Y-7.1315 F30.00
G01 X27.9173 Y-7.1200 F30.00
G01 X27.9349 Y-7.1130 F30.00
G01 X27.9607 Y-7.1041 F30.00
G01 X27.9872 Y-7.0971 F30.00
G01 X28.0057 Y-7.0932 F30.00
G01 X28.0328 Y-7.0892 F30.00
G01 X28.0454 Y-7.0880 F30.00
G01 X28.0727 Y-7.0866 F30.00
G01 X29.2540 Y-7.0865 F30.00
G01 X29.2666 Y-7.0869 F30.00
G01 X29.2876 Y-7.0880 F30.00
G01 X29.3002 Y-7.0892 F30.00
G01 X29.3273 Y-7.0932 F30.00
G01 X29.3397 Y-7.0957 F30.00
G01 X29.3614 Y-7.1010 F30.00
G01 X29.3786 Y-7.1061 F30.00
G01 X29.4041 Y-7.1152 F30.00
G01 X29.4157 Y-7.1200 F30.00
G01 X29.4411 Y-7.1320 F30.00
G01 X29.4518 Y-7.1378 F30.00
G01 X29.4751 Y-7.1518 F30.00
G01 X29.4856 Y-7.1588 F30.00
G01 X29.5076 Y-7.1751 F30.00
G01 X29.5173 Y-7.1831 F30.00
G01 X29.5376 Y-7.2015 F30.00
G01 X29.5475 Y-7.2115 F30.00
G01 X32.2818 Y-7.2115 F30.00
G01 X32.2712 Y-7.1882 F30.00
G01 X32.2622 Y-7.1640 F30.00
G01 X31.7375 Y-7.1640 F30.00
G01 X31.7077 Y-7.1629 F30.00
G01 X31.6888 Y-7.1613 F30.00
G01 X31.6656 Y-7.1579 F30.00
G01 X31.6531 Y-7.1557 F30.00
G01 X31.6408 Y-7.1530 F30.00
G01 X31.6180 Y-7.1472 F30.00
G01 X31.6059 Y-7.1435 F30.00
G01 X31.5778 Y-7.1335 F30.00
G01 X31.5662 Y-7.1286 F30.00
G01 X31.5336 Y-7.1130 F30.00
G01 X31.5226 Y-7.1067 F30.00
G01 X31.4972 Y-7.0912 F30.00
G01 X31.4680 Y-7.0698 F30.00
G01 X31.4583 Y-7.0618 F30.00
G01 X31.4408 Y-7.0461 F30.00
G01 X31.4316 Y-7.0374 F30.00
G01 X31.0957 Y-6.7015 F30.00
G01 X30.6250 Y-6.7015 F30.00
G01 X30.5903 Y-6.7001 F30.00
G01 X30.5714 Y-6.6984 F30.00
G01 X30.5371 Y-6.6933 F30.00
G01 X30.5185 Y-6.6894 F30.00
G01 X30.4849 Y-6.6807 F30.00
G01 X30.4462 Y-6.6671 F30.00
G01 X30.4288 Y-6.6596 F30.00
G01 X30.3976 Y-6.6445 F30.00
G01 X30.3676 Y-6.6269 F30.00
G01 X30.3517 Y-6.6166 F30.00
G01 X30.3187 Y-6.5918 F30.00
G01 X30.2930 Y-6.5689 F30.00
G01 X30.2838 Y-6.5602 F30.00
G01 X30.2603 Y-6.5346 F30.00
G01 X30.2521 Y-6.5251 F30.00
G01 X30.2443 Y-6.5151 F30.00
G01 X30.2238 Y-6.4870 F30.00
G01 X30.2057 Y-6.4574 F30.00
G01 X30.1995 Y-6.4464 F30.00
G01 X30.1818 Y-6.4094 F30.00
G01 X30.1747 Y-6.3918 F30.00
G01 X30.1647 Y-6.3634 F30.00
G01 X30.1614 Y-6.3524 F30.00
G01 X30.1546 Y-6.3255 F30.00
G01 X30.1507 Y-6.3069 F30.00
G01 X30.1456 Y-6.2726 F30.00
G01 X30.1443 Y-6.2600 F30.00
G01 X30.1426 Y-6.2253 F30.00
G01 X30.1425 Y-5.7690 F30.00
G01 X30.1432 Y-5.7489 F30.00
G01 X29.9308 Y-5.5365 F30.00
G01 X27.7483 Y-5.5365 F30.00
G01 X27.7438 Y-5.5482 F30.00
G01 X27.7387 Y-5.5597 F30.00
G01 X27.7254 Y-5.5876 F30.00
G01 X27.7195 Y-5.5988 F30.00
G01 X27.6969 Y-5.6359 F30.00
G01 X27.6750 Y-5.6660 F30.00
G01 X27.6673 Y-5.6759 F30.00
G01 X27.6590 Y-5.6855 F30.00
G01 X27.6338 Y-5.7128 F30.00
G01 X27.6065 Y-5.7380 F30.00
G01 X27.5969 Y-5.7463 F30.00
G01 X27.5870 Y-5.7540 F30.00
G01 X27.5621 Y-5.7724 F30.00
G01 X27.5516 Y-5.7794 F30.00
G01 X27.5248 Y-5.7955 F30.00
G01 X27.5140 Y-5.8016 F30.00
G01 X27.4750 Y-5.8203 F30.00
G01 X27.4633 Y-5.8252 F30.00
G01 X27.4343 Y-5.8356 F30.00
G01 X27.4223 Y-5.8396 F30.00
G01 X27.4101 Y-5.8430 F30.00
G01 X27.3740 Y-5.8517 F30.00
G01 X27.3615 Y-5.8539 F30.00
G01 X27.3247 Y-5.8590 F30.00
G01 X27.2813 Y-5.8614 F30.00
G01 X27.2325 Y-5.8615 F30.00
G01 X27.2325 Y-6.1365 F30.00
G01 X27.3853 Y-6.1366 F30.00
G01 X27.4126 Y-6.1380 F30.00
G01 X27.4252 Y-6.1392 F30.00
G01 X27.4585 Y-6.1444 F30.00
G01 X27.4922 Y-6.1526 F30.00
G01 X27.5036 Y-6.1561 F30.00
G01 X27.5231 Y-6.1630 F30.00
G01 X27.5349 Y-6.1676 F30.00
G01 X27.5465 Y-6.1727 F30.00
G01 X27.5661 Y-6.1820 F30.00
G01 X27.5768 Y-6.1878 F30.00
G01 X27.6001 Y-6.2018 F30.00
G01 X27.6106 Y-6.2088 F30.00
G01 X27.6375 Y-6.2290 F30.00
G01 X27.6471 Y-6.2373 F30.00
G01 X27.6671 Y-6.2559 F30.00
G01 X27.6857 Y-6.2759 F30.00
G01 X27.6940 Y-6.2855 F30.00
G01 X27.7142 Y-6.3124 F30.00
G01 X27.7212 Y-6.3229 F30.00
G01 X27.7353 Y-6.3464 F30.00
G01 X27.7413 Y-6.3575 F30.00
G01 X27.7503 Y-6.3765 F30.00
G01 X27.7578 Y-6.3939 F30.00
G01 X27.7670 Y-6.4197 F30.00
G01 X27.7707 Y-6.4318 F30.00
G01 X27.7773 Y-6.4583 F30.00
G01 X27.7808 Y-6.4770 F30.00
G01 X27.7845 Y-6.5041 F30.00
G01 X27.7854 Y-6.5167 F30.00
G01 X27.7865 Y-6.5440 F30.00
G01 X27.7865 Y-6.8440 F30.00
G01 X27.7850 Y-6.8776 F30.00
G01 X27.7838 Y-6.8902 F30.00
G01 X27.7808 Y-6.9110 F30.00
G01 X27.7786 Y-6.9235 F30.00
G01 X27.7759 Y-6.9358 F30.00
G01 X27.7707 Y-6.9562 F30.00
G01 X27.7670 Y-6.9683 F30.00
G01 X27.7553 Y-7.0002 F30.00
G00 Z2.0000
G00 X27.8371 Y-7.4940
G01 F10.00
G01 Z-0.0500
G01 F30.00
G01 X27.8372 Y-7.7985 F30.00
G01 X27.8382 Y-7.8177 F30.00
G01 X27.8417 Y-7.8412 F30.00
G01 X27.8475 Y-7.8642 F30.00
G01 X27.8555 Y-7.8866 F30.00
G01 X27.8636 Y-7.9040 F30.00
G01 X27.8678 Y-7.9120 F30.00
G01 X27.8778 Y-7.9284 F30.00
G01 X27.8920 Y-7.9475 F30.00
G01 X27.9048 Y-7.9618 F30.00
G01 X27.9112 Y-7.9682 F30.00
G01 X27.9255 Y-7.9810 F30.00
G01 X27.9409 Y-7.9926 F30.00
G01 X27.9484 Y-7.9976 F30.00
G01 X27.9648 Y-8.0073 F30.00
G01 X27.9823 Y-8.0157 F30.00
G01 X27.9906 Y-8.0192 F30.00
G01 X28.0088 Y-8.0255 F30.00
G01 X28.0296 Y-8.0308 F30.00
G01 X28.0508 Y-8.0342 F30.00
G01 X28.0598 Y-8.0351 F30.00
G01 X28.0790 Y-8.0359 F30.00
G01 X29.2540 Y-8.0359 F30.00
G01 X29.2777 Y-8.0348 F30.00
G01 X29.2968 Y-8.0321 F30.00
G01 X29.3056 Y-8.0303 F30.00
G01 X29.3242 Y-8.0255 F30.00
G01 X29.3424 Y-8.0192 F30.00
G01 X29.3507 Y-8.0157 F30.00
G01 X29.3681 Y-8.0074 F30.00
G01 X29.3884 Y-7.9952 F30.00
G01 X29.4075 Y-7.9810 F30.00
G01 X29.4218 Y-7.9682 F30.00
G01 X29.4282 Y-7.9618 F30.00
G01 X29.4410 Y-7.9475 F30.00
G01 X29.4526 Y-7.9321 F30.00
G01 X29.4564 Y-7.9265 F30.00
G01 X29.4657 Y-7.9110 F30.00
G01 X35.9334 Y-7.9110 F30.00
G01 X38.3952 Y-10.3728 F30.00
G01 X38.4146 Y-10.3904 F30.00
G01 X38.4375 Y-10.4073 F30.00
G01 X38.4581 Y-10.4195 F30.00
G01 X38.4777 Y-10.4289 F30.00
G01 X38.4860 Y-10.4323 F30.00
G01 X38.5065 Y-10.4395 F30.00
G01 X38.5275 Y-10.4449 F30.00
G01 X38.5364 Y-10.4467 F30.00
G01 X38.5578 Y-10.4498 F30.00
G01 X38.5817 Y-10.4510 F30.00
G01 X39.9234 Y-10.4510 F30.00
G01 X40.3581 Y-10.8857 F30.00
G01 X40.3581 Y-11.8020 F30.00
G01 X40.3599 Y-11.8378 F30.00
G01 X40.3646 Y-11.8687 F30.00
G01 X40.3716 Y-11.8969 F30.00
G01 X40.3742 Y-11.9055 F30.00
G01 X40.3841 Y-11.9329 F30.00
G01 X40.3964 Y-11.9592 F30.00
G01 X40.4006 Y-11.9670 F30.00
G01 X40.4133 Y-11.9882 F30.00
G01 X40.4183 Y-11.9957 F30.00
G01 X40.4357 Y-12.0189 F30.00
G01 X40.4582 Y-12.0438 F30.00
G01 X40.4831 Y-12.0663 F30.00
G01 X40.5082 Y-12.0850 F30.00
G01 X40.5388 Y-12.1036 F30.00
G01 X40.5650 Y-12.1161 F30.00
G01 X40.5734 Y-12.1195 F30.00
G01 X40.6007 Y-12.1292 F30.00
G01 X40.6289 Y-12.1364 F30.00
G01 X40.6377 Y-12.1382 F30.00
G01 X40.6687 Y-12.1425 F30.00
G01 X40.7000 Y-12.1439 F30.00
G01 X41.2000 Y-12.1439 F30.00
G01 X41.2335 Y-12.1423 F30.00
G01 X41.2645 Y-12.1378 F30.00
G01 X41.2949 Y-12.1304 F30.00
G01 X41.3035 Y-12.1278 F30.00
G01 X41.3309 Y-12.1179 F30.00
G01 X41.3572 Y-12.1056 F30.00
G01 X41.3650 Y-12.1014 F30.00
G01 X41.3900 Y-12.0863 F30.00
G01 X41.4134 Y-12.0691 F30.00
G01 X41.4203 Y-12.0634 F30.00
G01 X41.4418 Y-12.0438 F30.00
G01 X41.4614 Y-12.0223 F30.00
G01 X41.4671 Y-12.0154 F30.00
G01 X41.4843 Y-11.9920 F30.00
G01 X41.4993 Y-11.9671 F30.00
G01 X41.5036 Y-11.9592 F30.00
G01 X41.5159 Y-11.9329 F30.00
G01 X41.5265 Y-11.9034 F30.00
G01 X41.5344 Y-11.8731 F30.00
G01 X41.5362 Y-11.8643 F30.00
G01 X41.5403 Y-11.8355 F30.00
G01 X41.5419 Y-11.8020 F30.00
G01 X41.5419 Y-10.8520 F30.00
G01 X41.5403 Y-10.8185 F30.00
G01 X41.5349 Y-10.7831 F30.00
G01 X41.5272 Y-10.7527 F30.00
G01 X41.5159 Y-10.7211 F30.00
G01 X41.5016 Y-10.6909 F30.00
G01 X41.4867 Y-10.6658 F30.00
G01 X41.4830 Y-10.6602 F30.00
G01 X41.4671 Y-10.6386 F30.00
G01 X41.4614 Y-10.6317 F30.00
G01 X41.4418 Y-10.6102 F30.00
G01 X41.4187 Y-10.5891 F30.00
G01 X41.3900 Y-10.5677 F30.00
G01 X41.3651 Y-10.5527 F30.00
G01 X41.3572 Y-10.5484 F30.00
G01 X41.3288 Y-10.5352 F30.00
G01 X41.2993 Y-10.5248 F30.00
G01 X41.2689 Y-10.5171 F30.00
G01 X41.2358 Y-10.5119 F30.00
G01 X41.2170 Y-10.5108 F30.00
G01 X41.2170 Y-9.7959 F30.00
G01 X41.2523 Y-9.7959 F30.00
G01 X41.2858 Y-9.7941 F30.00
G01 X41.3167 Y-9.7894 F30.00
G01 X41.3514 Y-9.7805 F30.00
G01 X41.3809 Y-9.7699 F30.00
G01 X41.4111 Y-9.7556 F30.00
G01 X41.4400 Y-9.7383 F30.00
G01 X41.4634 Y-9.7211 F30.00
G01 X41.4703 Y-9.7154 F30.00
G01 X41.4934 Y-9.6942 F30.00
G01 X41.5114 Y-9.6743 F30.00
G01 X41.5171 Y-9.6674 F30.00
G01 X41.5343 Y-9.6440 F30.00
G01 X41.5493 Y-9.6191 F30.00
G01 X41.5526 Y-9.6132 F30.00
G01 X41.5641 Y-9.5890 F30.00
G01 X41.5675 Y-9.5806 F30.00
G01 X41.5772 Y-9.5533 F30.00
G01 X41.5854 Y-9.5207 F30.00
G01 X41.5903 Y-9.4875 F30.00
G01 X41.5919 Y-9.4563 F30.00
G01 X41.5919 Y-6.4540 F30.00
G01 X41.5905 Y-6.4227 F30.00
G01 X41.5862 Y-6.3917 F30.00
G01 X41.5844 Y-6.3829 F30.00
G01 X41.5772 Y-6.3547 F30.00
G01 X41.5659 Y-6.3231 F30.00
G01 X41.5516 Y-6.2929 F30.00
G01 X41.5367 Y-6.2678 F30.00
G01 X41.5317 Y-6.2603 F30.00
G01 X41.5143 Y-6.2371 F30.00
G01 X41.4918 Y-6.2122 F30.00
G01 X41.4703 Y-6.1926 F30.00
G01 X41.4634 Y-6.1869 F30.00
G01 X41.4400 Y-6.1697 F30.00
G01 X41.4151 Y-6.1547 F30.00
G01 X41.4072 Y-6.1504 F30.00
G01 X41.3809 Y-6.1381 F30.00
G01 X41.3514 Y-6.1275 F30.00
G01 X41.3211 Y-6.1196 F30.00
G01 X41.3123 Y-6.1178 F30.00
G01 X41.2835 Y-6.1137 F30.00
G01 X41.2500 Y-6.1121 F30.00
G01 X40.7477 Y-6.1121 F30.00
G01 X40.7165 Y-6.1137 F30.00
G01 X40.6877 Y-6.1178 F30.00
G01 X40.6789 Y-6.1196 F30.00
G01 X40.6529 Y-6.1261 F30.00
G01 X40.6234 Y-6.1365 F30.00
G01 X40.6150 Y-6.1399 F30.00
G01 X40.5889 Y-6.1524 F30.00
G01 X40.5600 Y-6.1697 F30.00
G01 X40.5366 Y-6.1869 F30.00
G01 X40.5297 Y-6.1926 F30.00
G01 X40.5082 Y-6.2122 F30.00
G01 X40.4886 Y-6.2337 F30.00
G01 X40.4829 Y-6.2406 F30.00
G01 X40.4657 Y-6.2640 F30.00
G01 X40.4507 Y-6.2889 F30.00
G01 X40.4464 Y-6.2968 F30.00
G01 X40.4341 Y-6.3231 F30.00
G01 X40.4235 Y-6.3526 F30.00
G01 X40.4156 Y-6.3829 F30.00
G01 X40.4138 Y-6.3917 F30.00
G01 X40.4097 Y-6.4205 F30.00
G01 X40.4081 Y-6.4540 F30.00
G01 X40.4081 Y-9.4540 F30.00
G01 X40.4095 Y-9.4853 F30.00
G01 X40.4138 Y-9.5163 F30.00
G01 X40.4156 Y-9.5251 F30.00
G01 X40.4228 Y-9.5533 F30.00
G01 X40.4341 Y-9.5849 F30.00
G01 X40.4484 Y-9.6151 F30.00
G01 X40.4633 Y-9.6402 F30.00
G01 X40.4670 Y-9.6458 F30.00
G01 X40.4829 Y-9.6674 F30.00
G01 X40.4886 Y-9.6743 F30.00
G01 X40.5082 Y-9.6958 F30.00
G01 X40.5331 Y-9.7183 F30.00
G01 X40.5600 Y-9.7383 F30.00
G01 X40.5849 Y-9.7533 F30.00
G01 X40.5928 Y-9.7576 F30.00
G01 X40.6171 Y-9.7690 F30.00
G01 X40.6234 Y-9.7715 F30.00
G01 X40.6507 Y-9.7812 F30.00
G01 X40.6830 Y-9.7893 F30.00
G01 X40.6830 Y-10.4553 F30.00
G01 X40.2196 Y-9.9921 F30.00
G01 X40.2051 Y-9.9790 F30.00
G01 X40.1998 Y-9.9748 F30.00
G01 X40.1824 Y-9.9620 F30.00
G01 X40.1638 Y-9.9507 F30.00
G01 X40.1558 Y-9.9465 F30.00
G01 X40.1362 Y-9.9373 F30.00
G01 X40.1093 Y-9.9278 F30.00
G01 X40.0861 Y-9.9221 F30.00
G01 X40.0647 Y-9.9188 F30.00
G01 X40.0557 Y-9.9179 F30.00
G01 X40.0340 Y-9.9170 F30.00
G01 X38.6946 Y-9.9170 F30.00
G01 X36.2328 Y-7.4552 F30.00
G01 X36.2168 Y-7.4405 F30.00
G01 X36.2098 Y-7.4348 F30.00
G01 X36.1924 Y-7.4220 F30.00
G01 X36.1699 Y-7.4085 F30.00
G01 X36.1503 Y-7.3991 F30.00
G01 X36.1420 Y-7.3957 F30.00
G01 X36.1215 Y-7.3885 F30.00
G01 X36.0983 Y-7.3826 F30.00
G01 X36.0702 Y-7.3782 F30.00
G01 X36.0440 Y-7.3770 F30.00
G01 X29.4657 Y-7.3770 F30.00
G01 X29.4564 Y-7.3615 F30.00
G01 X29.4526 Y-7.3559 F30.00
G01 X29.4410 Y-7.3405 F30.00
G01 X29.4282 Y-7.3262 F30.00
G01 X29.4218 Y-7.3198 F30.00
G01 X29.4075 Y-7.3070 F30.00
G01 X29.3884 Y-7.2928 F30.00
G01 X29.3663 Y-7.2797 F30.00
G01 X29.3487 Y-7.2714 F30.00
G01 X29.3424 Y-7.2688 F30.00
G01 X29.3245 Y-7.2625 F30.00
G01 X29.3056 Y-7.2577 F30.00
G01 X29.2968 Y-7.2559 F30.00
G01 X29.2777 Y-7.2532 F30.00
G01 X29.2540 Y-7.2521 F30.00
G01 X28.0767 Y-7.2521 F30.00
G01 X28.0553 Y-7.2532 F30.00
G01 X28.0318 Y-7.2567 F30.00
G01 X28.0088 Y-7.2625 F30.00
G01 X27.9864 Y-7.2705 F30.00
G01 X27.9649 Y-7.2806 F30.00
G01 X27.9446 Y-7.2928 F30.00
G01 X27.9255 Y-7.3070 F30.00
G01 X27.9079 Y-7.3229 F30.00
G01 X27.8920 Y-7.3405 F30.00
G01 X27.8778 Y-7.3596 F30.00
G01 X27.8657 Y-7.3798 F30.00
G01 X27.8555 Y-7.4014 F30.00
G01 X27.8475 Y-7.4235 F30.00
G01 X27.8417 Y-7.4468 F30.00
G01 X27.8382 Y-7.4703 F30.00
G01 X27.8371 Y-7.4940 F30.00
G00 Z2.0000
G00 X30.3231 Y-9.6153
G01 F10.00
G01 Z-0.0500
G01 F30.00
G01 X30.3322 Y-9.6403 F30.00
G01 X30.3455 Y-9.6684 F30.00
G01 X30.3615 Y-9.6951 F30.00
G01 X30.3772 Y-9.7165 F30.00
G01 X30.3829 Y-9.7235 F30.00
G01 X30.3993 Y-9.7415 F30.00
G01 X30.4042 Y-9.7462 F30.00
G01 X30.4239 Y-9.7639 F30.00
G01 X30.4489 Y-9.7825 F30.00
G01 X30.4756 Y-9.7985 F30.00
G01 X30.4996 Y-9.8100 F30.00
G01 X30.5079 Y-9.8134 F30.00
G01 X30.5308 Y-9.8216 F30.00
G01 X30.5373 Y-9.8235 F30.00
G01 X30.5632 Y-9.8299 F30.00
G01 X30.5939 Y-9.8344 F30.00
G01 X30.6227 Y-9.8359 F30.00
G01 X30.6579 Y-9.8359 F30.00
G01 X30.6579 Y-10.8138 F30.00
G01 X30.6265 Y-10.8290 F30.00
G01 X30.5547 Y-10.8722 F30.00
G01 X30.4893 Y-10.9209 F30.00
G01 X30.4256 Y-10.9788 F30.00
G01 X30.3709 Y-11.0393 F30.00
G01 X30.3210 Y-11.1066 F30.00
G01 X30.2779 Y-11.1785 F30.00
G01 X30.2412 Y-11.2563 F30.00
G01 X30.2138 Y-11.3331 F30.00
G01 X30.1935 Y-11.4144 F30.00
G01 X30.1812 Y-11.4973 F30.00
G01 X30.1771 Y-11.5810 F30.00
G01 X30.1812 Y-11.6647 F30.00
G01 X30.1935 Y-11.7476 F30.00
G01 X30.2138 Y-11.8289 F30.00
G01 X30.2412 Y-11.9057 F30.00
G01 X30.2779 Y-11.9835 F30.00
G01 X30.3210 Y-12.0554 F30.00
G01 X30.3709 Y-12.1227 F30.00
G01 X30.4272 Y-12.1848 F30.00
G01 X30.4893 Y-12.2411 F30.00
G01 X30.5566 Y-12.2910 F30.00
G01 X30.6285 Y-12.3341 F30.00
G01 X30.7042 Y-12.3699 F30.00
G01 X30.7831 Y-12.3982 F30.00
G01 X30.8644 Y-12.4185 F30.00
G01 X30.9473 Y-12.4308 F30.00
G01 X31.0310 Y-12.4349 F30.00
G01 X31.1147 Y-12.4308 F30.00
G01 X31.1976 Y-12.4185 F30.00
G01 X31.2789 Y-12.3982 F30.00
G01 X31.3557 Y-12.3708 F30.00
G01 X31.4295 Y-12.3361 F30.00
G01 X31.4375 Y-12.3319 F30.00
G01 X31.5054 Y-12.2910 F30.00
G01 X31.5692 Y-12.2439 F30.00
G01 X31.5762 Y-12.2382 F30.00
G01 X31.6348 Y-12.1848 F30.00
G01 X31.6882 Y-12.1262 F30.00
G01 X31.6939 Y-12.1192 F30.00
G01 X31.7410 Y-12.0554 F30.00
G01 X31.7819 Y-11.9875 F30.00
G01 X31.7861 Y-11.9795 F30.00
G01 X31.8199 Y-11.9078 F30.00
G01 X31.8468 Y-11.8332 F30.00
G01 X31.8494 Y-11.8245 F30.00
G01 X31.8685 Y-11.7476 F30.00
G01 X31.8808 Y-11.6647 F30.00
G01 X31.8849 Y-11.5810 F30.00
G01 X31.8812 Y-11.5018 F30.00
G01 X31.8803 Y-11.4928 F30.00
G01 X31.8693 Y-11.4188 F30.00
G01 X31.8676 Y-11.4100 F30.00
G01 X31.8482 Y-11.3331 F30.00
G01 X31.8199 Y-11.2542 F30.00
G01 X31.7841 Y-11.1785 F30.00
G01 X31.7434 Y-11.1104 F30.00
G01 X31.7384 Y-11.1029 F30.00
G01 X31.6939 Y-11.0428 F30.00
G01 X31.6882 Y-11.0358 F30.00
G01 X31.6348 Y-10.9772 F30.00
G01 X31.5727 Y-10.9209 F30.00
G01 X31.5054 Y-10.8710 F30.00
G01 X31.4375 Y-10.8301 F30.00
G01 X31.4295 Y-10.8259 F30.00
G01 X31.3619 Y-10.7939 F30.00
G01 X31.3557 Y-10.7912 F30.00
G01 X31.3421 Y-10.7863 F30.00
G01 X31.3421 Y-9.8359 F30.00
G01 X31.3773 Y-9.8359 F30.00
G01 X31.4038 Y-9.8346 F30.00
G01 X31.4324 Y-9.8306 F30.00
G01 X31.4412 Y-9.8289 F30.00
G01 X31.4666 Y-9.8224 F30.00
G01 X31.4963 Y-9.8118 F30.00
G01 X31.5244 Y-9.7985 F30.00
G01 X31.5473 Y-9.7849 F30.00
G01 X31.5529 Y-9.7813 F30.00
G01 X31.5725 Y-9.7668 F30.00
G01 X31.5795 Y-9.7611 F30.00
G01 X31.5991 Y-9.7431 F30.00
G01 X31.6199 Y-9.7201 F30.00
G01 X31.6359 Y-9.6988 F30.00
G01 X31.6409 Y-9.6913 F30.00
G01 X31.6545 Y-9.6684 F30.00
G01 X31.6678 Y-9.6403 F30.00
G01 X31.6783 Y-9.6110 F30.00
G01 X31.6859 Y-9.5808 F30.00
G01 X31.6904 Y-9.5501 F30.00
G01 X31.6919 Y-9.5213 F30.00
G01 X31.6919 Y-9.0667 F30.00
G01 X31.6902 Y-9.0357 F30.00
G01 X31.6863 Y-9.0094 F30.00
G01 X31.6817 Y-8.9900 F30.00
G01 X31.8481 Y-8.8235 F30.00
G01 X32.3982 Y-8.8235 F30.00
G01 X32.3997 Y-8.8525 F30.00
G01 X32.4046 Y-8.8857 F30.00
G01 X32.4128 Y-8.9183 F30.00
G01 X32.4225 Y-8.9456 F30.00
G01 X32.4259 Y-8.9540 F30.00
G01 X32.4374 Y-8.9782 F30.00
G01 X32.4406 Y-8.9840 F30.00
G01 X32.4557 Y-9.0090 F30.00
G01 X32.4757 Y-9.0359 F30.00
G01 X32.4982 Y-9.0608 F30.00
G01 X32.5197 Y-9.0804 F30.00
G01 X32.5266 Y-9.0861 F30.00
G01 X32.5482 Y-9.1020 F30.00
G01 X32.5538 Y-9.1057 F30.00
G01 X32.5788 Y-9.1206 F30.00
G01 X32.6091 Y-9.1349 F30.00
G01 X32.6407 Y-9.1462 F30.00
G01 X32.6711 Y-9.1539 F30.00
G01 X32.7065 Y-9.1593 F30.00
G01 X32.7400 Y-9.1609 F30.00
G01 X33.6423 Y-9.1609 F30.00
G01 X33.6735 Y-9.1593 F30.00
G01 X33.7067 Y-9.1544 F30.00
G01 X33.7393 Y-9.1462 F30.00
G01 X33.7666 Y-9.1365 F30.00
G01 X33.7750 Y-9.1331 F30.00
G01 X33.8011 Y-9.1206 F30.00
G01 X33.8262 Y-9.1057 F30.00
G01 X33.8337 Y-9.1007 F30.00
G01 X33.8569 Y-9.0833 F30.00
G01 X33.8785 Y-9.0639 F30.00
G01 X33.8849 Y-9.0575 F30.00
G01 X33.9043 Y-9.0359 F30.00
G01 X33.9243 Y-9.0090 F30.00
G01 X33.9393 Y-8.9841 F30.00
G01 X33.9436 Y-8.9762 F30.00
G01 X33.9559 Y-8.9499 F30.00
G01 X33.9658 Y-8.9225 F30.00
G01 X33.9684 Y-8.9139 F30.00
G01 X33.9754 Y-8.8857 F30.00
G01 X33.9803 Y-8.8525 F30.00
G01 X33.9819 Y-8.8190 F30.00
G01 X33.9819 Y-8.2917 F30.00
G01 X33.9803 Y-8.2605 F30.00
G01 X33.9754 Y-8.2273 F30.00
G01 X33.9672 Y-8.1947 F30.00
G01 X33.9568 Y-8.1652 F30.00
G01 X33.9416 Y-8.1329 F30.00
G01 X33.9267 Y-8.1078 F30.00
G01 X33.9217 Y-8.1003 F30.00
G01 X33.9043 Y-8.0771 F30.00
G01 X33.8849 Y-8.0555 F30.00
G01 X33.8785 Y-8.0491 F30.00
G01 X33.8569 Y-8.0297 F30.00
G01 X33.8337 Y-8.0123 F30.00
G01 X33.8262 Y-8.0073 F30.00
G01 X33.8012 Y-7.9924 F30.00
G01 X33.7750 Y-7.9799 F30.00
G01 X33.7666 Y-7.9765 F30.00
G01 X33.7393 Y-7.9668 F30.00
G01 X33.7045 Y-7.9582 F30.00
G01 X33.6735 Y-7.9537 F30.00
G01 X33.6400 Y-7.9521 F30.00
G01 X32.7400 Y-7.9521 F30.00
G01 X32.7087 Y-7.9535 F30.00
G01 X32.6733 Y-7.9586 F30.00
G01 X32.6407 Y-7.9668 F30.00
G01 X32.6091 Y-7.9781 F30.00
G01 X32.5828 Y-7.9904 F30.00
G01 X32.5750 Y-7.9946 F30.00
G01 X32.5519 Y-8.0084 F30.00
G01 X32.5266 Y-8.0269 F30.00
G01 X32.5197 Y-8.0326 F30.00
G01 X32.4998 Y-8.0506 F30.00
G01 X32.4951 Y-8.0555 F30.00
G01 X32.4757 Y-8.0771 F30.00
G01 X32.4557 Y-8.1040 F30.00
G01 X32.4384 Y-8.1328 F30.00
G01 X32.4241 Y-8.1631 F30.00
G01 X32.4128 Y-8.1947 F30.00
G01 X32.4046 Y-8.2273 F30.00
G01 X32.3997 Y-8.2605 F30.00
G01 X32.3982 Y-8.2895 F30.00
G01 X31.7352 Y-8.2895 F30.00
G01 X31.7113 Y-8.2907 F30.00
G01 X31.6854 Y-8.2946 F30.00
G01 X31.6600 Y-8.3010 F30.00
G01 X31.6374 Y-8.3090 F30.00
G01 X31.6116 Y-8.3210 F30.00
G01 X31.5891 Y-8.3345 F30.00
G01 X31.5681 Y-8.3501 F30.00
G01 X31.5503 Y-8.3661 F30.00
G01 X31.1643 Y-8.7521 F30.00
G01 X30.6250 Y-8.7521 F30.00
G01 X30.5917 Y-8.7538 F30.00
G01 X30.5632 Y-8.7581 F30.00
G01 X30.5334 Y-8.7656 F30.00
G01 X30.5037 Y-8.7762 F30.00
G01 X30.4796 Y-8.7874 F30.00
G01 X30.4717 Y-8.7917 F30.00
G01 X30.4508 Y-8.8042 F30.00
G01 X30.4452 Y-8.8081 F30.00
G01 X30.4239 Y-8.8240 F30.00
G01 X30.4009 Y-8.8449 F30.00
G01 X30.3801 Y-8.8679 F30.00
G01 X30.3615 Y-8.8929 F30.00
G01 X30.3455 Y-8.9196 F30.00
G01 X30.3340 Y-8.9436 F30.00
G01 X30.3306 Y-8.9519 F30.00
G01 X30.3224 Y-8.9748 F30.00
G01 X30.3205 Y-8.9813 F30.00
G01 X30.3141 Y-9.0072 F30.00
G01 X30.3096 Y-9.0379 F30.00
G01 X30.3081 Y-9.0690 F30.00
G01 X30.3081 Y-9.5213 F30.00
G01 X30.3096 Y-9.5501 F30.00
G01 X30.3134 Y-9.5764 F30.00
G01 X30.3146 Y-9.5830 F30.00
G01 X30.3205 Y-9.6067 F30.00
G01 X30.3231 Y-9.6153 F30.00
G00 Z2.0000
G00 X31.6852 Y-8.0765
G01 F10.00
G01 Z-0.0500
G01 F30.00
G01 X31.6876 Y-8.0865 F30.00
G01 X31.6900 Y-8.0990 F30.00
G01 X31.6940 Y-8.1262 F30.00
G01 X31.7077 Y-8.1251 F30.00
G01 X31.7375 Y-8.1240 F30.00
G01 X32.2622 Y-8.1240 F30.00
G01 X32.2712 Y-8.0998 F30.00
G01 X32.2818 Y-8.0765 F30.00
G01 X31.6852 Y-8.0765 F30.00
G00 Z2.0000
G00 X40.4603 Y-9.8705
G01 F10.00
G01 Z-0.0500
G01 F30.00
G01 X40.4477 Y-9.8888 F30.00
G01 X40.4397 Y-9.8987 F30.00
G01 X40.4313 Y-9.9083 F30.00
G01 X40.4177 Y-9.9219 F30.00
G01 X40.4081 Y-9.9304 F30.00
G01 X40.3992 Y-9.9375 F30.00
G01 X40.5175 Y-10.0557 F30.00
G01 X40.5175 Y-9.9050 F30.00
G01 X40.5052 Y-9.8985 F30.00
G01 X40.4787 Y-9.8827 F30.00
G01 X40.4603 Y-9.8705 F30.00
G00 Z2.0000
G00 X44.3222 Y-15.4381
G01 F10.00
G01 Z-0.0500
G01 F30.00
G01 X44.3027 Y-15.4454 F30.00
G01 X44.2631 Y-15.4641 F30.00
G01 X44.2216 Y-15.4887 F30.00
G01 X44.1809 Y-15.5187 F30.00
G01 X44.1468 Y-15.5496 F30.00
G01 X44.1127 Y-15.5869 F30.00
G01 X44.0840 Y-15.6257 F30.00
G01 X44.0591 Y-15.6671 F30.00
G01 X44.0394 Y-15.7087 F30.00
G01 X44.0222 Y-15.7562 F30.00
G01 X44.0105 Y-15.8030 F30.00
G01 X44.0034 Y-15.8508 F30.00
G01 X44.0011 Y-15.8990 F30.00
G01 X44.0034 Y-15.9472 F30.00
G01 X44.0105 Y-15.9950 F30.00
G01 X44.0222 Y-16.0418 F30.00
G01 X44.0377 Y-16.0852 F30.00
G01 X44.0591 Y-16.1309 F30.00
G01 X44.0840 Y-16.1723 F30.00
G01 X44.1127 Y-16.2111 F30.00
G01 X44.1451 Y-16.2469 F30.00
G01 X44.1809 Y-16.2793 F30.00
G01 X44.2197 Y-16.3080 F30.00
G01 X44.2611 Y-16.3329 F30.00
G01 X44.3047 Y-16.3535 F30.00
G01 X44.3502 Y-16.3698 F30.00
G01 X44.3970 Y-16.3815 F30.00
G01 X44.4448 Y-16.3886 F30.00
G01 X44.4930 Y-16.3909 F30.00
G01 X44.5412 Y-16.3886 F30.00
G01 X44.5890 Y-16.3815 F30.00
G01 X44.6358 Y-16.3698 F30.00
G01 X44.6792 Y-16.3543 F30.00
G01 X44.7249 Y-16.3329 F30.00
G01 X44.7663 Y-16.3080 F30.00
G01 X44.8051 Y-16.2793 F30.00
G01 X44.8376 Y-16.2500 F30.00
G01 X44.8440 Y-16.2436 F30.00
G01 X44.8703 Y-16.2145 F30.00
G01 X44.8761 Y-16.2075 F30.00
G01 X44.9020 Y-16.1723 F30.00
G01 X44.9246 Y-16.1348 F30.00
G01 X44.9289 Y-16.1269 F30.00
G01 X44.9475 Y-16.0873 F30.00
G01 X44.9638 Y-16.0418 F30.00
G01 X44.9755 Y-15.9950 F30.00
G01 X44.9820 Y-15.9517 F30.00
G01 X44.9829 Y-15.9427 F30.00
G01 X44.9848 Y-15.9035 F30.00
G01 X44.9848 Y-15.8945 F30.00
G01 X44.9826 Y-15.8508 F30.00
G01 X44.9763 Y-15.8075 F30.00
G01 X44.9745 Y-15.7986 F30.00
G01 X44.9638 Y-15.7562 F30.00
G01 X44.9475 Y-15.7107 F30.00
G01 X44.9269 Y-15.6671 F30.00
G01 X44.9033 Y-15.6276 F30.00
G01 X44.8970 Y-15.6187 F30.00
G01 X48.1596 Y-12.3560 F30.00
G01 X69.4014 Y-12.3560 F30.00
G01 X69.4555 Y-12.4101 F30.00
G01 X69.4556 Y-13.3745 F30.00
G01 X69.4564 Y-13.3921 F30.00
G01 X69.4582 Y-13.4051 F30.00
G01 X69.4600 Y-13.4139 F30.00
G01 X69.4640 Y-13.4287 F30.00
G01 X69.4701 Y-13.4452 F30.00
G01 X69.4757 Y-13.4571 F30.00
G01 X69.4790 Y-13.4630 F30.00
G01 X69.4858 Y-13.4742 F30.00
G01 X69.4935 Y-13.4848 F30.00
G01 X69.4977 Y-13.4901 F30.00
G01 X69.5065 Y-13.4998 F30.00
G01 X69.5212 Y-13.5132 F30.00
G01 X69.5353 Y-13.5237 F30.00
G01 X69.5524 Y-13.5338 F30.00
G01 X69.5643 Y-13.5394 F30.00
G01 X69.5705 Y-13.5419 F30.00
G01 X69.5829 Y-13.5462 F30.00
G01 X69.5978 Y-13.5500 F30.00
G01 X69.6129 Y-13.5525 F30.00
G01 X69.6219 Y-13.5534 F30.00
G01 X69.6350 Y-13.5539 F30.00
G01 X69.8100 Y-13.5539 F30.00
G01 X69.8276 Y-13.5531 F30.00
G01 X69.8450 Y-13.5505 F30.00
G01 X69.8621 Y-13.5462 F30.00
G01 X69.8745 Y-13.5419 F30.00
G01 X69.8906 Y-13.5348 F30.00
G01 X69.8985 Y-13.5305 F30.00
G01 X69.9116 Y-13.5224 F30.00
G01 X69.9256 Y-13.5118 F30.00
G01 X69.9369 Y-13.5014 F30.00
G01 X69.9487 Y-13.4883 F30.00
G01 X69.9592 Y-13.4742 F30.00
G01 X69.9683 Y-13.4591 F30.00
G01 X69.9758 Y-13.4432 F30.00
G01 X69.9817 Y-13.4266 F30.00
G01 X69.9860 Y-13.4095 F30.00
G01 X69.9880 Y-13.3966 F30.00
G01 X69.9888 Y-13.3898 F30.00
G01 X69.9894 Y-13.3745 F30.00
G01 X69.9895 Y-12.2995 F30.00
G01 X69.9880 Y-12.2711 F30.00
G01 X69.9844 Y-12.2474 F30.00
G01 X69.9792 Y-12.2263 F30.00
G01 X69.9766 Y-12.2177 F30.00
G01 X69.9692 Y-12.1973 F30.00
G01 X69.9600 Y-12.1777 F30.00
G01 X69.9558 Y-12.1697 F30.00
G01 X69.9445 Y-12.1511 F30.00
G01 X69.9303 Y-12.1319 F30.00
G01 X69.9113 Y-12.1107 F30.00
G01 X69.6992 Y-11.8986 F30.00
G01 X69.6814 Y-11.8826 F30.00
G01 X69.6604 Y-11.8670 F30.00
G01 X69.6379 Y-11.8535 F30.00
G01 X69.6142 Y-11.8423 F30.00
G01 X69.5895 Y-11.8335 F30.00
G01 X69.5641 Y-11.8271 F30.00
G01 X69.5382 Y-11.8232 F30.00
G01 X69.5143 Y-11.8220 F30.00
G01 X48.0490 Y-11.8220 F30.00
G01 X48.0206 Y-11.8235 F30.00
G01 X47.9969 Y-11.8271 F30.00
G01 X47.9715 Y-11.8335 F30.00
G01 X47.9468 Y-11.8423 F30.00
G01 X47.9272 Y-11.8515 F30.00
G01 X47.9192 Y-11.8557 F30.00
G01 X47.9025 Y-11.8657 F30.00
G01 X47.8970 Y-11.8696 F30.00
G01 X47.8796 Y-11.8826 F30.00
G01 X47.8602 Y-11.9002 F30.00
G01 X44.3222 Y-15.4381 F30.00
G00 Z2.0000
G00 X43.9303 Y-15.8990
G01 F10.00
G01 Z-0.0500
G01 F30.00
G01 X43.9467 Y-16.0337 F30.00
G01 X43.9948 Y-16.1605 F30.00
G01 X44.0718 Y-16.2721 F30.00
G01 X44.1734 Y-16.3621 F30.00
G01 X44.2935 Y-16.4251 F30.00
G01 X44.4252 Y-16.4576 F30.00
G01 X44.5608 Y-16.4576 F30.00
G01 X44.6925 Y-16.4251 F30.00
G01 X44.8126 Y-16.3621 F30.00
G01 X44.9142 Y-16.2721 F30.00
G01 X44.9912 Y-16.1605 F30.00
G01 X45.0393 Y-16.0337 F30.00
G01 X45.0557 Y-15.8990 F30.00
G01 X45.0393 Y-15.7644 F30.00
G01 X45.0334 Y-15.7481 F30.00
G01 X45.0317 Y-15.7417 F30.00
G01 X45.0302 Y-15.7331 F30.00
G01 X45.0244 Y-15.6591 F30.00
G01 X45.0241 Y-15.6522 F30.00
G01 X45.0244 Y-15.6454 F30.00
G01 X45.0255 Y-15.6363 F30.00
G01 X45.0269 Y-15.6296 F30.00
G01 X45.0296 Y-15.6209 F30.00
G01 X45.0331 Y-15.6125 F30.00
G01 X45.0693 Y-15.5451 F30.00
G01 X45.0740 Y-15.5376 F30.00
G01 X45.0795 Y-15.5306 F30.00
G01 X45.0845 Y-15.5253 F30.00
G01 X48.1239 Y-12.4858 F30.00
G01 X48.1321 Y-12.4785 F30.00
G01 X48.1411 Y-12.4723 F30.00
G01 X48.2082 Y-12.4356 F30.00
G01 X48.2143 Y-12.4327 F30.00
G01 X48.2228 Y-12.4296 F30.00
G01 X48.2293 Y-12.4278 F30.00
G01 X48.2382 Y-12.4262 F30.00
G01 X48.2668 Y-12.4231 F30.00
G01 X48.2766 Y-12.4226 F30.00
G01 X69.1796 Y-12.4228 F30.00
G01 X69.1882 Y-12.4238 F30.00
G01 X69.1968 Y-12.4257 F30.00
G01 X69.2681 Y-12.4466 F30.00
G01 X69.2746 Y-12.4490 F30.00
G01 X69.2808 Y-12.4518 F30.00
G01 X69.2868 Y-12.4550 F30.00
G01 X69.2945 Y-12.4601 F30.00
G01 X69.3015 Y-12.4658 F30.00
G01 X69.3080 Y-12.4723 F30.00
G01 X69.3582 Y-12.5303 F30.00
G01 X69.3635 Y-12.5378 F30.00
G01 X69.3680 Y-12.5458 F30.00
G01 X69.3717 Y-12.5542 F30.00
G01 X69.3746 Y-12.5630 F30.00
G01 X69.3873 Y-12.6211 F30.00
G01 X69.3883 Y-12.6276 F30.00
G01 X69.3889 Y-12.6363 F30.00
G01 X69.3889 Y-13.4081 F30.00
G01 X69.3928 Y-13.4373 F30.00
G01 X69.4303 Y-13.5178 F30.00
G01 X69.4825 Y-13.5700 F30.00
G01 X69.7225 Y-13.5700 F30.00
G01 X69.7509 Y-13.5715 F30.00
G01 X69.7724 Y-13.5747 F30.00
G01 X69.7790 Y-13.5761 F30.00
G01 X69.8000 Y-13.5815 F30.00
G01 X69.8205 Y-13.5887 F30.00
G01 X69.8288 Y-13.5921 F30.00
G01 X69.8484 Y-13.6015 F30.00
G01 X69.8731 Y-13.6165 F30.00
G01 X69.9562 Y-13.5778 F30.00
G01 X69.9685 Y-13.5731 F30.00
G01 X69.9813 Y-13.5702 F30.00
G01 X70.0504 Y-13.5597 F30.00
G01 X70.0592 Y-13.5588 F30.00
G01 X70.0681 Y-13.5588 F30.00
G01 X70.0770 Y-13.5596 F30.00
G01 X70.0858 Y-13.5613 F30.00
G01 X70.1324 Y-13.5751 F30.00
G01 X70.2222 Y-13.6167 F30.00
G01 X70.2514 Y-13.6206 F30.00
G01 X70.4936 Y-13.6205 F30.00
G01 X70.5228 Y-13.6167 F30.00
G01 X70.6062 Y-13.5778 F30.00
G01 X70.6143 Y-13.5745 F30.00
G01 X70.6206 Y-13.5725 F30.00
G01 X70.6313 Y-13.5702 F30.00
G01 X70.7004 Y-13.5597 F30.00
G01 X70.7092 Y-13.5588 F30.00
G01 X70.7159 Y-13.5587 F30.00
G01 X70.7248 Y-13.5593 F30.00
G01 X70.7358 Y-13.5613 F30.00
G01 X70.7824 Y-13.5751 F30.00
G01 X70.8722 Y-13.6167 F30.00
G01 X70.9014 Y-13.6206 F30.00
G01 X71.1436 Y-13.6205 F30.00
G01 X71.1728 Y-13.6167 F30.00
G01 X71.2582 Y-13.5769 F30.00
G01 X71.2664 Y-13.5738 F30.00
G01 X71.2727 Y-13.5719 F30.00
G01 X71.2813 Y-13.5702 F30.00
G01 X71.3526 Y-13.5594 F30.00
G01 X71.3659 Y-13.5587 F30.00
G01 X71.3770 Y-13.5596 F30.00
G01 X71.3901 Y-13.5624 F30.00
G01 X71.4258 Y-13.5729 F30.00
G01 X71.4345 Y-13.5759 F30.00
G01 X71.5222 Y-13.6167 F30.00
G01 X71.5514 Y-13.6206 F30.00
G01 X71.6730 Y-13.6205 F30.00
G01 X71.6817 Y-13.6210 F30.00
G01 X71.6882 Y-13.6218 F30.00
G01 X71.6989 Y-13.6243 F30.00
G01 X71.7724 Y-13.6461 F30.00
G01 X71.7808 Y-13.6498 F30.00
G01 X71.7868 Y-13.6530 F30.00
G01 X71.7945 Y-13.6581 F30.00
G01 X71.7998 Y-13.6623 F30.00
G01 X71.8049 Y-13.6670 F30.00
G01 X71.8095 Y-13.6720 F30.00
G01 X71.8582 Y-13.7283 F30.00
G01 X71.8635 Y-13.7358 F30.00
G01 X71.8670 Y-13.7418 F30.00
G01 X71.8700 Y-13.7480 F30.00
G01 X71.8732 Y-13.7566 F30.00
G01 X71.8756 Y-13.7654 F30.00
G01 X71.8868 Y-13.8170 F30.00
G01 X71.8885 Y-13.8278 F30.00
G01 X71.8889 Y-13.8365 F30.00
G01 X71.8889 Y-13.9581 F30.00
G01 X71.8928 Y-13.9873 F30.00
G01 X71.9303 Y-14.0678 F30.00
G01 X71.9917 Y-14.1292 F30.00
G01 X72.0722 Y-14.1667 F30.00
G01 X72.1014 Y-14.1706 F30.00
G01 X73.5978 Y-14.1706 F30.00
G01 X73.6139 Y-14.1656 F30.00
G01 X73.6352 Y-14.1606 F30.00
G01 X73.6494 Y-14.1582 F30.00
G01 X73.6622 Y-14.1518 F30.00
G01 X73.6824 Y-14.1434 F30.00
G01 X73.6983 Y-14.1379 F30.00
G01 X73.7121 Y-14.1283 F30.00
G01 X73.7307 Y-14.1169 F30.00
G01 X73.7435 Y-14.1102 F30.00
G01 X74.8499 Y-13.0038 F30.00
G01 X74.8581 Y-12.9965 F30.00
G01 X74.8671 Y-12.9903 F30.00
G01 X74.9322 Y-12.9546 F30.00
G01 X74.9424 Y-12.9498 F30.00
G01 X74.9509 Y-12.9469 F30.00
G01 X74.9597 Y-12.9449 F30.00
G01 X74.9952 Y-12.9408 F30.00
G01 X75.0026 Y-12.9405 F30.00
G01 X75.6179 Y-12.9405 F30.00
G01 X75.6612 Y-12.9359 F30.00
G01 X75.7728 Y-12.8943 F30.00
G01 X75.8669 Y-12.8239 F30.00
G01 X75.9373 Y-12.7298 F30.00
G01 X75.9789 Y-12.6182 F30.00
G01 X75.9836 Y-12.5749 F30.00
G01 X75.9837 Y-12.0562 F30.00
G01 X75.9848 Y-12.0454 F30.00
G01 X75.9873 Y-12.0347 F30.00
G01 X76.0076 Y-11.9655 F30.00
G01 X76.0100 Y-11.9590 F30.00
G01 X76.0128 Y-11.9528 F30.00
G01 X76.0160 Y-11.9468 F30.00
G01 X76.0211 Y-11.9392 F30.00
G01 X76.0253 Y-11.9338 F30.00
G01 X76.0300 Y-11.9288 F30.00
G01 X76.0895 Y-11.8769 F30.00
G01 X76.0968 Y-11.8714 F30.00
G01 X76.1067 Y-11.8657 F30.00
G01 X76.1172 Y-11.8612 F30.00
G01 X76.1282 Y-11.8580 F30.00
G01 X76.2063 Y-11.8466 F30.00
G01 X76.2132 Y-11.8460 F30.00
G01 X76.2200 Y-11.8460 F30.00
G01 X76.2314 Y-11.8470 F30.00
G01 X76.2425 Y-11.8495 F30.00
G01 X76.2533 Y-11.8533 F30.00
G01 X76.3189 Y-11.8833 F30.00
G01 X76.3268 Y-11.8873 F30.00
G01 X76.3326 Y-11.8910 F30.00
G01 X76.3381 Y-11.8951 F30.00
G01 X76.3522 Y-11.9079 F30.00
G01 X79.1482 Y-14.7039 F30.00
G01 X79.1555 Y-14.7121 F30.00
G01 X79.1617 Y-14.7211 F30.00
G01 X79.1974 Y-14.7862 F30.00
G01 X79.2030 Y-14.7985 F30.00
G01 X79.2057 Y-14.8071 F30.00
G01 X79.2075 Y-14.8159 F30.00
G01 X79.2109 Y-14.8468 F30.00
G01 X79.2114 Y-14.8566 F30.00
G01 X79.2114 Y-16.3539 F30.00
G01 X79.2105 Y-16.3648 F30.00
G01 X79.2083 Y-16.3756 F30.00
G01 X79.1866 Y-16.4490 F30.00
G01 X79.1832 Y-16.4575 F30.00
G01 X79.1778 Y-16.4675 F30.00
G01 X79.1726 Y-16.4750 F30.00
G01 X79.1666 Y-16.4820 F30.00
G01 X79.1600 Y-16.4883 F30.00
G01 X79.1055 Y-16.5355 F30.00
G01 X79.1000 Y-16.5397 F30.00
G01 X79.0943 Y-16.5434 F30.00
G01 X79.0842 Y-16.5487 F30.00
G01 X79.0735 Y-16.5526 F30.00
G01 X79.0624 Y-16.5552 F30.00
G01 X78.9887 Y-16.5658 F30.00
G01 X78.9753 Y-16.5664 F30.00
G01 X78.9620 Y-16.5651 F30.00
G01 X78.9490 Y-16.5618 F30.00
G01 X78.8838 Y-16.5350 F30.00
G01 X78.8757 Y-16.5309 F30.00
G01 X78.8679 Y-16.5260 F30.00
G01 X78.8208 Y-16.4907 F30.00
G01 X78.7092 Y-16.4491 F30.00
G01 X78.6660 Y-16.4445 F30.00
G01 X77.9183 Y-16.4444 F30.00
G01 X77.9118 Y-16.4442 F30.00
G01 X77.9031 Y-16.4432 F30.00
G01 X77.8924 Y-16.4407 F30.00
G01 X77.8211 Y-16.4197 F30.00
G01 X77.8087 Y-16.4143 F30.00
G01 X77.7972 Y-16.4072 F30.00
G01 X77.7902 Y-16.4015 F30.00
G01 X77.7613 Y-16.3758 F30.00
G01 X77.7545 Y-16.3691 F30.00
G01 X77.6656 Y-16.2609 F30.00
G01 X77.5254 Y-16.1459 F30.00
G01 X77.3655 Y-16.0604 F30.00
G01 X77.1920 Y-16.0078 F30.00
G01 X77.0115 Y-15.9900 F30.00
G01 X76.8310 Y-16.0078 F30.00
G01 X76.7521 Y-16.0317 F30.00
G01 X76.7436 Y-16.0336 F30.00
G01 X76.7371 Y-16.0345 F30.00
G01 X76.7283 Y-16.0350 F30.00
G01 X76.6517 Y-16.0355 F30.00
G01 X76.6427 Y-16.0344 F30.00
G01 X76.6361 Y-16.0331 F30.00
G01 X76.6275 Y-16.0306 F30.00
G01 X76.6211 Y-16.0281 F30.00
G01 X76.6111 Y-16.0230 F30.00
G01 X76.5553 Y-15.9902 F30.00
G01 X76.5476 Y-15.9848 F30.00
G01 X76.5405 Y-15.9788 F30.00
G01 X75.4255 Y-14.8638 F30.00
G01 X75.4107 Y-14.8559 F30.00
G01 X75.3920 Y-14.8445 F30.00
G01 X75.3803 Y-14.8361 F30.00
G01 X75.3667 Y-14.8315 F30.00
G01 X75.3465 Y-14.8232 F30.00
G01 X75.3314 Y-14.8158 F30.00
G01 X75.3148 Y-14.8129 F30.00
G01 X75.2936 Y-14.8078 F30.00
G01 X75.2798 Y-14.8034 F30.00
G01 X72.1014 Y-14.8034 F30.00
G01 X72.0722 Y-14.8073 F30.00
G01 X71.9917 Y-14.8448 F30.00
G01 X71.9303 Y-14.9062 F30.00
G01 X71.8928 Y-14.9867 F30.00
G01 X71.8890 Y-15.0159 F30.00
G01 X71.8889 Y-15.2581 F30.00
G01 X71.8928 Y-15.2873 F30.00
G01 X71.9317 Y-15.3707 F30.00
G01 X71.9350 Y-15.3788 F30.00
G01 X71.9370 Y-15.3851 F30.00
G01 X71.9393 Y-15.3958 F30.00
G01 X71.9501 Y-15.4671 F30.00
G01 X71.9508 Y-15.4782 F30.00
G01 X71.9502 Y-15.4893 F30.00
G01 X71.9477 Y-15.5024 F30.00
G01 X71.9344 Y-15.5469 F30.00
G01 X71.8928 Y-15.6367 F30.00
G01 X71.8890 Y-15.6659 F30.00
G01 X71.8889 Y-15.7875 F30.00
G01 X71.8883 Y-15.7984 F30.00
G01 X71.8868 Y-15.8070 F30.00
G01 X71.8852 Y-15.8134 F30.00
G01 X71.8634 Y-15.8869 F30.00
G01 X71.8597 Y-15.8953 F30.00
G01 X71.8540 Y-15.9052 F30.00
G01 X71.8486 Y-15.9126 F30.00
G01 X71.8409 Y-15.9210 F30.00
G01 X71.7830 Y-15.9713 F30.00
G01 X71.7737 Y-15.9780 F30.00
G01 X71.7657 Y-15.9825 F30.00
G01 X71.7573 Y-15.9862 F30.00
G01 X71.7463 Y-15.9896 F30.00
G01 X71.6925 Y-16.0013 F30.00
G01 X71.6817 Y-16.0030 F30.00
G01 X71.6730 Y-16.0034 F30.00
G01 X71.5514 Y-16.0034 F30.00
G01 X71.5222 Y-16.0073 F30.00
G01 X71.4388 Y-16.0462 F30.00
G01 X71.4265 Y-16.0509 F30.00
G01 X71.4137 Y-16.0538 F30.00
G01 X71.3446 Y-16.0643 F30.00
G01 X71.3313 Y-16.0653 F30.00
G01 X71.3202 Y-16.0647 F30.00
G01 X71.3092 Y-16.0627 F30.00
G01 X71.2670 Y-16.0504 F30.00
G01 X71.2562 Y-16.0462 F30.00
G01 X71.1728 Y-16.0073 F30.00
G01 X71.1436 Y-16.0035 F30.00
G01 X70.9014 Y-16.0034 F30.00
G01 X70.8722 Y-16.0073 F30.00
G01 X70.7888 Y-16.0462 F30.00
G01 X70.7765 Y-16.0509 F30.00
G01 X70.7637 Y-16.0538 F30.00
G01 X70.6946 Y-16.0643 F30.00
G01 X70.6813 Y-16.0653 F30.00
G01 X70.6702 Y-16.0647 F30.00
G01 X70.6592 Y-16.0627 F30.00
G01 X70.6170 Y-16.0504 F30.00
G01 X70.6062 Y-16.0462 F30.00
G01 X70.5228 Y-16.0073 F30.00
G01 X70.4936 Y-16.0035 F30.00
G01 X70.2514 Y-16.0034 F30.00
G01 X70.2222 Y-16.0073 F30.00
G01 X70.1388 Y-16.0462 F30.00
G01 X70.1265 Y-16.0509 F30.00
G01 X70.1137 Y-16.0538 F30.00
G01 X70.0446 Y-16.0643 F30.00
G01 X70.0313 Y-16.0653 F30.00
G01 X70.0202 Y-16.0647 F30.00
G01 X70.0092 Y-16.0627 F30.00
G01 X69.9626 Y-16.0489 F30.00
G01 X69.8731 Y-16.0075 F30.00
G01 X69.8484 Y-16.0225 F30.00
G01 X69.8288 Y-16.0319 F30.00
G01 X69.8205 Y-16.0353 F30.00
G01 X69.8000 Y-16.0425 F30.00
G01 X69.7790 Y-16.0479 F30.00
G01 X69.7724 Y-16.0493 F30.00
G01 X69.7509 Y-16.0525 F30.00
G01 X69.7225 Y-16.0540 F30.00
G01 X69.4825 Y-16.0540 F30.00
G01 X69.4303 Y-16.1062 F30.00
G01 X69.3928 Y-16.1867 F30.00
G01 X69.3890 Y-16.2159 F30.00
G01 X69.3889 Y-18.4325 F30.00
G01 X69.3939 Y-18.4486 F30.00
G01 X69.3989 Y-18.4698 F30.00
G01 X69.4013 Y-18.4840 F30.00
G01 X69.4087 Y-18.4991 F30.00
G01 X69.4170 Y-18.5193 F30.00
G01 X69.4216 Y-18.5330 F30.00
G01 X69.4300 Y-18.5447 F30.00
G01 X69.4414 Y-18.5633 F30.00
G01 X69.4493 Y-18.5782 F30.00
G01 X69.5550 Y-18.6839 F30.00
G01 X69.5595 Y-18.6887 F30.00
G01 X69.5649 Y-18.6956 F30.00
G01 X69.5707 Y-18.7048 F30.00
G01 X69.6072 Y-18.7723 F30.00
G01 X69.6106 Y-18.7808 F30.00
G01 X69.6135 Y-18.7918 F30.00
G01 X69.6149 Y-18.8008 F30.00
G01 X69.6154 Y-18.8099 F30.00
G01 X69.6100 Y-18.8887 F30.00
G01 X69.6082 Y-18.9000 F30.00
G01 X69.6050 Y-18.9110 F30.00
G01 X69.6005 Y-18.9214 F30.00
G01 X69.5947 Y-18.9313 F30.00
G01 X69.5488 Y-18.9928 F30.00
G01 X69.5412 Y-19.0013 F30.00
G01 X69.5326 Y-19.0088 F30.00
G01 X69.5251 Y-19.0140 F30.00
G01 X69.5150 Y-19.0194 F30.00
G01 X69.4411 Y-19.0472 F30.00
G01 X69.4323 Y-19.0497 F30.00
G01 X69.4232 Y-19.0514 F30.00
G01 X69.4164 Y-19.0521 F30.00
G01 X69.4095 Y-19.0522 F30.00
G01 X69.3789 Y-19.0509 F30.00
G01 X69.3706 Y-19.0502 F30.00
G01 X69.3517 Y-19.0469 F30.00
G01 X69.3304 Y-19.0418 F30.00
G01 X69.3167 Y-19.0374 F30.00
G01 X68.5717 Y-19.0373 F30.00
G01 X68.5609 Y-19.0362 F30.00
G01 X68.5502 Y-19.0337 F30.00
G01 X68.4810 Y-19.0134 F30.00
G01 X68.4685 Y-19.0083 F30.00
G01 X68.4606 Y-19.0039 F30.00
G01 X68.4532 Y-18.9988 F30.00
G01 X68.4307 Y-18.9808 F30.00
G01 X68.4234 Y-18.9742 F30.00
G01 X67.8738 Y-18.4244 F30.00
G01 X67.8669 Y-18.4159 F30.00
G01 X67.8622 Y-18.4085 F30.00
G01 X67.8276 Y-18.3453 F30.00
G01 X67.8228 Y-18.3351 F30.00
G01 X67.8193 Y-18.3244 F30.00
G01 X67.8175 Y-18.3156 F30.00
G01 X67.8141 Y-18.2847 F30.00
G01 X67.8136 Y-18.2774 F30.00
G01 X67.8136 Y-16.2030 F30.00
G01 X67.8142 Y-16.1921 F30.00
G01 X67.8167 Y-16.1792 F30.00
G01 X67.8391 Y-16.1037 F30.00
G01 X67.8437 Y-16.0934 F30.00
G01 X67.8495 Y-16.0837 F30.00
G01 X67.8702 Y-16.0577 F30.00
G01 X67.8751 Y-16.0521 F30.00
G01 X68.2306 Y-15.6965 F30.00
G01 X68.2314 Y-15.6819 F30.00
G01 X68.2332 Y-15.6689 F30.00
G01 X68.2345 Y-15.6623 F30.00
G01 X68.2383 Y-15.6474 F30.00
G01 X68.2442 Y-15.6308 F30.00
G01 X68.2497 Y-15.6189 F30.00
G01 X68.2528 Y-15.6129 F30.00
G01 X68.2608 Y-15.5998 F30.00
G01 X68.2713 Y-15.5857 F30.00
G01 X68.2800 Y-15.5759 F30.00
G01 X68.2847 Y-15.5710 F30.00
G01 X68.2962 Y-15.5608 F30.00
G01 X68.3084 Y-15.5516 F30.00
G01 X68.3141 Y-15.5479 F30.00
G01 X68.3254 Y-15.5412 F30.00
G01 X68.3393 Y-15.5346 F30.00
G01 X68.3579 Y-15.5278 F30.00
G01 X68.3750 Y-15.5235 F30.00
G01 X68.3924 Y-15.5209 F30.00
G01 X68.4109 Y-15.5201 F30.00
G01 X68.4756 Y-15.4846 F30.00
G01 X68.4858 Y-15.4798 F30.00
G01 X68.4944 Y-15.4769 F30.00
G01 X68.5031 Y-15.4749 F30.00
G01 X68.5387 Y-15.4708 F30.00
G01 X68.5460 Y-15.4706 F30.00
G01 X69.2936 Y-15.4705 F30.00
G01 X69.3228 Y-15.4667 F30.00
G01 X69.4033 Y-15.4292 F30.00
G01 X69.4647 Y-15.3678 F30.00
G01 X69.5022 Y-15.2873 F30.00
G01 X69.5061 Y-15.2581 F30.00
G01 X69.5060 Y-15.0159 F30.00
G01 X69.5022 Y-14.9867 F30.00
G01 X69.4633 Y-14.9033 F30.00
G01 X69.4607 Y-14.8972 F30.00
G01 X69.4580 Y-14.8889 F30.00
G01 X69.4557 Y-14.8782 F30.00
G01 X69.4452 Y-14.8091 F30.00
G01 X69.4443 Y-14.8003 F30.00
G01 X69.4443 Y-14.7914 F30.00
G01 X69.4451 Y-14.7825 F30.00
G01 X69.4468 Y-14.7737 F30.00
G01 X69.4606 Y-14.7271 F30.00
G01 X69.5022 Y-14.6373 F30.00
G01 X69.5061 Y-14.6081 F30.00
G01 X69.5060 Y-14.3659 F30.00
G01 X69.5022 Y-14.3367 F30.00
G01 X69.4647 Y-14.2562 F30.00
G01 X69.4033 Y-14.1948 F30.00
G01 X69.3228 Y-14.1573 F30.00
G01 X69.2936 Y-14.1535 F30.00
G01 X68.9466 Y-14.1533 F30.00
G01 X68.9370 Y-14.1523 F30.00
G01 X68.8963 Y-14.1458 F30.00
G01 X68.8870 Y-14.1436 F30.00
G01 X68.8737 Y-14.1393 F30.00
G01 X68.7680 Y-14.1393 F30.00
G01 X68.7548 Y-14.1436 F30.00
G01 X68.7454 Y-14.1458 F30.00
G01 X68.7024 Y-14.1527 F30.00
G01 X68.6904 Y-14.1534 F30.00
G01 X47.7572 Y-14.1534 F30.00
G01 X47.7434 Y-14.1578 F30.00
G01 X47.7222 Y-14.1629 F30.00
G01 X47.7056 Y-14.1658 F30.00
G01 X47.6928 Y-14.1722 F30.00
G01 X47.6726 Y-14.1806 F30.00
G01 X47.6567 Y-14.1861 F30.00
G01 X47.6450 Y-14.1945 F30.00
G01 X47.6263 Y-14.2059 F30.00
G01 X47.6115 Y-14.2138 F30.00
G01 X46.5481 Y-15.2772 F30.00
G01 X46.5382 Y-15.2858 F30.00
G01 X46.5271 Y-15.2929 F30.00
G01 X46.4638 Y-15.3274 F30.00
G01 X46.4535 Y-15.3320 F30.00
G01 X46.4449 Y-15.3347 F30.00
G01 X46.4338 Y-15.3368 F30.00
G01 X46.4003 Y-15.3403 F30.00
G01 X46.3302 Y-15.3404 F30.00
G01 X46.1985 Y-15.3729 F30.00
G01 X46.0784 Y-15.4359 F30.00
G01 X45.9768 Y-15.5259 F30.00
G01 X45.8998 Y-15.6375 F30.00
G01 X45.8517 Y-15.7643 F30.00
G01 X45.8353 Y-15.8990 F30.00
G01 X45.8517 Y-16.0337 F30.00
G01 X45.8998 Y-16.1605 F30.00
G01 X45.9768 Y-16.2721 F30.00
G01 X46.0784 Y-16.3621 F30.00
G01 X46.1985 Y-16.4251 F30.00
G01 X46.3302 Y-16.4576 F30.00
G01 X46.4658 Y-16.4576 F30.00
G01 X46.5975 Y-16.4251 F30.00
G01 X46.7176 Y-16.3621 F30.00
G01 X46.8192 Y-16.2721 F30.00
G01 X46.8962 Y-16.1605 F30.00
G01 X46.9443 Y-16.0337 F30.00
G01 X46.9620 Y-15.8859 F30.00
G01 X46.9640 Y-15.8737 F30.00
G01 X46.9662 Y-15.8648 F30.00
G01 X46.9857 Y-15.8009 F30.00
G01 X46.9897 Y-15.7907 F30.00
G01 X46.9938 Y-15.7829 F30.00
G01 X46.9987 Y-15.7756 F30.00
G01 X47.0212 Y-15.7477 F30.00
G01 X47.8881 Y-14.8808 F30.00
G01 X47.8966 Y-14.8739 F30.00
G01 X47.9040 Y-14.8692 F30.00
G01 X47.9672 Y-14.8346 F30.00
G01 X47.9753 Y-14.8307 F30.00
G01 X47.9838 Y-14.8276 F30.00
G01 X47.9947 Y-14.8249 F30.00
G01 X48.0327 Y-14.8207 F30.00
G01 X67.6418 Y-14.8206 F30.00
G01 X67.6549 Y-14.8215 F30.00
G01 X67.6677 Y-14.8243 F30.00
G01 X67.7369 Y-14.8446 F30.00
G01 X67.7476 Y-14.8488 F30.00
G01 X67.7576 Y-14.8542 F30.00
G01 X67.7669 Y-14.8609 F30.00
G01 X67.7753 Y-14.8686 F30.00
G01 X67.8270 Y-14.9283 F30.00
G01 X67.8323 Y-14.9358 F30.00
G01 X67.8378 Y-14.9458 F30.00
G01 X67.8420 Y-14.9564 F30.00
G01 X67.8449 Y-14.9674 F30.00
G01 X67.8561 Y-15.0456 F30.00
G01 X67.8565 Y-15.0570 F30.00
G01 X67.8554 Y-15.0684 F30.00
G01 X67.8529 Y-15.0795 F30.00
G01 X67.8491 Y-15.0903 F30.00
G01 X67.8192 Y-15.1559 F30.00
G01 X67.8151 Y-15.1638 F30.00
G01 X67.8114 Y-15.1696 F30.00
G01 X67.8073 Y-15.1751 F30.00
G01 X67.7945 Y-15.1892 F30.00
G01 X67.2068 Y-15.7769 F30.00
G01 X67.1989 Y-15.7918 F30.00
G01 X67.1875 Y-15.8104 F30.00
G01 X67.1791 Y-15.8221 F30.00
G01 X67.1736 Y-15.8380 F30.00
G01 X67.1652 Y-15.8582 F30.00
G01 X67.1588 Y-15.8711 F30.00
G01 X67.1564 Y-15.8853 F30.00
G01 X67.1514 Y-15.9065 F30.00
G01 X67.1464 Y-15.9226 F30.00
G01 X67.1464 Y-18.5553 F30.00
G01 X67.1508 Y-18.5691 F30.00
G01 X67.1559 Y-18.5903 F30.00
G01 X67.1588 Y-18.6069 F30.00
G01 X67.1662 Y-18.6220 F30.00
G01 X67.1745 Y-18.6422 F30.00
G01 X67.1791 Y-18.6558 F30.00
G01 X67.1887 Y-18.6696 F30.00
G01 X67.2001 Y-18.6882 F30.00
G01 X67.2068 Y-18.7010 F30.00
G01 X68.1500 Y-19.6442 F30.00
G01 X68.1628 Y-19.6509 F30.00
G01 X68.1814 Y-19.6622 F30.00
G01 X68.1952 Y-19.6719 F30.00
G01 X68.2088 Y-19.6765 F30.00
G01 X68.2290 Y-19.6848 F30.00
G01 X68.2441 Y-19.6922 F30.00
G01 X68.2607 Y-19.6951 F30.00
G01 X68.2819 Y-19.7002 F30.00
G01 X68.2957 Y-19.7046 F30.00
G01 X68.3267 Y-19.7046 F30.00
G01 X68.3458 Y-19.6934 F30.00
G01 X68.3741 Y-19.6801 F30.00
G01 X68.4057 Y-19.6688 F30.00
G01 X68.4339 Y-19.6616 F30.00
G01 X68.4427 Y-19.6598 F30.00
G01 X68.4715 Y-19.6557 F30.00
G01 X68.5027 Y-19.6541 F30.00
G01 X69.0095 Y-19.6542 F30.00
G01 X69.0385 Y-19.6557 F30.00
G01 X69.0717 Y-19.6606 F30.00
G01 X69.1043 Y-19.6688 F30.00
G01 X69.1338 Y-19.6792 F30.00
G01 X69.1662 Y-19.6944 F30.00
G01 X69.1912 Y-19.7093 F30.00
G01 X69.1987 Y-19.7143 F30.00
G01 X69.2219 Y-19.7317 F30.00
G01 X69.2435 Y-19.7511 F30.00
G01 X69.2499 Y-19.7575 F30.00
G01 X69.2679 Y-19.7773 F30.00
G01 X69.2893 Y-19.8060 F30.00
G01 X69.3076 Y-19.8368 F30.00
G01 X69.3218 Y-19.8672 F30.00
G01 X69.3322 Y-19.8967 F30.00
G01 X69.3372 Y-19.9160 F30.00
G01 X69.4962 Y-20.0750 F30.00
G01 X69.5021 Y-20.0815 F30.00
G01 X69.5073 Y-20.0885 F30.00
G01 X69.5119 Y-20.0960 F30.00
G01 X69.5464 Y-20.1593 F30.00
G01 X69.5517 Y-20.1717 F30.00
G01 X69.5542 Y-20.1804 F30.00
G01 X69.5558 Y-20.1893 F30.00
G01 X69.5589 Y-20.2179 F30.00
G01 X69.5594 Y-20.2277 F30.00
G01 X69.5594 Y-28.4788 F30.00
G01 X69.5638 Y-28.4926 F30.00
G01 X69.5689 Y-28.5138 F30.00
G01 X69.5718 Y-28.5304 F30.00
G01 X69.5792 Y-28.5455 F30.00
G01 X69.5875 Y-28.5657 F30.00
G01 X69.5921 Y-28.5793 F30.00
G01 X69.6017 Y-28.5931 F30.00
G01 X69.6131 Y-28.6117 F30.00
G01 X69.6198 Y-28.6245 F30.00
G01 X71.2932 Y-30.2979 F30.00
G01 X71.3005 Y-30.3061 F30.00
G01 X71.3055 Y-30.3132 F30.00
G01 X71.3424 Y-30.3802 F30.00
G01 X71.3472 Y-30.3904 F30.00
G01 X71.3507 Y-30.4011 F30.00
G01 X71.3525 Y-30.4099 F30.00
G01 X71.3563 Y-30.4457 F30.00
G01 X71.3564 Y-31.3636 F30.00
G01 X71.3656 Y-31.4099 F30.00
G01 X71.4007 Y-31.4623 F30.00
G01 X71.4531 Y-31.4974 F30.00
G01 X71.4994 Y-31.5065 F30.00
G01 X72.3306 Y-31.5066 F30.00
G01 X72.3769 Y-31.4974 F30.00
G01 X72.4293 Y-31.4623 F30.00
G01 X72.4644 Y-31.4099 F30.00
G01 X72.4736 Y-31.3636 F30.00
G01 X72.4736 Y-29.5324 F30.00
G01 X72.4644 Y-29.4861 F30.00
G01 X72.4293 Y-29.4337 F30.00
G01 X72.3769 Y-29.3986 F30.00
G01 X72.3306 Y-29.3894 F30.00
G01 X71.4994 Y-29.3894 F30.00
G01 X71.4655 Y-29.3961 F30.00
G01 X71.4568 Y-29.3970 F30.00
G01 X71.4502 Y-29.3971 F30.00
G01 X71.3673 Y-29.3897 F30.00
G01 X71.3585 Y-29.3878 F30.00
G01 X71.3499 Y-29.3850 F30.00
G01 X71.3437 Y-29.3824 F30.00
G01 X71.3357 Y-29.3782 F30.00
G01 X71.2876 Y-29.3468 F30.00
G01 X71.2801 Y-29.3410 F30.00
G01 X71.2749 Y-29.3362 F30.00
G01 X70.2883 Y-28.3495 F30.00
G01 X70.2812 Y-28.3412 F30.00
G01 X70.2752 Y-28.3320 F30.00
G01 X70.2406 Y-28.2688 F30.00
G01 X70.2350 Y-28.2565 F30.00
G01 X70.2313 Y-28.2435 F30.00
G01 X70.2302 Y-28.2368 F30.00
G01 X70.2271 Y-28.2082 F30.00
G01 X70.2266 Y-28.1984 F30.00
G01 X70.2266 Y-19.9473 F30.00
G01 X70.2222 Y-19.9336 F30.00
G01 X70.2166 Y-19.9100 F30.00
G01 X70.2136 Y-19.8912 F30.00
G01 X70.2130 Y-19.8802 F30.00
G01 X70.2138 Y-19.8693 F30.00
G01 X70.2230 Y-19.7978 F30.00
G01 X70.2243 Y-19.7911 F30.00
G01 X70.2261 Y-19.7844 F30.00
G01 X70.2302 Y-19.7738 F30.00
G01 X70.2333 Y-19.7677 F30.00
G01 X70.2368 Y-19.7618 F30.00
G01 X70.2436 Y-19.7526 F30.00
G01 X70.2901 Y-19.6974 F30.00
G01 X70.2964 Y-19.6909 F30.00
G01 X70.3034 Y-19.6850 F30.00
G01 X70.3091 Y-19.6811 F30.00
G01 X70.3149 Y-19.6776 F30.00
G01 X70.3211 Y-19.6746 F30.00
G01 X70.3274 Y-19.6720 F30.00
G01 X70.3985 Y-19.6499 F30.00
G01 X70.4073 Y-19.6476 F30.00
G01 X70.4164 Y-19.6463 F30.00
G01 X70.4232 Y-19.6458 F30.00
G01 X70.4323 Y-19.6460 F30.00
G01 X70.4414 Y-19.6471 F30.00
G01 X70.4503 Y-19.6491 F30.00
G01 X70.5176 Y-19.6679 F30.00
G01 X70.5285 Y-19.6716 F30.00
G01 X70.5388 Y-19.6767 F30.00
G01 X70.5465 Y-19.6817 F30.00
G01 X70.5739 Y-19.7034 F30.00
G01 X70.5801 Y-19.7090 F30.00
G01 X71.5197 Y-20.6487 F30.00
G01 X71.5268 Y-20.6570 F30.00
G01 X71.5328 Y-20.6661 F30.00
G01 X71.5674 Y-20.7294 F30.00
G01 X71.5730 Y-20.7417 F30.00
G01 X71.5762 Y-20.7525 F30.00
G01 X71.5781 Y-20.7636 F30.00
G01 X71.5812 Y-20.7924 F30.00
G01 X71.5814 Y-20.7998 F30.00
G01 X71.5814 Y-22.1993 F30.00
G01 X71.5808 Y-22.2102 F30.00
G01 X71.5783 Y-22.2231 F30.00
G01 X71.5574 Y-22.2944 F30.00
G01 X71.5550 Y-22.3008 F30.00
G01 X71.5522 Y-22.3071 F30.00
G01 X71.5490 Y-22.3131 F30.00
G01 X71.5453 Y-22.3189 F30.00
G01 X71.5397 Y-22.3261 F30.00
G01 X71.5334 Y-22.3327 F30.00
G01 X71.4997 Y-22.3621 F30.00
G01 X71.4924 Y-22.3703 F30.00
G01 X71.4840 Y-22.3777 F30.00
G01 X71.4007 Y-22.4337 F30.00
G01 X71.3656 Y-22.4861 F30.00
G01 X71.3564 Y-22.5324 F30.00
G01 X71.3564 Y-24.3636 F30.00
G01 X71.3656 Y-24.4099 F30.00
G01 X71.4007 Y-24.4623 F30.00
G01 X71.4531 Y-24.4974 F30.00
G01 X71.4994 Y-24.5065 F30.00
G01 X72.3306 Y-24.5066 F30.00
G01 X72.3769 Y-24.4974 F30.00
G01 X72.4293 Y-24.4623 F30.00
G01 X72.4644 Y-24.4099 F30.00
G01 X72.4736 Y-24.3636 F30.00
G01 X72.4736 Y-22.5324 F30.00
G01 X72.4644 Y-22.4861 F30.00
G01 X72.4293 Y-22.4337 F30.00
G01 X72.3460 Y-22.3777 F30.00
G01 X72.3376 Y-22.3703 F30.00
G01 X72.3301 Y-22.3619 F30.00
G01 X72.2998 Y-22.3371 F30.00
G01 X72.2934 Y-22.3305 F30.00
G01 X72.2878 Y-22.3233 F30.00
G01 X72.2840 Y-22.3176 F30.00
G01 X72.2807 Y-22.3116 F30.00
G01 X72.2761 Y-22.3012 F30.00
G01 X72.2526 Y-22.2305 F30.00
G01 X72.2508 Y-22.2238 F30.00
G01 X72.2493 Y-22.2146 F30.00
G01 X72.2486 Y-22.1993 F30.00
G01 X72.2486 Y-20.5194 F30.00
G01 X72.2442 Y-20.5056 F30.00
G01 X72.2391 Y-20.4844 F30.00
G01 X72.2362 Y-20.4678 F30.00
G01 X72.2288 Y-20.4527 F30.00
G01 X72.2205 Y-20.4325 F30.00
G01 X72.2159 Y-20.4189 F30.00
G01 X72.2062 Y-20.4051 F30.00
G01 X72.1949 Y-20.3865 F30.00
G01 X72.1882 Y-20.3737 F30.00
G01 X70.1193 Y-18.3048 F30.00
G01 X70.1134 Y-18.2983 F30.00
G01 X70.1094 Y-18.2931 F30.00
G01 X70.1036 Y-18.2838 F30.00
G01 X70.0701 Y-18.2225 F30.00
G01 X70.0653 Y-18.2123 F30.00
G01 X70.0624 Y-18.2037 F30.00
G01 X70.0600 Y-18.1927 F30.00
G01 X70.0566 Y-18.1619 F30.00
G01 X70.0561 Y-18.1545 F30.00
G01 X70.0562 Y-17.5571 F30.00
G01 X70.0573 Y-17.5463 F30.00
G01 X70.0592 Y-17.5377 F30.00
G01 X70.0801 Y-17.4664 F30.00
G01 X70.0825 Y-17.4599 F30.00
G01 X70.0853 Y-17.4537 F30.00
G01 X70.0897 Y-17.4457 F30.00
G01 X70.0936 Y-17.4400 F30.00
G01 X70.0993 Y-17.4330 F30.00
G01 X70.1075 Y-17.4250 F30.00
G01 X70.1620 Y-17.3777 F30.00
G01 X70.1694 Y-17.3723 F30.00
G01 X70.1753 Y-17.3686 F30.00
G01 X70.1856 Y-17.3636 F30.00
G01 X70.1965 Y-17.3599 F30.00
G01 X70.2524 Y-17.3477 F30.00
G01 X70.2633 Y-17.3460 F30.00
G01 X70.2720 Y-17.3455 F30.00
G01 X70.4730 Y-17.3455 F30.00
G01 X70.4839 Y-17.3462 F30.00
G01 X70.4968 Y-17.3487 F30.00
G01 X70.5703 Y-17.3704 F30.00
G01 X70.5788 Y-17.3738 F30.00
G01 X70.5868 Y-17.3780 F30.00
G01 X70.5945 Y-17.3831 F30.00
G01 X70.6015 Y-17.3888 F30.00
G01 X70.6095 Y-17.3970 F30.00
G01 X70.6596 Y-17.4551 F30.00
G01 X70.6647 Y-17.4628 F30.00
G01 X70.6690 Y-17.4709 F30.00
G01 X70.6725 Y-17.4794 F30.00
G01 X70.6751 Y-17.4882 F30.00
G01 X70.6873 Y-17.5441 F30.00
G01 X70.6888 Y-17.5571 F30.00
G01 X70.6889 Y-17.8433 F30.00
G01 X70.6933 Y-17.8571 F30.00
G01 X70.6984 Y-17.8783 F30.00
G01 X70.7013 Y-17.8949 F30.00
G01 X70.7087 Y-17.9100 F30.00
G01 X70.7170 Y-17.9302 F30.00
G01 X70.7216 Y-17.9438 F30.00
G01 X70.7312 Y-17.9576 F30.00
G01 X70.7426 Y-17.9762 F30.00
G01 X70.7493 Y-17.9890 F30.00
G01 X72.1075 Y-19.3472 F30.00
G01 X72.1223 Y-19.3551 F30.00
G01 X72.1410 Y-19.3665 F30.00
G01 X72.1527 Y-19.3749 F30.00
G01 X72.1663 Y-19.3795 F30.00
G01 X72.1865 Y-19.3878 F30.00
G01 X72.2016 Y-19.3952 F30.00
G01 X72.2182 Y-19.3981 F30.00
G01 X72.2394 Y-19.4032 F30.00
G01 X72.2532 Y-19.4076 F30.00
G01 X79.4708 Y-19.4076 F30.00
G01 X79.4869 Y-19.4026 F30.00
G01 X79.5082 Y-19.3976 F30.00
G01 X79.5224 Y-19.3952 F30.00
G01 X79.5352 Y-19.3888 F30.00
G01 X79.5554 Y-19.3804 F30.00
G01 X79.5713 Y-19.3749 F30.00
G01 X79.5851 Y-19.3653 F30.00
G01 X79.6037 Y-19.3539 F30.00
G01 X79.6165 Y-19.3472 F30.00
G01 X80.4532 Y-18.5105 F30.00
G01 X80.4599 Y-18.4977 F30.00
G01 X80.4713 Y-18.4791 F30.00
G01 X80.4809 Y-18.4653 F30.00
G01 X80.4864 Y-18.4494 F30.00
G01 X80.4948 Y-18.4292 F30.00
G01 X80.5012 Y-18.4164 F30.00
G01 X80.5036 Y-18.4022 F30.00
G01 X80.5086 Y-18.3809 F30.00
G01 X80.5136 Y-18.3648 F30.00
G01 X80.5136 Y-17.7939 F30.00
G01 X80.5140 Y-17.7852 F30.00
G01 X80.5152 Y-17.7765 F30.00
G01 X80.5173 Y-17.7680 F30.00
G01 X80.5376 Y-17.6988 F30.00
G01 X80.5418 Y-17.6882 F30.00
G01 X80.5472 Y-17.6781 F30.00
G01 X80.5539 Y-17.6689 F30.00
G01 X80.5616 Y-17.6605 F30.00
G01 X80.6178 Y-17.6116 F30.00
G01 X80.6268 Y-17.6047 F30.00
G01 X80.6327 Y-17.6011 F30.00
G01 X80.6388 Y-17.5980 F30.00
G01 X80.6494 Y-17.5938 F30.00
G01 X80.6559 Y-17.5919 F30.00
G01 X80.6626 Y-17.5905 F30.00
G01 X80.7407 Y-17.5795 F30.00
G01 X80.7496 Y-17.5793 F30.00
G01 X80.7585 Y-17.5799 F30.00
G01 X80.7673 Y-17.5815 F30.00
G01 X80.7759 Y-17.5838 F30.00
G01 X80.7842 Y-17.5870 F30.00
G01 X80.8452 Y-17.6139 F30.00
G01 X80.8553 Y-17.6191 F30.00
G01 X80.8610 Y-17.6228 F30.00
G01 X80.8665 Y-17.6270 F30.00
