(G-CODE GENERATED BY FLATCAM v8.994 - www.flatcam.org - Version Date: 2020/11/7)

(Name: Mixers-F_Cu.gbr_0.1839_iso_cnc)
(Type: G-code from Geometry)
(Units: MM)

(Created on Friday, 24 March 2023 at 18:05)

(This preprocessor is used with a motion controller loaded with GRBL firmware.)
(It is configured to be compatible with almost any version of GRBL firmware.)

(TOOL DIAMETER: 0.1839 mm)
(Feedrate_XY: 60.0 mm/min)
(Feedrate_Z: 10.0 mm/min)
(Feedrate rapids 1500.0 mm/min)

(Z_Cut: -0.05 mm)
(DepthPerCut: 0.05 mm <=>1 passes)
(Z_Move: 2.0 mm)
(Z Start: None mm)
(Z End: 15.0 mm)
(X,Y End: None mm)
(Steps per circle: 64)
(Steps per circle: 64)
(Preprocessor Geometry: GRBL_11_no_M6)

(X range:   -0.2570 ...   90.2570  mm)
(Y range:  -60.2570 ...    0.2570  mm)

(Spindle Speed: 12000.0 RPM)
G21
G90
G17
G94


G01 F60.00

M5             
G00 Z15.0000
G00 X0.0000 Y0.0000                
T2
(MSG, Change to Tool Dia = 0.1839)
M0
G00 Z15.0000
        
G00 Z2.0000
M03 S12000.0
G4 P1.0
G01 F60.00
G00 X-0.0914 Y-0.1245
G01 F10.00
G01 Z-0.0500
G01 F60.00
G01 X-0.0914 Y-59.8755 F60.00
G01 X-0.0905 Y-59.8886 F60.00
G01 X-0.0883 Y-59.8993 F60.00
G01 X-0.0711 Y-59.9635 F60.00
G01 X-0.0681 Y-59.9722 F60.00
G01 X-0.0631 Y-59.9825 F60.00
G01 X-0.0569 Y-59.9921 F60.00
G01 X-0.0495 Y-60.0009 F60.00
G01 X-0.0009 Y-60.0495 F60.00
G01 X0.0061 Y-60.0555 F60.00
G01 X0.0117 Y-60.0595 F60.00
G01 X0.0175 Y-60.0631 F60.00
G01 X0.0236 Y-60.0662 F60.00
G01 X0.0300 Y-60.0689 F60.00
G01 X0.0365 Y-60.0711 F60.00
G01 X0.1028 Y-60.0889 F60.00
G01 X0.1136 Y-60.0908 F60.00
G01 X0.1245 Y-60.0914 F60.00
G01 X89.8755 Y-60.0914 F60.00
G01 X89.8864 Y-60.0908 F60.00
G01 X89.8993 Y-60.0883 F60.00
G01 X89.9635 Y-60.0711 F60.00
G01 X89.9743 Y-60.0672 F60.00
G01 X89.9825 Y-60.0631 F60.00
G01 X89.9921 Y-60.0569 F60.00
G01 X90.0009 Y-60.0495 F60.00
G01 X90.0495 Y-60.0009 F60.00
G01 X90.0541 Y-59.9957 F60.00
G01 X90.0595 Y-59.9883 F60.00
G01 X90.0631 Y-59.9825 F60.00
G01 X90.0662 Y-59.9764 F60.00
G01 X90.0689 Y-59.9700 F60.00
G01 X90.0711 Y-59.9635 F60.00
G01 X90.0889 Y-59.8972 F60.00
G01 X90.0908 Y-59.8864 F60.00
G01 X90.0914 Y-59.8755 F60.00
G01 X90.0914 Y-0.1245 F60.00
G01 X90.0905 Y-0.1114 F60.00
G01 X90.0883 Y-0.1007 F60.00
G01 X90.0711 Y-0.0365 F60.00
G01 X90.0672 Y-0.0257 F60.00
G01 X90.0631 Y-0.0175 F60.00
G01 X90.0569 Y-0.0079 F60.00
G01 X90.0495 Y0.0009 F60.00
G01 X90.0009 Y0.0495 F60.00
G01 X89.9939 Y0.0555 F60.00
G01 X89.9883 Y0.0595 F60.00
G01 X89.9825 Y0.0631 F60.00
G01 X89.9764 Y0.0662 F60.00
G01 X89.9700 Y0.0689 F60.00
G01 X89.9635 Y0.0711 F60.00
G01 X89.8972 Y0.0889 F60.00
G01 X89.8864 Y0.0908 F60.00
G01 X89.8755 Y0.0914 F60.00
G01 X80.6842 Y0.0914 F60.00
G01 X80.6753 Y0.0908 F60.00
G01 X80.6665 Y0.0893 F60.00
G01 X80.6000 Y0.0726 F60.00
G01 X80.5917 Y0.0694 F60.00
G01 X80.5837 Y0.0654 F60.00
G01 X80.5761 Y0.0607 F60.00
G01 X80.5673 Y0.0538 F60.00
G01 X80.5196 Y0.0111 F60.00
G01 X80.5121 Y0.0028 F60.00
G01 X80.5057 Y-0.0064 F60.00
G01 X80.5014 Y-0.0142 F60.00
G01 X80.4987 Y-0.0203 F60.00
G01 X80.4771 Y-0.0782 F60.00
G01 X80.4744 Y-0.0867 F60.00
G01 X80.4721 Y-0.0977 F60.00
G01 X80.4713 Y-0.1110 F60.00
G01 X80.4720 Y-0.1222 F60.00
G01 X80.4800 Y-0.1835 F60.00
G01 X80.4818 Y-0.1922 F60.00
G01 X80.4844 Y-0.2008 F60.00
G01 X80.4888 Y-0.2110 F60.00
G01 X80.4944 Y-0.2206 F60.00
G01 X80.5314 Y-0.2730 F60.00
G01 X80.5401 Y-0.2831 F60.00
G01 X80.5957 Y-0.3316 F60.00
G01 X80.6132 Y-0.3454 F60.00
G01 X80.6294 Y-0.3608 F60.00
G01 X80.6585 Y-0.3861 F60.00
G01 X80.6764 Y-0.4082 F60.00
G01 X80.6814 Y-0.4136 F60.00
G01 X88.5114 Y-8.2436 F60.00
G01 X88.5168 Y-8.2486 F60.00
G01 X88.5389 Y-8.2665 F60.00
G01 X88.5642 Y-8.2956 F60.00
G01 X88.5795 Y-8.3118 F60.00
G01 X88.5934 Y-8.3293 F60.00
G01 X88.6186 Y-8.3584 F60.00
G01 X88.6315 Y-8.3802 F60.00
G01 X88.6462 Y-8.4194 F60.00
G01 X88.6509 Y-8.4306 F60.00
G01 X88.6669 Y-8.4656 F60.00
G01 X88.6732 Y-8.4902 F60.00
G01 X88.6759 Y-8.5286 F60.00
G01 X88.6786 Y-8.5508 F60.00
G01 X88.6791 Y-8.5731 F60.00
G01 X88.6818 Y-8.6115 F60.00
G01 X88.6788 Y-8.6398 F60.00
G01 X88.6786 Y-8.6471 F60.00
G01 X88.6786 Y-13.2607 F60.00
G01 X88.6684 Y-13.2778 F60.00
G01 X88.6550 Y-13.3061 F60.00
G01 X88.6421 Y-13.3419 F60.00
G01 X88.6356 Y-13.3679 F60.00
G01 X88.6338 Y-13.3767 F60.00
G01 X88.6297 Y-13.4055 F60.00
G01 X88.6282 Y-13.4345 F60.00
G01 X88.6281 Y-14.3890 F60.00
G01 X88.6294 Y-14.4180 F60.00
G01 X88.6302 Y-14.4270 F60.00
G01 X88.6346 Y-14.4557 F60.00
G01 X88.6421 Y-14.4861 F60.00
G01 X88.6550 Y-14.5219 F60.00
G01 X88.6684 Y-14.5501 F60.00
G01 X88.6786 Y-14.5673 F60.00
G01 X88.6786 Y-15.2927 F60.00
G01 X88.6684 Y-15.3098 F60.00
G01 X88.6550 Y-15.3381 F60.00
G01 X88.6421 Y-15.3739 F60.00
G01 X88.6356 Y-15.3999 F60.00
G01 X88.6338 Y-15.4087 F60.00
G01 X88.6297 Y-15.4375 F60.00
G01 X88.6282 Y-15.4665 F60.00
G01 X88.6281 Y-16.4210 F60.00
G01 X88.6294 Y-16.4500 F60.00
G01 X88.6302 Y-16.4590 F60.00
G01 X88.6346 Y-16.4877 F60.00
G01 X88.6421 Y-16.5181 F60.00
G01 X88.6550 Y-16.5539 F60.00
G01 X88.6684 Y-16.5821 F60.00
G01 X88.6786 Y-16.5993 F60.00
G01 X88.6786 Y-18.4677 F60.00
G01 X88.6684 Y-18.4848 F60.00
G01 X88.6550 Y-18.5131 F60.00
G01 X88.6421 Y-18.5489 F60.00
G01 X88.6356 Y-18.5749 F60.00
G01 X88.6338 Y-18.5837 F60.00
G01 X88.6297 Y-18.6125 F60.00
G01 X88.6282 Y-18.6415 F60.00
G01 X88.6281 Y-19.5983 F60.00
G01 X88.6297 Y-19.6295 F60.00
G01 X88.6338 Y-19.6583 F60.00
G01 X88.6356 Y-19.6671 F60.00
G01 X88.6421 Y-19.6931 F60.00
G01 X88.6550 Y-19.7289 F60.00
G01 X88.6684 Y-19.7571 F60.00
G01 X88.6786 Y-19.7743 F60.00
G01 X88.6786 Y-20.8943 F60.00
G01 X88.6788 Y-20.9011 F60.00
G01 X88.6799 Y-20.9100 F60.00
G01 X88.6907 Y-20.9641 F60.00
G01 X88.6950 Y-20.9770 F60.00
G01 X88.7011 Y-20.9890 F60.00
G01 X88.7316 Y-21.0350 F60.00
G01 X88.7387 Y-21.0438 F60.00
G01 X88.9534 Y-21.2586 F60.00
G01 X88.9588 Y-21.2636 F60.00
G01 X88.9809 Y-21.2815 F60.00
G01 X89.0062 Y-21.3106 F60.00
G01 X89.0215 Y-21.3268 F60.00
G01 X89.0354 Y-21.3443 F60.00
G01 X89.0606 Y-21.3734 F60.00
G01 X89.0735 Y-21.3952 F60.00
G01 X89.0882 Y-21.4344 F60.00
G01 X89.0929 Y-21.4456 F60.00
G01 X89.1089 Y-21.4806 F60.00
G01 X89.1152 Y-21.5052 F60.00
G01 X89.1179 Y-21.5436 F60.00
G01 X89.1206 Y-21.5658 F60.00
G01 X89.1211 Y-21.5881 F60.00
G01 X89.1238 Y-21.6265 F60.00
G01 X89.1208 Y-21.6548 F60.00
G01 X89.1206 Y-21.6621 F60.00
G01 X89.1206 Y-29.7056 F60.00
G01 X89.1213 Y-29.7151 F60.00
G01 X89.1225 Y-29.7221 F60.00
G01 X89.1373 Y-29.7842 F60.00
G01 X89.1419 Y-29.7969 F60.00
G01 X89.1461 Y-29.8049 F60.00
G01 X89.1496 Y-29.8106 F60.00
G01 X89.1551 Y-29.8177 F60.00
G01 X89.1916 Y-29.8615 F60.00
G01 X89.1981 Y-29.8684 F60.00
G01 X89.2071 Y-29.8761 F60.00
G01 X89.2539 Y-29.9111 F60.00
G01 X89.3243 Y-30.0052 F60.00
G01 X89.3659 Y-30.1168 F60.00
G01 X89.3705 Y-30.1601 F60.00
G01 X89.3706 Y-31.1959 F60.00
G01 X89.3659 Y-31.2392 F60.00
G01 X89.3243 Y-31.3508 F60.00
G01 X89.2539 Y-31.4449 F60.00
G01 X89.1461 Y-31.5255 F60.00
G01 X89.1406 Y-31.5300 F60.00
G01 X89.1354 Y-31.5349 F60.00
G01 X89.1306 Y-31.5402 F60.00
G01 X89.0941 Y-31.5839 F60.00
G01 X89.0886 Y-31.5911 F60.00
G01 X89.0840 Y-31.5988 F60.00
G01 X89.0809 Y-31.6048 F60.00
G01 X89.0763 Y-31.6174 F60.00
G01 X89.0615 Y-31.6796 F60.00
G01 X89.0603 Y-31.6866 F60.00
G01 X89.0597 Y-31.6937 F60.00
G01 X89.0596 Y-35.7549 F60.00
G01 X89.0598 Y-35.7622 F60.00
G01 X89.0628 Y-35.7905 F60.00
G01 X89.0601 Y-35.8289 F60.00
G01 X89.0596 Y-35.8512 F60.00
G01 X89.0569 Y-35.8734 F60.00
G01 X89.0542 Y-35.9118 F60.00
G01 X89.0479 Y-35.9364 F60.00
G01 X89.0319 Y-35.9714 F60.00
G01 X89.0272 Y-35.9826 F60.00
G01 X89.0125 Y-36.0218 F60.00
G01 X88.9996 Y-36.0436 F60.00
G01 X88.9744 Y-36.0727 F60.00
G01 X88.9606 Y-36.0902 F60.00
G01 X88.9452 Y-36.1064 F60.00
G01 X88.9199 Y-36.1355 F60.00
G01 X88.8978 Y-36.1534 F60.00
G01 X88.8924 Y-36.1584 F60.00
G01 X87.7838 Y-37.2670 F60.00
G01 X87.7777 Y-37.2737 F60.00
G01 X87.7736 Y-37.2791 F60.00
G01 X87.7443 Y-37.3230 F60.00
G01 X87.7379 Y-37.3350 F60.00
G01 X87.7354 Y-37.3412 F60.00
G01 X87.7327 Y-37.3499 F60.00
G01 X87.7219 Y-37.4040 F60.00
G01 X87.7207 Y-37.4152 F60.00
G01 X87.7206 Y-37.9289 F60.00
G01 X87.7159 Y-37.9722 F60.00
G01 X87.6743 Y-38.0838 F60.00
G01 X87.6039 Y-38.1779 F60.00
G01 X87.5098 Y-38.2483 F60.00
G01 X87.3982 Y-38.2899 F60.00
G01 X87.3549 Y-38.2945 F60.00
G01 X86.5750 Y-38.2946 F60.00
G01 X86.5664 Y-38.2952 F60.00
G01 X86.5578 Y-38.2966 F60.00
G01 X86.4994 Y-38.3106 F60.00
G01 X86.4907 Y-38.3132 F60.00
G01 X86.4822 Y-38.3166 F60.00
G01 X86.4741 Y-38.3208 F60.00
G01 X86.4665 Y-38.3258 F60.00
G01 X86.4154 Y-38.3692 F60.00
G01 X86.4089 Y-38.3756 F60.00
G01 X86.4045 Y-38.3808 F60.00
G01 X86.3981 Y-38.3902 F60.00
G01 X86.3938 Y-38.3983 F60.00
G01 X86.3689 Y-38.4580 F60.00
G01 X86.3667 Y-38.4645 F60.00
G01 X86.3650 Y-38.4711 F60.00
G01 X86.3634 Y-38.4801 F60.00
G01 X86.3628 Y-38.4869 F60.00
G01 X86.3630 Y-38.4983 F60.00
G01 X86.3678 Y-38.5583 F60.00
G01 X86.3697 Y-38.5695 F60.00
G01 X86.3722 Y-38.5783 F60.00
G01 X86.3755 Y-38.5868 F60.00
G01 X86.3808 Y-38.5969 F60.00
G01 X86.4122 Y-38.6481 F60.00
G01 X86.4160 Y-38.6534 F60.00
G01 X86.4215 Y-38.6601 F60.00
G01 X88.2414 Y-40.4801 F60.00
G01 X88.2468 Y-40.4851 F60.00
G01 X88.2689 Y-40.5030 F60.00
G01 X88.2942 Y-40.5321 F60.00
G01 X88.3096 Y-40.5483 F60.00
G01 X88.3232 Y-40.5656 F60.00
G01 X88.3489 Y-40.5954 F60.00
G01 X88.3615 Y-40.6167 F60.00
G01 X88.3750 Y-40.6528 F60.00
G01 X88.3796 Y-40.6641 F60.00
G01 X88.3969 Y-40.7021 F60.00
G01 X88.4032 Y-40.7267 F60.00
G01 X88.4059 Y-40.7651 F60.00
G01 X88.4086 Y-40.7873 F60.00
G01 X88.4091 Y-40.8096 F60.00
G01 X88.4118 Y-40.8480 F60.00
G01 X88.4088 Y-40.8763 F60.00
G01 X88.4086 Y-40.8836 F60.00
G01 X88.4086 Y-49.9329 F60.00
G01 X88.4088 Y-49.9402 F60.00
G01 X88.4118 Y-49.9685 F60.00
G01 X88.4091 Y-50.0069 F60.00
G01 X88.4086 Y-50.0292 F60.00
G01 X88.4059 Y-50.0514 F60.00
G01 X88.4032 Y-50.0898 F60.00
G01 X88.3969 Y-50.1144 F60.00
G01 X88.3809 Y-50.1494 F60.00
G01 X88.3762 Y-50.1606 F60.00
G01 X88.3615 Y-50.1998 F60.00
G01 X88.3486 Y-50.2216 F60.00
G01 X88.3234 Y-50.2507 F60.00
G01 X88.3096 Y-50.2682 F60.00
G01 X88.2942 Y-50.2844 F60.00
G01 X88.2689 Y-50.3135 F60.00
G01 X88.2468 Y-50.3314 F60.00
G01 X88.2414 Y-50.3364 F60.00
G01 X83.4718 Y-55.1060 F60.00
G01 X83.4657 Y-55.1127 F60.00
G01 X83.4616 Y-55.1180 F60.00
G01 X83.4323 Y-55.1620 F60.00
G01 X83.4278 Y-55.1699 F60.00
G01 X83.4242 Y-55.1781 F60.00
G01 X83.4219 Y-55.1845 F60.00
G01 X83.4198 Y-55.1933 F60.00
G01 X83.4099 Y-55.2430 F60.00
G01 X83.4086 Y-55.2564 F60.00
G01 X83.4086 Y-57.7249 F60.00
G01 X83.4088 Y-57.7322 F60.00
G01 X83.4118 Y-57.7605 F60.00
G01 X83.4091 Y-57.7989 F60.00
G01 X83.4086 Y-57.8212 F60.00
G01 X83.4059 Y-57.8434 F60.00
G01 X83.4032 Y-57.8818 F60.00
G01 X83.3969 Y-57.9064 F60.00
G01 X83.3809 Y-57.9414 F60.00
G01 X83.3762 Y-57.9526 F60.00
G01 X83.3615 Y-57.9918 F60.00
G01 X83.3486 Y-58.0136 F60.00
G01 X83.3234 Y-58.0427 F60.00
G01 X83.3096 Y-58.0602 F60.00
G01 X83.2942 Y-58.0764 F60.00
G01 X83.2689 Y-58.1055 F60.00
G01 X83.2468 Y-58.1234 F60.00
G01 X83.2414 Y-58.1284 F60.00
G01 X82.0024 Y-59.3674 F60.00
G01 X81.9974 Y-59.3728 F60.00
G01 X81.9795 Y-59.3949 F60.00
G01 X81.9504 Y-59.4202 F60.00
G01 X81.9342 Y-59.4356 F60.00
G01 X81.9167 Y-59.4494 F60.00
G01 X81.8876 Y-59.4746 F60.00
G01 X81.8658 Y-59.4875 F60.00
G01 X81.8297 Y-59.5010 F60.00
G01 X81.8185 Y-59.5056 F60.00
G01 X81.7804 Y-59.5229 F60.00
G01 X81.7558 Y-59.5292 F60.00
G01 X81.7174 Y-59.5319 F60.00
G01 X81.6952 Y-59.5346 F60.00
G01 X81.6729 Y-59.5351 F60.00
G01 X81.6345 Y-59.5378 F60.00
G01 X81.6062 Y-59.5348 F60.00
G01 X81.5989 Y-59.5346 F60.00
G01 X27.6311 Y-59.5346 F60.00
G01 X27.6238 Y-59.5348 F60.00
G01 X27.5955 Y-59.5378 F60.00
G01 X27.5571 Y-59.5351 F60.00
G01 X27.5348 Y-59.5346 F60.00
G01 X27.5126 Y-59.5319 F60.00
G01 X27.4742 Y-59.5292 F60.00
G01 X27.4496 Y-59.5229 F60.00
G01 X27.4116 Y-59.5056 F60.00
G01 X27.4003 Y-59.5010 F60.00
G01 X27.3642 Y-59.4875 F60.00
G01 X27.3424 Y-59.4746 F60.00
G01 X27.3133 Y-59.4494 F60.00
G01 X27.2958 Y-59.4356 F60.00
G01 X27.2796 Y-59.4202 F60.00
G01 X27.2505 Y-59.3949 F60.00
G01 X27.2326 Y-59.3728 F60.00
G01 X27.2276 Y-59.3674 F60.00
G01 X25.9146 Y-58.0544 F60.00
G01 X25.9092 Y-58.0494 F60.00
G01 X25.8871 Y-58.0315 F60.00
G01 X25.8618 Y-58.0024 F60.00
G01 X25.8464 Y-57.9862 F60.00
G01 X25.8326 Y-57.9687 F60.00
G01 X25.8074 Y-57.9396 F60.00
G01 X25.7945 Y-57.9178 F60.00
G01 X25.7798 Y-57.8786 F60.00
G01 X25.7588 Y-57.8313 F60.00
G01 X25.7528 Y-57.8078 F60.00
G01 X25.7501 Y-57.7694 F60.00
G01 X25.7474 Y-57.7472 F60.00
G01 X25.7469 Y-57.7249 F60.00
G01 X25.7442 Y-57.6865 F60.00
G01 X25.7472 Y-57.6582 F60.00
G01 X25.7474 Y-57.6509 F60.00
G01 X25.7474 Y-55.9986 F60.00
G01 X25.7472 Y-55.9912 F60.00
G01 X25.7442 Y-55.9629 F60.00
G01 X25.7469 Y-55.9245 F60.00
G01 X25.7474 Y-55.9022 F60.00
G01 X25.7501 Y-55.8800 F60.00
G01 X25.7528 Y-55.8416 F60.00
G01 X25.7591 Y-55.8170 F60.00
G01 X25.7764 Y-55.7790 F60.00
G01 X25.7810 Y-55.7677 F60.00
G01 X25.7945 Y-55.7316 F60.00
G01 X25.8074 Y-55.7098 F60.00
G01 X25.8326 Y-55.6807 F60.00
G01 X25.8464 Y-55.6632 F60.00
G01 X25.8618 Y-55.6470 F60.00
G01 X25.8871 Y-55.6179 F60.00
G01 X25.9092 Y-55.6000 F60.00
G01 X25.9146 Y-55.5950 F60.00
G01 X26.0762 Y-55.4334 F60.00
G01 X26.0808 Y-55.4285 F60.00
G01 X26.0864 Y-55.4214 F60.00
G01 X26.1157 Y-55.3774 F60.00
G01 X26.1202 Y-55.3695 F60.00
G01 X26.1238 Y-55.3613 F60.00
G01 X26.1261 Y-55.3549 F60.00
G01 X26.1282 Y-55.3461 F60.00
G01 X26.1381 Y-55.2964 F60.00
G01 X26.1393 Y-55.2852 F60.00
G01 X26.1394 Y-49.0306 F60.00
G01 X26.1392 Y-49.0232 F60.00
G01 X26.1362 Y-48.9950 F60.00
G01 X26.1389 Y-48.9566 F60.00
G01 X26.1394 Y-48.9343 F60.00
G01 X26.1421 Y-48.9121 F60.00
G01 X26.1448 Y-48.8737 F60.00
G01 X26.1511 Y-48.8491 F60.00
G01 X26.1684 Y-48.8110 F60.00
G01 X26.1730 Y-48.7998 F60.00
G01 X26.1865 Y-48.7637 F60.00
G01 X26.1994 Y-48.7419 F60.00
G01 X26.2246 Y-48.7128 F60.00
G01 X26.2384 Y-48.6952 F60.00
G01 X26.2538 Y-48.6791 F60.00
G01 X26.2791 Y-48.6500 F60.00
G01 X26.3012 Y-48.6321 F60.00
G01 X26.3066 Y-48.6271 F60.00
G01 X26.7781 Y-48.1556 F60.00
G01 X26.7847 Y-48.1483 F60.00
G01 X26.8057 Y-48.1217 F60.00
G01 X26.8217 Y-48.0967 F60.00
G01 X26.8260 Y-48.0883 F60.00
G01 X26.8324 Y-48.0780 F60.00
G01 X26.8372 Y-48.0675 F60.00
G01 X26.8406 Y-48.0564 F60.00
G01 X26.8523 Y-48.0026 F60.00
G01 X26.8538 Y-47.9940 F60.00
G01 X26.8544 Y-47.9853 F60.00
G01 X26.8544 Y-47.9027 F60.00
G01 X26.8659 Y-47.8305 F60.00
G01 X26.9103 Y-47.7434 F60.00
G01 X26.9794 Y-47.6743 F60.00
G01 X27.0665 Y-47.6299 F60.00
G01 X27.1387 Y-47.6185 F60.00
G01 X27.2635 Y-47.6185 F60.00
G01 X27.2744 Y-47.6178 F60.00
G01 X27.2873 Y-47.6153 F60.00
G01 X27.3515 Y-47.5981 F60.00
G01 X27.3602 Y-47.5951 F60.00
G01 X27.3705 Y-47.5901 F60.00
G01 X27.3782 Y-47.5852 F60.00
G01 X27.3855 Y-47.5796 F60.00
G01 X27.4375 Y-47.5279 F60.00
G01 X27.4435 Y-47.5209 F60.00
G01 X27.4475 Y-47.5153 F60.00
G01 X27.4511 Y-47.5095 F60.00
G01 X27.4542 Y-47.5034 F60.00
G01 X27.4569 Y-47.4970 F60.00
G01 X27.4591 Y-47.4905 F60.00
G01 X27.4769 Y-47.4242 F60.00
G01 X27.4785 Y-47.4156 F60.00
G01 X27.4793 Y-47.4069 F60.00
G01 X27.4794 Y-46.8957 F60.00
G01 X27.4790 Y-46.8863 F60.00
G01 X27.4775 Y-46.8769 F60.00
G01 X27.4633 Y-46.8169 F60.00
G01 X27.4590 Y-46.8042 F60.00
G01 X27.4528 Y-46.7922 F60.00
G01 X27.4449 Y-46.7813 F60.00
G01 X27.4084 Y-46.7375 F60.00
G01 X27.4019 Y-46.7306 F60.00
G01 X27.3929 Y-46.7229 F60.00
G01 X27.3421 Y-46.6849 F60.00
G01 X27.2717 Y-46.5908 F60.00
G01 X27.2301 Y-46.4792 F60.00
G01 X27.2254 Y-46.4359 F60.00
G01 X27.2254 Y-45.9267 F60.00
G01 X27.2250 Y-45.9177 F60.00
G01 X27.2237 Y-45.9087 F60.00
G01 X27.2138 Y-45.8591 F60.00
G01 X27.2114 Y-45.8504 F60.00
G01 X27.2090 Y-45.8440 F60.00
G01 X27.2062 Y-45.8379 F60.00
G01 X27.2017 Y-45.8300 F60.00
G01 X27.1736 Y-45.7879 F60.00
G01 X27.1668 Y-45.7789 F60.00
G01 X25.4280 Y-44.0398 F60.00
G01 X25.4213 Y-44.0337 F60.00
G01 X25.4141 Y-44.0284 F60.00
G01 X25.3720 Y-44.0003 F60.00
G01 X25.3661 Y-43.9968 F60.00
G01 X25.3580 Y-43.9930 F60.00
G01 X25.3495 Y-43.9899 F60.00
G01 X25.3429 Y-43.9882 F60.00
G01 X25.2866 Y-43.9772 F60.00
G01 X25.2753 Y-43.9766 F60.00
G01 X24.9734 Y-43.9766 F60.00
G01 X24.9271 Y-43.9674 F60.00
G01 X24.8747 Y-43.9323 F60.00
G01 X24.8396 Y-43.8799 F60.00
G01 X24.8304 Y-43.8336 F60.00
G01 X24.8304 Y-42.2024 F60.00
G01 X24.8437 Y-42.1347 F60.00
G01 X24.8443 Y-42.1257 F60.00
G01 X24.8453 Y-42.0765 F60.00
G01 X24.8440 Y-42.0653 F60.00
G01 X24.8421 Y-42.0565 F60.00
G01 X24.8260 Y-42.0078 F60.00
G01 X24.8214 Y-41.9977 F60.00
G01 X24.7955 Y-41.9494 F60.00
G01 X24.7436 Y-41.7781 F60.00
G01 X24.7261 Y-41.6000 F60.00
G01 X24.7436 Y-41.4219 F60.00
G01 X24.7955 Y-41.2506 F60.00
G01 X24.8799 Y-41.0928 F60.00
G01 X24.9934 Y-40.9544 F60.00
G01 X25.1318 Y-40.8409 F60.00
G01 X25.2896 Y-40.7565 F60.00
G01 X25.4609 Y-40.7046 F60.00
G01 X25.6390 Y-40.6871 F60.00
G01 X25.8171 Y-40.7046 F60.00
G01 X25.9884 Y-40.7565 F60.00
G01 X26.1462 Y-40.8409 F60.00
G01 X26.2846 Y-40.9544 F60.00
G01 X26.3981 Y-41.0928 F60.00
G01 X26.4825 Y-41.2506 F60.00
G01 X26.5344 Y-41.4219 F60.00
G01 X26.5519 Y-41.6000 F60.00
G01 X26.5344 Y-41.7781 F60.00
G01 X26.4825 Y-41.9494 F60.00
G01 X26.4568 Y-41.9974 F60.00
G01 X26.4521 Y-42.0077 F60.00
G01 X26.4359 Y-42.0565 F60.00
G01 X26.4336 Y-42.0675 F60.00
G01 X26.4326 Y-42.0788 F60.00
G01 X26.4337 Y-42.1257 F60.00
G01 X26.4343 Y-42.1347 F60.00
G01 X26.4476 Y-42.2024 F60.00
G01 X26.4476 Y-43.8166 F60.00
G01 X26.4489 Y-43.8300 F60.00
G01 X26.4597 Y-43.8841 F60.00
G01 X26.4640 Y-43.8970 F60.00
G01 X26.4678 Y-43.9051 F60.00
G01 X26.4713 Y-43.9110 F60.00
G01 X26.5006 Y-43.9550 F60.00
G01 X26.5047 Y-43.9603 F60.00
G01 X26.5108 Y-43.9670 F60.00
G01 X27.5150 Y-44.9712 F60.00
G01 X27.5217 Y-44.9773 F60.00
G01 X27.5270 Y-44.9814 F60.00
G01 X27.5691 Y-45.0095 F60.00
G01 X27.5749 Y-45.0131 F60.00
G01 X27.5830 Y-45.0171 F60.00
G01 X27.5957 Y-45.0217 F60.00
G01 X27.6497 Y-45.0327 F60.00
G01 X27.6632 Y-45.0343 F60.00
G01 X28.1769 Y-45.0344 F60.00
G01 X28.2202 Y-45.0391 F60.00
G01 X28.3318 Y-45.0807 F60.00
G01 X28.4259 Y-45.1511 F60.00
G01 X28.4963 Y-45.2452 F60.00
G01 X28.5379 Y-45.3568 F60.00
G01 X28.5425 Y-45.4001 F60.00
G01 X28.5426 Y-46.4359 F60.00
G01 X28.5379 Y-46.4792 F60.00
G01 X28.4963 Y-46.5908 F60.00
G01 X28.4259 Y-46.6849 F60.00
G01 X28.3831 Y-46.7169 F60.00
G01 X28.3741 Y-46.7246 F60.00
G01 X28.3676 Y-46.7315 F60.00
G01 X28.3269 Y-46.7806 F60.00
G01 X28.3221 Y-46.7882 F60.00
G01 X28.3189 Y-46.7941 F60.00
G01 X28.3139 Y-46.8066 F60.00
G01 X28.2980 Y-46.8733 F60.00
G01 X28.2970 Y-46.8803 F60.00
G01 X28.2966 Y-46.8898 F60.00
G01 X28.2967 Y-47.4069 F60.00
G01 X28.2975 Y-47.4156 F60.00
G01 X28.2991 Y-47.4242 F60.00
G01 X28.3176 Y-47.4927 F60.00
G01 X28.3208 Y-47.5013 F60.00
G01 X28.3249 Y-47.5095 F60.00
G01 X28.3298 Y-47.5172 F60.00
G01 X28.3339 Y-47.5227 F60.00
G01 X28.3401 Y-47.5295 F60.00
G01 X28.3855 Y-47.5749 F60.00
G01 X28.3923 Y-47.5811 F60.00
G01 X28.3997 Y-47.5865 F60.00
G01 X28.4075 Y-47.5912 F60.00
G01 X28.4158 Y-47.5951 F60.00
G01 X28.4245 Y-47.5981 F60.00
G01 X28.4887 Y-47.6153 F60.00
G01 X28.5016 Y-47.6178 F60.00
G01 X28.5125 Y-47.6184 F60.00
G01 X28.6373 Y-47.6184 F60.00
G01 X28.7095 Y-47.6299 F60.00
G01 X28.7410 Y-47.6459 F60.00
G01 X28.7530 Y-47.6507 F60.00
G01 X28.8156 Y-47.6659 F60.00
G01 X28.8284 Y-47.6680 F60.00
G01 X28.8371 Y-47.6684 F60.00
G01 X29.8439 Y-47.6684 F60.00
G01 X29.8512 Y-47.6682 F60.00
G01 X29.8795 Y-47.6652 F60.00
G01 X29.9179 Y-47.6679 F60.00
G01 X29.9402 Y-47.6684 F60.00
G01 X29.9624 Y-47.6711 F60.00
G01 X30.0008 Y-47.6738 F60.00
G01 X30.0254 Y-47.6801 F60.00
G01 X30.0604 Y-47.6961 F60.00
G01 X30.0716 Y-47.7008 F60.00
G01 X30.1381 Y-47.7256 F60.00
G01 X30.1494 Y-47.7287 F60.00
G01 X30.1997 Y-47.7377 F60.00
G01 X30.2114 Y-47.7384 F60.00
G01 X30.7489 Y-47.7384 F60.00
G01 X30.7922 Y-47.7431 F60.00
G01 X30.9038 Y-47.7847 F60.00
G01 X30.9979 Y-47.8551 F60.00
G01 X31.0683 Y-47.9492 F60.00
G01 X31.1099 Y-48.0608 F60.00
G01 X31.1145 Y-48.1041 F60.00
G01 X31.1146 Y-48.6899 F60.00
G01 X31.1131 Y-48.7056 F60.00
G01 X31.1136 Y-48.7190 F60.00
G01 X31.1251 Y-48.7904 F60.00
G01 X31.1278 Y-48.8013 F60.00
G01 X31.1319 Y-48.8117 F60.00
G01 X31.1371 Y-48.8216 F60.00
G01 X31.1435 Y-48.8307 F60.00
G01 X31.1870 Y-48.8828 F60.00
G01 X31.1931 Y-48.8894 F60.00
G01 X31.1998 Y-48.8953 F60.00
G01 X31.2051 Y-48.8994 F60.00
G01 X31.2127 Y-48.9041 F60.00
G01 X31.2207 Y-48.9081 F60.00
G01 X31.2931 Y-48.9338 F60.00
G01 X31.3018 Y-48.9359 F60.00
G01 X31.3106 Y-48.9372 F60.00
G01 X31.3232 Y-48.9381 F60.00
G01 X31.3422 Y-48.9384 F60.00
G01 X31.3644 Y-48.9411 F60.00
G01 X31.4028 Y-48.9438 F60.00
G01 X31.4274 Y-48.9501 F60.00
G01 X31.4624 Y-48.9661 F60.00
G01 X31.4736 Y-48.9708 F60.00
G01 X31.5128 Y-48.9855 F60.00
G01 X31.5346 Y-48.9984 F60.00
G01 X31.5637 Y-49.0236 F60.00
G01 X31.5812 Y-49.0374 F60.00
G01 X31.5974 Y-49.0528 F60.00
G01 X31.6265 Y-49.0781 F60.00
G01 X31.6476 Y-49.1038 F60.00
G01 X31.7060 Y-49.1622 F60.00
G01 X31.7127 Y-49.1683 F60.00
G01 X31.7199 Y-49.1736 F60.00
G01 X31.7640 Y-49.2029 F60.00
G01 X31.7760 Y-49.2090 F60.00
G01 X31.7867 Y-49.2127 F60.00
G01 X31.8430 Y-49.2241 F60.00
G01 X31.8564 Y-49.2254 F60.00
G01 X32.3679 Y-49.2254 F60.00
G01 X32.4112 Y-49.2301 F60.00
G01 X32.5228 Y-49.2717 F60.00
G01 X32.6169 Y-49.3421 F60.00
G01 X32.6873 Y-49.4362 F60.00
G01 X32.7289 Y-49.5478 F60.00
G01 X32.7335 Y-49.5911 F60.00
G01 X32.7336 Y-50.6269 F60.00
G01 X32.7289 Y-50.6702 F60.00
G01 X32.6873 Y-50.7818 F60.00
G01 X32.6169 Y-50.8759 F60.00
G01 X32.5228 Y-50.9463 F60.00
G01 X32.4112 Y-50.9879 F60.00
G01 X32.3679 Y-50.9925 F60.00
G01 X31.7821 Y-50.9926 F60.00
G01 X31.7388 Y-50.9879 F60.00
G01 X31.6272 Y-50.9463 F60.00
G01 X31.5331 Y-50.8759 F60.00
G01 X31.4627 Y-50.7818 F60.00
G01 X31.4580 Y-50.7697 F60.00
G01 X31.4515 Y-50.7580 F60.00
G01 X31.4093 Y-50.6993 F60.00
G01 X31.4035 Y-50.6924 F60.00
G01 X31.3971 Y-50.6862 F60.00
G01 X31.3902 Y-50.6805 F60.00
G01 X31.3827 Y-50.6756 F60.00
G01 X31.3727 Y-50.6706 F60.00
G01 X31.3105 Y-50.6435 F60.00
G01 X31.2999 Y-50.6399 F60.00
G01 X31.2867 Y-50.6374 F60.00
G01 X31.2756 Y-50.6367 F60.00
G01 X31.2644 Y-50.6374 F60.00
G01 X31.1971 Y-50.6459 F60.00
G01 X31.1883 Y-50.6477 F60.00
G01 X31.1797 Y-50.6503 F60.00
G01 X31.1695 Y-50.6547 F60.00
G01 X31.1580 Y-50.6616 F60.00
G01 X31.1025 Y-50.7045 F60.00
G01 X31.0957 Y-50.7103 F60.00
G01 X31.0910 Y-50.7151 F60.00
G01 X31.0853 Y-50.7220 F60.00
G01 X30.9979 Y-50.8389 F60.00
G01 X30.9038 Y-50.9093 F60.00
G01 X30.7800 Y-50.9554 F60.00
G01 X30.7715 Y-50.9591 F60.00
G01 X30.7634 Y-50.9636 F60.00
G01 X30.7173 Y-50.9926 F60.00
G01 X30.7082 Y-50.9999 F60.00
G01 X30.7001 Y-51.0082 F60.00
G01 X30.6944 Y-51.0156 F60.00
G01 X30.6634 Y-51.0604 F60.00
G01 X30.6600 Y-51.0665 F60.00
G01 X30.6570 Y-51.0728 F60.00
G01 X30.6545 Y-51.0793 F60.00
G01 X30.6525 Y-51.0859 F60.00
G01 X30.6414 Y-51.1393 F60.00
G01 X30.6398 Y-51.1508 F60.00
G01 X30.6397 Y-51.1898 F60.00
G01 X30.6428 Y-51.2205 F60.00
G01 X30.6401 Y-51.2589 F60.00
G01 X30.6396 Y-51.2812 F60.00
G01 X30.6369 Y-51.3034 F60.00
G01 X30.6342 Y-51.3418 F60.00
G01 X30.6279 Y-51.3664 F60.00
G01 X30.6119 Y-51.4014 F60.00
G01 X30.6072 Y-51.4126 F60.00
G01 X30.5925 Y-51.4518 F60.00
G01 X30.5796 Y-51.4736 F60.00
G01 X30.5544 Y-51.5027 F60.00
G01 X30.5406 Y-51.5202 F60.00
G01 X30.5252 Y-51.5364 F60.00
G01 X30.4999 Y-51.5655 F60.00
G01 X30.4778 Y-51.5834 F60.00
G01 X30.4724 Y-51.5884 F60.00
G01 X29.9324 Y-52.1284 F60.00
G01 X29.9274 Y-52.1338 F60.00
G01 X29.9095 Y-52.1559 F60.00
G01 X29.8804 Y-52.1812 F60.00
G01 X29.8642 Y-52.1966 F60.00
G01 X29.8467 Y-52.2104 F60.00
G01 X29.8176 Y-52.2356 F60.00
G01 X29.7958 Y-52.2485 F60.00
G01 X29.7597 Y-52.2620 F60.00
G01 X29.7485 Y-52.2666 F60.00
G01 X29.7104 Y-52.2839 F60.00
G01 X29.6858 Y-52.2902 F60.00
G01 X29.6474 Y-52.2929 F60.00
G01 X29.6252 Y-52.2956 F60.00
G01 X29.6029 Y-52.2961 F60.00
G01 X29.5645 Y-52.2988 F60.00
G01 X29.5362 Y-52.2958 F60.00
G01 X29.5289 Y-52.2956 F60.00
G01 X28.8371 Y-52.2956 F60.00
G01 X28.8241 Y-52.2965 F60.00
G01 X28.8156 Y-52.2981 F60.00
G01 X28.7530 Y-52.3133 F60.00
G01 X28.7410 Y-52.3181 F60.00
G01 X28.7095 Y-52.3341 F60.00
G01 X28.6373 Y-52.3455 F60.00
G01 X28.5125 Y-52.3455 F60.00
G01 X28.5016 Y-52.3462 F60.00
G01 X28.4887 Y-52.3487 F60.00
G01 X28.4223 Y-52.3666 F60.00
G01 X28.4116 Y-52.3708 F60.00
G01 X28.4035 Y-52.3751 F60.00
G01 X28.3959 Y-52.3801 F60.00
G01 X28.3888 Y-52.3859 F60.00
G01 X28.3385 Y-52.4361 F60.00
G01 X28.3311 Y-52.4449 F60.00
G01 X28.3249 Y-52.4545 F60.00
G01 X28.3199 Y-52.4648 F60.00
G01 X28.3163 Y-52.4757 F60.00
G01 X28.2991 Y-52.5398 F60.00
G01 X28.2975 Y-52.5484 F60.00
G01 X28.2966 Y-52.5593 F60.00
G01 X28.2967 Y-52.8250 F60.00
G01 X28.2973 Y-52.8321 F60.00
G01 X28.2985 Y-52.8391 F60.00
G01 X28.3127 Y-52.8991 F60.00
G01 X28.3162 Y-52.9097 F60.00
G01 X28.3199 Y-52.9179 F60.00
G01 X28.3244 Y-52.9257 F60.00
G01 X28.3311 Y-52.9347 F60.00
G01 X28.3676 Y-52.9785 F60.00
G01 X28.3741 Y-52.9854 F60.00
G01 X28.3831 Y-52.9931 F60.00
G01 X28.4259 Y-53.0251 F60.00
G01 X28.4963 Y-53.1192 F60.00
G01 X28.5379 Y-53.2308 F60.00
G01 X28.5425 Y-53.2741 F60.00
G01 X28.5426 Y-54.3099 F60.00
G01 X28.5379 Y-54.3532 F60.00
G01 X28.4963 Y-54.4648 F60.00
G01 X28.4259 Y-54.5589 F60.00
G01 X28.3131 Y-54.6433 F60.00
G01 X28.3076 Y-54.6478 F60.00
G01 X28.2992 Y-54.6561 F60.00
G01 X28.2596 Y-54.7034 F60.00
G01 X28.2556 Y-54.7089 F60.00
G01 X28.2510 Y-54.7165 F60.00
G01 X28.2470 Y-54.7246 F60.00
G01 X28.2446 Y-54.7309 F60.00
G01 X28.2421 Y-54.7395 F60.00
G01 X28.2285 Y-54.7973 F60.00
G01 X28.2270 Y-54.8067 F60.00
G01 X28.2266 Y-54.8162 F60.00
G01 X28.2266 Y-55.7569 F60.00
G01 X28.2268 Y-55.7642 F60.00
G01 X28.2298 Y-55.7925 F60.00
G01 X28.2271 Y-55.8309 F60.00
G01 X28.2266 Y-55.8532 F60.00
G01 X28.2239 Y-55.8754 F60.00
G01 X28.2212 Y-55.9138 F60.00
G01 X28.2149 Y-55.9384 F60.00
G01 X28.1989 Y-55.9734 F60.00
G01 X28.1942 Y-55.9846 F60.00
G01 X28.1795 Y-56.0238 F60.00
G01 X28.1666 Y-56.0456 F60.00
G01 X28.1414 Y-56.0747 F60.00
G01 X28.1276 Y-56.0922 F60.00
G01 X28.1122 Y-56.1084 F60.00
G01 X28.0869 Y-56.1375 F60.00
G01 X28.0648 Y-56.1554 F60.00
G01 X28.0594 Y-56.1604 F60.00
G01 X27.7262 Y-56.4936 F60.00
G01 X27.7203 Y-56.5004 F60.00
G01 X27.7164 Y-56.5059 F60.00
G01 X27.6895 Y-56.5461 F60.00
G01 X27.6838 Y-56.5559 F60.00
G01 X27.6794 Y-56.5662 F60.00
G01 X27.6762 Y-56.5771 F60.00
G01 X27.6659 Y-56.6290 F60.00
G01 X27.6647 Y-56.6402 F60.00
G01 X27.6646 Y-57.0016 F60.00
G01 X27.6602 Y-57.0418 F60.00
G01 X27.6211 Y-57.1467 F60.00
G01 X27.5550 Y-57.2350 F60.00
G01 X27.4667 Y-57.3011 F60.00
G01 X27.3618 Y-57.3402 F60.00
G01 X27.3216 Y-57.3445 F60.00
G01 X26.8773 Y-57.3447 F60.00
G01 X26.8709 Y-57.3452 F60.00
G01 X26.8623 Y-57.3466 F60.00
G01 X26.8039 Y-57.3606 F60.00
G01 X26.7952 Y-57.3632 F60.00
G01 X26.7888 Y-57.3657 F60.00
G01 X26.7806 Y-57.3697 F60.00
G01 X26.7729 Y-57.3745 F60.00
G01 X26.7674 Y-57.3786 F60.00
G01 X26.7199 Y-57.4192 F60.00
G01 X26.7134 Y-57.4256 F60.00
G01 X26.7076 Y-57.4326 F60.00
G01 X26.7026 Y-57.4402 F60.00
G01 X26.6973 Y-57.4503 F60.00
G01 X26.6743 Y-57.5059 F60.00
G01 X26.6719 Y-57.5123 F60.00
G01 X26.6700 Y-57.5189 F60.00
G01 X26.6686 Y-57.5256 F60.00
G01 X26.6677 Y-57.5324 F60.00
G01 X26.6673 Y-57.5392 F60.00
G01 X26.6674 Y-57.5460 F60.00
G01 X26.6723 Y-57.6083 F60.00
G01 X26.6742 Y-57.6195 F60.00
G01 X26.6767 Y-57.6283 F60.00
G01 X26.6810 Y-57.6389 F60.00
G01 X26.6853 Y-57.6469 F60.00
G01 X26.7167 Y-57.6981 F60.00
G01 X26.7205 Y-57.7034 F60.00
G01 X26.7260 Y-57.7101 F60.00
G01 X27.6700 Y-58.6542 F60.00
G01 X27.6749 Y-58.6588 F60.00
G01 X27.6820 Y-58.6644 F60.00
G01 X27.7241 Y-58.6925 F60.00
G01 X27.7319 Y-58.6972 F60.00
G01 X27.7421 Y-58.7018 F60.00
G01 X27.7551 Y-58.7058 F60.00
G01 X27.8047 Y-58.7157 F60.00
G01 X27.8137 Y-58.7170 F60.00
G01 X27.8227 Y-58.7174 F60.00
G01 X33.8055 Y-58.7174 F60.00
G01 X33.8141 Y-58.7168 F60.00
G01 X33.8227 Y-58.7154 F60.00
G01 X33.8811 Y-58.7014 F60.00
G01 X33.8920 Y-58.6981 F60.00
G01 X33.9024 Y-58.6934 F60.00
G01 X33.9102 Y-58.6888 F60.00
G01 X33.9176 Y-58.6834 F60.00
G01 X33.9651 Y-58.6428 F60.00
G01 X33.9700 Y-58.6380 F60.00
G01 X33.9745 Y-58.6329 F60.00
G01 X33.9812 Y-58.6237 F60.00
G01 X33.9847 Y-58.6178 F60.00
G01 X33.9877 Y-58.6117 F60.00
G01 X34.0116 Y-58.5540 F60.00
G01 X34.0150 Y-58.5431 F60.00
G01 X34.0171 Y-58.5319 F60.00
G01 X34.0177 Y-58.5228 F60.00
G01 X34.0176 Y-58.5160 F60.00
G01 X34.0127 Y-58.4537 F60.00
G01 X34.0118 Y-58.4469 F60.00
G01 X34.0103 Y-58.4402 F60.00
G01 X34.0083 Y-58.4337 F60.00
G01 X34.0059 Y-58.4273 F60.00
G01 X34.0008 Y-58.4171 F60.00
G01 X33.9694 Y-58.3658 F60.00
G01 X33.9658 Y-58.3604 F60.00
G01 X33.9605 Y-58.3536 F60.00
G01 X33.8638 Y-58.2566 F60.00
G01 X33.8381 Y-58.2355 F60.00
G01 X33.8128 Y-58.2064 F60.00
G01 X33.7974 Y-58.1902 F60.00
G01 X33.7836 Y-58.1727 F60.00
G01 X33.7584 Y-58.1436 F60.00
G01 X33.7455 Y-58.1218 F60.00
G01 X33.7308 Y-58.0826 F60.00
G01 X33.7261 Y-58.0714 F60.00
G01 X33.7101 Y-58.0364 F60.00
G01 X33.7038 Y-58.0118 F60.00
G01 X33.7011 Y-57.9734 F60.00
G01 X33.6984 Y-57.9512 F60.00
G01 X33.6979 Y-57.9289 F60.00
G01 X33.6952 Y-57.8905 F60.00
G01 X33.6982 Y-57.8622 F60.00
G01 X33.6984 Y-57.8549 F60.00
G01 X33.6984 Y-53.6982 F60.00
G01 X33.6977 Y-53.6866 F60.00
G01 X33.6861 Y-53.6287 F60.00
G01 X33.6835 Y-53.6197 F60.00
G01 X33.6810 Y-53.6132 F60.00
G01 X33.6769 Y-53.6049 F60.00
G01 X33.6733 Y-53.5989 F60.00
G01 X33.6436 Y-53.5560 F60.00
G01 X33.6364 Y-53.5469 F60.00
G01 X33.6281 Y-53.5388 F60.00
G01 X33.6207 Y-53.5331 F60.00
G01 X33.5727 Y-53.5029 F60.00
G01 X33.5667 Y-53.4997 F60.00
G01 X33.5605 Y-53.4969 F60.00
G01 X33.5322 Y-53.4863 F60.00
G01 X33.4381 Y-53.4159 F60.00
G01 X33.3677 Y-53.3218 F60.00
G01 X33.3261 Y-53.2102 F60.00
G01 X33.3214 Y-53.1669 F60.00
G01 X33.3214 Y-52.1311 F60.00
G01 X33.3261 Y-52.0878 F60.00
G01 X33.3677 Y-51.9762 F60.00
G01 X33.4381 Y-51.8821 F60.00
G01 X33.4799 Y-51.8509 F60.00
G01 X33.4889 Y-51.8432 F60.00
G01 X33.4954 Y-51.8362 F60.00
G01 X33.5319 Y-51.7925 F60.00
G01 X33.5386 Y-51.7834 F60.00
G01 X33.5441 Y-51.7736 F60.00
G01 X33.5484 Y-51.7633 F60.00
G01 X33.5509 Y-51.7546 F60.00
G01 X33.5645 Y-51.6968 F60.00
G01 X33.5660 Y-51.6875 F60.00
G01 X33.5664 Y-51.6804 F60.00
G01 X33.5664 Y-51.0838 F60.00
G01 X33.5660 Y-51.0743 F60.00
G01 X33.5645 Y-51.0649 F60.00
G01 X33.5503 Y-51.0049 F60.00
G01 X33.5460 Y-50.9922 F60.00
G01 X33.5409 Y-50.9821 F60.00
G01 X33.5361 Y-50.9746 F60.00
G01 X33.5319 Y-50.9693 F60.00
G01 X33.4954 Y-50.9255 F60.00
G01 X33.4889 Y-50.9186 F60.00
G01 X33.4799 Y-50.9109 F60.00
G01 X33.4331 Y-50.8759 F60.00
G01 X33.3627 Y-50.7818 F60.00
G01 X33.3211 Y-50.6702 F60.00
G01 X33.3164 Y-50.6269 F60.00
G01 X33.3164 Y-49.5911 F60.00
G01 X33.3211 Y-49.5478 F60.00
G01 X33.3627 Y-49.4362 F60.00
G01 X33.4331 Y-49.3421 F60.00
G01 X33.5272 Y-49.2717 F60.00
G01 X33.6388 Y-49.2301 F60.00
G01 X33.6821 Y-49.2254 F60.00
G01 X34.2679 Y-49.2254 F60.00
G01 X34.3112 Y-49.2301 F60.00
G01 X34.4228 Y-49.2717 F60.00
G01 X34.5169 Y-49.3421 F60.00
G01 X34.5873 Y-49.4362 F60.00
G01 X34.6289 Y-49.5478 F60.00
G01 X34.6335 Y-49.5911 F60.00
G01 X34.6336 Y-50.6269 F60.00
G01 X34.6289 Y-50.6702 F60.00
G01 X34.5873 Y-50.7818 F60.00
G01 X34.5169 Y-50.8759 F60.00
G01 X34.4701 Y-50.9109 F60.00
G01 X34.4628 Y-50.9169 F60.00
G01 X34.4546 Y-50.9255 F60.00
G01 X34.4181 Y-50.9693 F60.00
G01 X34.4114 Y-50.9783 F60.00
G01 X34.4069 Y-50.9861 F60.00
G01 X34.4024 Y-50.9964 F60.00
G01 X34.3991 Y-51.0071 F60.00
G01 X34.3855 Y-51.0649 F60.00
G01 X34.3840 Y-51.0743 F60.00
G01 X34.3836 Y-51.0814 F60.00
G01 X34.3836 Y-51.6705 F60.00
G01 X34.3840 Y-51.6800 F60.00
G01 X34.3855 Y-51.6893 F60.00
G01 X34.3997 Y-51.7493 F60.00
G01 X34.4016 Y-51.7558 F60.00
G01 X34.4049 Y-51.7641 F60.00
G01 X34.4080 Y-51.7702 F60.00
G01 X34.4126 Y-51.7778 F60.00
G01 X34.4181 Y-51.7850 F60.00
G01 X34.4546 Y-51.8287 F60.00
G01 X34.4611 Y-51.8357 F60.00
G01 X34.4701 Y-51.8434 F60.00
G01 X34.5219 Y-51.8821 F60.00
G01 X34.5923 Y-51.9762 F60.00
G01 X34.6339 Y-52.0878 F60.00
G01 X34.6385 Y-52.1311 F60.00
G01 X34.6386 Y-53.1669 F60.00
G01 X34.6339 Y-53.2102 F60.00
G01 X34.5923 Y-53.3218 F60.00
G01 X34.5546 Y-53.3725 F60.00
G01 X34.5511 Y-53.3786 F60.00
G01 X34.5324 Y-53.4144 F60.00
G01 X34.5277 Y-53.4248 F60.00
G01 X34.5256 Y-53.4312 F60.00
G01 X34.5235 Y-53.4401 F60.00
G01 X34.5164 Y-53.4835 F60.00
G01 X34.5156 Y-53.4941 F60.00
G01 X34.5156 Y-57.6633 F60.00
G01 X34.5160 Y-57.6723 F60.00
G01 X34.5173 Y-57.6813 F60.00
G01 X34.5272 Y-57.7309 F60.00
G01 X34.5312 Y-57.7439 F60.00
G01 X34.5348 Y-57.7521 F60.00
G01 X34.5393 Y-57.7600 F60.00
G01 X34.5713 Y-57.8076 F60.00
G01 X34.5788 Y-57.8160 F60.00
G01 X34.6160 Y-57.8532 F60.00
G01 X34.6262 Y-57.8620 F60.00
G01 X34.6759 Y-57.8951 F60.00
G01 X34.6860 Y-57.9000 F60.00
G01 X34.6989 Y-57.9043 F60.00
G01 X34.7530 Y-57.9151 F60.00
G01 X34.7597 Y-57.9160 F60.00
G01 X34.7687 Y-57.9164 F60.00
G01 X54.1449 Y-57.9164 F60.00
G01 X54.1727 Y-57.9295 F60.00
G01 X54.2139 Y-57.9444 F60.00
G01 X54.2225 Y-57.9470 F60.00
G01 X54.2628 Y-57.9570 F60.00
G01 X54.3128 Y-57.9646 F60.00
G01 X54.3610 Y-57.9669 F60.00
G01 X54.4092 Y-57.9646 F60.00
G01 X54.4592 Y-57.9570 F60.00
G01 X54.4995 Y-57.9470 F60.00
G01 X54.5081 Y-57.9444 F60.00
G01 X54.5493 Y-57.9295 F60.00
G01 X54.5771 Y-57.9164 F60.00
G01 X69.1273 Y-57.9164 F60.00
G01 X69.1363 Y-57.9160 F60.00
G01 X69.1453 Y-57.9147 F60.00
G01 X69.1949 Y-57.9048 F60.00
G01 X69.2079 Y-57.9008 F60.00
G01 X69.2161 Y-57.8972 F60.00
G01 X69.2240 Y-57.8927 F60.00
G01 X69.2680 Y-57.8634 F60.00
G01 X69.2733 Y-57.8593 F60.00
G01 X69.2800 Y-57.8532 F60.00
G01 X71.4168 Y-55.7164 F60.00
G01 X71.4254 Y-55.7060 F60.00
G01 X71.4535 Y-55.6639 F60.00
G01 X71.4582 Y-55.6561 F60.00
G01 X71.4620 Y-55.6480 F60.00
G01 X71.4651 Y-55.6395 F60.00
G01 X71.4668 Y-55.6329 F60.00
G01 X71.4767 Y-55.5833 F60.00
G01 X71.4782 Y-55.5721 F60.00
G01 X71.4784 Y-29.1831 F60.00
G01 X71.4782 Y-29.1758 F60.00
G01 X71.4752 Y-29.1475 F60.00
G01 X71.4779 Y-29.1091 F60.00
G01 X71.4784 Y-29.0868 F60.00
G01 X71.4811 Y-29.0646 F60.00
G01 X71.4838 Y-29.0262 F60.00
G01 X71.4901 Y-29.0016 F60.00
G01 X71.5074 Y-28.9635 F60.00
G01 X71.5120 Y-28.9523 F60.00
G01 X71.5255 Y-28.9162 F60.00
G01 X71.5384 Y-28.8944 F60.00
G01 X71.5636 Y-28.8653 F60.00
G01 X71.5774 Y-28.8478 F60.00
G01 X71.5928 Y-28.8316 F60.00
G01 X71.6181 Y-28.8025 F60.00
G01 X71.6402 Y-28.7846 F60.00
G01 X71.6456 Y-28.7796 F60.00
G01 X72.9040 Y-27.5211 F60.00
G01 X72.9095 Y-27.5144 F60.00
G01 X72.9133 Y-27.5091 F60.00
G01 X72.9447 Y-27.4579 F60.00
G01 X72.9490 Y-27.4499 F60.00
G01 X72.9533 Y-27.4393 F60.00
G01 X72.9563 Y-27.4283 F60.00
G01 X72.9577 Y-27.4193 F60.00
G01 X72.9627 Y-27.3525 F60.00
G01 X72.9625 Y-27.3456 F60.00
G01 X72.9614 Y-27.3366 F60.00
G01 X72.9594 Y-27.3277 F60.00
G01 X72.9574 Y-27.3212 F60.00
G01 X72.9327 Y-27.2613 F60.00
G01 X72.9297 Y-27.2552 F60.00
G01 X72.9262 Y-27.2493 F60.00
G01 X72.9195 Y-27.2401 F60.00
G01 X72.9150 Y-27.2350 F60.00
G01 X72.9101 Y-27.2302 F60.00
G01 X72.8626 Y-27.1896 F60.00
G01 X72.8533 Y-27.1830 F60.00
G01 X72.8433 Y-27.1776 F60.00
G01 X72.8370 Y-27.1749 F60.00
G01 X72.8305 Y-27.1728 F60.00
G01 X72.7698 Y-27.1581 F60.00
G01 X72.7591 Y-27.1562 F60.00
G01 X72.7483 Y-27.1555 F60.00
G01 X72.6401 Y-27.1556 F60.00
G01 X72.5968 Y-27.1509 F60.00
G01 X72.4852 Y-27.1093 F60.00
G01 X72.3911 Y-27.0389 F60.00
G01 X72.3207 Y-26.9448 F60.00
G01 X72.2791 Y-26.8332 F60.00
G01 X72.2744 Y-26.7899 F60.00
G01 X72.2744 Y-25.7541 F60.00
G01 X72.2791 Y-25.7108 F60.00
G01 X72.3207 Y-25.5992 F60.00
G01 X72.3741 Y-25.5279 F60.00
G01 X72.3792 Y-25.5203 F60.00
G01 X72.3851 Y-25.5089 F60.00
G01 X72.4081 Y-25.4552 F60.00
G01 X72.4113 Y-25.4466 F60.00
G01 X72.4131 Y-25.4399 F60.00
G01 X72.4144 Y-25.4331 F60.00
G01 X72.4152 Y-25.4262 F60.00
G01 X72.4155 Y-25.4170 F60.00
G01 X72.4109 Y-25.3518 F60.00
G01 X72.4100 Y-25.3450 F60.00
G01 X72.4085 Y-25.3382 F60.00
G01 X72.4050 Y-25.3273 F60.00
G01 X72.4023 Y-25.3209 F60.00
G01 X72.3991 Y-25.3148 F60.00
G01 X72.3663 Y-25.2610 F60.00
G01 X72.3612 Y-25.2539 F60.00
G01 X72.3555 Y-25.2473 F60.00
G01 X71.8594 Y-24.7512 F60.00
G01 X71.8510 Y-24.7441 F60.00
G01 X71.8418 Y-24.7381 F60.00
G01 X71.7747 Y-24.7015 F60.00
G01 X71.7641 Y-24.6972 F60.00
G01 X71.7553 Y-24.6947 F60.00
G01 X71.7463 Y-24.6931 F60.00
G01 X71.7372 Y-24.6924 F60.00
G01 X71.7281 Y-24.6926 F60.00
G01 X71.6539 Y-24.6980 F60.00
G01 X71.6471 Y-24.6991 F60.00
G01 X71.6404 Y-24.7007 F60.00
G01 X71.6318 Y-24.7035 F60.00
G01 X71.6255 Y-24.7062 F60.00
G01 X71.6174 Y-24.7106 F60.00
G01 X71.6117 Y-24.7143 F60.00
G01 X71.5505 Y-24.7603 F60.00
G01 X71.5440 Y-24.7661 F60.00
G01 X71.5381 Y-24.7726 F60.00
G01 X71.5109 Y-24.8089 F60.00
G01 X71.4168 Y-24.8793 F60.00
G01 X71.3052 Y-24.9209 F60.00
G01 X71.2619 Y-24.9255 F60.00
G01 X70.2261 Y-24.9256 F60.00
G01 X70.1828 Y-24.9209 F60.00
G01 X70.0712 Y-24.8793 F60.00
G01 X69.9529 Y-24.7907 F60.00
G01 X69.9259 Y-24.7683 F60.00
G01 X69.9203 Y-24.7644 F60.00
G01 X69.9126 Y-24.7599 F60.00
G01 X69.9023 Y-24.7554 F60.00
G01 X69.8937 Y-24.7527 F60.00
G01 X69.8337 Y-24.7385 F60.00
G01 X69.8267 Y-24.7373 F60.00
G01 X69.8197 Y-24.7367 F60.00
G01 X69.1846 Y-24.7368 F60.00
G01 X69.1717 Y-24.7386 F60.00
G01 X69.1070 Y-24.7543 F60.00
G01 X69.0950 Y-24.7591 F60.00
G01 X69.0635 Y-24.7751 F60.00
G01 X68.9913 Y-24.7865 F60.00
G01 X67.7677 Y-24.7866 F60.00
G01 X67.6955 Y-24.7751 F60.00
G01 X67.6851 Y-24.7707 F60.00
G01 X67.6741 Y-24.7674 F60.00
G01 X67.6013 Y-24.7530 F60.00
G01 X67.5922 Y-24.7522 F60.00
G01 X67.5830 Y-24.7522 F60.00
G01 X67.5739 Y-24.7531 F60.00
G01 X67.5671 Y-24.7544 F60.00
G01 X67.5561 Y-24.7577 F60.00
G01 X67.4887 Y-24.7827 F60.00
G01 X67.4824 Y-24.7857 F60.00
G01 X67.4764 Y-24.7891 F60.00
G01 X67.4707 Y-24.7929 F60.00
G01 X67.4653 Y-24.7972 F60.00
G01 X67.4586 Y-24.8035 F60.00
G01 X67.4540 Y-24.8086 F60.00
G01 X67.4081 Y-24.8669 F60.00
G01 X67.4032 Y-24.8747 F60.00
G01 X67.3990 Y-24.8829 F60.00
G01 X67.3957 Y-24.8914 F60.00
G01 X67.3933 Y-24.9003 F60.00
G01 X67.3918 Y-24.9094 F60.00
G01 X67.3839 Y-24.9762 F60.00
G01 X67.3832 Y-24.9877 F60.00
G01 X67.3835 Y-24.9946 F60.00
G01 X67.3843 Y-25.0014 F60.00
G01 X67.4005 Y-25.1037 F60.00
G01 X67.4006 Y-25.4523 F60.00
G01 X67.3891 Y-25.5245 F60.00
G01 X67.3447 Y-25.6116 F60.00
G01 X67.2756 Y-25.6807 F60.00
G01 X67.1885 Y-25.7251 F60.00
G01 X67.1163 Y-25.7365 F60.00
G01 X65.8927 Y-25.7366 F60.00
G01 X65.8205 Y-25.7251 F60.00
G01 X65.7890 Y-25.7091 F60.00
G01 X65.7770 Y-25.7043 F60.00
G01 X65.7123 Y-25.6886 F60.00
G01 X65.6994 Y-25.6868 F60.00
G01 X65.2408 Y-25.6867 F60.00
G01 X65.2337 Y-25.6873 F60.00
G01 X65.2267 Y-25.6885 F60.00
G01 X65.1667 Y-25.7027 F60.00
G01 X65.1539 Y-25.7070 F60.00
G01 X65.1420 Y-25.7132 F60.00
G01 X65.1310 Y-25.7211 F60.00
G01 X65.0873 Y-25.7576 F60.00
G01 X65.0803 Y-25.7641 F60.00
G01 X65.0726 Y-25.7731 F60.00
G01 X65.0339 Y-25.8249 F60.00
G01 X64.9398 Y-25.8953 F60.00
G01 X64.8282 Y-25.9369 F60.00
G01 X64.7849 Y-25.9415 F60.00
G01 X63.7491 Y-25.9416 F60.00
G01 X63.7058 Y-25.9369 F60.00
G01 X63.5942 Y-25.8953 F60.00
G01 X63.5001 Y-25.8249 F60.00
G01 X63.4614 Y-25.7731 F60.00
G01 X63.4537 Y-25.7641 F60.00
G01 X63.4467 Y-25.7576 F60.00
G01 X63.3977 Y-25.7169 F60.00
G01 X63.3862 Y-25.7099 F60.00
G01 X63.3780 Y-25.7062 F60.00
G01 X63.3717 Y-25.7039 F60.00
G01 X63.3073 Y-25.6885 F60.00
G01 X63.2980 Y-25.6870 F60.00
G01 X63.2885 Y-25.6866 F60.00
G01 X62.6207 Y-25.6866 F60.00
G01 X62.6117 Y-25.6870 F60.00
G01 X62.6027 Y-25.6883 F60.00
G01 X62.5531 Y-25.6982 F60.00
G01 X62.5444 Y-25.7006 F60.00
G01 X62.5360 Y-25.7039 F60.00
G01 X62.5279 Y-25.7079 F60.00
G01 X62.5221 Y-25.7115 F60.00
G01 X62.4800 Y-25.7396 F60.00
G01 X62.4712 Y-25.7467 F60.00
G01 X61.7484 Y-26.4694 F60.00
G01 X61.7434 Y-26.4748 F60.00
G01 X61.7255 Y-26.4969 F60.00
G01 X61.6964 Y-26.5222 F60.00
G01 X61.6802 Y-26.5376 F60.00
G01 X61.6627 Y-26.5514 F60.00
G01 X61.6336 Y-26.5766 F60.00
G01 X61.6118 Y-26.5895 F60.00
G01 X61.5757 Y-26.6030 F60.00
G01 X61.5645 Y-26.6076 F60.00
G01 X61.5264 Y-26.6249 F60.00
G01 X61.5018 Y-26.6312 F60.00
G01 X61.4634 Y-26.6339 F60.00
G01 X61.4412 Y-26.6366 F60.00
G01 X61.4189 Y-26.6371 F60.00
G01 X61.3805 Y-26.6398 F60.00
G01 X61.3522 Y-26.6368 F60.00
G01 X61.3449 Y-26.6366 F60.00
G01 X37.6067 Y-26.6366 F60.00
G01 X37.5977 Y-26.6370 F60.00
G01 X37.5910 Y-26.6379 F60.00
G01 X37.5413 Y-26.6478 F60.00
G01 X37.5304 Y-26.6506 F60.00
G01 X37.5199 Y-26.6548 F60.00
G01 X37.5100 Y-26.6603 F60.00
G01 X37.4679 Y-26.6884 F60.00
G01 X37.4607 Y-26.6937 F60.00
G01 X37.4540 Y-26.6998 F60.00
G01 X33.1158 Y-31.0380 F60.00
G01 X33.1097 Y-31.0447 F60.00
G01 X33.1044 Y-31.0519 F60.00
G01 X33.0763 Y-31.0940 F60.00
G01 X33.0708 Y-31.1039 F60.00
G01 X33.0674 Y-31.1122 F60.00
G01 X33.0642 Y-31.1231 F60.00
G01 X33.0539 Y-31.1750 F60.00
G01 X33.0526 Y-31.1884 F60.00
G01 X33.0526 Y-31.8614 F60.00
G01 X33.0528 Y-31.8688 F60.00
G01 X33.0558 Y-31.8970 F60.00
G01 X33.0531 Y-31.9354 F60.00
G01 X33.0526 Y-31.9577 F60.00
G01 X33.0499 Y-31.9799 F60.00
G01 X33.0472 Y-32.0183 F60.00
G01 X33.0409 Y-32.0429 F60.00
G01 X33.0249 Y-32.0780 F60.00
G01 X33.0202 Y-32.0891 F60.00
G01 X33.0055 Y-32.1283 F60.00
G01 X32.9926 Y-32.1501 F60.00
G01 X32.9674 Y-32.1792 F60.00
G01 X32.9536 Y-32.1968 F60.00
G01 X32.9382 Y-32.2129 F60.00
G01 X32.9129 Y-32.2420 F60.00
G01 X32.8908 Y-32.2599 F60.00
G01 X32.8854 Y-32.2649 F60.00
G01 X32.6062 Y-32.5441 F60.00
G01 X32.6003 Y-32.5510 F60.00
G01 X32.5964 Y-32.5564 F60.00
G01 X32.5695 Y-32.5967 F60.00
G01 X32.5638 Y-32.6064 F60.00
G01 X32.5594 Y-32.6168 F60.00
G01 X32.5562 Y-32.6276 F60.00
G01 X32.5463 Y-32.6773 F60.00
G01 X32.5448 Y-32.6884 F60.00
G01 X32.5446 Y-32.8828 F60.00
G01 X32.5453 Y-32.8944 F60.00
G01 X32.5475 Y-32.9059 F60.00
G01 X32.5670 Y-32.9739 F60.00
G01 X32.5699 Y-32.9824 F60.00
G01 X32.5746 Y-32.9925 F60.00
G01 X32.5806 Y-33.0020 F60.00
G01 X32.5876 Y-33.0107 F60.00
G01 X32.5939 Y-33.0170 F60.00
G01 X32.6449 Y-33.0627 F60.00
G01 X32.6518 Y-33.0683 F60.00
G01 X32.6574 Y-33.0721 F60.00
G01 X32.6651 Y-33.0765 F60.00
G01 X32.6712 Y-33.0793 F60.00
G01 X32.6840 Y-33.0835 F60.00
G01 X32.7603 Y-33.0970 F60.00
G01 X32.7672 Y-33.0978 F60.00
G01 X32.7742 Y-33.0980 F60.00
G01 X32.7812 Y-33.0977 F60.00
G01 X32.7931 Y-33.0964 F60.00
G01 X33.3789 Y-33.0964 F60.00
G01 X33.4222 Y-33.1011 F60.00
G01 X33.5338 Y-33.1427 F60.00
G01 X33.6279 Y-33.2131 F60.00
G01 X33.6983 Y-33.3072 F60.00
G01 X33.7399 Y-33.4188 F60.00
G01 X33.7445 Y-33.4621 F60.00
G01 X33.7446 Y-34.4979 F60.00
G01 X33.7426 Y-34.5165 F60.00
G01 X33.7423 Y-34.5256 F60.00
G01 X33.7429 Y-34.5347 F60.00
G01 X33.7492 Y-34.5892 F60.00
G01 X33.7507 Y-34.5982 F60.00
G01 X33.7524 Y-34.6048 F60.00
G01 X33.7564 Y-34.6155 F60.00
G01 X33.7616 Y-34.6257 F60.00
G01 X33.7933 Y-34.6759 F60.00
G01 X33.8002 Y-34.6850 F60.00
G01 X33.9032 Y-34.7883 F60.00
G01 X33.9289 Y-34.8095 F60.00
G01 X33.9542 Y-34.8386 F60.00
G01 X33.9696 Y-34.8548 F60.00
G01 X33.9834 Y-34.8723 F60.00
G01 X34.0086 Y-34.9014 F60.00
G01 X34.0215 Y-34.9232 F60.00
G01 X34.0350 Y-34.9593 F60.00
G01 X34.0396 Y-34.9706 F60.00
G01 X34.0569 Y-35.0086 F60.00
G01 X34.0632 Y-35.0332 F60.00
G01 X34.0659 Y-35.0716 F60.00
G01 X34.0686 Y-35.0938 F60.00
G01 X34.0691 Y-35.1161 F60.00
G01 X34.0719 Y-35.1542 F60.00
G01 X34.0732 Y-35.1633 F60.00
G01 X34.0748 Y-35.1700 F60.00
G01 X34.0979 Y-35.2390 F60.00
G01 X34.1019 Y-35.2473 F60.00
G01 X34.1054 Y-35.2533 F60.00
G01 X34.1107 Y-35.2607 F60.00
G01 X34.1152 Y-35.2660 F60.00
G01 X34.1650 Y-35.3126 F60.00
G01 X34.1702 Y-35.3171 F60.00
G01 X34.1757 Y-35.3212 F60.00
G01 X34.1836 Y-35.3260 F60.00
G01 X34.1897 Y-35.3291 F60.00
G01 X34.1961 Y-35.3317 F60.00
G01 X34.2049 Y-35.3344 F60.00
G01 X34.2643 Y-35.3496 F60.00
G01 X34.2733 Y-35.3514 F60.00
G01 X34.2848 Y-35.3524 F60.00
G01 X34.3279 Y-35.3524 F60.00
G01 X34.3712 Y-35.3571 F60.00
G01 X34.4828 Y-35.3987 F60.00
G01 X34.5769 Y-35.4691 F60.00
G01 X34.6473 Y-35.5632 F60.00
G01 X34.6889 Y-35.6748 F60.00
G01 X34.6935 Y-35.7181 F60.00
G01 X34.6936 Y-36.5539 F60.00
G01 X34.6889 Y-36.5972 F60.00
G01 X34.6473 Y-36.7088 F60.00
G01 X34.5769 Y-36.8029 F60.00
G01 X34.4828 Y-36.8733 F60.00
G01 X34.3712 Y-36.9149 F60.00
G01 X34.3279 Y-36.9195 F60.00
G01 X32.9921 Y-36.9196 F60.00
G01 X32.9488 Y-36.9149 F60.00
G01 X32.8372 Y-36.8733 F60.00
G01 X32.7431 Y-36.8029 F60.00
G01 X32.6727 Y-36.7088 F60.00
G01 X32.6311 Y-36.5972 F60.00
G01 X32.6264 Y-36.5539 F60.00
G01 X32.6264 Y-35.7181 F60.00
G01 X32.6311 Y-35.6748 F60.00
G01 X32.6727 Y-35.5632 F60.00
G01 X32.7431 Y-35.4691 F60.00
G01 X32.8372 Y-35.3987 F60.00
G01 X32.9017 Y-35.3747 F60.00
G01 X32.9121 Y-35.3700 F60.00
G01 X32.9220 Y-35.3641 F60.00
G01 X32.9723 Y-35.3291 F60.00
G01 X32.9813 Y-35.3220 F60.00
G01 X32.9863 Y-35.3172 F60.00
G01 X32.9909 Y-35.3120 F60.00
G01 X32.9950 Y-35.3065 F60.00
G01 X32.9988 Y-35.3008 F60.00
G01 X33.0306 Y-35.2378 F60.00
G01 X33.0341 Y-35.2293 F60.00
G01 X33.0372 Y-35.2183 F60.00
G01 X33.0387 Y-35.2092 F60.00
G01 X33.0393 Y-35.1977 F60.00
G01 X33.0371 Y-35.1341 F60.00
G01 X33.0363 Y-35.1250 F60.00
G01 X33.0346 Y-35.1160 F60.00
G01 X33.0320 Y-35.1071 F60.00
G01 X33.0295 Y-35.1007 F60.00
G01 X33.0254 Y-35.0925 F60.00
G01 X32.9917 Y-35.0358 F60.00
G01 X32.9879 Y-35.0301 F60.00
G01 X32.9836 Y-35.0247 F60.00
G01 X32.8813 Y-34.9221 F60.00
G01 X32.8730 Y-34.9147 F60.00
G01 X32.8639 Y-34.9084 F60.00
G01 X32.8113 Y-34.8766 F60.00
G01 X32.8035 Y-34.8726 F60.00
G01 X32.7952 Y-34.8694 F60.00
G01 X32.7845 Y-34.8664 F60.00
G01 X32.7736 Y-34.8648 F60.00
G01 X32.7123 Y-34.8610 F60.00
G01 X32.7012 Y-34.8609 F60.00
G01 X32.6924 Y-34.8619 F60.00
G01 X32.6859 Y-34.8631 F60.00
G01 X32.6774 Y-34.8655 F60.00
G01 X32.6691 Y-34.8687 F60.00
G01 X32.6091 Y-34.8958 F60.00
G01 X32.5979 Y-34.9029 F60.00
G01 X32.5878 Y-34.9115 F60.00
G01 X32.5804 Y-34.9198 F60.00
G01 X32.5437 Y-34.9662 F60.00
G01 X32.5396 Y-34.9717 F60.00
G01 X32.5360 Y-34.9776 F60.00
G01 X32.5321 Y-34.9850 F60.00
G01 X32.5156 Y-35.0214 F60.00
G01 X32.5110 Y-35.0327 F60.00
G01 X32.4975 Y-35.0688 F60.00
G01 X32.4846 Y-35.0906 F60.00
G01 X32.4594 Y-35.1197 F60.00
G01 X32.4456 Y-35.1372 F60.00
G01 X32.4302 Y-35.1534 F60.00
G01 X32.4049 Y-35.1825 F60.00
G01 X32.3828 Y-35.2004 F60.00
G01 X32.3774 Y-35.2054 F60.00
G01 X30.7638 Y-36.8190 F60.00
G01 X30.7592 Y-36.8239 F60.00
G01 X30.7536 Y-36.8310 F60.00
G01 X30.7243 Y-36.8750 F60.00
G01 X30.7198 Y-36.8829 F60.00
G01 X30.7162 Y-36.8911 F60.00
G01 X30.7133 Y-36.8997 F60.00
G01 X30.7118 Y-36.9063 F60.00
G01 X30.7019 Y-36.9560 F60.00
G01 X30.7006 Y-36.9694 F60.00
G01 X30.7007 Y-38.5980 F60.00
G01 X30.7013 Y-38.6051 F60.00
G01 X30.7025 Y-38.6121 F60.00
G01 X30.7167 Y-38.6721 F60.00
G01 X30.7210 Y-38.6848 F60.00
G01 X30.7272 Y-38.6968 F60.00
G01 X30.7351 Y-38.7077 F60.00
G01 X30.7716 Y-38.7515 F60.00
G01 X30.7781 Y-38.7584 F60.00
G01 X30.7871 Y-38.7661 F60.00
G01 X30.8339 Y-38.8011 F60.00
G01 X30.9043 Y-38.8952 F60.00
G01 X30.9459 Y-39.0068 F60.00
G01 X30.9505 Y-39.0501 F60.00
G01 X30.9506 Y-40.0859 F60.00
G01 X30.9459 Y-40.1292 F60.00
G01 X30.9043 Y-40.2408 F60.00
G01 X30.8339 Y-40.3349 F60.00
G01 X30.7398 Y-40.4053 F60.00
G01 X30.6282 Y-40.4469 F60.00
G01 X30.5849 Y-40.4515 F60.00
G01 X29.9991 Y-40.4516 F60.00
G01 X29.9873 Y-40.4503 F60.00
G01 X29.9803 Y-40.4500 F60.00
G01 X29.9709 Y-40.4504 F60.00
G01 X29.9640 Y-40.4514 F60.00
G01 X29.8900 Y-40.4645 F60.00
G01 X29.8835 Y-40.4664 F60.00
G01 X29.8752 Y-40.4696 F60.00
G01 X29.8634 Y-40.4759 F60.00
G01 X29.8578 Y-40.4797 F60.00
G01 X29.8509 Y-40.4853 F60.00
G01 X29.7951 Y-40.5357 F60.00
G01 X29.7893 Y-40.5424 F60.00
G01 X29.7829 Y-40.5516 F60.00
G01 X29.7786 Y-40.5595 F60.00
G01 X29.7744 Y-40.5698 F60.00
G01 X29.7535 Y-40.6421 F60.00
G01 X29.7513 Y-40.6536 F60.00
G01 X29.7506 Y-40.6652 F60.00
G01 X29.7506 Y-43.3733 F60.00
G01 X29.7508 Y-43.3801 F60.00
G01 X29.7519 Y-43.3890 F60.00
G01 X29.7618 Y-43.4387 F60.00
G01 X29.7646 Y-43.4496 F60.00
G01 X29.7688 Y-43.4601 F60.00
G01 X29.7743 Y-43.4700 F60.00
G01 X29.8024 Y-43.5121 F60.00
G01 X29.8077 Y-43.5193 F60.00
G01 X29.8138 Y-43.5260 F60.00
G01 X32.5075 Y-46.2197 F60.00
G01 X32.5161 Y-46.2273 F60.00
G01 X32.5236 Y-46.2325 F60.00
G01 X32.5783 Y-46.2650 F60.00
G01 X32.5864 Y-46.2693 F60.00
G01 X32.5971 Y-46.2735 F60.00
G01 X32.6083 Y-46.2763 F60.00
G01 X32.6174 Y-46.2776 F60.00
G01 X32.6328 Y-46.2782 F60.00
G01 X32.6334 Y-46.2936 F60.00
G01 X32.6347 Y-46.3027 F60.00
G01 X32.6375 Y-46.3139 F60.00
G01 X32.6417 Y-46.3246 F60.00
G01 X32.6460 Y-46.3327 F60.00
G01 X32.6785 Y-46.3874 F60.00
G01 X32.6837 Y-46.3949 F60.00
G01 X32.6881 Y-46.4002 F60.00
G01 X32.9488 Y-46.6608 F60.00
G01 X32.9540 Y-46.6652 F60.00
G01 X32.9595 Y-46.6692 F60.00
G01 X33.0098 Y-46.7009 F60.00
G01 X33.0199 Y-46.7061 F60.00
G01 X33.0306 Y-46.7100 F60.00
G01 X33.0373 Y-46.7117 F60.00
G01 X33.0463 Y-46.7132 F60.00
G01 X33.1008 Y-46.7196 F60.00
G01 X33.1099 Y-46.7202 F60.00
G01 X33.1190 Y-46.7199 F60.00
G01 X33.1421 Y-46.7174 F60.00
G01 X34.1779 Y-46.7174 F60.00
G01 X34.2212 Y-46.7221 F60.00
G01 X34.3328 Y-46.7637 F60.00
G01 X34.4511 Y-46.8523 F60.00
G01 X34.4781 Y-46.8747 F60.00
G01 X34.4837 Y-46.8786 F60.00
G01 X34.4914 Y-46.8831 F60.00
G01 X34.5017 Y-46.8876 F60.00
G01 X34.5124 Y-46.8909 F60.00
G01 X34.5703 Y-46.9045 F60.00
G01 X34.5796 Y-46.9060 F60.00
G01 X34.5867 Y-46.9064 F60.00
G01 X39.8169 Y-46.9064 F60.00
G01 X39.8242 Y-46.9062 F60.00
G01 X39.8525 Y-46.9032 F60.00
G01 X39.8909 Y-46.9059 F60.00
G01 X39.9132 Y-46.9064 F60.00
G01 X39.9354 Y-46.9091 F60.00
G01 X39.9738 Y-46.9118 F60.00
G01 X39.9984 Y-46.9181 F60.00
G01 X40.0334 Y-46.9341 F60.00
G01 X40.0446 Y-46.9388 F60.00
G01 X40.0838 Y-46.9535 F60.00
G01 X40.1056 Y-46.9664 F60.00
G01 X40.1347 Y-46.9916 F60.00
G01 X40.1522 Y-47.0054 F60.00
G01 X40.1684 Y-47.0208 F60.00
G01 X40.1975 Y-47.0461 F60.00
G01 X40.2186 Y-47.0718 F60.00
G01 X40.3019 Y-47.1548 F60.00
G01 X40.3109 Y-47.1616 F60.00
G01 X40.3530 Y-47.1897 F60.00
G01 X40.3609 Y-47.1942 F60.00
G01 X40.3691 Y-47.1978 F60.00
G01 X40.3777 Y-47.2007 F60.00
G01 X40.3843 Y-47.2022 F60.00
G01 X40.4340 Y-47.2121 F60.00
G01 X40.4452 Y-47.2133 F60.00
G01 X40.8066 Y-47.2134 F60.00
G01 X40.8468 Y-47.2178 F60.00
G01 X40.9517 Y-47.2569 F60.00
G01 X41.0400 Y-47.3230 F60.00
G01 X41.0482 Y-47.3334 F60.00
G01 X41.0565 Y-47.3418 F60.00
G01 X41.1038 Y-47.3814 F60.00
G01 X41.1092 Y-47.3854 F60.00
G01 X41.1169 Y-47.3900 F60.00
G01 X41.1271 Y-47.3948 F60.00
G01 X41.1377 Y-47.3983 F60.00
G01 X41.1977 Y-47.4125 F60.00
G01 X41.2047 Y-47.4137 F60.00
G01 X41.2118 Y-47.4143 F60.00
G01 X41.7822 Y-47.4144 F60.00
G01 X41.7893 Y-47.4140 F60.00
G01 X41.7987 Y-47.4125 F60.00
G01 X41.8630 Y-47.3971 F60.00
G01 X41.8714 Y-47.3940 F60.00
G01 X41.8775 Y-47.3911 F60.00
G01 X41.8890 Y-47.3841 F60.00
G01 X41.9381 Y-47.3434 F60.00
G01 X41.9450 Y-47.3369 F60.00
G01 X41.9527 Y-47.3279 F60.00
G01 X42.0371 Y-47.2151 F60.00
G01 X42.1312 Y-47.1447 F60.00
G01 X42.2428 Y-47.1031 F60.00
G01 X42.2861 Y-47.0984 F60.00
G01 X43.3219 Y-47.0984 F60.00
G01 X43.3652 Y-47.1031 F60.00
G01 X43.4768 Y-47.1447 F60.00
G01 X43.5709 Y-47.2151 F60.00
G01 X43.6553 Y-47.3279 F60.00
G01 X43.6598 Y-47.3334 F60.00
G01 X43.6681 Y-47.3418 F60.00
G01 X43.7154 Y-47.3814 F60.00
G01 X43.7209 Y-47.3854 F60.00
G01 X43.7285 Y-47.3900 F60.00
G01 X43.7366 Y-47.3940 F60.00
G01 X43.7450 Y-47.3971 F60.00
G01 X43.8070 Y-47.4120 F60.00
G01 X43.8187 Y-47.4140 F60.00
G01 X43.8282 Y-47.4144 F60.00
G01 X46.6115 Y-47.4144 F60.00
G01 X46.6224 Y-47.4138 F60.00
G01 X46.6332 Y-47.4119 F60.00
G01 X46.6973 Y-47.3947 F60.00
G01 X46.7039 Y-47.3927 F60.00
G01 X46.7103 Y-47.3902 F60.00
G01 X46.7165 Y-47.3872 F60.00
G01 X46.7224 Y-47.3837 F60.00
G01 X46.7299 Y-47.3785 F60.00
G01 X46.7369 Y-47.3725 F60.00
G01 X46.7871 Y-47.3222 F60.00
G01 X46.7929 Y-47.3151 F60.00
G01 X46.7979 Y-47.3075 F60.00
G01 X46.8022 Y-47.2994 F60.00
G01 X46.8064 Y-47.2887 F60.00
G01 X46.8249 Y-47.2200 F60.00
G01 X46.8266 Y-47.2107 F60.00
G01 X46.8274 Y-47.2013 F60.00
G01 X46.8279 Y-47.0900 F60.00
G01 X46.8279 Y-46.7219 F60.00
G01 X46.8366 Y-46.6781 F60.00
G01 X46.8717 Y-46.6257 F60.00
G01 X46.9241 Y-46.5906 F60.00
G01 X46.9704 Y-46.5814 F60.00
G01 X47.8016 Y-46.5814 F60.00
G01 X47.8479 Y-46.5906 F60.00
G01 X47.9003 Y-46.6257 F60.00
G01 X47.9354 Y-46.6781 F60.00
G01 X47.9446 Y-46.7244 F60.00
G01 X47.9446 Y-48.5556 F60.00
G01 X47.9354 Y-48.6019 F60.00
G01 X47.9003 Y-48.6543 F60.00
G01 X47.8479 Y-48.6894 F60.00
G01 X47.8016 Y-48.6986 F60.00
G01 X46.9704 Y-48.6986 F60.00
G01 X46.9241 Y-48.6894 F60.00
G01 X46.8717 Y-48.6543 F60.00
G01 X46.8366 Y-48.6019 F60.00
G01 X46.8274 Y-48.5556 F60.00
G01 X46.8274 Y-48.4475 F60.00
G01 X46.8265 Y-48.4344 F60.00
G01 X46.8243 Y-48.4237 F60.00
G01 X46.8064 Y-48.3573 F60.00
G01 X46.8022 Y-48.3466 F60.00
G01 X46.7991 Y-48.3405 F60.00
G01 X46.7955 Y-48.3347 F60.00
G01 X46.7901 Y-48.3273 F60.00
G01 X46.7855 Y-48.3221 F60.00
G01 X46.7369 Y-48.2735 F60.00
G01 X46.7281 Y-48.2661 F60.00
G01 X46.7185 Y-48.2599 F60.00
G01 X46.7082 Y-48.2549 F60.00
G01 X46.6973 Y-48.2513 F60.00
G01 X46.6332 Y-48.2341 F60.00
G01 X46.6224 Y-48.2322 F60.00
G01 X46.6137 Y-48.2316 F60.00
G01 X43.7246 Y-48.2317 F60.00
G01 X43.7175 Y-48.2323 F60.00
G01 X43.7105 Y-48.2335 F60.00
G01 X43.6527 Y-48.2471 F60.00
G01 X43.6441 Y-48.2496 F60.00
G01 X43.6337 Y-48.2539 F60.00
G01 X43.6277 Y-48.2571 F60.00
G01 X43.6202 Y-48.2619 F60.00
G01 X43.6056 Y-48.2738 F60.00
G01 X43.5957 Y-48.2803 F60.00
G01 X43.4768 Y-48.3693 F60.00
G01 X43.3652 Y-48.4109 F60.00
G01 X43.3219 Y-48.4155 F60.00
G01 X42.2861 Y-48.4156 F60.00
G01 X42.2428 Y-48.4109 F60.00
G01 X42.1312 Y-48.3693 F60.00
G01 X42.0123 Y-48.2803 F60.00
G01 X42.0024 Y-48.2738 F60.00
G01 X41.9896 Y-48.2633 F60.00
G01 X41.9803 Y-48.2571 F60.00
G01 X41.9702 Y-48.2520 F60.00
G01 X41.9596 Y-48.2483 F60.00
G01 X41.8952 Y-48.2330 F60.00
G01 X41.8881 Y-48.2320 F60.00
G01 X41.8787 Y-48.2316 F60.00
G01 X41.2127 Y-48.2316 F60.00
G01 X41.2056 Y-48.2320 F60.00
G01 X41.1962 Y-48.2335 F60.00
G01 X41.1362 Y-48.2477 F60.00
G01 X41.1256 Y-48.2512 F60.00
G01 X41.1154 Y-48.2560 F60.00
G01 X41.1078 Y-48.2606 F60.00
G01 X41.1023 Y-48.2646 F60.00
G01 X41.0550 Y-48.3042 F60.00
G01 X41.0467 Y-48.3126 F60.00
G01 X41.0400 Y-48.3210 F60.00
G01 X40.9517 Y-48.3871 F60.00
G01 X40.8468 Y-48.4262 F60.00
G01 X40.8066 Y-48.4305 F60.00
G01 X39.9754 Y-48.4306 F60.00
G01 X39.9352 Y-48.4262 F60.00
G01 X39.8303 Y-48.3871 F60.00
G01 X39.7420 Y-48.3210 F60.00
G01 X39.6759 Y-48.2327 F60.00
G01 X39.6368 Y-48.1278 F60.00
G01 X39.6324 Y-48.0876 F60.00
G01 X39.6324 Y-47.9395 F60.00
G01 X39.6320 Y-47.9308 F60.00
G01 X39.6299 Y-47.9178 F60.00
G01 X39.6127 Y-47.8537 F60.00
G01 X39.6099 Y-47.8450 F60.00
G01 X39.6062 Y-47.8366 F60.00
G01 X39.6029 Y-47.8305 F60.00
G01 X39.5992 Y-47.8248 F60.00
G01 X39.5951 Y-47.8193 F60.00
G01 X39.5905 Y-47.8141 F60.00
G01 X39.5419 Y-47.7655 F60.00
G01 X39.5331 Y-47.7581 F60.00
G01 X39.5255 Y-47.7531 F60.00
G01 X39.5153 Y-47.7478 F60.00
G01 X39.5089 Y-47.7453 F60.00
G01 X39.5023 Y-47.7433 F60.00
G01 X39.4382 Y-47.7261 F60.00
G01 X39.4296 Y-47.7245 F60.00
G01 X39.4209 Y-47.7237 F60.00
G01 X34.6757 Y-47.7237 F60.00
G01 X34.6686 Y-47.7243 F60.00
G01 X34.6616 Y-47.7255 F60.00
G01 X34.5994 Y-47.7403 F60.00
G01 X34.5930 Y-47.7424 F60.00
G01 X34.5848 Y-47.7459 F60.00
G01 X34.5731 Y-47.7526 F60.00
G01 X34.5659 Y-47.7581 F60.00
G01 X34.5222 Y-47.7946 F60.00
G01 X34.5169 Y-47.7994 F60.00
G01 X34.5120 Y-47.8046 F60.00
G01 X34.5075 Y-47.8101 F60.00
G01 X34.4269 Y-47.9179 F60.00
G01 X34.3328 Y-47.9883 F60.00
G01 X34.2212 Y-48.0299 F60.00
G01 X34.1779 Y-48.0345 F60.00
G01 X33.1421 Y-48.0346 F60.00
G01 X33.0988 Y-48.0299 F60.00
G01 X32.9872 Y-47.9883 F60.00
G01 X32.8931 Y-47.9179 F60.00
G01 X32.8227 Y-47.8238 F60.00
G01 X32.7797 Y-47.7083 F60.00
G01 X32.7638 Y-47.6563 F60.00
G01 X32.7603 Y-47.6478 F60.00
G01 X32.7571 Y-47.6417 F60.00
G01 X32.7508 Y-47.6321 F60.00
G01 X32.7207 Y-47.5941 F60.00
G01 X32.7118 Y-47.5843 F60.00
G01 X32.6903 Y-47.5582 F60.00
G01 X29.1006 Y-43.9684 F60.00
G01 X29.0952 Y-43.9634 F60.00
G01 X29.0731 Y-43.9455 F60.00
G01 X29.0478 Y-43.9164 F60.00
G01 X29.0324 Y-43.9002 F60.00
G01 X29.0186 Y-43.8827 F60.00
G01 X28.9934 Y-43.8536 F60.00
G01 X28.9805 Y-43.8318 F60.00
G01 X28.9658 Y-43.7926 F60.00
G01 X28.9448 Y-43.7453 F60.00
G01 X28.9388 Y-43.7218 F60.00
G01 X28.9361 Y-43.6834 F60.00
G01 X28.9334 Y-43.6612 F60.00
G01 X28.9329 Y-43.6389 F60.00
G01 X28.9302 Y-43.6005 F60.00
G01 X28.9332 Y-43.5722 F60.00
G01 X28.9334 Y-43.5649 F60.00
G01 X28.9333 Y-40.6606 F60.00
G01 X28.9324 Y-40.6513 F60.00
G01 X28.9305 Y-40.6421 F60.00
G01 X28.9110 Y-40.5741 F60.00
G01 X28.9073 Y-40.5635 F60.00
G01 X28.9023 Y-40.5535 F60.00
G01 X28.8961 Y-40.5442 F60.00
G01 X28.8873 Y-40.5341 F60.00
G01 X28.8331 Y-40.4853 F60.00
G01 X28.8262 Y-40.4797 F60.00
G01 X28.8187 Y-40.4747 F60.00
G01 X28.8108 Y-40.4705 F60.00
G01 X28.8026 Y-40.4671 F60.00
G01 X28.7940 Y-40.4645 F60.00
G01 X28.7200 Y-40.4514 F60.00
G01 X28.7071 Y-40.4500 F60.00
G01 X28.6984 Y-40.4502 F60.00
G01 X28.6849 Y-40.4515 F60.00
G01 X28.0991 Y-40.4516 F60.00
G01 X28.0558 Y-40.4469 F60.00
G01 X27.9442 Y-40.4053 F60.00
G01 X27.8501 Y-40.3349 F60.00
G01 X27.7797 Y-40.2408 F60.00
G01 X27.7336 Y-40.1170 F60.00
G01 X27.7309 Y-40.1106 F60.00
G01 X27.7254 Y-40.1004 F60.00
G01 X27.6977 Y-40.0562 F60.00
G01 X27.6936 Y-40.0505 F60.00
G01 X27.6875 Y-40.0435 F60.00
G01 X27.6808 Y-40.0371 F60.00
G01 X27.6734 Y-40.0314 F60.00
G01 X27.6306 Y-40.0017 F60.00
G01 X27.6246 Y-39.9981 F60.00
G01 X27.6184 Y-39.9949 F60.00
G01 X27.6097 Y-39.9915 F60.00
G01 X27.6008 Y-39.9889 F60.00
G01 X27.5497 Y-39.9784 F60.00
G01 X27.5382 Y-39.9768 F60.00
G01 X27.5312 Y-39.9766 F60.00
G01 X22.1077 Y-39.9766 F60.00
G01 X22.0987 Y-39.9770 F60.00
G01 X22.0897 Y-39.9783 F60.00
G01 X22.0401 Y-39.9882 F60.00
G01 X22.0314 Y-39.9906 F60.00
G01 X22.0230 Y-39.9939 F60.00
G01 X22.0110 Y-40.0003 F60.00
G01 X21.9689 Y-40.0284 F60.00
G01 X21.9617 Y-40.0337 F60.00
G01 X21.9550 Y-40.0398 F60.00
G01 X16.7328 Y-45.2620 F60.00
G01 X16.7267 Y-45.2687 F60.00
G01 X16.7214 Y-45.2759 F60.00
G01 X16.6933 Y-45.3180 F60.00
G01 X16.6888 Y-45.3259 F60.00
G01 X16.6852 Y-45.3341 F60.00
G01 X16.6823 Y-45.3427 F60.00
G01 X16.6808 Y-45.3493 F60.00
G01 X16.6709 Y-45.3990 F60.00
G01 X16.6696 Y-45.4124 F60.00
G01 X16.6696 Y-47.9663 F60.00
G01 X16.6702 Y-47.9771 F60.00
G01 X16.6716 Y-47.9857 F60.00
G01 X16.6868 Y-48.0485 F60.00
G01 X16.6907 Y-48.0592 F60.00
G01 X16.6947 Y-48.0674 F60.00
G01 X16.6995 Y-48.0751 F60.00
G01 X16.7036 Y-48.0806 F60.00
G01 X16.7427 Y-48.1264 F60.00
G01 X16.7506 Y-48.1345 F60.00
G01 X16.7595 Y-48.1417 F60.00
G01 X16.7672 Y-48.1466 F60.00
G01 X16.7753 Y-48.1507 F60.00
G01 X16.8309 Y-48.1737 F60.00
G01 X16.8395 Y-48.1768 F60.00
G01 X16.8506 Y-48.1794 F60.00
G01 X16.8596 Y-48.1805 F60.00
G01 X16.8710 Y-48.1806 F60.00
G01 X16.9310 Y-48.1759 F60.00
G01 X16.9423 Y-48.1743 F60.00
G01 X16.9490 Y-48.1727 F60.00
G01 X16.9555 Y-48.1706 F60.00
G01 X16.9639 Y-48.1670 F60.00
G01 X16.9699 Y-48.1638 F60.00
G01 X17.0231 Y-48.1313 F60.00
G01 X17.0301 Y-48.1262 F60.00
G01 X17.0351 Y-48.1220 F60.00
G01 X17.3826 Y-47.7746 F60.00
G01 X17.3876 Y-47.7692 F60.00
G01 X17.4055 Y-47.7471 F60.00
G01 X17.4346 Y-47.7218 F60.00
G01 X17.4508 Y-47.7065 F60.00
G01 X17.4683 Y-47.6926 F60.00
G01 X17.4974 Y-47.6674 F60.00
G01 X17.5192 Y-47.6545 F60.00
G01 X17.5553 Y-47.6410 F60.00
G01 X17.5666 Y-47.6364 F60.00
G01 X17.6046 Y-47.6191 F60.00
G01 X17.6292 Y-47.6128 F60.00
G01 X17.6676 Y-47.6101 F60.00
G01 X17.6898 Y-47.6074 F60.00
G01 X17.7121 Y-47.6069 F60.00
G01 X17.7505 Y-47.6042 F60.00
G01 X17.7788 Y-47.6072 F60.00
G01 X17.7861 Y-47.6074 F60.00
G01 X19.4772 Y-47.6074 F60.00
G01 X19.4867 Y-47.6070 F60.00
G01 X19.4984 Y-47.6050 F60.00
G01 X19.5582 Y-47.5907 F60.00
G01 X19.5709 Y-47.5861 F60.00
G01 X19.5769 Y-47.5830 F60.00
G01 X19.5846 Y-47.5784 F60.00
G01 X19.5917 Y-47.5729 F60.00
G01 X19.6355 Y-47.5364 F60.00
G01 X19.6424 Y-47.5299 F60.00
G01 X19.6501 Y-47.5209 F60.00
G01 X19.6851 Y-47.4741 F60.00
G01 X19.7792 Y-47.4037 F60.00
G01 X19.8908 Y-47.3621 F60.00
G01 X19.9341 Y-47.3574 F60.00
G01 X20.9699 Y-47.3574 F60.00
G01 X21.0132 Y-47.3621 F60.00
G01 X21.1248 Y-47.4037 F60.00
G01 X21.2189 Y-47.4741 F60.00
G01 X21.2995 Y-47.5819 F60.00
G01 X21.3040 Y-47.5874 F60.00
G01 X21.3089 Y-47.5926 F60.00
G01 X21.3142 Y-47.5974 F60.00
G01 X21.3579 Y-47.6339 F60.00
G01 X21.3651 Y-47.6394 F60.00
G01 X21.3768 Y-47.6461 F60.00
G01 X21.3829 Y-47.6488 F60.00
G01 X21.3914 Y-47.6517 F60.00
G01 X21.4536 Y-47.6665 F60.00
G01 X21.4653 Y-47.6682 F60.00
G01 X21.4724 Y-47.6684 F60.00
G01 X21.7889 Y-47.6684 F60.00
G01 X21.7976 Y-47.6680 F60.00
G01 X21.8104 Y-47.6659 F60.00
G01 X21.8730 Y-47.6507 F60.00
G01 X21.8850 Y-47.6459 F60.00
G01 X21.9165 Y-47.6299 F60.00
G01 X21.9887 Y-47.6184 F60.00
G01 X23.4873 Y-47.6184 F60.00
G01 X23.5595 Y-47.6299 F60.00
G01 X23.6665 Y-47.6844 F60.00
G01 X23.6750 Y-47.6882 F60.00
G01 X23.6817 Y-47.6905 F60.00
G01 X23.6885 Y-47.6923 F60.00
G01 X23.7541 Y-47.7065 F60.00
G01 X23.7629 Y-47.7076 F60.00
G01 X23.7719 Y-47.7078 F60.00
G01 X23.7808 Y-47.7071 F60.00
G01 X23.7874 Y-47.7060 F60.00
G01 X23.7961 Y-47.7039 F60.00
G01 X23.8581 Y-47.6850 F60.00
G01 X23.8665 Y-47.6818 F60.00
G01 X23.8744 Y-47.6778 F60.00
G01 X23.8838 Y-47.6717 F60.00
G01 X23.8908 Y-47.6661 F60.00
G01 X23.9405 Y-47.6147 F60.00
G01 X23.9488 Y-47.6041 F60.00
G01 X23.9555 Y-47.5925 F60.00
G01 X23.9604 Y-47.5801 F60.00
G01 X23.9775 Y-47.5152 F60.00
G01 X23.9797 Y-47.5037 F60.00
G01 X23.9804 Y-47.4920 F60.00
G01 X23.9802 Y-47.0859 F60.00
G01 X23.9792 Y-47.0773 F60.00
G01 X23.9779 Y-47.0708 F60.00
G01 X23.9601 Y-47.0045 F60.00
G01 X23.9579 Y-46.9980 F60.00
G01 X23.9542 Y-46.9896 F60.00
G01 X23.9509 Y-46.9835 F60.00
G01 X23.9472 Y-46.9778 F60.00
G01 X23.9431 Y-46.9723 F60.00
G01 X23.9385 Y-46.9671 F60.00
G01 X23.8899 Y-46.9185 F60.00
G01 X23.8829 Y-46.9125 F60.00
G01 X23.8735 Y-46.9061 F60.00
G01 X23.8633 Y-46.9008 F60.00
G01 X23.8525 Y-46.8969 F60.00
G01 X23.7883 Y-46.8797 F60.00
G01 X23.7797 Y-46.8778 F60.00
G01 X23.7711 Y-46.8768 F60.00
G01 X23.7645 Y-46.8766 F60.00
G01 X23.3734 Y-46.8766 F60.00
G01 X23.3271 Y-46.8674 F60.00
G01 X23.2747 Y-46.8323 F60.00
G01 X23.2396 Y-46.7799 F60.00
G01 X23.2304 Y-46.7336 F60.00
G01 X23.2304 Y-45.1024 F60.00
G01 X23.2396 Y-45.0561 F60.00
G01 X23.2747 Y-45.0037 F60.00
G01 X23.3271 Y-44.9686 F60.00
G01 X23.3734 Y-44.9594 F60.00
G01 X25.4046 Y-44.9594 F60.00
G01 X25.4509 Y-44.9686 F60.00
G01 X25.5033 Y-45.0037 F60.00
G01 X25.5384 Y-45.0561 F60.00
G01 X25.5476 Y-45.1024 F60.00
G01 X25.5476 Y-46.7336 F60.00
G01 X25.5384 Y-46.7799 F60.00
G01 X25.5033 Y-46.8323 F60.00
G01 X25.4509 Y-46.8674 F60.00
G01 X25.4046 Y-46.8766 F60.00
G01 X25.0091 Y-46.8767 F60.00
G01 X25.0004 Y-46.8775 F60.00
G01 X24.9918 Y-46.8791 F60.00
G01 X24.9277 Y-46.8963 F60.00
G01 X24.9168 Y-46.8999 F60.00
G01 X24.9106 Y-46.9028 F60.00
G01 X24.9026 Y-46.9073 F60.00
G01 X24.8969 Y-46.9111 F60.00
G01 X24.8898 Y-46.9169 F60.00
G01 X24.8395 Y-46.9671 F60.00
G01 X24.8349 Y-46.9723 F60.00
G01 X24.8295 Y-46.9797 F60.00
G01 X24.8259 Y-46.9855 F60.00
G01 X24.8228 Y-46.9916 F60.00
G01 X24.8186 Y-47.0023 F60.00
G01 X24.8007 Y-47.0687 F60.00
G01 X24.7988 Y-47.0773 F60.00
G01 X24.7980 Y-47.0838 F60.00
G01 X24.7976 Y-47.0925 F60.00
G01 X24.7976 Y-49.3524 F60.00
G01 X24.7978 Y-49.3598 F60.00
G01 X24.8008 Y-49.3880 F60.00
G01 X24.7981 Y-49.4264 F60.00
G01 X24.7976 Y-49.4488 F60.00
G01 X24.7949 Y-49.4709 F60.00
G01 X24.7922 Y-49.5093 F60.00
G01 X24.7859 Y-49.5339 F60.00
G01 X24.7699 Y-49.5690 F60.00
G01 X24.7652 Y-49.5801 F60.00
G01 X24.7505 Y-49.6193 F60.00
G01 X24.7376 Y-49.6411 F60.00
G01 X24.7124 Y-49.6702 F60.00
G01 X24.6986 Y-49.6878 F60.00
G01 X24.6832 Y-49.7039 F60.00
G01 X24.6579 Y-49.7330 F60.00
G01 X24.6358 Y-49.7509 F60.00
G01 X24.6304 Y-49.7559 F60.00
G01 X23.9205 Y-50.4659 F60.00
G01 X23.9147 Y-50.4725 F60.00
G01 X23.9085 Y-50.4815 F60.00
G01 X23.8731 Y-50.5430 F60.00
G01 X23.8693 Y-50.5513 F60.00
G01 X23.8664 Y-50.5600 F60.00
G01 X23.8640 Y-50.5712 F60.00
G01 X23.8631 Y-50.5803 F60.00
G01 X23.8631 Y-50.6537 F60.00
G01 X23.8644 Y-50.6651 F60.00
G01 X23.8671 Y-50.6762 F60.00
G01 X23.8702 Y-50.6848 F60.00
G01 X23.8753 Y-50.6951 F60.00
G01 X23.9085 Y-50.7525 F60.00
G01 X23.9134 Y-50.7598 F60.00
G01 X23.9175 Y-50.7649 F60.00
G01 X24.8184 Y-51.6661 F60.00
G01 X24.8238 Y-51.6711 F60.00
G01 X24.8459 Y-51.6890 F60.00
G01 X24.8712 Y-51.7181 F60.00
G01 X24.8866 Y-51.7342 F60.00
G01 X24.9004 Y-51.7518 F60.00
G01 X24.9256 Y-51.7809 F60.00
G01 X24.9385 Y-51.8027 F60.00
G01 X24.9520 Y-51.8388 F60.00
G01 X24.9566 Y-51.8500 F60.00
G01 X24.9739 Y-51.8881 F60.00
G01 X24.9802 Y-51.9127 F60.00
G01 X24.9829 Y-51.9511 F60.00
G01 X24.9856 Y-51.9733 F60.00
G01 X24.9861 Y-51.9956 F60.00
G01 X24.9888 Y-52.0340 F60.00
G01 X24.9858 Y-52.0622 F60.00
G01 X24.9856 Y-52.0696 F60.00
G01 X24.9856 Y-52.9442 F60.00
G01 X24.9860 Y-52.9537 F60.00
G01 X24.9870 Y-52.9608 F60.00
G01 X25.0029 Y-53.0274 F60.00
G01 X25.0052 Y-53.0337 F60.00
G01 X25.0089 Y-53.0419 F60.00
G01 X25.0159 Y-53.0534 F60.00
G01 X25.0566 Y-53.1025 F60.00
G01 X25.0631 Y-53.1094 F60.00
G01 X25.0721 Y-53.1171 F60.00
G01 X25.1189 Y-53.1521 F60.00
G01 X25.1893 Y-53.2462 F60.00
G01 X25.2309 Y-53.3578 F60.00
G01 X25.2355 Y-53.4011 F60.00
G01 X25.2356 Y-54.4369 F60.00
G01 X25.2309 Y-54.4802 F60.00
G01 X25.1893 Y-54.5918 F60.00
G01 X25.1189 Y-54.6859 F60.00
G01 X25.0248 Y-54.7563 F60.00
G01 X24.9132 Y-54.7979 F60.00
G01 X24.8699 Y-54.8025 F60.00
G01 X24.2841 Y-54.8026 F60.00
G01 X24.2408 Y-54.7979 F60.00
G01 X24.1292 Y-54.7563 F60.00
G01 X24.0351 Y-54.6859 F60.00
G01 X23.9647 Y-54.5918 F60.00
G01 X23.9231 Y-54.4802 F60.00
G01 X23.9184 Y-54.4369 F60.00
G01 X23.9184 Y-53.4011 F60.00
G01 X23.9231 Y-53.3578 F60.00
G01 X23.9647 Y-53.2462 F60.00
G01 X24.0351 Y-53.1521 F60.00
G01 X24.0819 Y-53.1171 F60.00
G01 X24.0909 Y-53.1094 F60.00
G01 X24.0974 Y-53.1025 F60.00
G01 X24.1381 Y-53.0534 F60.00
G01 X24.1451 Y-53.0419 F60.00
G01 X24.1488 Y-53.0337 F60.00
G01 X24.1511 Y-53.0274 F60.00
G01 X24.1670 Y-52.9608 F60.00
G01 X24.1680 Y-52.9537 F60.00
G01 X24.1684 Y-52.9442 F60.00
G01 X24.1684 Y-52.2589 F60.00
G01 X24.1671 Y-52.2454 F60.00
G01 X24.1568 Y-52.1935 F60.00
G01 X24.1536 Y-52.1827 F60.00
G01 X24.1492 Y-52.1724 F60.00
G01 X24.1435 Y-52.1626 F60.00
G01 X24.1166 Y-52.1224 F60.00
G01 X24.1113 Y-52.1151 F60.00
G01 X24.1068 Y-52.1101 F60.00
G01 X23.7028 Y-51.7061 F60.00
G01 X23.7003 Y-51.6898 F60.00
G01 X23.6945 Y-51.6668 F60.00
G01 X23.6865 Y-51.6444 F60.00
G01 X23.6774 Y-51.6249 F60.00
G01 X23.6666 Y-51.6064 F60.00
G01 X23.6616 Y-51.5989 F60.00
G01 X23.6500 Y-51.5835 F60.00
G01 X23.6341 Y-51.5659 F60.00
G01 X23.6165 Y-51.5500 F60.00
G01 X23.6011 Y-51.5384 F60.00
G01 X23.5936 Y-51.5334 F60.00
G01 X23.5791 Y-51.5247 F60.00
G01 X23.5733 Y-51.5217 F60.00
G01 X23.5556 Y-51.5135 F60.00
G01 X23.5335 Y-51.5055 F60.00
G01 X23.5102 Y-51.4997 F60.00
G01 X23.4939 Y-51.4972 F60.00
G01 X23.1339 Y-51.1372 F60.00
G01 X23.1289 Y-51.1327 F60.00
G01 X23.1216 Y-51.1274 F60.00
G01 X23.0814 Y-51.1005 F60.00
G01 X23.0716 Y-51.0948 F60.00
G01 X23.0613 Y-51.0904 F60.00
G01 X23.0505 Y-51.0872 F60.00
G01 X22.9986 Y-51.0769 F60.00
G01 X22.9851 Y-51.0756 F60.00
G01 X21.9887 Y-51.0756 F60.00
G01 X21.9165 Y-51.0641 F60.00
G01 X21.8294 Y-51.0197 F60.00
G01 X21.7603 Y-50.9506 F60.00
G01 X21.7159 Y-50.8635 F60.00
G01 X21.7044 Y-50.7913 F60.00
G01 X21.7043 Y-50.4429 F60.00
G01 X21.7034 Y-50.4337 F60.00
G01 X21.7015 Y-50.4246 F60.00
G01 X21.6890 Y-50.3807 F60.00
G01 X21.7300 Y-50.3356 F60.00
G01 X21.7358 Y-50.3286 F60.00
G01 X21.7396 Y-50.3230 F60.00
G01 X21.7430 Y-50.3171 F60.00
G01 X21.7603 Y-50.2834 F60.00
G01 X21.8294 Y-50.2143 F60.00
G01 X21.9076 Y-50.1744 F60.00
G01 X21.9136 Y-50.1711 F60.00
G01 X21.9194 Y-50.1673 F60.00
G01 X21.9283 Y-50.1600 F60.00
G01 X21.9777 Y-50.1143 F60.00
G01 X21.9826 Y-50.1094 F60.00
G01 X21.9871 Y-50.1042 F60.00
G01 X21.9912 Y-50.0987 F60.00
G01 X21.9960 Y-50.0909 F60.00
G01 X21.9991 Y-50.0847 F60.00
G01 X22.0017 Y-50.0783 F60.00
G01 X22.0226 Y-50.0047 F60.00
G01 X22.0248 Y-49.9935 F60.00
G01 X22.0255 Y-49.9820 F60.00
G01 X22.0248 Y-49.9705 F60.00
G01 X22.0232 Y-49.9615 F60.00
G01 X22.0024 Y-49.8879 F60.00
G01 X22.0000 Y-49.8814 F60.00
G01 X21.9971 Y-49.8752 F60.00
G01 X21.9937 Y-49.8692 F60.00
G01 X21.9885 Y-49.8616 F60.00
G01 X21.9841 Y-49.8563 F60.00
G01 X21.9794 Y-49.8513 F60.00
G01 X21.9231 Y-49.7995 F60.00
G01 X21.9175 Y-49.7955 F60.00
G01 X21.9097 Y-49.7907 F60.00
G01 X21.8811 Y-49.7763 F60.00
G01 X21.8688 Y-49.7721 F60.00
G01 X21.8104 Y-49.7581 F60.00
G01 X21.8040 Y-49.7568 F60.00
G01 X21.7954 Y-49.7558 F60.00
G01 X21.5515 Y-49.7556 F60.00
G01 X21.5406 Y-49.7562 F60.00
G01 X21.5277 Y-49.7587 F60.00
G01 X21.4635 Y-49.7759 F60.00
G01 X21.4570 Y-49.7781 F60.00
G01 X21.4506 Y-49.7808 F60.00
G01 X21.4445 Y-49.7839 F60.00
G01 X21.4387 Y-49.7875 F60.00
G01 X21.4313 Y-49.7929 F60.00
G01 X21.4261 Y-49.7975 F60.00
G01 X21.3759 Y-49.8478 F60.00
G01 X21.3701 Y-49.8549 F60.00
G01 X21.3651 Y-49.8625 F60.00
G01 X21.3608 Y-49.8706 F60.00
G01 X21.3573 Y-49.8791 F60.00
G01 X21.3381 Y-49.9498 F60.00
G01 X21.3362 Y-49.9606 F60.00
G01 X21.3356 Y-49.9693 F60.00
G01 X21.3357 Y-50.2219 F60.00
G01 X21.3365 Y-50.2308 F60.00
G01 X21.3382 Y-50.2395 F60.00
G01 X21.3499 Y-50.2823 F60.00
G01 X21.3444 Y-50.2879 F60.00
G01 X21.3388 Y-50.2948 F60.00
G01 X21.2970 Y-50.3515 F60.00
G01 X21.2907 Y-50.3618 F60.00
G01 X21.2189 Y-50.4579 F60.00
G01 X21.1248 Y-50.5283 F60.00
G01 X21.0132 Y-50.5699 F60.00
G01 X20.9699 Y-50.5745 F60.00
G01 X19.9341 Y-50.5746 F60.00
G01 X19.8908 Y-50.5699 F60.00
G01 X19.7792 Y-50.5283 F60.00
G01 X19.6603 Y-50.4393 F60.00
G01 X19.6504 Y-50.4328 F60.00
G01 X19.6376 Y-50.4223 F60.00
G01 X19.6283 Y-50.4161 F60.00
G01 X19.6182 Y-50.4110 F60.00
G01 X19.6076 Y-50.4073 F60.00
G01 X19.5455 Y-50.3925 F60.00
G01 X19.5361 Y-50.3910 F60.00
G01 X19.5267 Y-50.3906 F60.00
G01 X19.0878 Y-50.3906 F60.00
G01 X19.0762 Y-50.3913 F60.00
G01 X19.0182 Y-50.4029 F60.00
G01 X19.0093 Y-50.4055 F60.00
G01 X19.0006 Y-50.4089 F60.00
G01 X18.9944 Y-50.4121 F60.00
G01 X18.9884 Y-50.4157 F60.00
G01 X18.9456 Y-50.4454 F60.00
G01 X18.9382 Y-50.4511 F60.00
G01 X18.9315 Y-50.4575 F60.00
G01 X18.9269 Y-50.4627 F60.00
G01 X18.9213 Y-50.4702 F60.00
G01 X18.8936 Y-50.5144 F60.00
G01 X18.8882 Y-50.5243 F60.00
G01 X18.8855 Y-50.5310 F60.00
G01 X18.8393 Y-50.6548 F60.00
G01 X18.7689 Y-50.7489 F60.00
G01 X18.6748 Y-50.8193 F60.00
G01 X18.5632 Y-50.8609 F60.00
G01 X18.5199 Y-50.8655 F60.00
G01 X17.9341 Y-50.8656 F60.00
G01 X17.9223 Y-50.8643 F60.00
G01 X17.9153 Y-50.8640 F60.00
G01 X17.9082 Y-50.8642 F60.00
G01 X17.9013 Y-50.8650 F60.00
G01 X17.8271 Y-50.8780 F60.00
G01 X17.8164 Y-50.8811 F60.00
G01 X17.8042 Y-50.8865 F60.00
G01 X17.7965 Y-50.8911 F60.00
G01 X17.7876 Y-50.8978 F60.00
G01 X17.7350 Y-50.9450 F60.00
G01 X17.7271 Y-50.9530 F60.00
G01 X17.7191 Y-50.9637 F60.00
G01 X17.7126 Y-50.9755 F60.00
G01 X17.7080 Y-50.9881 F60.00
G01 X17.6885 Y-51.0561 F60.00
G01 X17.6863 Y-51.0676 F60.00
G01 X17.6856 Y-51.0792 F60.00
G01 X17.6856 Y-51.8057 F60.00
G01 X17.6865 Y-51.8166 F60.00
G01 X17.6887 Y-51.8273 F60.00
G01 X17.7059 Y-51.8915 F60.00
G01 X17.7081 Y-51.8980 F60.00
G01 X17.7108 Y-51.9044 F60.00
G01 X17.7139 Y-51.9105 F60.00
G01 X17.7175 Y-51.9163 F60.00
G01 X17.7215 Y-51.9219 F60.00
G01 X17.7259 Y-51.9272 F60.00
G01 X17.7761 Y-51.9775 F60.00
G01 X17.7831 Y-51.9835 F60.00
G01 X17.7925 Y-51.9899 F60.00
G01 X17.8006 Y-51.9942 F60.00
G01 X17.8091 Y-51.9977 F60.00
G01 X17.8777 Y-52.0163 F60.00
G01 X17.8863 Y-52.0182 F60.00
G01 X17.8928 Y-52.0190 F60.00
G01 X17.9015 Y-52.0194 F60.00
G01 X18.0169 Y-52.0194 F60.00
G01 X18.0602 Y-52.0241 F60.00
G01 X18.1718 Y-52.0657 F60.00
G01 X18.2659 Y-52.1361 F60.00
G01 X18.3363 Y-52.2302 F60.00
G01 X18.3779 Y-52.3418 F60.00
G01 X18.3825 Y-52.3851 F60.00
G01 X18.3826 Y-53.4209 F60.00
G01 X18.3779 Y-53.4642 F60.00
G01 X18.3363 Y-53.5758 F60.00
G01 X18.2659 Y-53.6699 F60.00
G01 X18.1718 Y-53.7403 F60.00
G01 X18.0602 Y-53.7819 F60.00
G01 X18.0169 Y-53.7865 F60.00
G01 X17.4311 Y-53.7866 F60.00
G01 X17.3878 Y-53.7819 F60.00
G01 X17.2762 Y-53.7403 F60.00
G01 X17.1821 Y-53.6699 F60.00
G01 X17.1117 Y-53.5758 F60.00
G01 X17.0870 Y-53.5096 F60.00
G01 X17.0820 Y-53.4991 F60.00
G01 X17.0757 Y-53.4893 F60.00
G01 X17.0352 Y-53.4344 F60.00
G01 X17.0265 Y-53.4243 F60.00
G01 X17.0200 Y-53.4183 F60.00
G01 X17.0147 Y-53.4142 F60.00
G01 X17.0072 Y-53.4094 F60.00
G01 X16.9993 Y-53.4053 F60.00
G01 X16.9318 Y-53.3784 F60.00
G01 X16.9191 Y-53.3743 F60.00
G01 X16.9104 Y-53.3727 F60.00
G01 X16.9015 Y-53.3719 F60.00
G01 X16.8926 Y-53.3720 F60.00
G01 X16.8837 Y-53.3730 F60.00
G01 X16.8123 Y-53.3858 F60.00
G01 X16.8015 Y-53.3887 F60.00
G01 X16.7912 Y-53.3929 F60.00
G01 X16.7815 Y-53.3983 F60.00
G01 X16.7725 Y-53.4048 F60.00
G01 X16.7169 Y-53.4550 F60.00
G01 X16.7108 Y-53.4614 F60.00
G01 X16.7066 Y-53.4666 F60.00
G01 X16.7016 Y-53.4740 F60.00
G01 X16.6983 Y-53.4798 F60.00
G01 X16.6947 Y-53.4879 F60.00
G01 X16.6925 Y-53.4942 F60.00
G01 X16.6725 Y-53.5642 F60.00
G01 X16.6703 Y-53.5756 F60.00
G01 X16.6696 Y-53.5872 F60.00
G01 X16.6696 Y-57.6619 F60.00
G01 X16.6698 Y-57.6692 F60.00
G01 X16.6728 Y-57.6975 F60.00
G01 X16.6701 Y-57.7359 F60.00
G01 X16.6696 Y-57.7582 F60.00
G01 X16.6669 Y-57.7804 F60.00
G01 X16.6642 Y-57.8188 F60.00
G01 X16.6579 Y-57.8434 F60.00
G01 X16.6419 Y-57.8784 F60.00
G01 X16.6372 Y-57.8896 F60.00
G01 X16.6225 Y-57.9288 F60.00
G01 X16.6096 Y-57.9506 F60.00
G01 X16.5844 Y-57.9797 F60.00
G01 X16.5706 Y-57.9972 F60.00
G01 X16.5552 Y-58.0134 F60.00
G01 X16.5299 Y-58.0425 F60.00
G01 X16.5078 Y-58.0604 F60.00
G01 X16.5024 Y-58.0654 F60.00
G01 X15.8354 Y-58.7324 F60.00
G01 X15.8304 Y-58.7378 F60.00
G01 X15.8125 Y-58.7599 F60.00
G01 X15.7834 Y-58.7852 F60.00
G01 X15.7672 Y-58.8006 F60.00
G01 X15.7497 Y-58.8144 F60.00
G01 X15.7206 Y-58.8396 F60.00
G01 X15.6988 Y-58.8525 F60.00
G01 X15.6627 Y-58.8660 F60.00
G01 X15.6515 Y-58.8706 F60.00
G01 X15.6134 Y-58.8879 F60.00
G01 X15.5888 Y-58.8942 F60.00
G01 X15.5504 Y-58.8969 F60.00
G01 X15.5282 Y-58.8996 F60.00
G01 X15.5059 Y-58.9001 F60.00
G01 X15.4675 Y-58.9028 F60.00
G01 X15.4392 Y-58.8998 F60.00
G01 X15.4319 Y-58.8996 F60.00
G01 X8.8351 Y-58.8996 F60.00
G01 X8.8278 Y-58.8998 F60.00
G01 X8.7995 Y-58.9028 F60.00
G01 X8.7611 Y-58.9001 F60.00
G01 X8.7388 Y-58.8996 F60.00
G01 X8.7166 Y-58.8969 F60.00
G01 X8.6782 Y-58.8942 F60.00
G01 X8.6536 Y-58.8879 F60.00
G01 X8.6156 Y-58.8706 F60.00
G01 X8.6043 Y-58.8660 F60.00
G01 X8.5682 Y-58.8525 F60.00
G01 X8.5464 Y-58.8396 F60.00
G01 X8.5173 Y-58.8144 F60.00
G01 X8.4998 Y-58.8006 F60.00
G01 X8.4836 Y-58.7852 F60.00
G01 X8.4545 Y-58.7599 F60.00
G01 X8.4366 Y-58.7378 F60.00
G01 X8.4316 Y-58.7324 F60.00
G01 X7.7586 Y-58.0594 F60.00
G01 X7.7532 Y-58.0544 F60.00
G01 X7.7311 Y-58.0365 F60.00
G01 X7.7058 Y-58.0074 F60.00
G01 X7.6904 Y-57.9912 F60.00
G01 X7.6766 Y-57.9737 F60.00
G01 X7.6514 Y-57.9446 F60.00
G01 X7.6385 Y-57.9228 F60.00
G01 X7.6238 Y-57.8836 F60.00
G01 X7.6191 Y-57.8724 F60.00
G01 X7.6030 Y-57.8368 F60.00
G01 X7.5968 Y-57.8128 F60.00
G01 X7.5941 Y-57.7744 F60.00
G01 X7.5914 Y-57.7522 F60.00
G01 X7.5909 Y-57.7299 F60.00
G01 X7.5882 Y-57.6915 F60.00
G01 X7.5912 Y-57.6632 F60.00
G01 X7.5914 Y-57.6559 F60.00
G01 X7.5914 Y-57.1526 F60.00
G01 X7.5908 Y-57.1436 F60.00
G01 X7.5887 Y-57.1325 F60.00
G01 X7.5684 Y-57.0601 F60.00
G01 X7.5650 Y-57.0518 F60.00
G01 X7.5619 Y-57.0458 F60.00
G01 X7.5570 Y-57.0382 F60.00
G01 X7.5529 Y-57.0328 F60.00
G01 X7.5469 Y-57.0261 F60.00
G01 X7.5173 Y-56.9979 F60.00
G01 X7.5123 Y-56.9919 F60.00
G01 X7.5060 Y-56.9856 F60.00
G01 X7.3459 Y-56.8541 F60.00
G01 X7.2309 Y-56.7139 F60.00
G01 X7.1454 Y-56.5540 F60.00
G01 X7.0928 Y-56.3805 F60.00
G01 X7.0750 Y-56.2000 F60.00
G01 X7.0928 Y-56.0195 F60.00
G01 X7.1454 Y-55.8460 F60.00
G01 X7.1976 Y-55.7484 F60.00
G01 X7.2005 Y-55.7425 F60.00
G01 X7.2036 Y-55.7344 F60.00
G01 X7.2065 Y-55.7239 F60.00
G01 X7.2212 Y-55.6534 F60.00
G01 X7.2224 Y-55.6444 F60.00
G01 X7.2226 Y-55.6331 F60.00
G01 X7.2221 Y-55.6262 F60.00
G01 X7.2211 Y-55.6195 F60.00
G01 X7.2182 Y-55.6085 F60.00
G01 X7.1920 Y-55.5391 F60.00
G01 X7.1893 Y-55.5328 F60.00
G01 X7.1850 Y-55.5247 F60.00
G01 X7.1800 Y-55.5172 F60.00
G01 X7.1758 Y-55.5118 F60.00
G01 X7.1695 Y-55.5052 F60.00
G01 X7.1626 Y-55.4993 F60.00
G01 X7.0992 Y-55.4525 F60.00
G01 X7.0892 Y-55.4471 F60.00
G01 X7.0808 Y-55.4436 F60.00
G01 X7.0699 Y-55.4405 F60.00
G01 X7.0586 Y-55.4387 F60.00
G01 X6.9823 Y-55.4335 F60.00
G01 X6.9710 Y-55.4340 F60.00
G01 X6.9642 Y-55.4350 F60.00
G01 X6.9575 Y-55.4364 F60.00
G01 X6.9467 Y-55.4400 F60.00
G01 X6.9364 Y-55.4448 F60.00
G01 X6.8734 Y-55.4793 F60.00
G01 X6.8643 Y-55.4853 F60.00
G01 X6.8576 Y-55.4909 F60.00
G01 X5.1786 Y-57.1697 F60.00
G01 X5.1261 Y-57.2253 F60.00
G01 X5.1203 Y-57.2300 F60.00
G01 X5.0564 Y-57.2695 F60.00
G01 X4.9966 Y-57.3088 F60.00
G01 X4.9899 Y-57.3120 F60.00
G01 X4.9186 Y-57.3357 F60.00
G01 X4.8513 Y-57.3602 F60.00
G01 X4.8440 Y-57.3618 F60.00
G01 X4.7727 Y-57.3681 F60.00
G01 X4.7424 Y-57.3716 F60.00
G01 X4.7254 Y-57.3722 F60.00
G01 X4.6847 Y-57.3758 F60.00
G01 X4.6672 Y-57.3733 F60.00
G01 X4.6403 Y-57.3716 F60.00
G01 X4.2378 Y-57.3716 F60.00
G01 X4.2285 Y-57.3723 F60.00
G01 X4.2217 Y-57.3734 F60.00
G01 X4.1729 Y-57.3834 F60.00
G01 X4.1616 Y-57.3865 F60.00
G01 X4.1509 Y-57.3909 F60.00
G01 X4.1448 Y-57.3942 F60.00
G01 X4.1389 Y-57.3980 F60.00
G01 X4.0961 Y-57.4277 F60.00
G01 X4.0889 Y-57.4336 F60.00
G01 X4.0823 Y-57.4402 F60.00
G01 X4.0778 Y-57.4455 F60.00
G01 X4.0737 Y-57.4512 F60.00
G01 X4.0460 Y-57.4954 F60.00
G01 X4.0416 Y-57.5033 F60.00
G01 X4.0383 Y-57.5108 F60.00
G01 X3.9679 Y-57.6049 F60.00
G01 X3.8738 Y-57.6753 F60.00
G01 X3.7622 Y-57.7169 F60.00
G01 X3.7189 Y-57.7215 F60.00
G01 X2.1331 Y-57.7216 F60.00
G01 X2.0898 Y-57.7169 F60.00
G01 X1.9782 Y-57.6753 F60.00
G01 X1.8841 Y-57.6049 F60.00
G01 X1.8137 Y-57.5108 F60.00
G01 X1.7721 Y-57.3992 F60.00
G01 X1.7674 Y-57.3559 F60.00
G01 X1.7674 Y-56.0701 F60.00
G01 X1.7721 Y-56.0268 F60.00
G01 X1.8137 Y-55.9152 F60.00
G01 X1.8841 Y-55.8211 F60.00
G01 X1.9782 Y-55.7507 F60.00
G01 X2.0898 Y-55.7091 F60.00
G01 X2.1331 Y-55.7044 F60.00
G01 X3.7189 Y-55.7044 F60.00
G01 X3.7622 Y-55.7091 F60.00
G01 X3.8738 Y-55.7507 F60.00
G01 X3.9679 Y-55.8211 F60.00
G01 X4.0383 Y-55.9152 F60.00
G01 X4.0415 Y-55.9225 F60.00
G01 X4.0460 Y-55.9306 F60.00
G01 X4.0737 Y-55.9748 F60.00
G01 X4.0807 Y-55.9841 F60.00
G01 X4.0889 Y-55.9924 F60.00
G01 X4.0961 Y-55.9983 F60.00
G01 X4.1408 Y-56.0293 F60.00
G01 X4.1468 Y-56.0329 F60.00
G01 X4.1530 Y-56.0361 F60.00
G01 X4.1639 Y-56.0402 F60.00
G01 X4.1729 Y-56.0426 F60.00
G01 X4.2239 Y-56.0530 F60.00
G01 X4.2332 Y-56.0542 F60.00
G01 X4.2401 Y-56.0544 F60.00
G01 X4.3418 Y-56.0544 F60.00
G01 X4.3508 Y-56.0540 F60.00
G01 X4.3597 Y-56.0527 F60.00
G01 X4.4094 Y-56.0428 F60.00
G01 X4.4202 Y-56.0396 F60.00
G01 X4.4285 Y-56.0362 F60.00
G01 X4.4384 Y-56.0307 F60.00
G01 X4.4805 Y-56.0026 F60.00
G01 X4.4878 Y-55.9973 F60.00
G01 X4.4945 Y-55.9912 F60.00
G01 X7.2782 Y-53.2075 F60.00
G01 X7.2857 Y-53.1990 F60.00
G01 X7.3177 Y-53.1514 F60.00
G01 X7.3222 Y-53.1436 F60.00
G01 X7.3258 Y-53.1353 F60.00
G01 X7.3287 Y-53.1267 F60.00
G01 X7.3302 Y-53.1202 F60.00
G01 X7.3401 Y-53.0705 F60.00
G01 X7.3413 Y-53.0593 F60.00
G01 X7.3414 Y-51.9259 F60.00
G01 X7.3410 Y-51.9169 F60.00
G01 X7.3320 Y-51.8640 F60.00
G01 X7.3288 Y-51.8531 F60.00
G01 X7.3233 Y-51.8408 F60.00
G01 X7.3014 Y-51.8019 F60.00
G01 X7.2952 Y-51.7925 F60.00
G01 X7.2309 Y-51.7139 F60.00
G01 X7.1454 Y-51.5540 F60.00
G01 X7.0928 Y-51.3805 F60.00
G01 X7.0750 Y-51.2000 F60.00
G01 X7.0928 Y-51.0195 F60.00
G01 X7.1454 Y-50.8460 F60.00
G01 X7.2309 Y-50.6861 F60.00
G01 X7.3459 Y-50.5459 F60.00
G01 X7.4861 Y-50.4309 F60.00
G01 X7.6460 Y-50.3454 F60.00
G01 X7.7889 Y-50.3021 F60.00
G01 X7.7971 Y-50.2992 F60.00
G01 X7.8029 Y-50.2965 F60.00
G01 X7.8105 Y-50.2923 F60.00
G01 X7.8699 Y-50.2554 F60.00
G01 X7.8770 Y-50.2498 F60.00
G01 X7.8834 Y-50.2435 F60.00
G01 X7.8892 Y-50.2366 F60.00
G01 X7.8931 Y-50.2310 F60.00
G01 X7.9282 Y-50.1679 F60.00
G01 X7.9327 Y-50.1576 F60.00
G01 X7.9360 Y-50.1468 F60.00
G01 X7.9379 Y-50.1357 F60.00
G01 X7.9385 Y-50.1267 F60.00
G01 X7.9375 Y-50.0567 F60.00
G01 X7.9362 Y-50.0455 F60.00
G01 X7.9334 Y-50.0346 F60.00
G01 X7.9303 Y-50.0261 F60.00
G01 X7.9252 Y-50.0160 F60.00
G01 X7.8922 Y-49.9594 F60.00
G01 X7.8882 Y-49.9535 F60.00
G01 X7.8838 Y-49.9479 F60.00
G01 X7.8790 Y-49.9427 F60.00
G01 X7.1966 Y-49.2603 F60.00
G01 X7.1912 Y-49.2553 F60.00
G01 X7.1691 Y-49.2375 F60.00
G01 X7.1438 Y-49.2084 F60.00
G01 X7.1284 Y-49.1922 F60.00
G01 X7.1146 Y-49.1747 F60.00
G01 X7.0894 Y-49.1455 F60.00
G01 X7.0765 Y-49.1237 F60.00
G01 X7.0618 Y-49.0846 F60.00
G01 X7.0571 Y-49.0734 F60.00
G01 X7.0411 Y-49.0384 F60.00
G01 X7.0348 Y-49.0138 F60.00
G01 X7.0321 Y-48.9754 F60.00
G01 X7.0299 Y-48.9567 F60.00
G01 X7.0299 Y-44.0240 F60.00
G01 X7.0294 Y-44.0116 F60.00
G01 X7.0294 Y-41.9704 F60.00
G01 X7.0299 Y-41.9580 F60.00
G01 X7.0299 Y-36.6580 F60.00
G01 X7.0294 Y-36.6456 F60.00
G01 X7.0294 Y-24.2561 F60.00
G01 X7.0292 Y-24.2488 F60.00
G01 X7.0262 Y-24.2205 F60.00
G01 X7.0289 Y-24.1821 F60.00
G01 X7.0294 Y-24.1598 F60.00
G01 X7.0321 Y-24.1376 F60.00
G01 X7.0348 Y-24.0992 F60.00
G01 X7.0411 Y-24.0746 F60.00
G01 X7.0584 Y-24.0365 F60.00
G01 X7.0630 Y-24.0253 F60.00
G01 X7.0765 Y-23.9892 F60.00
G01 X7.0894 Y-23.9674 F60.00
G01 X7.1146 Y-23.9383 F60.00
G01 X7.1284 Y-23.9208 F60.00
G01 X7.1438 Y-23.9046 F60.00
G01 X7.1691 Y-23.8755 F60.00
G01 X7.1948 Y-23.8544 F60.00
G01 X7.2802 Y-23.7690 F60.00
G01 X7.2890 Y-23.7588 F60.00
G01 X7.3197 Y-23.7130 F60.00
G01 X7.3232 Y-23.7071 F60.00
G01 X7.3270 Y-23.6990 F60.00
G01 X7.3294 Y-23.6926 F60.00
G01 X7.3318 Y-23.6839 F60.00
G01 X7.3428 Y-23.6276 F60.00
G01 X7.3434 Y-23.6163 F60.00
G01 X7.3434 Y-21.5735 F60.00
G01 X7.3432 Y-21.5669 F60.00
G01 X7.3422 Y-21.5583 F60.00
G01 X7.3403 Y-21.5497 F60.00
G01 X7.3231 Y-21.4855 F60.00
G01 X7.3192 Y-21.4747 F60.00
G01 X7.3151 Y-21.4665 F60.00
G01 X7.3089 Y-21.4569 F60.00
G01 X7.3015 Y-21.4481 F60.00
G01 X7.2529 Y-21.3995 F60.00
G01 X7.2441 Y-21.3921 F60.00
G01 X7.2365 Y-21.3871 F60.00
G01 X7.2284 Y-21.3828 F60.00
G01 X7.2199 Y-21.3793 F60.00
G01 X7.1513 Y-21.3607 F60.00
G01 X7.1427 Y-21.3588 F60.00
G01 X7.1362 Y-21.3580 F60.00
G01 X7.1275 Y-21.3576 F60.00
G01 X5.1544 Y-21.3576 F60.00
G01 X5.1081 Y-21.3484 F60.00
G01 X5.0996 Y-21.3427 F60.00
G01 X5.0918 Y-21.3382 F60.00
G01 X5.0548 Y-21.3208 F60.00
G01 X5.0443 Y-21.3168 F60.00
G01 X5.0333 Y-21.3142 F60.00
G01 X4.9928 Y-21.3082 F60.00
G01 X4.9816 Y-21.3076 F60.00
G01 X4.7098 Y-21.3076 F60.00
G01 X4.7003 Y-21.3083 F60.00
G01 X4.6933 Y-21.3095 F60.00
G01 X4.6312 Y-21.3243 F60.00
G01 X4.6185 Y-21.3289 F60.00
G01 X4.6125 Y-21.3320 F60.00
G01 X4.6049 Y-21.3366 F60.00
G01 X4.5977 Y-21.3421 F60.00
G01 X4.5539 Y-21.3786 F60.00
G01 X4.5487 Y-21.3834 F60.00
G01 X4.5438 Y-21.3886 F60.00
G01 X4.5393 Y-21.3941 F60.00
G01 X4.4549 Y-21.5069 F60.00
G01 X4.3608 Y-21.5773 F60.00
G01 X4.2492 Y-21.6189 F60.00
G01 X4.2059 Y-21.6235 F60.00
G01 X3.1701 Y-21.6236 F60.00
G01 X3.1268 Y-21.6189 F60.00
G01 X3.0152 Y-21.5773 F60.00
G01 X2.9211 Y-21.5069 F60.00
G01 X2.8507 Y-21.4128 F60.00
G01 X2.8091 Y-21.3012 F60.00
G01 X2.8044 Y-21.2579 F60.00
G01 X2.8044 Y-20.6721 F60.00
G01 X2.8091 Y-20.6288 F60.00
G01 X2.8507 Y-20.5172 F60.00
G01 X2.9211 Y-20.4231 F60.00
G01 X3.0152 Y-20.3527 F60.00
G01 X3.1268 Y-20.3111 F60.00
G01 X3.1701 Y-20.3064 F60.00
G01 X4.2059 Y-20.3064 F60.00
G01 X4.2492 Y-20.3111 F60.00
G01 X4.3608 Y-20.3527 F60.00
G01 X4.4797 Y-20.4417 F60.00
G01 X4.4896 Y-20.4482 F60.00
G01 X4.5024 Y-20.4587 F60.00
G01 X4.5098 Y-20.4638 F60.00
G01 X4.5157 Y-20.4671 F60.00
G01 X4.5239 Y-20.4708 F60.00
G01 X4.5345 Y-20.4743 F60.00
G01 X4.5945 Y-20.4885 F60.00
G01 X4.6062 Y-20.4902 F60.00
G01 X4.6133 Y-20.4904 F60.00
G01 X4.9816 Y-20.4904 F60.00
G01 X4.9906 Y-20.4900 F60.00
G01 X5.0355 Y-20.4833 F60.00
G01 X5.0443 Y-20.4811 F60.00
G01 X5.0528 Y-20.4781 F60.00
G01 X5.0958 Y-20.4576 F60.00
G01 X5.1191 Y-20.4423 F60.00
G01 X5.1296 Y-20.4337 F60.00
G01 X5.1777 Y-20.3808 F60.00
G01 X5.1843 Y-20.3716 F60.00
G01 X5.1898 Y-20.3618 F60.00
G01 X5.1924 Y-20.3555 F60.00
G01 X5.1953 Y-20.3470 F60.00
G01 X5.2110 Y-20.2841 F60.00
G01 X5.2130 Y-20.2708 F60.00
G01 X5.2132 Y-20.2640 F60.00
G01 X5.2128 Y-20.2550 F60.00
G01 X5.2110 Y-20.2438 F60.00
G01 X5.1953 Y-20.1810 F60.00
G01 X5.1907 Y-20.1683 F60.00
G01 X5.1843 Y-20.1563 F60.00
G01 X5.1805 Y-20.1508 F60.00
G01 X5.1748 Y-20.1438 F60.00
G01 X5.1343 Y-20.0991 F60.00
G01 X5.1262 Y-20.0913 F60.00
G01 X5.1173 Y-20.0844 F60.00
G01 X5.0557 Y-20.0433 F60.00
G01 X5.0206 Y-19.9909 F60.00
G01 X5.0114 Y-19.9446 F60.00
G01 X5.0114 Y-19.3134 F60.00
G01 X5.0206 Y-19.2671 F60.00
G01 X5.0557 Y-19.2147 F60.00
G01 X5.1081 Y-19.1796 F60.00
G01 X5.1544 Y-19.1704 F60.00
G01 X5.5469 Y-19.1703 F60.00
G01 X5.5556 Y-19.1695 F60.00
G01 X5.5642 Y-19.1679 F60.00
G01 X5.6283 Y-19.1507 F60.00
G01 X5.6392 Y-19.1471 F60.00
G01 X5.6454 Y-19.1442 F60.00
G01 X5.6534 Y-19.1397 F60.00
G01 X5.6609 Y-19.1345 F60.00
G01 X5.6662 Y-19.1301 F60.00
G01 X5.7165 Y-19.0799 F60.00
G01 X5.7225 Y-19.0729 F60.00
G01 X5.7265 Y-19.0673 F60.00
G01 X5.7301 Y-19.0615 F60.00
G01 X5.7332 Y-19.0554 F60.00
G01 X5.7359 Y-19.0490 F60.00
G01 X5.7381 Y-19.0425 F60.00
G01 X5.7553 Y-18.9783 F60.00
G01 X5.7578 Y-18.9654 F60.00
G01 X5.7584 Y-18.9545 F60.00
G01 X5.7583 Y-18.6940 F60.00
G01 X5.7574 Y-18.6846 F60.00
G01 X5.7560 Y-18.6776 F60.00
G01 X5.7429 Y-18.6221 F60.00
G01 X5.7404 Y-18.6135 F60.00
G01 X5.7351 Y-18.6011 F60.00
G01 X5.7281 Y-18.5896 F60.00
G01 X5.6842 Y-18.5370 F60.00
G01 X5.6792 Y-18.5319 F60.00
G01 X5.6738 Y-18.5273 F60.00
G01 X5.6251 Y-18.4909 F60.00
G01 X5.5547 Y-18.3968 F60.00
G01 X5.5131 Y-18.2852 F60.00
G01 X5.5084 Y-18.2419 F60.00
G01 X5.5084 Y-17.2061 F60.00
G01 X5.5131 Y-17.1628 F60.00
G01 X5.5547 Y-17.0512 F60.00
G01 X5.6251 Y-16.9571 F60.00
G01 X5.7192 Y-16.8867 F60.00
G01 X5.8308 Y-16.8451 F60.00
G01 X5.8741 Y-16.8404 F60.00
G01 X6.4599 Y-16.8404 F60.00
G01 X6.5032 Y-16.8451 F60.00
G01 X6.6148 Y-16.8867 F60.00
G01 X6.7089 Y-16.9571 F60.00
G01 X6.7793 Y-17.0512 F60.00
G01 X6.8209 Y-17.1628 F60.00
G01 X6.8255 Y-17.2061 F60.00
G01 X6.8256 Y-18.2419 F60.00
G01 X6.8209 Y-18.2852 F60.00
G01 X6.7793 Y-18.3968 F60.00
G01 X6.7089 Y-18.4909 F60.00
G01 X6.6602 Y-18.5273 F60.00
G01 X6.6531 Y-18.5336 F60.00
G01 X6.6466 Y-18.5405 F60.00
G01 X6.6059 Y-18.5896 F60.00
G01 X6.6022 Y-18.5952 F60.00
G01 X6.5979 Y-18.6031 F60.00
G01 X6.5944 Y-18.6114 F60.00
G01 X6.5923 Y-18.6178 F60.00
G01 X6.5775 Y-18.6799 F60.00
G01 X6.5763 Y-18.6869 F60.00
G01 X6.5757 Y-18.6940 F60.00
G01 X6.5756 Y-18.9545 F60.00
G01 X6.5762 Y-18.9654 F60.00
G01 X6.5781 Y-18.9762 F60.00
G01 X6.5973 Y-19.0469 F60.00
G01 X6.6008 Y-19.0554 F60.00
G01 X6.6051 Y-19.0635 F60.00
G01 X6.6101 Y-19.0711 F60.00
G01 X6.6144 Y-19.0765 F60.00
G01 X6.6661 Y-19.1285 F60.00
G01 X6.6713 Y-19.1331 F60.00
G01 X6.6768 Y-19.1372 F60.00
G01 X6.6825 Y-19.1409 F60.00
G01 X6.6886 Y-19.1442 F60.00
G01 X6.6948 Y-19.1471 F60.00
G01 X6.7013 Y-19.1494 F60.00
G01 X6.7698 Y-19.1679 F60.00
G01 X6.7806 Y-19.1698 F60.00
G01 X6.7915 Y-19.1704 F60.00
G01 X7.1856 Y-19.1704 F60.00
G01 X7.2319 Y-19.1796 F60.00
G01 X7.2843 Y-19.2147 F60.00
G01 X7.3194 Y-19.2671 F60.00
G01 X7.3286 Y-19.3134 F60.00
G01 X7.3286 Y-19.9446 F60.00
G01 X7.3194 Y-19.9909 F60.00
G01 X7.2843 Y-20.0433 F60.00
G01 X7.2209 Y-20.0857 F60.00
G01 X7.2104 Y-20.0943 F60.00
G01 X7.1623 Y-20.1472 F60.00
G01 X7.1545 Y-20.1583 F60.00
G01 X7.1484 Y-20.1704 F60.00
G01 X7.1447 Y-20.1810 F60.00
G01 X7.1290 Y-20.2439 F60.00
G01 X7.1272 Y-20.2550 F60.00
G01 X7.1268 Y-20.2663 F60.00
G01 X7.1278 Y-20.2775 F60.00
G01 X7.1295 Y-20.2863 F60.00
G01 X7.1447 Y-20.3470 F60.00
G01 X7.1476 Y-20.3555 F60.00
G01 X7.1512 Y-20.3638 F60.00
G01 X7.1569 Y-20.3735 F60.00
G01 X7.1637 Y-20.3825 F60.00
G01 X7.2072 Y-20.4305 F60.00
G01 X7.2155 Y-20.4382 F60.00
G01 X7.2227 Y-20.4436 F60.00
G01 X7.2403 Y-20.4553 F60.00
G01 X7.2461 Y-20.4586 F60.00
G01 X7.2852 Y-20.4772 F60.00
G01 X7.2979 Y-20.4818 F60.00
G01 X7.3089 Y-20.4841 F60.00
G01 X7.3472 Y-20.4898 F60.00
G01 X7.3562 Y-20.4904 F60.00
G01 X7.5603 Y-20.4904 F60.00
G01 X7.5935 Y-20.4872 F60.00
G01 X7.6319 Y-20.4899 F60.00
G01 X7.6542 Y-20.4904 F60.00
G01 X7.6764 Y-20.4931 F60.00
G01 X7.7148 Y-20.4958 F60.00
G01 X7.7394 Y-20.5021 F60.00
G01 X7.7744 Y-20.5181 F60.00
G01 X7.7856 Y-20.5228 F60.00
G01 X7.8248 Y-20.5375 F60.00
G01 X7.8466 Y-20.5504 F60.00
G01 X7.8757 Y-20.5756 F60.00
G01 X7.8932 Y-20.5894 F60.00
G01 X7.9094 Y-20.6048 F60.00
G01 X7.9385 Y-20.6301 F60.00
G01 X7.9564 Y-20.6522 F60.00
G01 X7.9614 Y-20.6576 F60.00
G01 X7.9970 Y-20.6930 F60.00
G01 X8.0209 Y-20.7125 F60.00
G01 X8.0462 Y-20.7416 F60.00
G01 X8.0616 Y-20.7578 F60.00
G01 X8.0754 Y-20.7753 F60.00
G01 X8.1006 Y-20.8044 F60.00
G01 X8.1135 Y-20.8262 F60.00
G01 X8.1270 Y-20.8623 F60.00
G01 X8.1316 Y-20.8736 F60.00
G01 X8.1489 Y-20.9116 F60.00
G01 X8.1552 Y-20.9362 F60.00
G01 X8.1579 Y-20.9746 F60.00
G01 X8.1606 Y-20.9968 F60.00
G01 X8.1611 Y-21.0191 F60.00
G01 X8.1638 Y-21.0575 F60.00
G01 X8.1608 Y-21.0858 F60.00
G01 X8.1606 Y-21.0931 F60.00
G01 X8.1606 Y-23.8079 F60.00
G01 X8.1608 Y-23.8152 F60.00
G01 X8.1638 Y-23.8435 F60.00
G01 X8.1611 Y-23.8819 F60.00
G01 X8.1606 Y-23.9042 F60.00
G01 X8.1579 Y-23.9264 F60.00
G01 X8.1552 Y-23.9648 F60.00
G01 X8.1489 Y-23.9894 F60.00
G01 X8.1329 Y-24.0244 F60.00
G01 X8.1282 Y-24.0356 F60.00
G01 X8.1135 Y-24.0748 F60.00
G01 X8.1006 Y-24.0966 F60.00
G01 X8.0754 Y-24.1257 F60.00
G01 X8.0616 Y-24.1432 F60.00
G01 X8.0462 Y-24.1594 F60.00
G01 X8.0209 Y-24.1885 F60.00
G01 X7.9952 Y-24.2097 F60.00
G01 X7.9067 Y-24.2982 F60.00
G01 X7.8996 Y-24.3071 F60.00
G01 X7.8703 Y-24.3510 F60.00
G01 X7.8668 Y-24.3569 F60.00
G01 X7.8630 Y-24.3650 F60.00
G01 X7.8587 Y-24.3779 F60.00
G01 X7.8479 Y-24.4320 F60.00
G01 X7.8468 Y-24.4409 F60.00
G01 X7.8466 Y-24.4477 F60.00
G01 X7.8466 Y-34.9658 F60.00
G01 X7.8472 Y-34.9744 F60.00
G01 X7.8486 Y-34.9830 F60.00
G01 X7.8626 Y-35.0414 F60.00
G01 X7.8659 Y-35.0523 F60.00
G01 X7.8706 Y-35.0627 F60.00
G01 X7.8752 Y-35.0705 F60.00
G01 X7.8806 Y-35.0779 F60.00
G01 X7.9197 Y-35.1236 F60.00
G01 X7.9276 Y-35.1318 F60.00
G01 X7.9365 Y-35.1390 F60.00
G01 X7.9442 Y-35.1439 F60.00
G01 X7.9523 Y-35.1480 F60.00
G01 X8.0079 Y-35.1710 F60.00
G01 X8.0187 Y-35.1747 F60.00
G01 X8.0298 Y-35.1771 F60.00
G01 X8.0389 Y-35.1779 F60.00
G01 X8.0480 Y-35.1779 F60.00
G01 X8.1080 Y-35.1732 F60.00
G01 X8.1148 Y-35.1724 F60.00
G01 X8.1215 Y-35.1711 F60.00
G01 X8.1325 Y-35.1679 F60.00
G01 X8.1388 Y-35.1653 F60.00
G01 X8.1469 Y-35.1611 F60.00
G01 X8.1982 Y-35.1297 F60.00
G01 X8.2071 Y-35.1235 F60.00
G01 X8.2152 Y-35.1163 F60.00
G01 X10.9072 Y-32.4243 F60.00
G01 X10.9133 Y-32.4176 F60.00
G01 X10.9186 Y-32.4104 F60.00
G01 X10.9467 Y-32.3683 F60.00
G01 X10.9531 Y-32.3563 F60.00
G01 X10.9564 Y-32.3479 F60.00
G01 X10.9588 Y-32.3392 F60.00
G01 X10.9691 Y-32.2873 F60.00
G01 X10.9702 Y-32.2784 F60.00
G01 X10.9704 Y-32.2716 F60.00
G01 X10.9702 Y-31.1069 F60.00
G01 X10.9692 Y-31.0983 F60.00
G01 X10.9679 Y-31.0918 F60.00
G01 X10.9507 Y-31.0277 F60.00
G01 X10.9479 Y-31.0190 F60.00
G01 X10.9432 Y-31.0085 F60.00
G01 X10.9372 Y-30.9988 F60.00
G01 X10.9301 Y-30.9898 F60.00
G01 X10.8799 Y-30.9395 F60.00
G01 X10.8729 Y-30.9335 F60.00
G01 X10.8635 Y-30.9271 F60.00
G01 X10.8554 Y-30.9228 F60.00
G01 X10.8469 Y-30.9193 F60.00
G01 X10.7762 Y-30.9001 F60.00
G01 X10.7654 Y-30.8982 F60.00
G01 X10.7567 Y-30.8976 F60.00
G01 X9.6011 Y-30.8976 F60.00
G01 X9.5578 Y-30.8929 F60.00
G01 X9.4462 Y-30.8513 F60.00
G01 X9.3521 Y-30.7809 F60.00
G01 X9.2817 Y-30.6868 F60.00
G01 X9.2401 Y-30.5752 F60.00
G01 X9.2354 Y-30.5319 F60.00
G01 X9.2354 Y-29.0461 F60.00
G01 X9.2401 Y-29.0028 F60.00
G01 X9.2817 Y-28.8912 F60.00
G01 X9.3521 Y-28.7971 F60.00
G01 X9.4462 Y-28.7267 F60.00
G01 X9.5578 Y-28.6851 F60.00
G01 X9.6011 Y-28.6804 F60.00
G01 X11.7996 Y-28.6804 F60.00
G01 X11.8086 Y-28.6800 F60.00
G01 X11.8176 Y-28.6787 F60.00
G01 X11.8672 Y-28.6688 F60.00
G01 X11.8802 Y-28.6648 F60.00
G01 X11.8884 Y-28.6612 F60.00
G01 X11.8982 Y-28.6555 F60.00
G01 X11.9402 Y-28.6274 F60.00
G01 X11.9474 Y-28.6218 F60.00
G01 X11.9523 Y-28.6172 F60.00
G01 X12.9805 Y-27.5890 F60.00
G01 X12.9876 Y-27.5806 F60.00
G01 X12.9936 Y-27.5714 F60.00
G01 X13.0312 Y-27.5022 F60.00
G01 X13.0352 Y-27.4915 F60.00
G01 X13.0379 Y-27.4804 F60.00
G01 X13.0391 Y-27.4714 F60.00
G01 X13.0392 Y-27.4600 F60.00
G01 X13.0339 Y-27.3858 F60.00
G01 X13.0327 Y-27.3771 F60.00
G01 X13.0300 Y-27.3666 F60.00
G01 X13.0194 Y-27.3379 F60.00
G01 X13.0155 Y-27.3294 F60.00
G01 X12.9856 Y-27.2811 F60.00
G01 X12.9788 Y-27.2717 F60.00
G01 X12.9709 Y-27.2632 F60.00
G01 X12.9620 Y-27.2558 F60.00
G01 X12.9172 Y-27.2247 F60.00
G01 X12.9071 Y-27.2189 F60.00
G01 X12.8964 Y-27.2145 F60.00
G01 X12.8874 Y-27.2119 F60.00
G01 X12.8318 Y-27.2006 F60.00
G01 X12.8249 Y-27.1998 F60.00
G01 X12.8179 Y-27.1996 F60.00
G01 X11.3277 Y-27.1996 F60.00
G01 X11.2988 Y-27.2017 F60.00
G01 X11.2858 Y-27.2036 F60.00
G01 X11.2528 Y-27.2003 F60.00
G01 X11.2378 Y-27.1996 F60.00
G01 X11.2070 Y-27.1996 F60.00
G01 X11.1942 Y-27.1963 F60.00
G01 X11.1709 Y-27.1919 F60.00
G01 X11.1604 Y-27.1907 F60.00
G01 X11.1295 Y-27.1786 F60.00
G01 X11.1152 Y-27.1739 F60.00
G01 X11.0856 Y-27.1655 F60.00
G01 X11.0742 Y-27.1590 F60.00
G01 X11.0529 Y-27.1485 F60.00
G01 X11.0431 Y-27.1445 F60.00
G01 X11.0186 Y-27.1259 F60.00
G01 X11.0062 Y-27.1174 F60.00
G01 X10.9779 Y-27.1000 F60.00
G01 X10.9376 Y-27.0571 F60.00
G01 X9.3356 Y-25.4551 F60.00
G01 X9.3136 Y-25.4361 F60.00
G01 X9.3031 Y-25.4283 F60.00
G01 X9.2821 Y-25.4026 F60.00
G01 X9.2719 Y-25.3915 F60.00
G01 X9.2502 Y-25.3697 F60.00
G01 X9.2449 Y-25.3606 F60.00
G01 X9.2316 Y-25.3409 F60.00
G01 X9.2235 Y-25.3305 F60.00
G01 X9.2102 Y-25.3001 F60.00
G01 X9.2035 Y-25.2867 F60.00
G01 X9.1884 Y-25.2598 F60.00
G01 X9.1850 Y-25.2471 F60.00
G01 X9.1774 Y-25.2246 F60.00
G01 X9.1733 Y-25.2149 F60.00
G01 X9.1687 Y-25.1820 F60.00
G01 X9.1658 Y-25.1673 F60.00
G01 X9.1586 Y-25.1373 F60.00
G01 X9.1604 Y-25.0785 F60.00
G01 X9.1604 Y-22.6077 F60.00
G01 X9.1583 Y-22.5788 F60.00
G01 X9.1564 Y-22.5658 F60.00
G01 X9.1597 Y-22.5328 F60.00
G01 X9.1604 Y-22.5178 F60.00
G01 X9.1604 Y-22.4870 F60.00
G01 X9.1632 Y-22.4768 F60.00
G01 X9.1676 Y-22.4535 F60.00
G01 X9.1693 Y-22.4404 F60.00
G01 X9.1806 Y-22.4117 F60.00
G01 X9.1854 Y-22.3975 F60.00
G01 X9.1945 Y-22.3656 F60.00
G01 X9.2010 Y-22.3542 F60.00
G01 X9.2115 Y-22.3329 F60.00
G01 X9.2155 Y-22.3231 F60.00
G01 X9.2341 Y-22.2986 F60.00
G01 X9.2426 Y-22.2862 F60.00
G01 X9.2600 Y-22.2579 F60.00
G01 X9.3029 Y-22.2176 F60.00
G01 X9.6349 Y-21.8856 F60.00
G01 X9.6539 Y-21.8636 F60.00
G01 X9.6617 Y-21.8531 F60.00
G01 X9.6874 Y-21.8321 F60.00
G01 X9.6985 Y-21.8220 F60.00
G01 X9.7203 Y-21.8002 F60.00
G01 X9.7316 Y-21.7935 F60.00
G01 X9.7512 Y-21.7801 F60.00
G01 X9.7595 Y-21.7735 F60.00
G01 X9.7899 Y-21.7602 F60.00
G01 X9.8033 Y-21.7535 F60.00
G01 X9.8302 Y-21.7384 F60.00
G01 X9.8404 Y-21.7358 F60.00
G01 X9.8629 Y-21.7282 F60.00
G01 X9.8751 Y-21.7233 F60.00
G01 X9.9056 Y-21.7191 F60.00
G01 X9.9204 Y-21.7163 F60.00
G01 X9.9527 Y-21.7086 F60.00
G01 X10.0115 Y-21.7104 F60.00
G01 X10.3882 Y-21.7104 F60.00
G01 X10.3975 Y-21.7100 F60.00
G01 X10.4068 Y-21.7085 F60.00
G01 X10.4763 Y-21.6904 F60.00
G01 X10.4867 Y-21.6864 F60.00
G01 X10.4966 Y-21.6812 F60.00
G01 X10.5040 Y-21.6762 F60.00
G01 X10.5109 Y-21.6705 F60.00
G01 X10.5576 Y-21.6256 F60.00
G01 X10.5652 Y-21.6174 F60.00
G01 X10.5705 Y-21.6102 F60.00
G01 X10.5771 Y-21.5985 F60.00
G01 X10.5812 Y-21.5881 F60.00
G01 X10.6007 Y-21.5239 F60.00
G01 X10.6026 Y-21.5152 F60.00
G01 X10.6038 Y-21.5063 F60.00
G01 X10.6039 Y-21.4952 F60.00
G01 X10.6027 Y-21.4841 F60.00
G01 X10.5874 Y-21.4142 F60.00
G01 X10.5846 Y-21.4057 F60.00
G01 X10.5811 Y-21.3975 F60.00
G01 X10.5767 Y-21.3896 F60.00
G01 X10.5716 Y-21.3823 F60.00
G01 X10.5242 Y-21.3286 F60.00
G01 X10.5157 Y-21.3205 F60.00
G01 X10.5057 Y-21.3133 F60.00
G01 X10.4706 Y-21.2609 F60.00
G01 X10.4614 Y-21.2146 F60.00
G01 X10.4614 Y-20.5834 F60.00
G01 X10.4706 Y-20.5371 F60.00
G01 X10.5057 Y-20.4847 F60.00
G01 X10.5673 Y-20.4436 F60.00
G01 X10.5779 Y-20.4352 F60.00
G01 X10.5843 Y-20.4289 F60.00
G01 X10.6263 Y-20.3825 F60.00
G01 X10.6318 Y-20.3754 F60.00
G01 X10.6355 Y-20.3697 F60.00
G01 X10.6407 Y-20.3597 F60.00
G01 X10.6446 Y-20.3491 F60.00
G01 X10.6615 Y-20.2819 F60.00
G01 X10.6630 Y-20.2708 F60.00
G01 X10.6632 Y-20.2617 F60.00
G01 X10.6625 Y-20.2527 F60.00
G01 X10.6610 Y-20.2439 F60.00
G01 X10.6458 Y-20.1832 F60.00
G01 X10.6432 Y-20.1746 F60.00
G01 X10.6398 Y-20.1662 F60.00
G01 X10.6355 Y-20.1583 F60.00
G01 X10.6318 Y-20.1526 F60.00
G01 X10.6263 Y-20.1455 F60.00
G01 X10.5828 Y-20.0975 F60.00
G01 X10.5762 Y-20.0913 F60.00
G01 X10.5691 Y-20.0857 F60.00
G01 X10.5496 Y-20.0727 F60.00
G01 X10.5417 Y-20.0682 F60.00
G01 X10.5027 Y-20.0499 F60.00
G01 X10.4942 Y-20.0468 F60.00
G01 X10.4855 Y-20.0447 F60.00
G01 X10.4428 Y-20.0382 F60.00
G01 X10.4316 Y-20.0376 F60.00
G01 X9.2161 Y-20.0376 F60.00
G01 X9.2088 Y-20.0378 F60.00
G01 X9.1805 Y-20.0408 F60.00
G01 X9.1421 Y-20.0381 F60.00
G01 X9.1198 Y-20.0376 F60.00
G01 X9.0976 Y-20.0349 F60.00
G01 X9.0592 Y-20.0322 F60.00
G01 X9.0346 Y-20.0259 F60.00
G01 X8.9966 Y-20.0086 F60.00
G01 X8.9853 Y-20.0040 F60.00
G01 X8.9492 Y-19.9905 F60.00
G01 X8.9274 Y-19.9776 F60.00
G01 X8.8983 Y-19.9524 F60.00
G01 X8.8808 Y-19.9386 F60.00
G01 X8.8646 Y-19.9232 F60.00
G01 X8.8355 Y-19.8979 F60.00
G01 X8.8176 Y-19.8758 F60.00
G01 X8.8126 Y-19.8704 F60.00
G01 X7.8256 Y-18.8834 F60.00
G01 X7.8202 Y-18.8784 F60.00
G01 X7.7981 Y-18.8605 F60.00
G01 X7.7728 Y-18.8314 F60.00
G01 X7.7574 Y-18.8152 F60.00
G01 X7.7436 Y-18.7977 F60.00
G01 X7.7184 Y-18.7686 F60.00
G01 X7.7055 Y-18.7468 F60.00
G01 X7.6920 Y-18.7107 F60.00
G01 X7.6874 Y-18.6994 F60.00
G01 X7.6630 Y-18.6458 F60.00
G01 X7.6506 Y-18.6115 F60.00
G01 X7.6466 Y-18.6034 F60.00
G01 X7.6405 Y-18.5939 F60.00
G01 X7.6348 Y-18.5869 F60.00
G01 X7.6025 Y-18.5510 F60.00
G01 X7.5961 Y-18.5445 F60.00
G01 X7.5892 Y-18.5388 F60.00
G01 X7.5251 Y-18.4909 F60.00
G01 X7.4547 Y-18.3968 F60.00
G01 X7.4131 Y-18.2852 F60.00
G01 X7.4084 Y-18.2419 F60.00
G01 X7.4084 Y-17.2061 F60.00
G01 X7.4131 Y-17.1628 F60.00
G01 X7.4547 Y-17.0512 F60.00
G01 X7.5251 Y-16.9571 F60.00
G01 X7.6192 Y-16.8867 F60.00
G01 X7.7308 Y-16.8451 F60.00
G01 X7.7741 Y-16.8404 F60.00
G01 X8.3599 Y-16.8404 F60.00
G01 X8.4032 Y-16.8451 F60.00
G01 X8.5148 Y-16.8867 F60.00
G01 X8.6089 Y-16.9571 F60.00
G01 X8.6793 Y-17.0512 F60.00
G01 X8.7209 Y-17.1628 F60.00
G01 X8.7255 Y-17.2061 F60.00
G01 X8.7256 Y-18.2419 F60.00
G01 X8.7209 Y-18.2852 F60.00
G01 X8.6762 Y-18.4054 F60.00
G01 X8.6735 Y-18.4160 F60.00
G01 X8.6649 Y-18.4666 F60.00
G01 X8.6641 Y-18.4753 F60.00
G01 X8.6640 Y-18.4819 F60.00
G01 X8.6653 Y-18.4950 F60.00
G01 X8.6761 Y-18.5451 F60.00
G01 X8.6790 Y-18.5556 F60.00
G01 X8.6832 Y-18.5657 F60.00
G01 X8.6886 Y-18.5753 F60.00
G01 X8.7173 Y-18.6178 F60.00
G01 X8.7257 Y-18.6279 F60.00
G01 X9.2582 Y-19.1603 F60.00
G01 X9.2670 Y-19.1674 F60.00
G01 X9.3091 Y-19.1955 F60.00
G01 X9.3169 Y-19.2002 F60.00
G01 X9.3230 Y-19.2031 F60.00
G01 X9.3314 Y-19.2064 F60.00
G01 X9.3401 Y-19.2088 F60.00
G01 X9.3964 Y-19.2198 F60.00
G01 X9.4077 Y-19.2204 F60.00
G01 X10.4361 Y-19.2203 F60.00
G01 X10.4451 Y-19.2195 F60.00
G01 X10.4811 Y-19.2141 F60.00
G01 X10.4943 Y-19.2112 F60.00
G01 X10.5048 Y-19.2072 F60.00
G01 X10.5418 Y-19.1897 F60.00
G01 X10.5496 Y-19.1853 F60.00
G01 X10.5581 Y-19.1796 F60.00
G01 X10.6044 Y-19.1704 F60.00
G01 X12.6356 Y-19.1704 F60.00
G01 X12.6819 Y-19.1796 F60.00
G01 X12.7264 Y-19.2093 F60.00
G01 X12.7345 Y-19.2136 F60.00
G01 X12.7429 Y-19.2170 F60.00
G01 X12.8119 Y-19.2397 F60.00
G01 X12.8252 Y-19.2424 F60.00
G01 X12.8387 Y-19.2430 F60.00
G01 X12.8477 Y-19.2424 F60.00
G01 X12.8544 Y-19.2413 F60.00
G01 X12.9211 Y-19.2263 F60.00
G01 X12.9319 Y-19.2232 F60.00
G01 X12.9423 Y-19.2188 F60.00
G01 X12.9520 Y-19.2131 F60.00
G01 X12.9627 Y-19.2047 F60.00
G01 X13.0123 Y-19.1576 F60.00
G01 X13.0185 Y-19.1511 F60.00
G01 X13.0240 Y-19.1440 F60.00
G01 X13.0289 Y-19.1363 F60.00
G01 X13.0329 Y-19.1283 F60.00
G01 X13.0362 Y-19.1199 F60.00
G01 X13.0557 Y-19.0496 F60.00
G01 X13.0575 Y-19.0408 F60.00
G01 X13.0583 Y-19.0318 F60.00
G01 X13.0584 Y-18.4884 F60.00
G01 X13.0571 Y-18.4750 F60.00
G01 X13.0468 Y-18.4231 F60.00
G01 X13.0428 Y-18.4101 F60.00
G01 X13.0392 Y-18.4019 F60.00
G01 X13.0359 Y-18.3960 F60.00
G01 X13.0054 Y-18.3500 F60.00
G01 X12.9968 Y-18.3396 F60.00
G01 X12.8498 Y-18.1927 F60.00
G01 X12.8410 Y-18.1856 F60.00
G01 X12.7989 Y-18.1575 F60.00
G01 X12.7911 Y-18.1528 F60.00
G01 X12.7830 Y-18.1490 F60.00
G01 X12.7745 Y-18.1459 F60.00
G01 X12.7679 Y-18.1442 F60.00
G01 X12.7183 Y-18.1343 F60.00
G01 X12.7093 Y-18.1330 F60.00
G01 X12.7003 Y-18.1326 F60.00
G01 X12.6084 Y-18.1326 F60.00
G01 X12.6015 Y-18.1330 F60.00
G01 X12.5946 Y-18.1340 F60.00
G01 X12.5389 Y-18.1455 F60.00
G01 X12.5323 Y-18.1475 F60.00
G01 X12.5258 Y-18.1500 F60.00
G01 X12.5195 Y-18.1530 F60.00
G01 X12.5114 Y-18.1577 F60.00
G01 X12.4630 Y-18.1916 F60.00
