(G-CODE GENERATED BY FLATCAM v8.994 - www.flatcam.org - Version Date: 2020/11/7)

(Name: Mixers.drl_cnc)
(Type: G-code from Geometry)
(Units: MM)

(Created on Wednesday, 22 March 2023 at 20:02)

(This preprocessor is used with a motion controller loaded with GRBL firmware.)
(It is configured to be compatible with almost any version of GRBL firmware.)


(TOOLS DIAMETER: )
(Tool: 1 -> Dia: 0.4)
(Tool: 2 -> Dia: 0.762)
(Tool: 3 -> Dia: 0.762)
(Tool: 4 -> Dia: 0.762)
(Tool: 5 -> Dia: 0.762)
(Tool: 6 -> Dia: 1.0)
(Tool: 7 -> Dia: 1.2)
(Tool: 8 -> Dia: 1.5)
(Tool: 9 -> Dia: 1.5)
(Tool: 10 -> Dia: 1.7)
(Tool: 11 -> Dia: 1.5)
(Tool: 12 -> Dia: 1.5)

(FEEDRATE Z: )
(Tool: 1 -> Feedrate: 30.0)
(Tool: 2 -> Feedrate: 300)
(Tool: 3 -> Feedrate: 300)
(Tool: 4 -> Feedrate: 300)
(Tool: 5 -> Feedrate: 300)
(Tool: 6 -> Feedrate: 60.0)
(Tool: 7 -> Feedrate: 300)
(Tool: 8 -> Feedrate: 300)
(Tool: 9 -> Feedrate: 300)
(Tool: 10 -> Feedrate: 300)
(Tool: 11 -> Feedrate: 300)
(Tool: 12 -> Feedrate: 300)

(FEEDRATE RAPIDS: )
(Tool: 1 -> Feedrate Rapids: 1500.0)
(Tool: 2 -> Feedrate Rapids: 1500)
(Tool: 3 -> Feedrate Rapids: 1500)
(Tool: 4 -> Feedrate Rapids: 1500)
(Tool: 5 -> Feedrate Rapids: 1500)
(Tool: 6 -> Feedrate Rapids: 1500.0)
(Tool: 7 -> Feedrate Rapids: 1500)
(Tool: 8 -> Feedrate Rapids: 1500)
(Tool: 9 -> Feedrate Rapids: 1500)
(Tool: 10 -> Feedrate Rapids: 1500)
(Tool: 11 -> Feedrate Rapids: 1500)
(Tool: 12 -> Feedrate Rapids: 1500)

(Z_CUT: )
(Tool: 1 -> Z_Cut: -1.7)
(Tool: 2 -> Z_Cut: -1.7)
(Tool: 3 -> Z_Cut: -1.7)
(Tool: 4 -> Z_Cut: -1.7)
(Tool: 5 -> Z_Cut: -1.7)
(Tool: 6 -> Z_Cut: -1.7)
(Tool: 7 -> Z_Cut: -1.7)
(Tool: 8 -> Z_Cut: -1.7)
(Tool: 9 -> Z_Cut: -1.7)
(Tool: 10 -> Z_Cut: -1.7)
(Tool: 11 -> Z_Cut: -1.7)
(Tool: 12 -> Z_Cut: -1.7)

(Tools Offset: )
(Tool: 1 -> Offset Z: 0.0)
(Tool: 5 -> Offset Z: 0.0)
(Tool: 6 -> Offset Z: 0.0)
(Tool: 7 -> Offset Z: 0.0)
(Tool: 12 -> Offset Z: 0.0)
(Tool: 10 -> Offset Z: 0.0)

(Z_MOVE: )
(Tool: 1 -> Z_Move: 2.0)
(Tool: 2 -> Z_Move: 2)
(Tool: 3 -> Z_Move: 2)
(Tool: 4 -> Z_Move: 2)
(Tool: 5 -> Z_Move: 2)
(Tool: 6 -> Z_Move: 2.0)
(Tool: 7 -> Z_Move: 2)
(Tool: 8 -> Z_Move: 2)
(Tool: 9 -> Z_Move: 2)
(Tool: 10 -> Z_Move: 2)
(Tool: 11 -> Z_Move: 2)
(Tool: 12 -> Z_Move: 2)

(Z Toolchange: 25.0 mm)
(X,Y Toolchange: 0.0000, 0.0000 mm)
(Z Start: None mm)
(Z End: 0.5 mm)
(X,Y End: None mm)
(Steps per circle: 64)
(Steps per circle: 64)
(Preprocessor Excellon: GRBL_11_no_M6)

(X range:    0.8210 ...   89.4860  mm)
(Y range:  -58.9450 ...   -1.2500  mm)

(Spindle Speed: 12000 RPM)
G21
G90
G17
G94


G01 F30.00

M5             
G00 Z25.0000
G00 X0.0000 Y0.0000                
T1
(MSG, Change to Tool Dia = 0.4000 ||| Total drills for tool T1 = 121)
M0
G00 Z25.0000
        
G01 F30.00
M03 S12000
G4 P1
G00 X1.0210 Y-50.7440
G01 Z-1.7000
G01 Z0
G00 Z2.0000
G00 X2.9260 Y-54.2130
G01 Z-1.7000
G01 Z0
G00 Z2.0000
G00 X2.9260 Y-56.7130
G01 Z-1.7000
G01 Z0
G00 Z2.0000
G00 X5.7200 Y-58.4910
G01 Z-1.7000
G01 Z0
G00 Z2.0000
G00 X8.0000 Y-56.2000
G01 Z-1.7000
G01 Z0
G00 Z2.0000
G00 X8.0000 Y-56.2000
G01 Z-1.7000
G01 Z0
G00 Z2.0000
G00 X10.0000 Y-56.2000
G01 Z-1.7000
G01 Z0
G00 Z2.0000
G00 X10.0000 Y-56.2000
G01 Z-1.7000
G01 Z0
G00 Z2.0000
G00 X12.0000 Y-56.2000
G01 Z-1.7000
G01 Z0
G00 Z2.0000
G00 X12.0000 Y-56.2000
G01 Z-1.7000
G01 Z0
G00 Z2.0000
G00 X14.6100 Y-56.2050
G01 Z-1.7000
G01 Z0
G00 Z2.0000
G00 X12.0000 Y-51.2000
G01 Z-1.7000
G01 Z0
G00 Z2.0000
G00 X12.0000 Y-51.2000
G01 Z-1.7000
G01 Z0
G00 Z2.0000
G00 X8.0000 Y-51.2000
G01 Z-1.7000
G01 Z0
G00 Z2.0000
G00 X8.0000 Y-51.2000
G01 Z-1.7000
G01 Z0
G00 Z2.0000
G00 X5.4660 Y-50.8710
G01 Z-1.7000
G01 Z0
G00 Z2.0000
G00 X5.3390 Y-43.3780
G01 Z-1.7000
G01 Z0
G00 Z2.0000
G00 X12.8320 Y-39.1870
G01 Z-1.7000
G01 Z0
G00 Z2.0000
G00 X16.1340 Y-39.1870
G01 Z-1.7000
G01 Z0
G00 Z2.0000
G00 X19.0000 Y-40.5000
G01 Z-1.7000
G01 Z0
G00 Z2.0000
G00 X19.8170 Y-45.2830
G01 Z-1.7000
G01 Z0
G00 Z2.0000
G00 X14.6100 Y-46.5530
G01 Z-1.7000
G01 Z0
G00 Z2.0000
G00 X21.0870 Y-51.8870
G01 Z-1.7000
G01 Z0
G00 Z2.0000
G00 X29.8500 Y-57.0940
G01 Z-1.7000
G01 Z0
G00 Z2.0000
G00 X35.4380 Y-56.9670
G01 Z-1.7000
G01 Z0
G00 Z2.0000
G00 X41.4600 Y-56.5400
G01 Z-1.7000
G01 Z0
G00 Z2.0000
G00 X44.0000 Y-54.0000
G01 Z-1.7000
G01 Z0
G00 Z2.0000
G00 X44.0000 Y-54.0000
G01 Z-1.7000
G01 Z0
G00 Z2.0000
G00 X46.5400 Y-56.5400
G01 Z-1.7000
G01 Z0
G00 Z2.0000
G00 X46.5400 Y-51.4600
G01 Z-1.7000
G01 Z0
G00 Z2.0000
G00 X52.8370 Y-50.8710
G01 Z-1.7000
G01 Z0
G00 Z2.0000
G00 X54.3610 Y-57.4750
G01 Z-1.7000
G01 Z0
G00 Z2.0000
G00 X61.4600 Y-56.5400
G01 Z-1.7000
G01 Z0
G00 Z2.0000
G00 X64.0000 Y-54.0000
G01 Z-1.7000
G01 Z0
G00 Z2.0000
G00 X64.0000 Y-54.0000
G01 Z-1.7000
G01 Z0
G00 Z2.0000
G00 X66.5400 Y-56.5400
G01 Z-1.7000
G01 Z0
G00 Z2.0000
G00 X66.5400 Y-51.4600
G01 Z-1.7000
G01 Z0
G00 Z2.0000
G00 X61.4600 Y-51.4600
G01 Z-1.7000
G01 Z0
G00 Z2.0000
G00 X62.9060 Y-47.7960
G01 Z-1.7000
G01 Z0
G00 Z2.0000
G00 X65.1560 Y-46.4260
G01 Z-1.7000
G01 Z0
G00 Z2.0000
G00 X65.1560 Y-46.4260
G01 Z-1.7000
G01 Z0
G00 Z2.0000
G00 X67.8230 Y-44.2670
G01 Z-1.7000
G01 Z0
G00 Z2.0000
G00 X65.1560 Y-41.9260
G01 Z-1.7000
G01 Z0
G00 Z2.0000
G00 X65.1560 Y-41.9260
G01 Z-1.7000
G01 Z0
G00 Z2.0000
G00 X62.9060 Y-40.5560
G01 Z-1.7000
G01 Z0
G00 Z2.0000
G00 X60.6560 Y-41.9260
G01 Z-1.7000
G01 Z0
G00 Z2.0000
G00 X60.6560 Y-41.9260
G01 Z-1.7000
G01 Z0
G00 Z2.0000
G00 X60.6560 Y-44.1760
G01 Z-1.7000
G01 Z0
G00 Z2.0000
G00 X60.6560 Y-44.1760
G01 Z-1.7000
G01 Z0
G00 Z2.0000
G00 X60.6560 Y-46.4260
G01 Z-1.7000
G01 Z0
G00 Z2.0000
G00 X60.6560 Y-46.4260
G01 Z-1.7000
G01 Z0
G00 Z2.0000
G00 X52.5000 Y-43.5000
G01 Z-1.7000
G01 Z0
G00 Z2.0000
G00 X54.9960 Y-36.2660
G01 Z-1.7000
G01 Z0
G00 Z2.0000
G00 X54.9960 Y-36.2660
G01 Z-1.7000
G01 Z0
G00 Z2.0000
G00 X52.7460 Y-36.2660
G01 Z-1.7000
G01 Z0
G00 Z2.0000
G00 X52.7460 Y-36.2660
G01 Z-1.7000
G01 Z0
G00 Z2.0000
G00 X50.4960 Y-36.2660
G01 Z-1.7000
G01 Z0
G00 Z2.0000
G00 X50.4960 Y-36.2660
G01 Z-1.7000
G01 Z0
G00 Z2.0000
G00 X49.1260 Y-34.0160
G01 Z-1.7000
G01 Z0
G00 Z2.0000
G00 X50.4960 Y-31.7660
G01 Z-1.7000
G01 Z0
G00 Z2.0000
G00 X50.4960 Y-31.7660
G01 Z-1.7000
G01 Z0
G00 Z2.0000
G00 X54.9960 Y-31.7660
G01 Z-1.7000
G01 Z0
G00 Z2.0000
G00 X54.9960 Y-31.7660
G01 Z-1.7000
G01 Z0
G00 Z2.0000
G00 X56.3660 Y-34.0160
G01 Z-1.7000
G01 Z0
G00 Z2.0000
G00 X59.0600 Y-33.9800
G01 Z-1.7000
G01 Z0
G00 Z2.0000
G00 X61.2190 Y-28.0110
G01 Z-1.7000
G01 Z0
G00 Z2.0000
G00 X62.6160 Y-22.4230
G01 Z-1.7000
G01 Z0
G00 Z2.0000
G00 X73.1570 Y-22.5500
G01 Z-1.7000
G01 Z0
G00 Z2.0000
G00 X70.7440 Y-28.3920
G01 Z-1.7000
G01 Z0
G00 Z2.0000
G00 X74.6810 Y-31.1860
G01 Z-1.7000
G01 Z0
G00 Z2.0000
G00 X69.4740 Y-36.3930
G01 Z-1.7000
G01 Z0
G00 Z2.0000
G00 X74.6810 Y-36.3930
G01 Z-1.7000
G01 Z0
G00 Z2.0000
G00 X77.4750 Y-42.4890
G01 Z-1.7000
G01 Z0
G00 Z2.0000
G00 X80.0150 Y-45.0290
G01 Z-1.7000
G01 Z0
G00 Z2.0000
G00 X80.0150 Y-45.0290
G01 Z-1.7000
G01 Z0
G00 Z2.0000
G00 X77.4750 Y-47.5690
G01 Z-1.7000
G01 Z0
G00 Z2.0000
G00 X80.9040 Y-57.2210
G01 Z-1.7000
G01 Z0
G00 Z2.0000
G00 X84.5870 Y-58.7450
G01 Z-1.7000
G01 Z0
G00 Z2.0000
G00 X82.5550 Y-47.5690
G01 Z-1.7000
G01 Z0
G00 Z2.0000
G00 X82.5550 Y-42.4890
G01 Z-1.7000
G01 Z0
G00 Z2.0000
G00 X86.8730 Y-34.3610
G01 Z-1.7000
G01 Z0
G00 Z2.0000
G00 X80.7770 Y-31.1860
G01 Z-1.7000
G01 Z0
G00 Z2.0000
G00 X81.2850 Y-25.4740
G01 Z-1.7000
G01 Z0
G00 Z2.0000
G00 X81.2850 Y-25.4740
G01 Z-1.7000
G01 Z0
G00 Z2.0000
G00 X83.5350 Y-25.4740
G01 Z-1.7000
G01 Z0
G00 Z2.0000
G00 X83.5350 Y-25.4740
G01 Z-1.7000
G01 Z0
G00 Z2.0000
G00 X85.7850 Y-25.4740
G01 Z-1.7000
G01 Z0
G00 Z2.0000
G00 X85.7850 Y-25.4740
G01 Z-1.7000
G01 Z0
G00 Z2.0000
G00 X87.1550 Y-23.2240
G01 Z-1.7000
G01 Z0
G00 Z2.0000
G00 X85.7850 Y-20.9740
G01 Z-1.7000
G01 Z0
G00 Z2.0000
G00 X85.7850 Y-20.9740
G01 Z-1.7000
G01 Z0
G00 Z2.0000
G00 X81.2850 Y-20.9740
G01 Z-1.7000
G01 Z0
G00 Z2.0000
G00 X79.9150 Y-23.2240
G01 Z-1.7000
G01 Z0
G00 Z2.0000
G00 X81.2850 Y-20.9740
G01 Z-1.7000
G01 Z0
G00 Z2.0000
G00 X80.3960 Y-17.2160
G01 Z-1.7000
G01 Z0
G00 Z2.0000
G00 X84.8410 Y-12.6440
G01 Z-1.7000
G01 Z0
G00 Z2.0000
G00 X89.2860 Y-12.3900
G01 Z-1.7000
G01 Z0
G00 Z2.0000
G00 X79.7610 Y-2.6110
G01 Z-1.7000
G01 Z0
G00 Z2.0000
G00 X79.7610 Y-11.6280
G01 Z-1.7000
G01 Z0
G00 Z2.0000
G00 X73.0300 Y-13.4060
G01 Z-1.7000
G01 Z0
G00 Z2.0000
G00 X69.8550 Y-8.8340
G01 Z-1.7000
G01 Z0
G00 Z2.0000
G00 X66.0450 Y-2.6110
G01 Z-1.7000
G01 Z0
G00 Z2.0000
G00 X56.1390 Y-6.8020
G01 Z-1.7000
G01 Z0
G00 Z2.0000
G00 X52.7100 Y-7.3100
G01 Z-1.7000
G01 Z0
G00 Z2.0000
G00 X50.1700 Y-4.7700
G01 Z-1.7000
G01 Z0
G00 Z2.0000
G00 X50.1700 Y-4.7700
G01 Z-1.7000
G01 Z0
G00 Z2.0000
G00 X52.7100 Y-2.2300
G01 Z-1.7000
G01 Z0
G00 Z2.0000
G00 X47.6300 Y-2.2300
G01 Z-1.7000
G01 Z0
G00 Z2.0000
G00 X47.6300 Y-7.3100
G01 Z-1.7000
G01 Z0
G00 Z2.0000
G00 X50.1700 Y-10.0010
G01 Z-1.7000
G01 Z0
G00 Z2.0000
G00 X52.4200 Y-11.3710
G01 Z-1.7000
G01 Z0
G00 Z2.0000
G00 X52.4200 Y-11.3710
G01 Z-1.7000
G01 Z0
G00 Z2.0000
G00 X47.9200 Y-11.3710
G01 Z-1.7000
G01 Z0
G00 Z2.0000
G00 X47.9200 Y-11.3710
G01 Z-1.7000
G01 Z0
G00 Z2.0000
G00 X47.9200 Y-13.6210
G01 Z-1.7000
G01 Z0
G00 Z2.0000
G00 X47.9200 Y-13.6210
G01 Z-1.7000
G01 Z0
G00 Z2.0000
G00 X47.9200 Y-15.8710
G01 Z-1.7000
G01 Z0
G00 Z2.0000
G00 X47.9200 Y-15.8710
G01 Z-1.7000
G01 Z0
G00 Z2.0000
G00 X50.1700 Y-17.2410
G01 Z-1.7000
G01 Z0
G00 Z2.0000
G00 X52.4200 Y-15.8710
G01 Z-1.7000
G01 Z0
G00 Z2.0000
G00 X52.4200 Y-15.8710
G01 Z-1.7000
G01 Z0
G00 Z2.0000
G00 X57.2820 Y-18.1050
G01 Z-1.7000
G01 Z0
G00 Z2.0000
G00 X46.6140 Y-19.5020
G01 Z-1.7000
G01 Z0
G00 Z2.0000
G00 X46.5000 Y-24.0000
G01 Z-1.7000
G01 Z0
G00 Z2.0000
G00 X46.4870 Y-27.7570
G01 Z-1.7000
G01 Z0
G00 Z2.0000
G00 X42.9310 Y-29.7890
G01 Z-1.7000
G01 Z0
G00 Z2.0000
G00 X40.0100 Y-32.7100
G01 Z-1.7000
G01 Z0
G00 Z2.0000
G00 X35.8190 Y-33.3450
G01 Z-1.7000
G01 Z0
G00 Z2.0000
G00 X44.5000 Y-40.5000
G01 Z-1.7000
G01 Z0
G00 Z2.0000
G00 X43.0000 Y-44.0000
G01 Z-1.7000
G01 Z0
G00 Z2.0000
G00 X41.4600 Y-51.4600
G01 Z-1.7000
G01 Z0
G00 Z2.0000
G00 X37.3430 Y-51.5060
G01 Z-1.7000
G01 Z0
G00 Z2.0000
G00 X31.1200 Y-47.0610
G01 Z-1.7000
G01 Z0
G00 Z2.0000
G00 X25.6390 Y-41.6000
G01 Z-1.7000
G01 Z0
G00 Z2.0000
G00 X25.6390 Y-41.6000
G01 Z-1.7000
G01 Z0
G00 Z2.0000
G00 X26.8020 Y-36.3930
G01 Z-1.7000
G01 Z0
G00 Z2.0000
G00 X23.4390 Y-37.4700
G01 Z-1.7000
G01 Z0
G00 Z2.0000
G00 X23.4390 Y-37.4700
G01 Z-1.7000
G01 Z0
G00 Z2.0000
G00 X16.1340 Y-34.1070
G01 Z-1.7000
G01 Z0
G00 Z2.0000
G00 X17.0230 Y-26.7410
G01 Z-1.7000
G01 Z0
G00 Z2.0000
G00 X24.7700 Y-23.5660
G01 Z-1.7000
G01 Z0
G00 Z2.0000
G00 X33.4060 Y-23.9470
G01 Z-1.7000
G01 Z0
G00 Z2.0000
G00 X40.1370 Y-21.6610
G01 Z-1.7000
G01 Z0
G00 Z2.0000
G00 X41.1530 Y-12.0090
G01 Z-1.7000
G01 Z0
G00 Z2.0000
G00 X35.6920 Y-11.7550
G01 Z-1.7000
G01 Z0
G00 Z2.0000
G00 X38.3590 Y-2.2300
G01 Z-1.7000
G01 Z0
G00 Z2.0000
G00 X33.0250 Y-4.3890
G01 Z-1.7000
G01 Z0
G00 Z2.0000
G00 X24.3890 Y-3.8810
G01 Z-1.7000
G01 Z0
G00 Z2.0000
G00 X25.0000 Y-11.2470
G01 Z-1.7000
G01 Z0
G00 Z2.0000
G00 X19.6900 Y-18.2320
G01 Z-1.7000
G01 Z0
G00 Z2.0000
G00 X14.9910 Y-21.1530
G01 Z-1.7000
G01 Z0
G00 Z2.0000
G00 X10.0000 Y-9.0000
G01 Z-1.7000
G01 Z0
G00 Z2.0000
G00 X10.0000 Y-9.0000
G01 Z-1.7000
G01 Z0
G00 Z2.0000
G00 X10.0000 Y-2.0000
G01 Z-1.7000
G01 Z0
G00 Z2.0000
G00 X10.0000 Y-2.0000
G01 Z-1.7000
G01 Z0
G00 Z2.0000
G00 X6.5000 Y-1.6000
G01 Z-1.7000
G01 Z0
G00 Z2.0000
G00 X3.6880 Y-24.2010
G01 Z-1.7000
G01 Z0
G00 Z2.0000
G00 X5.3390 Y-35.6310
G01 Z-1.7000
G01 Z0
G00 Z2.0000
G00 X2.0370 Y-35.6310
G01 Z-1.7000
G01 Z0
G00 Z2.0000
G00 X2.0370 Y-43.3780
G01 Z-1.7000
G01 Z0
G00 Z2.0000
M05
G00 Z0.50


